LordTarzan10086/HCDR_ML/results/tracking/routeb_trajectory_suite_20260416_105416/line/line_arm_only_detailed.csv
step,time_s,tip_x,tip_y,tip_z,des_x,des_y,des_z,err_x,err_y,err_z,err_norm,q_platform_x,q_platform_y,q_platform_psi,solver_status,fail_reason,fallback_applied,hold_active,u_a_1,u_a_2,u_a_3,u_a_4,u_a_5,u_a_6,u_a_7,u_a_8,u_a_9,u_a_10,u_a_11,u_a_12,u_a_13,u_a_14,qdd_1,qdd_2,qdd_3,qdd_4,qdd_5,qdd_6,qdd_7,qdd_8,qdd_9,q_1,q_2,q_3,q_4,q_5,q_6,q_7,q_8,q_9,cable_force_1,cable_force_2,cable_force_3,cable_force_4,cable_force_5,cable_force_6,cable_force_7,cable_force_8,cable_length_1,cable_length_2,cable_length_3,cable_length_4,cable_length_5,cable_length_6,cable_length_7,cable_length_8,arm_torque_1,arm_torque_2,arm_torque_3,arm_torque_4,arm_torque_5,arm_torque_6
1.0,0.0,-0.19297151535564033,0.010002129313023541,0.24862280514476576,-0.1929788356128086,0.010002371411802463,0.24858416458402444,-7.3202571682640105e-06,2.420987789217982e-07,-3.864056074132094e-05,3.932858643826382e-05,-1.6236598327862196e-07,-2.8653189747100532e-09,5.683558886540189e-07,min_task,none,false,false,6.999999999999999,6.999999999999999,6.999999999999999,6.999999999999999,6.999999999999999,6.999999999999999,6.999999999999999,6.999999999999999,0.0002848477276627718,-0.0034813851460158253,-8.683570576027131e-05,-2.104005498902336e-05,2.678813356014447e-05,7.8781580519001e-08,0.0,-6.428432399757374e-17,0.0,-0.00015422130910533468,-0.01813544264988349,-0.026801110004637856,-0.0001274317842151061,0.0002289451463927875,-1.5044614755876032e-08,-1.6236598327862196e-07,-2.8653189747100532e-09,5.683558886540189e-07,-0.00428376174622186,0.8484773815296444,0.763926593263823,-0.0010426014808132774,0.0034125642583203272,-7.296136789749447e-07,6.999999999999999,6.999999999999999,6.999999999999999,6.999999999999999,6.999999999999999,6.999999999999999,6.999999999999999,6.999999999999999,1.202081644853362,1.202081644853362,1.2020814152331871,1.2020814152331871,1.2020814111809908,1.2020814111809908,1.2020816408011663,1.2020816408011663,0.0002848477276627718,-0.0034813851460158253,-8.683570576027131e-05,-2.104005498902336e-05,2.678813356014447e-05,7.8781580519001e-08
2.0,0.02,-0.19296932763009123,0.010002163009866767,0.2486205306236452,-0.1929782152909336,0.010002371411802463,0.24858416458402444,-8.88766084236603e-06,2.084019356963368e-07,-3.6366039620761015e-05,3.743691739866529e-05,-6.627482334220498e-07,-1.2725097668363383e-08,1.8289414827307274e-06,min_task,none,false,false,12.183100901455767,12.183100901455763,12.1828063471022,12.18280634710221,12.18280115922289,12.182801159222885,12.183095709872209,12.18309570987221,0.00017009252954257152,-0.005136205886481744,0.0019762311713546797,-6.71751704932375e-05,7.3363409119725465e-06,-4.021936160368137e-06,0.00011995750352745007,2.1135503209298513e-06,-0.00013166213147600565,-7.895663697415938e-05,-0.01169996333887282,0.00620537479230402,3.2099874977655236e-05,-0.00014403397204174252,3.3429253922095924e-06,-6.627482334220498e-07,-1.2725097668363383e-08,1.8289414827307274e-06,-0.004282309116838421,0.8484664403376313,0.7639170487843621,-0.0010424344678749118,0.003412584403346802,-7.984406142143259e-07,12.183100901455767,12.183100901455763,12.1828063471022,12.18280634710221,12.18280115922289,12.182801159222885,12.183095709872209,12.18309570987221,1.2020820056495574,1.2020820056495574,1.20208106838203,1.20208106838203,1.2020810503857147,1.2020810503857147,1.202081987653256,1.202081987653256,0.00017009252954257152,-0.005136205886481744,0.0019762311713546797,-6.71751704932375e-05,7.3363409119725465e-06,-4.021936160368137e-06
3.0,0.04,-0.19296049235371426,0.01000220191980327,0.24861749075177406,-0.19297391031280858,0.010002371411802463,0.24858416458402444,-1.3417959094319531e-05,1.6949199919263913e-07,-3.332616774961994e-05,3.592636651082921e-05,-1.5847963038897572e-06,-3.302986659482467e-08,3.232826538682809e-06,min_task,none,false,false,17.804608812781844,17.804608812781858,17.80394165889989,17.803941658743376,17.803928016289554,17.803928018486985,17.804595194018287,17.804595194018315,9.875796980786199e-05,-0.006996749733735972,0.0038479625286900725,-0.0001116518708968089,-7.681815838980089e-06,-7.746599969658929e-06,0.0002751846875827357,5.615003850968126e-06,-0.0006191729350609586,1.5660353830772657e-05,-0.007664692098325838,0.033585610135309606,0.00015836183075055766,-0.0004499949941545581,9.567054388174132e-06,-1.5847963038897572e-06,-3.302986659482467e-08,3.232826538682809e-06,-0.004280483179741709,0.8484507872426695,0.7639158876488963,-0.0010420315693231933,0.00341240189589178,-9.403814537770562e-07,17.804608812781844,17.804608812781858,17.80394165889989,17.803941658743376,17.803928016289554,17.803928018486985,17.804595194018287,17.804595194018315,1.2020826719954176,1.2020826719954176,1.2020804307550612,1.2020804307550612,1.2020803840424539,1.2020803840424539,1.2020826252828973,1.2020826252828973,9.875796980786199e-05,-0.006996749733735972,0.0038479625286900725,-0.0001116518708968089,-7.681815838980089e-06,-7.746599969658929e-06
4.0,0.06,-0.1929410446731752,0.010002239593267036,0.24861406387192886,-0.1929623380221836,0.010002371411802463,0.24858416458402444,-2.1293349008411067e-05,1.3181853542737487e-07,-2.9899287904422422e-05,3.67068318615462e-05,-3.017353495595563e-06,-6.74019627728763e-08,4.443833203908766e-06,min_task,none,false,false,12.857636873849902,12.857636873849696,12.856495769368468,12.856495770654922,12.85646993325842,12.856469915194614,12.857610857611233,12.8576108576109,5.76503076080535e-05,-0.008975331256814045,0.005571426458307484,-0.0001545650095172148,-1.970172906114e-05,-1.1178649676739234e-05,0.0004707271130509395,1.0679320125963368e-05,-0.0007903362042437156,0.00012531135728987083,-0.005281889498916729,0.056901234612424204,0.00026210947572560724,-0.000720350269315116,1.838400668075549e-05,-3.017353495595563e-06,-6.74019627728763e-08,4.443833203908766e-06,-0.00427852042983675,0.8484314879526326,0.7639331599605423,-0.00104129971249949,0.0034118650067818447,-1.1764426886665736e-06,12.857636873849902,12.857636873849696,12.856495769368468,12.856495770654922,12.85646993325842,12.856469915194614,12.857610857611233,12.8576108576109,1.2020837092745436,1.2020837092745436,1.2020794420925516,1.2020794420925516,1.2020793467682662,1.2020793467682662,1.2020836139505964,1.2020836139505964,5.76503076080535e-05,-0.008975331256814045,0.005571426458307484,-0.0001545650095172148,-1.970172906114e-05,-1.1178649676739234e-05
5.0,0.08,-0.19290731566802383,0.01000227311477093,0.24861049990861933,-0.1929400260128086,0.010002371411802463,0.24858416458402444,-3.2710344784775414e-05,9.82970315335091e-08,-2.633532459489496e-05,4.199435247463368e-05,-5.0475018200113526e-06,-1.1915420611067779e-07,5.398597029767593e-06,min_task,none,false,false,7.80123572356773,7.801235723569368,7.799511288940371,7.799511279292743,7.799468192866852,7.799468328331698,7.801193979364471,7.801193979367113,3.594173223309924e-05,-0.011015197396191228,0.007177898745985343,-0.0001959178537565187,-2.9487166855290155e-05,-1.438170773848819e-05,0.0007082256458482004,1.7375047385202152e-05,-0.0006591132217554755,0.00022985639514955697,-0.00404532722393104,0.07723372272876725,0.0003466145270394175,-0.000958692224067177,2.9568166879685508e-05,-5.0475018200113526e-06,-1.1915420611067779e-07,5.398597029767593e-06,-0.004276385452745926,0.848409060361318,0.7639775244260579,-0.0010401565846018016,0.00341084024676216,-1.5245442299948281e-06,7.80123572356773,7.801235723569368,7.799511288940371,7.799511279292743,7.799468192866852,7.799468328331698,7.801193979364471,7.801193979367113,1.202085181406651,1.202085181406651,1.2020780431617821,1.2020780431617821,1.202077874644987,1.202077874644987,1.2020850128908567,1.2020850128908567,3.594173223309924e-05,-0.011015197396191228,0.007177898745985343,-0.0001959178537565187,-2.9487166855290155e-05,-1.438170773848819e-05
6.0,0.1,-0.1928558733222947,0.01000230135609874,0.24860696154227435,-0.1929036110034336,0.010002371411802463,0.24858416458402444,-4.773768113888743e-05,7.005570372246861e-08,-2.2796958249915455e-05,5.2901724109598746e-05,-7.755938017647293e-06,-1.90759571026969e-07,6.095872492271356e-06,min_task,none,false,false,7.002463025959568,7.002463025959577,7.0,7.0,7.0,7.0,7.002338843174985,7.002338843175,2.6325629380983118e-05,-0.013080146804348103,0.008689965203792198,-0.00023574549704046373,-3.752893012060506e-05,-1.740124736314278e-05,0.0009869228393567478,2.548427336916437e-05,-0.0007186898519365588,0.0003159889895941591,-0.0036140319511412835,0.09532915425663105,0.0004165433178438274,-0.0011644212939883845,4.318035098296151e-05,-7.755938017647293e-06,-1.90759571026969e-07,6.095872492271356e-06,-0.004273992708764809,0.8483836510196263,0.764056609200749,-0.0010385287475287576,0.0034092113016150867,-1.998925879274038e-06,7.002463025959568,7.002463025959577,7.0,7.0,7.0,7.0,7.002338843174985,7.002338843175,1.202087147203178,1.202087147203178,1.2020761786519654,1.2020761786519654,1.2020759088641628,1.2020759088641628,1.2020868774178368,1.2020868774178368,2.6325629380983118e-05,-0.013080146804348103,0.008689965203792198,-0.00023574549704046373,-3.752893012060506e-05,-1.740124736314278e-05
7.0,0.12000000000000001,-0.19278347984279726,0.010002324045155497,0.24860355221497918,-0.19284983771280859,0.010002371411802463,0.24858416458402444,-6.635787001132987e-05,4.736664696580739e-08,-1.9387630954742496e-05,6.913211547520506e-05,-1.1214464846890892e-05,-2.838236552013173e-07,6.520787362424708e-06,min_task,none,false,false,7.003248785997169,7.003248785997169,6.999999999999999,6.999999999999999,6.999999999999999,6.999999999999999,7.0030805725220775,7.003080572522078,2.588841235102714e-05,-0.015147660007880339,0.010123835137946036,-0.00027424078130995107,-4.43507727531082e-05,-2.0268121356379068e-05,0.001304537748739997,3.4617631013615496e-05,-0.0008115591909008331,0.00039257620602573803,-0.0037598895393656266,0.11169938951356122,0.00047110062239480205,-0.001351678863221274,5.825956159171444e-05,-1.1214464846890892e-05,-2.838236552013173e-07,6.520787362424708e-06,-0.00427128395373628,0.848355152469378,0.7641772601769032,-0.0010363517254393829,0.003406875536363774,-2.6102803031747163e-06,7.003248785997169,7.003248785997169,6.999999999999999,6.999999999999999,6.999999999999999,6.999999999999999,7.0030805725220775,7.003080572522078,1.202089658573951,1.202089658573951,1.2020737989287797,1.2020737989287797,1.2020733975206193,1.2020733975206193,1.2020892571710862,1.2020892571710862,2.588841235102714e-05,-0.015147660007880339,0.010123835137946036,-0.00027424078130995107,-4.43507727531082e-05,-2.0268121356379068e-05
8.0,0.14,-0.19268706088314902,0.010002341298949762,0.24860033507582835,-0.1927755577346836,0.010002371411802463,0.24858416458402444,-8.849685153458631e-05,3.01128527009642e-08,-1.6170491803912945e-05,8.996209448150329e-05,-1.548519750880249e-05,-3.9925100524013863e-07,6.687915562730917e-06,min_task,none,false,false,7.004119200606147,7.004119200606147,7.0,7.0,7.0,7.0,7.003903582795694,7.003903582795694,3.188000288851634e-05,-0.017203406426304142,0.011491053310714334,-0.0003114861728474185,-5.0209388772728e-05,-2.300451643227023e-05,0.0016581745681008024,4.450393469105823e-05,-0.0008681817689812108,0.0004587221115899816,-0.004330267598799697,0.12669515850062651,0.0005146186895230239,-0.0015219948656990923,7.481020848181307e-05,-1.548519750880249e-05,-3.9925100524013863e-07,6.687915562730917e-06,-0.00426818331669939,0.8483232798856319,0.7643457110488355,-0.00103356995094391,0.0034037406366541367,-3.3661335414021618e-06,7.004119200606147,7.004119200606147,7.0,7.0,7.0,7.0,7.003903582795694,7.003903582795694,1.2020927600838927,1.2020927600838927,1.2020708607133703,1.2020708607133703,1.2020702960561946,1.2020702960561946,1.2020921954370036,1.2020921954370036,3.188000288851634e-05,-0.017203406426304142,0.011491053310714334,-0.0003114861728474185,-5.0209388772728e-05,-2.300451643227023e-05
9.0,0.16,-0.19256368361551224,0.010002353380238495,0.2485973459853195,-0.19267772841280859,0.010002371411802463,0.24858416458402444,-0.00011404479729634764,1.8031563967652042e-08,-1.318140129505374e-05,0.00011480403065922193,-2.0620411545377992e-05,-5.373018128849501e-07,6.642802377940681e-06,min_task,none,false,false,7.005065192827885,7.005065192827885,6.999999999999998,6.999999999999998,6.999999999999998,6.999999999999998,7.004800097437766,7.004800097437766,4.2512177069701304e-05,-0.019238580340622938,0.012799801949727171,-0.00034755577771709124,-5.5280017088268266e-05,-2.5626390353561156e-05,0.002044635762554688,5.4883516736186896e-05,-0.0008904919428152903,0.0005140686421323194,-0.005224433476559375,0.1405544738083634,0.0005484017935282311,-0.0016764408812509222,9.256159465605157e-05,-2.0620411545377992e-05,-5.373018128849501e-07,6.642802377940681e-06,-0.004264595798511787,0.8482876211996545,0.7645676991854898,-0.0010301358089244716,0.0033997237467474294,-4.2710316075031785e-06,7.005065192827885,7.005065192827885,6.999999999999998,6.999999999999998,6.999999999999998,6.999999999999998,7.004800097437766,7.004800097437766,1.2020964888857548,1.2020964888857548,1.2020673272301958,1.2020673272301958,1.2020665673272828,1.2020665673272828,1.2020957290012761,1.2020957290012761,4.2512177069701304e-05,-0.019238580340622938,0.012799801949727171,-0.00034755577771709124,-5.5280017088268266e-05,-2.5626390353561156e-05
10.0,0.18,-0.19241054116017658,0.010002360581050428,0.24859460244155174,-0.1925534117159336,0.010002371411802463,0.24858416458402444,-0.00014287055575701313,1.0830752034812763e-08,-1.0437857527301198e-05,0.00014325133398814554,-2.6662808932688622e-05,-6.976623860679777e-07,6.451828081642196e-06,min_task,none,false,false,7.006077583955478,7.006077583955478,6.999999999999998,6.999999999999998,6.999999999999998,6.999999999999998,7.005762125792929,7.005762125792929,5.665529738126598e-05,-0.021248062792749246,0.014055848572739964,-0.0003825112109417103,-5.967914939570833e-05,-2.8144949491363382e-05,0.002460627337725054,6.551725680423723e-05,-0.0008845474376184243,0.0005586728315082744,-0.006377527679867334,0.15343645031961733,0.0005733397816733596,-0.001815619769577548,0.00011124574718258999,-2.6662808932688622e-05,-6.976623860679777e-07,6.451828081642196e-06,-0.0042604169998025935,0.8482476690326297,0.7648485436408702,-0.0010260091724749545,0.003394750842042898,-5.3268383822384195e-06,7.006077583955478,7.006077583955478,6.999999999999998,6.999999999999998,6.999999999999998,6.999999999999998,7.005762125792929,7.005762125792929,1.2021008749582451,1.2021008749582451,1.202063168068845,1.202063168068845,1.2020621813668297,1.2020621813668297,1.2020998882871805,1.2020998882871805,5.665529738126598e-05,-0.021248062792749246,0.014055848572739964,-0.0003825112109417103,-5.967914939570833e-05,-2.8144949491363382e-05
11.0,0.19999999999999998,-0.19222494155951378,0.010002363174311104,0.24859210969210077,-0.1923997731128086,0.010002371411802463,0.24858416458402444,-0.00017483155329481304,8.237491359169846e-09,-7.945108076334861e-06,0.00017501199055401306,-3.3646070829065814e-05,-8.795241160889502e-07,6.1938844679945825e-06,min_task,none,false,false,7.007147479854583,7.007147479854583,6.999999999999998,6.999999999999998,6.999999999999998,6.999999999999998,7.0067818220771745,7.0067818220771745,7.363205368629531e-05,-0.023229187052480664,0.01526323694312691,-0.00041640356453634153,-6.348379305076219e-05,-3.0567992904991374e-05,0.002902910279648656,7.61923334497683e-05,-0.0008591813603008554,0.0005928629811578664,-0.0077494005445434165,0.16544517514258625,0.0005901285157693693,-0.0019399368542087382,0.0001306157574974837,-3.3646070829065814e-05,-8.795241160889502e-07,6.1938844679945825e-06,-0.004255540739429664,0.848202840081388,0.7651931967084453,-0.001021156940722095,0.003388756255889214,-6.533081892618998e-06,7.007147479854583,7.007147479854583,6.999999999999998,6.999999999999998,6.999999999999998,6.999999999999998,7.0067818220771745,7.0067818220771745,1.2021059415528372,1.2021059415528372,1.2020583588491378,1.2020583588491378,1.2020571149375758,1.2020571149375758,1.2021046976905128,1.2021046976905128,7.363205368629531e-05,-0.023229187052480664,0.01526323694312691,-0.00041640356453634153,-6.348379305076219e-05,-3.0567992904991374e-05
12.0,0.21999999999999997,-0.19200429999156382,0.010002361398744528,0.2485898649185917,-0.1922140804471836,0.010002371411802463,0.24858416458402444,-0.00020978045561978464,1.0013057934882275e-08,-5.700334567260157e-06,0.00020985788875923744,-4.159557077701248e-05,-1.0816640852674922e-06,5.953512877232584e-06,min_task,none,false,false,7.00826650295214,7.00826650295214,6.999999999999999,6.999999999999999,6.999999999999999,6.999999999999999,7.007851710645068,7.007851710645068,9.307827565461288e-05,-0.025180932322519774,0.01642479012196205,-0.00044927586653942725,-6.67445996925335e-05,-3.2900902131648504e-05,0.0033683947555944557,8.672383820705673e-05,-0.0008248952043287793,0.000617159183129381,-0.009316940340056538,0.1766464386559859,0.0005993463510677794,-0.0020497617198971946,0.00015045136983838286,-4.159557077701248e-05,-1.0816640852674922e-06,5.953512877232584e-06,-0.004249865046006683,0.8481524859373852,0.7656062770530057,-0.001015552552894839,0.003381682269126904,-7.88732642238081e-06,7.00826650295214,7.00826650295214,6.999999999999999,6.999999999999999,6.999999999999999,6.999999999999999,7.007851710645068,7.007851710645068,1.202111705755177,1.202111705755177,1.2020528807739046,1.2020528807739046,1.2020513509706516,1.2020513509706516,1.2021101760267847,1.2021101760267847,9.307827565461288e-05,-0.025180932322519774,0.01642479012196205,-0.00044927586653942725,-6.67445996925335e-05,-3.2900902131648504e-05
13.0,0.23999999999999996,-0.19174613327478546,0.010002355458799558,0.24858786009967887,-0.1919937028128086,0.010002371411802463,0.24858416458402444,-0.0002475695380231291,1.5953002904800506e-08,-3.695515654433823e-06,0.0002475971188189314,-5.05291665357404e-05,-1.302523727062297e-06,5.815304641171411e-06,min_task,none,false,false,7.009426922458609,7.009426922458609,6.999999999999998,6.999999999999998,6.999999999999998,6.999999999999998,7.008964821026092,7.008964821026092,0.0001148475801955328,-0.02710339144080265,0.017542474630523445,-0.00048116530847309996,-6.949470033203181e-05,-3.51473594840053e-05,0.0038541960594868797,9.695406735825403e-05,-0.0007929460102803283,0.0006322258049645984,-0.011068769461772592,0.18707949326561346,0.0006014973676031921,-0.0021455118753445587,0.00017056228603647922,-5.05291665357404e-05,-1.302523727062297e-06,5.815304641171411e-06,-0.004243296798620821,0.8480958980718237,0.7660920900564955,-0.0010091754844145434,0.003373478711736032,-9.385552477419e-06,7.009426922458609,7.009426922458609,6.999999999999998,6.999999999999998,6.999999999999998,6.999999999999998,7.008964821026092,7.008964821026092,1.202118179100693,1.202118179100693,1.2020467201247582,1.2020467201247582,1.2020448779499504,1.2020448779499504,1.2021163370353922,1.2021163370353922,0.0001148475801955328,-0.02710339144080265,0.017542474630523445,-0.00048116530847309996,-6.949470033203181e-05,-3.51473594840053e-05
14.0,0.25999999999999995,-0.19144805597808245,0.010002345530559707,0.24858608396689874,-0.1917361094284336,0.010002371411802463,0.24858416458402444,-0.0002880534503511556,2.5881242756570222e-08,-1.9193828743047092e-06,0.00028805984614253783,-6.045801765721235e-05,-1.5402837134504924e-06,5.859446625678227e-06,min_task,none,false,false,7.010621717873698,7.010621717873698,6.999999999999997,6.999999999999997,6.999999999999997,6.999999999999997,7.0101147622790165,7.0101147622790165,0.0001389447938412915,-0.028997413872455507,0.01861766258370728,-0.0005121050322878837,-7.175562506822295e-05,-3.730986713325574e-05,0.0043576650815735805,0.00010675059084139594,-0.0007746011799231691,0.0006388361562019899,-0.013001550537080965,0.1967653439218148,0.0005970364843084499,-0.002227688354283577,0.00019078978676632117,-6.045801765721235e-05,-1.5402837134504924e-06,5.859446625678227e-06,-0.004235755181321689,0.8480323088745464,0.7666546393439773,-0.00100201073741442,0.003364102552966906,-1.1022529044581505e-05,7.010621717873698,7.010621717873698,6.999999999999997,6.999999999999997,6.999999999999997,6.999999999999997,7.0101147622790165,7.0101147622790165,1.202125368205722,1.202125368205722,1.2020398677369741,1.2020398677369741,1.2020376892809752,1.2020376892809752,1.2021231899046647,1.2021231899046647,0.0001389447938412915,-0.028997413872455507,0.01861766258370728,-0.0005121050322878837,-7.175562506822295e-05,-3.730986713325574e-05
15.0,0.27999999999999997,-0.19110777764270007,0.01000233176950333,0.24858452333749012,-0.19143886851280859,0.010002371411802463,0.24858416458402444,-0.0003310908701085191,3.9642299132572334e-08,-3.5875346568459143e-07,0.00033109106684532777,-7.13873948531891e-05,-1.7929341511214532e-06,6.158331583635415e-06,min_task,none,false,false,7.011844598532335,7.011844598532335,6.999999999999997,6.999999999999997,6.999999999999997,6.999999999999997,7.011295756039863,7.011295756039863,0.00016547844267689207,-0.030864361563133852,0.01965131929239838,-0.0005421254419458701,-7.354124370908933e-05,-3.939012092893205e-05,0.004876401639119553,0.00011600377512272065,-0.0007805453640555528,0.0006378399403241572,-0.015117392980936865,0.20571261236903754,0.0005863836635856659,-0.0022968823637143734,0.0002110068576541665,-7.13873948531891e-05,-1.7929341511214532e-06,6.158331583635415e-06,-0.0042271740633876755,0.8479608900597835,0.7672976322893711,-0.0009940483397329863,0.003353517472598594,-1.279216494014962e-05,7.011844598532335,7.011844598532335,6.999999999999997,6.999999999999997,6.999999999999997,6.999999999999997,7.011295756039863,7.011295756039863,1.2021332753894787,1.2021332753894787,1.2020323184768198,1.2020323184768198,1.2020297826688275,1.2020297826688275,1.2021307397944476,1.2021307397944476,0.00016547844267689207,-0.030864361563133852,0.01965131929239838,-0.0005421254419458701,-7.354124370908933e-05,-3.939012092893205e-05
16.0,0.3,-0.19072310076313004,0.01000231431844173,0.2485831640191581,-0.19109964615968358,0.010002371411802463,0.24858416458402444,-0.0003765453965535459,5.709336073356219e-08,1.0005648663491407e-06,0.0003765467302412421,-8.33174596681998e-05,-2.058339597655436e-06,6.774162847327143e-06,min_task,none,false,false,7.013089994301753,7.013089994301753,6.999999999999999,6.999999999999999,6.999999999999999,6.999999999999999,7.0125026412986164,7.0125026412986164,0.00019462604016036485,-0.03270593763042552,0.020644136570099156,-0.000571255079298847,-7.486036587820009e-05,-4.13892783785224e-05,0.005408256241912503,0.0001246241758396531,-0.0008204288028903597,0.0006301301127821145,-0.017422014690277404,0.21392169970643463,0.0005699316119484388,-0.0023537649735435604,0.00023111700985363573,-8.33174596681998e-05,-2.058339597655436e-06,6.774162847327143e-06,-0.004217503399693992,0.8478807493593695,0.7680244814836769,-0.0009852828654935799,0.0033416934154132404,-1.4687828543265797e-05,7.013089994301753,7.013089994301753,6.999999999999999,6.999999999999999,6.999999999999999,6.999999999999999,7.0125026412986164,7.0125026412986164,1.2021418992713357,1.2021418992713357,1.2020240707361842,1.2020240707361842,1.202021159520876,1.202021159520876,1.2021389883413722,1.2021389883413722,0.00019462604016036485,-0.03270593763042552,0.020644136570099156,-0.000571255079298847,-7.486036587820009e-05,-4.13892783785224e-05
17.0,0.32,-0.1902919192763189,0.010002293315047808,0.24858199142084358,-0.1907162052128086,0.010002371411802463,0.24858416458402444,-0.0004242859364897156,7.809675465521304e-08,2.1731631808519225e-06,0.0004242915090362623,-9.624400118784042e-05,-2.334298586444828e-06,7.757477240459657e-06,min_task,none,false,false,7.014353027674733,7.014353027674733,6.999999999999999,6.999999999999999,6.999999999999999,6.999999999999999,7.013730859914144,7.013730859914144,0.0002266080899525628,-0.03452406186677557,0.02159662669772727,-0.0005995211346170677,-7.571844365692939e-05,-4.3308149709807335e-05,0.005951324111300583,0.00013254004761323494,-0.0009025478193241867,0.0006166089837723312,-0.019923421442530006,0.22138775739637806,0.0005480497488111641,-0.0023990675815024174,0.000251052010200731,-9.624400118784042e-05,-2.334298586444828e-06,7.757477240459657e-06,-0.004206709747098819,0.8477909261554816,0.7688383035759297,-0.0009757129880037646,0.0033286061360657147,-1.670262786745996e-05,7.014353027674733,7.014353027674733,6.999999999999999,6.999999999999999,6.999999999999999,6.999999999999999,7.013730859914144,7.013730859914144,1.2021512353337989,1.2021512353337989,1.202015125953664,1.202015125953664,1.2020118243837048,1.2020118243837048,1.2021479341376493,1.2021479341376493,0.0002266080899525628,-0.03452406186677557,0.02159662669772727,-0.0005995211346170677,-7.571844365692939e-05,-4.3308149709807335e-05
18.0,0.34,-0.18981221738239018,0.010002268898802506,0.24858099096158076,-0.1902864041409336,0.010002371411802463,0.24858416458402444,-0.0004741867585434101,1.025129999568386e-07,3.1736224436751392e-06,0.00047419738966619844,-0.00011015912200068801,-2.6185974110815683e-06,9.1464973404754e-06,min_task,none,false,false,7.015629474292145,7.015629474292145,6.999999999999999,6.999999999999999,6.999999999999999,6.999999999999999,7.0149764292324415,7.0149764292324415,0.00026166833995952245,-0.03632077840841907,0.02250918805083098,-0.0006269496854727789,-7.611866832872139e-05,-4.514733321147715e-05,0.0065039341154992086,0.0001396951043354911,-0.0010336474192432269,0.0005981549252064523,-0.022630951864870165,0.22810280993724738,0.0005210860861621797,-0.002433558037645907,0.0002707687610440895,-0.00011015912200068801,-2.6185974110815683e-06,9.1464973404754e-06,-0.0041947760030053285,0.8476903865187461,0.7697419164932252,-0.0009653410725886703,0.0033142367438388476,-1.882964569213331e-05,7.015629474292145,7.015629474292145,6.999999999999999,6.999999999999999,6.999999999999999,6.999999999999999,7.0149764292324415,7.0149764292324415,1.2021612764454999,1.2021612764454999,1.2020054881674374,1.2020054881674374,1.2020017844200146,1.2020017844200146,1.202157573178048,1.202157573178048,0.00026166833995952245,-0.03632077840841907,0.02250918805083098,-0.0006269496854727789,-7.611866832872139e-05,-4.514733321147715e-05
19.0,0.36000000000000004,-0.1892820685732795,0.010002241217224471,0.24858014834087952,-0.1898081959128086,0.010002371411802463,0.24858416458402444,-0.0005261273395290866,1.301945779918351e-07,4.016243144916443e-06,0.000526142684601413,-0.00012505186923570386,-2.9090579416790875e-06,1.0967209480038645e-05,min_task,none,false,false,7.01691571692634,7.01691571692634,6.999999999999997,6.999999999999997,6.999999999999997,6.999999999999997,7.01623590655573,7.01623590655573,0.000300058459363603,-0.038098183153146566,0.023382150388439365,-0.0006535657283086782,-7.606268584778822e-05,-4.690731009721182e-05,0.007064634570865843,0.0001460465858601118,-0.0012188342524185253,0.0005755916222486763,-0.025554568462696332,0.234057291274432,0.0004893681216912784,-0.00245801589023128,0.0002902455888420481,-0.00012505186923570386,-2.9090579416790875e-06,1.0967209480038645e-05,-0.004181700484885342,0.8475780179892991,0.7707378357625481,-0.0009541728136307283,0.0032985712572678174,-2.1062127238337494e-05,7.01691571692634,7.01691571692634,6.999999999999997,6.999999999999997,6.999999999999997,6.999999999999997,7.01623590655573,7.01623590655573,1.2021720133410985,1.2021720133410985,1.2019951636027189,1.2019951636027189,1.2019910489285863,1.2019910489285863,1.2021678992722715,1.2021678992722715,0.000300058459363603,-0.038098183153146566,0.023382150388439365,-0.0006535657283086782,-7.606268584778822e-05,-4.690731009721182e-05
20.0,0.38000000000000006,-0.18869963478403023,0.01000221043121142,0.24857944971431933,-0.18927962687218358,0.010002371411802463,0.24858416458402444,-0.0005799920881533471,1.6098059104317775e-07,4.714869705102487e-06,0.0005800112742279815,-0.00014090880888934627,-3.203579271840164e-06,1.3234050959142881e-05,min_task,none,false,false,7.018208696241978,7.018208696241978,6.999999999999999,6.999999999999999,6.999999999999999,6.999999999999999,7.01750634878182,7.01750634878182,0.00034202625793445943,-0.039858366419174195,0.024215805476206647,-0.000679393082235029,-7.555105811921714e-05,-4.8588509737158424e-05,0.0076321772357143755,0.00015156362921454444,-0.0014615862149290938,0.0005496616912804962,-0.028704331547723085,0.23924115005425314,0.0004532032673431759,-0.002473208794669031,0.00030947820451512,-0.00014090880888934627,-3.203579271840164e-06,1.3234050959142881e-05,-0.004167495480135805,0.847452624348301,0.771828270455445,-0.0009422169168745132,0.003281600177963927,-2.3393620505822012e-05,7.018208696241978,7.018208696241978,6.999999999999999,6.999999999999999,6.999999999999999,6.999999999999999,7.01750634878182,7.01750634878182,1.2021834350566865,1.2021834350566865,1.201984160294927,1.201984160294927,1.2019796289087017,1.2019796289087017,1.2021789044215898,1.2021789044215898,0.00034202625793445943,-0.039858366419174195,0.024215805476206647,-0.000679393082235029,-7.555105811921714e-05,-4.8588509737158424e-05
21.0,0.4000000000000001,-0.18806316560872627,0.010002176719239047,0.24857888180433896,-0.1886988356128086,0.010002371411802463,0.24858416458402444,-0.0006356700040823227,1.946925634165736e-07,5.2827796854781894e-06,0.0006356919849710389,-0.0001577145432593933,-3.5001730469752486e-06,1.5951080957797717e-05,min_task,none,false,false,7.019505860712764,7.019505860712764,6.999999999999999,6.999999999999999,6.999999999999999,6.999999999999999,7.018785269769977,7.018785269769977,0.00038780662909638954,-0.04160336568021664,0.025010427542929828,-0.0007044542193783253,-7.458358124013512e-05,-5.019135381599492e-05,0.008205500487486863,0.0001562259073170377,-0.001763843240972498,0.0005210061469486651,-0.032089998008412876,0.24364465798565277,0.0004128792376231118,-0.0024798717607551948,0.0003284755918343164,-0.0001577145432593933,-3.5001730469752486e-06,1.5951080957797717e-05,-0.004152185401857463,0.8473129205632904,0.7730151191327311,-0.0009294848252055754,0.0032633180915767964,-2.5818071762923145e-05,7.019505860712764,7.019505860712764,6.999999999999999,6.999999999999999,6.999999999999999,6.999999999999999,7.018785269769977,7.018785269769977,1.2021955293204813,1.2021955293204813,1.2019724877485995,1.2019724877485995,1.201967536669259,1.201967536669259,1.2021905791597112,1.2021905791597112,0.00038780662909638954,-0.04160336568021664,0.025010427542929828,-0.0007044542193783253,-7.458358124013512e-05,-5.019135381599492e-05
22.0,0.4200000000000001,-0.18737099754209324,0.010002140280149504,0.24857843196686796,-0.18806405185343358,0.010002371411802463,0.24858416458402444,-0.0006930543113403409,2.3113165295921e-07,5.732617156473108e-06,0.000693078058221971,-0.0001754521723651176,-3.7969924091812122e-06,1.9113505634687157e-05,min_task,none,false,false,7.0208051171205925,7.0208051171205925,6.999999999999997,6.999999999999997,6.999999999999997,6.999999999999997,7.020070597157776,7.020070597157776,0.00043761481967406085,-0.04333512668898126,0.025766286613581595,-0.0007287700724744192,-7.315952051078033e-05,-5.17162852507285e-05,0.008783712318969348,0.00016002247418154012,-0.002126162619641834,0.0004901506841995859,-0.035720714753599114,0.24725899913965338,0.0003686645491205569,-0.0024786901324352433,0.00034725605766891825,-0.0001754521723651176,-3.7969924091812122e-06,1.9113505634687157e-05,-0.004135804686968416,0.8471575280449958,0.7742999660641986,-0.0009159904838011093,0.003243723302000906,-2.8329880678811997e-05,7.0208051171205925,7.0208051171205925,6.999999999999997,6.999999999999997,6.999999999999997,6.999999999999997,7.020070597157776,7.020070597157776,1.202208282899384,1.202208282899384,1.2019601566313958,1.2019601566313958,1.2019547854819972,1.2019547854819972,1.2022029128585534,1.2022029128585534,0.00043761481967406085,-0.04333512668898126,0.025766286613581595,-0.0007287700724744192,-7.315952051078033e-05,-5.17162852507285e-05
23.0,0.4400000000000001,-0.18662155322182786,0.01000210133427671,0.24857808822803334,-0.1873735953128086,0.010002371411802463,0.24858416458402444,-0.0007520420909807313,2.7007752575330946e-07,6.076355991091464e-06,0.0007520666869704248,-0.0001941037008986982,-4.092354608122551e-06,2.270942923288286e-05,min_task,none,false,false,7.022104782514023,7.022104782514023,6.999999999999997,6.999999999999997,6.999999999999997,6.999999999999997,7.021360629847832,7.021360629847832,0.0004916415974137638,-0.045055469524142605,0.026483656386640235,-0.0007523598320637113,-7.127781099773879e-05,-5.316378502245634e-05,0.00936607357962596,0.00016295074712843998,-0.0025479216218775636,0.0004574992001097802,-0.03960477756999934,0.25007670081189626,0.0003208092197327118,-0.002470286843942499,0.00036584364425321764,-0.0001941037008986982,-4.092354608122551e-06,2.270942923288286e-05,-0.0041183955682775625,0.8469849703202658,0.7756840779236006,-0.0009017501389131695,0.003222817502927778,-3.092392110928727e-05,7.022104782514023,7.022104782514023,6.999999999999997,6.999999999999997,6.999999999999997,6.999999999999997,7.021360629847832,7.021360629847832,1.2022216819025522,1.2022216819025522,1.201947178502149,1.201947178502149,1.2019413892777042,1.2019413892777042,1.202215893999968,1.202215893999968,0.0004916415974137638,-0.045055469524142605,0.026483656386640235,-0.0007523598320637113,-7.127781099773879e-05,-5.316378502245634e-05
24.0,0.46000000000000013,-0.1858133406557289,0.010002060122751179,0.24857783930067578,-0.1866258745846836,0.010002371411802463,0.24858416458402444,-0.0008125339289546951,3.112890512840111e-07,6.325283348651567e-06,0.0008125586082325802,-0.0002136503927770152,-4.384757467085679e-06,2.6721709638976963e-05,min_task,none,false,false,7.0234035378985675,7.0234035378985675,6.999999999999998,6.999999999999998,6.999999999999998,6.999999999999998,7.022653996784932,7.022653996784932,0.0005500501579784762,-0.046766061751720836,0.027162819400131537,-0.0007752407976301613,-6.893724617136799e-05,-5.4534382404125235e-05,0.009951981647328453,0.0001650155557774681,-0.003027550384202038,0.00042333438095836575,-0.043749446911290055,0.2520919495771542,0.0002695457635587215,-0.0024552144066935485,0.0003842650580958599,-0.0002136503927770152,-4.384757467085679e-06,2.6721709638976963e-05,-0.004100005841917867,0.8467936692003015,0.777168401105156,-0.0008867821635423464,0.003200605488753301,-3.359553455925398e-05,7.0234035378985675,7.0234035378985675,6.999999999999998,6.999999999999998,6.999999999999998,6.999999999999998,7.022653996784932,7.022653996784932,1.202235712043587,1.202235712043587,1.2019335655716434,1.2019335655716434,1.201927362383814,1.201927362383814,1.202229510414754,1.202229510414754,0.0005500501579784762,-0.046766061751720836,0.027162819400131537,-0.0007752407976301613,-6.893724617136799e-05,-5.4534382404125235e-05
25.0,0.48000000000000015,-0.18494495242462966,0.010002016904938082,0.24857767458721675,-0.1858193860128086,0.010002371411802463,0.24858416458402444,-0.00087443358817893,3.545068643813487e-07,6.489996807690357e-06,0.0008744577439014188,-0.00023407307570379721,-4.672890044800926e-06,3.1129808029317325e-05,min_task,none,false,false,7.024700383921076,7.024700383921076,6.9999999999999964,6.9999999999999964,6.9999999999999964,6.9999999999999964,7.023949617572745,7.023949617572745,0.0006129744352175987,-0.04846839433443712,0.027804068992676418,-0.0007974282459565138,-6.613667078128656e-05,-5.582865759057891e-05,0.010540954700992108,0.00016622820056319364,-0.0035627788634019714,0.00038782484390435616,-0.04816080227024668,0.2533008127259331,0.00021509039308120398,-0.002433951316279756,0.00040254722383803514,-0.00023407307570379721,-4.672890044800926e-06,3.1129808029317325e-05,-0.004080686736864882,0.8465819415039177,0.7787535597661729,-0.0008711069029566013,0.0031770949048924696,-3.634050380450542e-05,7.024700383921076,7.024700383921076,6.9999999999999964,6.9999999999999964,6.9999999999999964,6.9999999999999964,7.023949617572745,7.023949617572745,1.2022503588632953,1.2022503588632953,1.201919330494664,1.201919330494664,1.2019127193014465,1.2019127193014465,1.2022437494904181,1.2022437494904181,0.0006129744352175987,-0.04846839433443712,0.027804068992676418,-0.0007974282459565138,-6.613667078128656e-05,-5.582865759057891e-05
26.0,0.5000000000000001,-0.18401506485624158,0.01000197195410184,0.2485775841734805,-0.1849527125659336,0.010002371411802463,0.24858416458402444,-0.0009376477096920133,3.994577006238148e-07,6.580410543938209e-06,0.0009376708851511064,-0.0002553523984041551,-4.955637986263474e-06,3.591153697431748e-05,min_task,none,false,false,7.0259945983482295,7.0259945983482295,6.999999999999992,6.999999999999992,6.999999999999992,6.999999999999992,7.025246664957718,7.025246664957718,0.000680518595811754,-0.05016376276532887,0.028407710765265895,-0.0008189353760461998,-6.28751941313198e-05,-5.704724225231067e-05,0.0111326165670495,0.0001666054760477906,-0.004150883153037794,0.0003510378939511848,-0.05284362841069281,0.2537014058102318,0.00015764459207019007,-0.0024069030984098685,0.0004207155145720918,-0.0002553523984041551,-4.955637986263474e-06,3.591153697431748e-05,-0.004060490975313218,0.8463479963810941,0.7804398546714183,-0.0008547465332895834,0.0031522960357317775,-3.915501409433784e-05,7.0259945983482295,7.0259945983482295,6.999999999999992,6.999999999999992,6.999999999999992,6.999999999999992,7.025246664957718,7.025246664957718,1.2022656079152605,1.2022656079152605,1.2019044861917927,1.2019044861917927,1.201897474519663,1.201897474519663,1.2022585983492227,1.2022585983492227,0.000680518595811754,-0.05016376276532887,0.028407710765265895,-0.0008189353760461998,-6.28751941313198e-05,-5.704724225231067e-05
27.0,0.5200000000000001,-0.1830224371681724,0.010001925551537309,0.2485775588163352,-0.18402452271280859,0.010002371411802463,0.24858416458402444,-0.0010020855446361832,4.458602651542104e-07,6.605767689238373e-06,0.0010021074162618177,-0.00027746904344274796,-5.232084189948307e-06,4.104462905786716e-05,min_task,none,false,false,7.027285695509308,7.027285695509308,6.999999999998903,6.999999999998903,6.999999999998903,6.999999999998903,7.026544529204066,7.026544529204066,0.0007527576325618124,-0.05185325166281486,0.028974062133885682,-0.0008397732898003938,-5.9152403420753806e-05,-5.819081537258103e-05,0.011726682190336938,0.00016616869937430452,-0.004788906459982247,0.0003129567154656456,-0.05780133469122213,0.2532939882474509,9.739683857894841e-05,-0.0023744070404948564,0.0004387926629675817,-0.00027746904344274796,-5.232084189948307e-06,4.104462905786716e-05,-0.004039471092240813,0.8460899332685813,0.7822272628892631,-0.0008377249272132553,0.0031262216269301083,-4.2035608814171724e-05,7.027285695509308,7.027285695509308,6.999999999998903,6.999999999998903,6.999999999998903,6.999999999998903,7.026544529204066,7.026544529204066,1.2022814449167258,1.2022814449167258,1.2018890456993332,1.2018890456993332,1.2018816423644372,1.2018816423644372,1.2022740439981365,1.2022740439981365,0.0007527576325618124,-0.05185325166281486,0.028974062133885682,-0.0008397732898003938,-5.9152403420753806e-05,-5.819081537258103e-05
28.0,0.5400000000000001,-0.1819659105801299,0.010001877979520863,0.24857758992727286,-0.1830335692971836,0.010002371411802463,0.24858416458402444,-0.0010676587170536933,4.934322816001202e-07,6.574656751578978e-06,0.0010676790742950597,-0.00030040389868109474,-5.501505572384545e-06,4.650806698722983e-05,min_task,none,false,false,7.02857338667328,7.02857338667328,6.999999999998504,6.999999999998504,6.999999999998504,6.999999999998504,7.027842784901952,7.027842784901952,0.0008297385786416738,-0.053537722162530305,0.02950345228740251,-0.0008599510360477627,-5.496860810318606e-05,-5.9260099101745234e-05,0.012322943624662483,0.00016494237776190656,-0.0054739137087980805,0.00027350073147249513,-0.06303588779927437,0.25208104158001815,3.452473813505408e-05,-0.0023367407210869587,0.0004567983060917564,-0.00030040389868109474,-5.501505572384545e-06,4.650806698722983e-05,-0.0040176780612090944,0.845805740500189,0.7841154383728747,-0.0008200675219857143,0.0030988867375002604,-4.497914558391731e-05,7.02857338667328,7.02857338667328,6.999999999998504,6.999999999998504,6.999999999998504,6.999999999998504,7.027842784901952,7.027842784901952,1.2022978558675057,1.2022978558675057,1.2018730220457605,1.2018730220457605,1.2018652368796332,1.2018652368796332,1.2022900734522968,1.2022900734522968,0.0008297385786416738,-0.053537722162530305,0.02950345228740251,-0.0008599510360477627,-5.496860810318606e-05,-5.9260099101745234e-05
29.0,0.5600000000000002,-0.18084440739666374,0.010001829513536469,0.24857766955313387,-0.1819786884128086,0.010002371411802463,0.24858416458402444,-0.0011342810161448502,5.418982659943089e-07,6.495030890563136e-06,0.0011342997411031151,-0.00032413819059558377,-5.763366763453044e-06,5.2283135930770526e-05,min_task,none,false,false,7.029857543479551,7.029857543479551,6.999999999999302,6.999999999999302,6.999999999999302,6.999999999999302,7.02914115878735,7.02914115878735,0.0009114825120901076,-0.05521780360460566,0.02999622098835145,-0.0008794756926734709,-5.03250670680911e-05,-6.025585180288787e-05,0.01292125672739044,0.00016295334461505472,-0.006203114989046878,0.00023254773427117307,-0.06854777651422317,0.25006728610976214,-3.080272422252838e-05,-0.0022941329209190614,0.000474749087198505,-0.00032413819059558377,-5.763366763453044e-06,5.2283135930770526e-05,-0.003995160252279802,0.8454932945846173,0.7861037134430157,-0.0008018011864613694,0.0030703086162171115,-4.798275750360132e-05,7.029857543479551,7.029857543479551,6.999999999999302,6.999999999999302,6.999999999999302,6.999999999999302,7.02914115878735,7.02914115878735,1.2023148271397874,1.2023148271397874,1.2018564281529978,1.2018564281529978,1.201848271737121,1.201848271737121,1.2023066738336772,1.2023066738336772,0.0009114825120901076,-0.05521780360460566,0.02999622098835145,-0.0008794756926734709,-5.03250670680911e-05,-6.025585180288787e-05
30.0,0.5800000000000002,-0.17965693006245614,0.010001780414283956,0.24857779035487318,-0.1808587982784336,0.010002371411802463,0.24858416458402444,-0.001201868215977453,5.909975185069971e-07,6.3742291512569604e-06,0.0012018852643460461,-0.00034865358275380765,-6.017311591445546e-06,5.8354177867084204e-05,min_task,none,false,false,7.031138162708123,7.031138162708123,6.9999999999990665,6.9999999999990665,6.9999999999990665,6.9999999999990665,7.030439499887778,7.030439499887778,0.0009979867567685517,-0.05689388679293236,0.030452718073128784,-0.0008983524916215856,-4.522423720262157e-05,-6.117886207951094e-05,0.013521528460587042,0.00016022965720575739,-0.006974004943290672,0.0001899566061636976,-0.0743359817258201,0.24725969529632197,-9.842257305488089e-05,-0.0022467768871371765,0.0004926591884246898,-0.00034865358275380765,-6.017311591445546e-06,5.8354177867084204e-05,-0.003971962728122157,0.8451503601566632,0.7881911011774292,-0.0007829540850951375,0.003040506596322372,-5.1043822818933105e-05,7.031138162708123,7.031138162708123,6.9999999999990665,6.9999999999990665,6.9999999999990665,6.9999999999990665,7.030439499887778,7.030439499887778,1.2023323455417545,1.2023323455417545,1.2018392767607904,1.2018392767607904,1.2018307601730978,1.2018307601730978,1.202323832446685,1.202323832446685,0.0009979867567685517,-0.05689388679293236,0.030452718073128784,-0.0008983524916215856,-4.522423720262157e-05,-6.117886207951094e-05
31.0,0.6000000000000002,-0.17840256019241948,0.010001730919996362,0.24857794558487115,-0.1796728981128086,0.010002371411802463,0.24858416458402444,-0.0012703379203891085,6.404918061007209e-07,6.218999153290161e-06,0.001270353304462482,-0.00037393224285081216,-6.263153305814911e-06,6.470904559574607e-05,min_task,none,false,false,7.032415332058329,7.032415332058329,6.999999999998556,6.999999999998556,6.999999999998556,6.999999999998556,7.031737751997922,7.031737751997922,0.0010892275031386786,-0.058566121453507106,0.03087330244541346,-0.0009165849740318767,-3.966999360481633e-05,-6.202994168133497e-05,0.014123704731572071,0.00015679916963336804,-0.007784513371611619,0.00014558938147533036,-0.08039797338377085,0.2436674635849344,-0.00016817514350272607,-0.0021948445532550755,0.0005105411659250759,-0.00037393224285081216,-6.263153305814911e-06,6.470904559574607e-05,-0.003948126865909793,0.8447745906006179,0.7903762987011858,-0.0007635555387787262,0.003009502002236046,-5.415994485546926e-05,7.032415332058329,7.032415332058329,6.999999999998556,6.999999999998556,6.999999999998556,6.999999999998556,7.031737751997922,7.031737751997922,1.2023503983581023,1.2023503983581023,1.201821580372434,1.201821580372434,1.2018127149475362,1.2018127149475362,1.2023415368324262,1.2023415368324262,0.0010892275031386786,-0.058566121453507106,0.03087330244541346,-0.0009165849740318767,-3.966999360481633e-05,-6.202994168133497e-05
32.0,0.6200000000000002,-0.17708045757891638,0.010001681239574563,0.24857812906299728,-0.17842006700968358,0.010002371411802463,0.24858416458402444,-0.0013396094307671913,6.901722278997158e-07,6.035521027153434e-06,0.001339623204805057,-0.00039995688175656975,-6.500864434987518e-06,7.133926990277621e-05,min_task,none,false,false,7.03368919954099,7.03368919954099,6.999999999999948,6.999999999999948,6.999999999999948,6.999999999999948,7.033035927415525,7.033035927415525,0.0011851623990780562,-0.06023441572337783,0.03125834172128007,-0.0009341751714933461,-3.3667845426077386e-05,-6.28099196909628e-05,0.014727759131420444,0.00015268863483853385,-0.008633043621227155,9.933165960193064e-05,-0.0867297152908137,0.23930196822024874,-0.0002399011039425173,-0.0021385013647785443,0.0005284069513929071,-0.00039995688175656975,-6.500864434987518e-06,7.133926990277621e-05,-0.003923690277272107,0.8443635293380216,0.7926576913626686,-0.0007436358836391572,0.0029773180620689555,-5.7328942591848254e-05,7.03368919954099,7.03368919954099,6.999999999999948,6.999999999999948,6.999999999999948,6.999999999999948,7.033035927415525,7.033035927415525,1.202368973370509,1.202368973370509,1.2018033512200441,1.2018033512200441,1.201794148323689,1.201794148323689,1.2023597748034418,1.2023597748034418,0.0011851623990780562,-0.06023441572337783,0.03125834172128007,-0.0009341751714933461,-3.3667845426077386e-05,-6.28099196909628e-05
33.0,0.6400000000000002,-0.17568985917879415,0.010001631546968775,0.24857833515181005,-0.17709946281280858,0.010002371411802463,0.24858416458402444,-0.0014096036340144336,7.398648336886388e-07,5.829432214388142e-06,0.0014096158819716141,-0.00042671076789345527,-6.730567016120901e-06,7.823996635416225e-05,min_task,none,false,false,7.034959946325973,7.034959946325973,6.999999999998491,6.999999999998491,6.999999999998491,6.999999999998491,7.034334082248656,7.034334082248656,0.001285733081240404,-0.06189843669640525,0.03160821131066221,-0.0009511237786253096,-2.7225126657161312e-05,-6.351963573252966e-05,0.015333682613117816,0.0001479232274376939,-0.009518445641819263,5.111061345622198e-05,-0.09332568135411282,0.23417670616529804,-0.0003134384177303343,-0.0020779206456834976,0.0005462688710617582,-0.00042671076789345527,-6.730567016120901e-06,7.823996635416225e-05,-0.0038986869870452872,0.8439146117682899,0.7950333577733436,-0.0007232263297416377,0.002943979820096514,-6.054885085298993e-05,7.034959946325973,7.034959946325973,6.999999999998491,6.999999999998491,6.999999999998491,6.999999999998491,7.034334082248656,7.034334082248656,1.202388058860925,1.202388058860925,1.2017846012475286,1.2017846012475286,1.2017750720647824,1.2017750720647824,1.2023785344607472,1.2023785344607472,0.001285733081240404,-0.06189843669640525,0.03160821131066221,-0.0009511237786253096,-2.7225126657161312e-05,-6.351963573252966e-05
34.0,0.6600000000000003,-0.17423007808272886,0.01000158197715766,0.2485785587310107,-0.1757103209909336,0.010002371411802463,0.24858416458402444,-0.0014802429082047264,7.89434644803827e-07,5.6058530137348406e-06,0.0014802537336840113,-0.0004541777202873712,-6.952523970750174e-06,8.540951866468968e-05,min_task,none,false,false,7.0362277590185744,7.0362277590185744,6.999999999999148,6.999999999999148,6.999999999999148,6.999999999999148,7.035632295380867,7.035632295380867,0.0013908676552282495,-0.06355761518830028,0.031923294372214375,-0.0009674303559598236,-2.035115333660075e-05,-6.41599352379997e-05,0.015941473645301418,0.00014252504738087451,-0.010440106616217732,9.101024266756293e-07,-0.10017888885401505,0.22830721528651762,-0.00038861928723119476,-0.0020132969546682858,0.0005641405480841287,-0.0004541777202873712,-6.952523970750174e-06,8.540951866468968e-05,-0.003873147821803747,0.8434251678449247,0.7975010756815941,-0.0007023588230062712,0.0029095140439352593,-6.381792810653546e-05,7.0362277590185744,7.0362277590185744,6.999999999999148,6.999999999999148,6.999999999999148,6.999999999999148,7.035632295380867,7.035632295380867,1.2024076436005824,1.2024076436005824,1.2017653421094407,1.2017653421094407,1.2017554974449858,1.2017554974449858,1.202397804194988,1.202397804194988,0.0013908676552282495,-0.06355761518830028,0.031923294372214375,-0.0009674303559598236,-2.035115333660075e-05,-6.41599352379997e-05
35.0,0.6800000000000003,-0.1727005024686769,0.010001532623961511,0.24857879517124884,-0.1742519535128086,0.010002371411802463,0.24858416458402444,-0.0015514510441316798,8.387878409517324e-07,5.369412775596549e-06,0.0015514605623398476,-0.00048234208351320197,-7.167132162890285e-06,9.284908277870344e-05,min_task,none,false,false,7.037492810125179,7.037492810125179,6.999999999997777,6.999999999997777,6.999999999997777,6.999999999997777,7.036930647004324,7.036930647004324,0.0015004828714030435,-0.06521115139542294,0.032203981864391724,-0.0009830935208300572,-1.3057352577117972e-05,-6.473166525701811e-05,0.016551129953936344,0.0001365136052795422,-0.011397797862441867,-5.1217565714804294e-05,-0.10728093745087525,0.2217109870606349,-0.0004652670538012223,-0.001944857747293998,0.0005820376017729222,-0.00048234208351320197,-7.167132162890285e-06,9.284908277870344e-05,-0.0038471009542544016,0.8428924252659101,0.800058328646213,-0.0006810659136946013,0.002873949121962359,-6.713466893962576e-05,7.037492810125179,7.037492810125179,6.999999999997777,6.999999999997777,6.999999999997777,6.999999999997777,7.036930647004324,7.036930647004324,1.202427716827373,1.202427716827373,1.2017455851838081,1.2017455851838081,1.2017354352720024,1.2017354352720024,1.2024175726736135,1.2024175726736135,0.0015004828714030435,-0.06521115139542294,0.032203981864391724,-0.0009830935208300572,-1.3057352577117972e-05,-6.473166525701811e-05
36.0,0.7000000000000003,-0.17110059454178583,0.010001483539791705,0.2485790403073983,-0.17272374772218357,0.010002371411802463,0.24858416458402444,-0.0016231531803977406,8.878720107585031e-07,5.124276626133906e-06,0.001623161511853626,-0.0005111886875766709,-7.374917568855633e-06,0.00010056195992547631,min_task,none,false,false,7.038755236863002,7.038755236863002,6.999999999998636,6.999999999998636,6.999999999998636,6.999999999998636,7.038229201732607,7.038229201732607,0.0016144860883655322,-0.06685802229316308,0.03245067228941104,-0.0009981111218274582,-5.35734831380661e-06,-6.523567012725446e-05,0.017162640698910957,0.00012990481808105355,-0.012391703199574618,-0.00010514330200130963,-0.114622060780449,0.2144073569449421,-0.0005431933423464315,-0.0018728728567513546,0.0005999780321519253,-0.0005111886875766709,-7.374917568855633e-06,0.00010056195992547631,-0.003820572547281618,0.8423135132534794,0.8027023134687914,-0.0006593806351270568,0.00283731494745047,-7.04978178101729e-05,7.038755236863002,7.038755236863002,6.999999999998636,6.999999999998636,6.999999999998636,6.999999999998636,7.038229201732607,7.038229201732607,1.2024482682140467,1.2024482682140467,1.201725341597085,1.201725341597085,1.2017148959188249,1.2017148959188249,1.2024378288159108,1.2024378288159108,0.0016144860883655322,-0.06685802229316308,0.03245067228941104,-0.0009981111218274582,-5.35734831380661e-06,-6.523567012725446e-05
37.0,0.7200000000000003,-0.1694298894625817,0.01000143473731316,0.24857929041149157,-0.17112516521280857,0.010002371411802463,0.24858416458402444,-0.0016952757502268767,9.366744893029438e-07,4.874172532864929e-06,0.001695283015966443,-0.000540702795582873,-7.576532810056137e-06,0.000108552888085201,min_task,none,false,false,7.040015127818598,7.040015127818598,6.9999999999991624,6.9999999999991624,6.9999999999991624,6.9999999999991624,7.039527991576763,7.039527991576763,0.0017327768679779236,-0.06849699071793368,0.032663772317632726,-0.0010124804142786473,2.7329838242123847e-06,-6.567278935277996e-05,0.01777598024351614,0.00012271183307787574,-0.01342225985978095,-0.00016065612187631055,-0.12219118182788237,0.2064173989478367,-0.0006221953523339996,-0.0017976613401531317,0.0006179822656376387,-0.000540702795582873,-7.576532810056137e-06,0.000108552888085201,-0.003793587442435658,0.8416854668957139,0.8054299483412182,-0.0006373363959871047,0.0027996427869282337,-7.390638046573562e-05,7.040015127818598,7.040015127818598,6.9999999999991624,6.9999999999991624,6.9999999999991624,6.9999999999991624,7.039527991576763,7.039527991576763,1.2024692878294196,1.2024692878294196,1.201704622259385,1.201704622259385,1.2016938893624616,1.2016938893624616,1.2024585617577435,1.2024585617577435,0.0017327768679779236,-0.06849699071793368,0.032663772317632726,-0.0010124804142786473,2.7329838242123847e-06,-6.567278935277996e-05
38.0,0.7400000000000003,-0.16768799426505135,0.010001386192876377,0.24857954216542893,-0.16945574070343355,0.010002371411802463,0.24858416458402444,-0.0017677464383822061,9.852189260858152e-07,4.6224185955012764e-06,0.0017677527564178707,-0.0005708700418461584,-7.772757121973241e-06,0.00011682729994885831,min_task,none,false,false,7.041272509640724,7.041272509640724,6.999999999999823,6.999999999999823,6.999999999999823,6.999999999999823,7.040827002635766,7.040827002635766,0.0018552483524986551,-0.07012661619986332,0.032843697013286766,-0.00102619821325734,1.119551071214736e-05,-6.604385523998391e-05,0.018391102574460156,0.00011494496068636533,-0.014490111402930017,-0.00021746123754397327,-0.12997598115885448,0.19776379738851316,-0.0007020535890501713,-0.0017195955220107814,0.0006360728188733462,-0.0005708700418461584,-7.772757121973241e-06,0.00011682729994885831,-0.003766169841192038,0.8410052320193059,0.8082378816603109,-0.0006149668889475502,0.0027609651313485715,-7.735962954364678e-05,7.041272509640724,7.041272509640724,6.999999999999823,6.999999999999823,6.999999999999823,6.999999999999823,7.040827002635766,7.040827002635766,1.2024907660945163,1.2024907660945163,1.2016834379081724,1.2016834379081724,1.2016724252277051,1.2016724252277051,1.2024797608078097,1.2024797608078097,0.0018552483524986551,-0.07012661619986332,0.032843697013286766,-0.00102619821325734,1.119551071214736e-05,-6.604385523998391e-05
39.0,0.7600000000000003,-0.1658745867662021,0.010001337851470626,0.24857979263353175,-0.16771508091280857,0.010002371411802463,0.24858416458402444,-0.001840494146606475,1.033560331837463e-06,4.371950492687571e-06,0.0018404996294188074,-0.0006016763628692957,-7.964498704666081e-06,0.00012539059177384536,min_task,none,false,false,7.042527339192327,7.042527339192327,6.999999999997978,6.999999999997978,6.999999999997978,6.999999999997978,7.042126162839853,7.042126162839853,0.0019817882828512,-0.07174526664634748,0.032990870539748016,-0.0010392610344502455,2.0009868722776662e-05,-6.634969196078323e-05,0.019007937047078257,0.00010661260333091548,-0.015595983194778151,-0.00027518075769225153,-0.13796296711555717,0.18847072174414378,-0.0007825300196991157,-0.0016391019593439652,0.0006542736083165798,-0.0006016763628692957,-7.964498704666081e-06,0.00012539059177384536,-0.003738343932855101,0.8402696705605245,0.8111225014582778,-0.0005923060176748176,0.00272131552973236,-8.085710128927405e-05,7.042527339192327,7.042527339192327,6.999999999997978,6.999999999997978,6.999999999997978,6.999999999997978,7.042126162839853,7.042126162839853,1.202512693735329,1.202512693735329,1.2016617991586516,1.2016617991586516,1.2016505128342605,1.2016505128342605,1.2025014153971838,1.2025014153971838,0.0019817882828512,-0.07174526664634748,0.032990870539748016,-0.0010392610344502455,2.0009868722776662e-05,-6.634969196078323e-05
40.0,0.7800000000000004,-0.16398941446840004,0.010001289632856772,0.24858003923540245,-0.16590286343468355,0.010002371411802463,0.24858416458402444,-0.0019134489662835097,1.0817789456909338e-06,4.125348621986102e-06,0.0019134537191472314,-0.0006331079233146821,-8.152799268965856e-06,0.00013424744175829319,min_task,none,false,false,7.043779496708221,7.043779496708221,6.9999999999986615,6.9999999999986615,6.9999999999986615,6.9999999999986615,7.043425332657412,7.043425332657412,0.0021122796682681833,-0.07335112996936614,0.03310572680643138,-0.001051665208248556,2.915352140410158e-05,-6.659111496671382e-05,0.019626384863857066,9.772169956588322e-05,-0.016740622399831324,-0.0003333567167570896,-0.14613754700349246,0.17856370018246265,-0.0008633667748570826,-0.001556659576615498,0.0006726089349156259,-0.0006331079233146821,-8.152799268965856e-06,0.00013424744175829319,-0.003710134430544632,0.8394755664014808,0.8140799453981178,-0.0005693878433417199,0.0026807284059720358,-8.439858097416588e-05,7.043779496708221,7.043779496708221,6.9999999999986615,6.9999999999986615,6.9999999999986615,6.9999999999986615,7.043425332657412,7.043425332657412,1.20253506173356,1.20253506173356,1.2016397165592272,1.2016397165592272,1.2016281612458612,1.2016281612458612,1.2025235150237634,1.2025235150237634,0.0021122796682681833,-0.07335112996936614,0.03310572680643138,-0.001051665208248556,2.915352140410158e-05,-6.659111496671382e-05
41.0,0.8000000000000004,-0.16203229345560577,0.01000124143849389,0.2485802797190118,-0.16401883561280856,0.010002371411802463,0.24858416458402444,-0.0019865421572027864,1.1299733085733815e-06,3.884865012626637e-06,0.001986546277175476,-0.000665151038914553,-8.338840399471465e-06,0.00014340121003588563,min_task,none,false,false,7.045028784892673,7.045028784892673,6.9999999999991145,6.9999999999991145,6.9999999999991145,6.9999999999991145,7.044724296209811,7.044724296209811,0.0022466014395959946,-0.0749422294758666,0.03318871034542341,-0.0010634069995113557,3.860187214043716e-05,-6.67689313948219e-05,0.020246316887628932,8.827944214532228e-05,-0.017924652878042926,-0.0003914558395721499,-0.15448411600525752,0.16806947234303113,-0.0009442855679127316,-0.0014727946470912204,0.000691102214946024,-0.000665151038914553,-8.338840399471465e-06,0.00014340121003588563,-0.0036815669851046756,0.838619631635007,0.8171061112783012,-0.0005462465503764074,0.0026392388604860695,-8.798407537506227e-05,7.045028784892673,7.045028784892673,6.9999999999991145,6.9999999999991145,6.9999999999991145,6.9999999999991145,7.044724296209811,7.044724296209811,1.202557861276464,1.202557861276464,1.2016172006503945,1.2016172006503945,1.2016053793202668,1.2016053793202668,1.2025460491932671,1.2025460491932671,0.0022466014395959946,-0.0749422294758666,0.03318871034542341,-0.0010634069995113557,3.860187214043716e-05,-6.67689313948219e-05
42.0,0.8200000000000004,-0.16000310728456096,0.010001193158826902,0.24858051213413773,-0.16206281341593354,0.010002371411802463,0.24858416458402444,-0.002059706131372574,1.1782529755616222e-06,3.652449886704101e-06,0.002059709706799486,-0.0006977920979756135,-8.52395128732366e-06,0.00015285344447474132,min_task,none,false,false,7.046274927360905,7.046274927360905,6.999999999999669,6.999999999999669,6.999999999999669,6.999999999999669,7.0460227559304816,7.0460227559304816,0.002384628634422727,-0.07651643653585401,0.033240277078166736,-0.0010744826876930595,4.832838396208672e-05,-6.688394058991938e-05,0.020867571958427106,7.82940038717913e-05,-0.019148533331843097,-0.000448875584055557,-0.1629861336696569,0.15701585991885716,-0.001024987792494538,-0.001388073441610769,0.0007097745253866051,-0.0006977920979756135,-8.52395128732366e-06,0.00015285344447474132,-0.0036526684558513454,0.8376985132216175,0.8201966679914177,-0.0005229164302003274,0.0025968824592557537,-9.161377161749079e-05,7.046274927360905,7.046274927360905,6.999999999999669,6.999999999999669,6.999999999999669,6.999999999999669,7.0460227559304816,7.0460227559304816,1.2025810837066446,1.2025810837066446,1.2015942620255762,1.2015942620255762,1.2015821757592766,1.2015821757592766,1.2025690073582704,1.2025690073582704,0.002384628634422727,-0.07651643653585401,0.033240277078166736,-0.0010744826876930595,4.832838396208672e-05,-6.688394058991938e-05
43.0,0.8400000000000004,-0.15790180587178038,0.010001144680509956,0.248580734806587,-0.16003468031280854,0.010002371411802463,0.24858416458402444,-0.0021328744410281653,1.2267312925074575e-06,3.4297774374469903e-06,0.002132877551439403,-0.0007310174828365155,-8.709617337273556e-06,0.00016260350815075757,min_task,none,false,false,7.047517571267617,7.047517571267617,6.999999999996585,6.999999999996585,6.999999999996585,6.999999999996585,7.047320327891452,7.047320327891452,0.0025262325275772417,-0.07807148528699052,0.03326089531297286,-0.0010848886481519286,5.8304735841453175e-05,-6.693693549073869e-05,0.021489956233897718,6.777607987218701e-05,-0.020412469528504118,-0.0005049508380312954,-0.1716262090651366,0.14543163008322635,-0.0011051554184207935,-0.0013030923286087971,0.0007286430691508651,-0.0007310174828365155,-8.709617337273556e-06,0.00016260350815075757,-0.0036234670262582955,0.8367088000029762,0.823347066883265,-0.0004994318807704445,0.002553695013509393,-9.528798265533766e-05,7.047517571267617,7.047517571267617,6.999999999996585,6.999999999996585,6.999999999996585,6.999999999996585,7.047320327891452,7.047320327891452,1.202604720472423,1.202604720472423,1.201570911392599,1.201570911392599,1.2015585591581548,1.2015585591581548,1.2025923788565829,1.2025923788565829,0.0025262325275772417,-0.07807148528699052,0.03326089531297286,-0.0010848886481519286,5.8304735841453175e-05,-6.693693549073869e-05
44.0,0.8600000000000004,-0.1557284043770828,0.010001095893174975,0.24858094631315159,-0.15793438614718355,0.010002371411802463,0.24858416458402444,-0.0022059817701007567,1.2755186274884117e-06,3.2182708728512033e-06,0.002205984486398771,-0.0007648134924992555,-8.89748915425048e-06,0.0001726483366075916,min_task,none,false,false,7.048756288963567,7.048756288963567,6.999999999997581,6.999999999997581,6.999999999997581,6.999999999997581,7.048616539969164,7.048616539969164,0.0026712806826937456,-0.07960498801255174,0.033251046570986716,-0.001094621421788336,6.850100610171322e-05,-6.692870403472224e-05,0.022113242846660566,5.673954147162443e-05,-0.021716405319197912,-0.0005589609223817574,-0.180386190373861,0.13334635350324148,-0.0011844527333495923,-0.001218465907249517,0.0007477196487752932,-0.0007648134924992555,-8.89748915425048e-06,0.0001726483366075916,-0.0035939921608182522,0.8356470300340414,0.8265525534564904,-0.00047582741902385317,0.00250971235397962,-9.900708057145242e-05,7.048756288963567,7.048756288963567,6.999999999997581,6.999999999997581,6.999999999997581,6.999999999997581,7.048616539969164,7.048616539969164,1.2026287630792971,1.2026287630792971,1.2015471596346046,1.2015471596346046,1.2015345380539486,1.2015345380539486,1.202616152850181,1.202616152850181,0.0026712806826937456,-0.07960498801255174,0.033251046570986716,-0.001094621421788336,6.850100610171322e-05,-6.692870403472224e-05
45.0,0.8800000000000004,-0.1534829820842305,0.01000104669538723,0.24858114545751814,-0.15576194601280854,0.010002371411802463,0.24858416458402444,-0.0022789639285780428,1.324716415233157e-06,3.0191265062984307e-06,0.0022789663134321026,-0.000799166267330694,-9.089391291563005e-06,0.0001829823251793166,min_task,none,false,false,7.049990585483239,7.049990585483239,6.999999999998291,6.999999999998291,6.999999999998291,6.999999999998291,7.049910829706763,7.049910829706763,0.002819636764630461,-0.08111444930184133,0.03321122660588791,-0.0011036777700875475,7.888586036979041e-05,-6.68600311927236e-05,0.022737172785986224,4.520353691856735e-05,-0.02305992757654533,-0.0006101365172786836,-0.1892472468323272,0.12079027833693526,-0.001262528762933563,-0.0011348137166848394,0.0007670092470564177,-0.000799166267330694,-9.089391291563005e-06,0.0001829823251793166,-0.00356427440808187,0.8345096981975968,0.8298081793655578,-0.00045213770211635857,0.0024649701041140836,-0.00010277141969062748,7.049990585483239,7.049990585483239,6.999999999998291,6.999999999998291,6.999999999998291,6.999999999998291,7.049910829706763,7.049910829706763,1.2026532030426924,1.2026532030426924,1.2015230178693266,1.2015230178693266,1.2015101209724999,1.2015101209724999,1.2026403182657666,1.2026403182657666,0.002819636764630461,-0.08111444930184133,0.03321122660588791,-0.0011036777700875475,7.888586036979041e-05,-6.68600311927236e-05
46.0,0.9000000000000005,-0.15116568127959773,0.010000996999510592,0.24858133124728882,-0.15351743912843355,0.010002371411802463,0.24858416458402444,-0.002351757848835817,1.3744122918709495e-06,2.833336735619252e-06,0.002351759957216526,-0.0008340617165177102,-9.287330213024765e-06,0.00019359733983560017,min_task,none,false,false,7.0512199019371575,7.0512199019371575,6.999999999998798,6.999999999998798,6.999999999998798,6.999999999998798,7.051202545573867,7.051202545573867,0.0029711604038868957,-0.08259728071648569,0.03314194584209723,-0.0011120547180263937,8.942676354540832e-05,-6.673170014475269e-05,0.023361455539123596,3.319286478998088e-05,-0.024442295438390372,-0.000657666100721686,-0.19818995671121006,0.10779419268597845,-0.0013390206032768697,-0.0010527457845549224,0.0007865087948235312,-0.0008340617165177102,-9.287330213024765e-06,0.00019359733983560017,-0.0035343450614720535,0.8332932640654144,0.8331088146503182,-0.0004283975531306076,0.002419503456957752,-0.00010658125220094406,7.0512199019371575,7.0512199019371575,6.999999999998798,6.999999999998798,6.999999999998798,6.999999999998798,7.051202545573867,7.051202545573867,1.202678031842106,1.202678031842106,1.201498497505871,1.201498497505871,1.2014853164740544,1.2014853164740544,1.2026648637378146,1.2026648637378146,0.0029711604038868957,-0.08259728071648569,0.03314194584209723,-0.0011120547180263937,8.942676354540832e-05,-6.673170014475269e-05
47.0,0.9200000000000005,-0.14877670612904395,0.010000946735282156,0.24858150287221997,-0.15120100771280853,0.010002371411802463,0.24858416458402444,-0.002424301583764582,1.4246765203066586e-06,2.661711804463618e-06,0.002424303463565644,-0.0008694854488372275,-9.493501031599492e-06,0.0002044828392578042,min_task,none,false,false,7.052443621842193,7.052443621842193,6.999999999999156,6.999999999999156,6.999999999999156,6.999999999999156,7.052490948387297,7.052490948387297,0.0031257069460489226,-0.08405081579265174,0.03304373072512261,-0.0011197496119696273,0.00010009019039650019,-6.654449547394935e-05,0.023985770423663136,2.0739016921530213e-05,-0.02586242930673034,-0.0007007016324747507,-0.20719439008904256,0.09438930869845838,-0.0014135573425057097,-0.0009728475877369259,0.0008062062039449082,-0.0008694854488372275,-9.493501031599492e-06,0.0002044828392578042,-0.003504235694618353,0.8319941599706486,0.8364491601582922,-0.00040464198705346486,0.0023733469606399505,-0.00011043663947278704,7.052443621842193,7.052443621842193,6.999999999999156,6.999999999999156,6.999999999999156,6.999999999999156,7.052490948387297,7.052490948387297,1.2027032408767384,1.2027032408767384,1.2014736102982917,1.2014736102982917,1.201460133197383,1.201460133197383,1.2026897775548242,1.2026897775548242,0.0031257069460489226,-0.08405081579265174,0.03304373072512261,-0.0011197496119696273,0.00010009019039650019,-6.654449547394935e-05
48.0,0.9400000000000005,-0.14631632155322444,0.010000895852002166,0.248581659683889,-0.1488128558596835,0.010002371411802463,0.24858416458402444,-0.002496534306459075,1.475559800297177e-06,2.5049001354249256e-06,0.002496535999165345,-0.0009054227070712375,-9.71029257976405e-06,0.0002156260911755388,min_task,none,false,false,7.0536610768854,7.0536610768854,6.999999999999411,6.999999999999411,6.999999999999411,6.999999999999411,7.053775214081994,7.053775214081994,0.0032831271926664933,-0.08547232372012278,0.03291712409754688,-0.0011267601507293102,0.00011084184560239448,-6.629920463310889e-05,0.024609768077514672,7.880805727020996e-06,-0.02731892701365954,-0.0007383634918673838,-0.21624019102788244,0.08060714044840799,-0.0014857646498880285,-0.0008956647633688004,0.0008260797159849946,-0.0009054227070712375,-9.71029257976405e-06,0.0002156260911755388,-0.0034739775925862674,0.8306087992576335,0.8398237601084239,-0.00038090623260131676,0.002326534317494594,-0.0001143373625405415,7.0536610768854,7.0536610768854,6.999999999999411,6.999999999999411,6.999999999999411,6.999999999999411,7.053775214081994,7.053775214081994,1.202728821422531,1.202728821422531,1.2014483683954271,1.2014483683954271,1.2014345799024901,1.2014345799024901,1.2027150476093116,1.2027150476093116,0.0032831271926664933,-0.08547232372012278,0.03291712409754688,-0.0011267601507293102,0.00011084184560239448,-6.629920463310889e-05
49.0,0.9600000000000005,-0.14378485210193337,0.01000084431931635,0.24858180117655662,-0.14635324841280853,0.010002371411802463,0.24858416458402444,-0.0025683963108751595,1.5270924861136848e-06,2.3634074678147154e-06,0.0025683978522463083,-0.0009418583062857288,-9.94029044045401e-06,0.00022701246291685246,min_task,none,false,false,7.054871552931044,7.054871552931044,6.999999999993286,6.999999999993286,6.999999999993286,6.999999999993286,7.055054437064796,7.055054437064796,0.003443267215383002,-0.08685902428568089,0.032762685833868425,-0.0011330844297816783,0.00012164689056071432,-6.599662017219226e-05,0.025233072144835677,-5.335052645649066e-06,-0.02881008102886673,-0.0007697445823511143,-0.22530666337471106,0.06647938435961163,-0.0015552698528062145,-0.0008216881208880316,0.000846097600584357,-0.0009418583062857288,-9.94029044045401e-06,0.00022701246291685246,-0.003443601102913401,0.8291335846748221,0.8432270147485998,-0.0003572257457986852,0.0022790982018127902,-0.00011828283528361299,7.054871552931044,7.054871552931044,6.999999999993286,6.999999999993286,6.999999999993286,6.999999999993286,7.055054437064796,7.055054437064796,1.2027547645905083,1.2027547645905083,1.2014227843865695,1.2014227843865695,1.2014086655120244,1.2014086655120244,1.20274066135197,1.20274066135197,0.003443267215383002,-0.08685902428568089,0.032762685833868425,-0.0011330844297816783,0.00012164689056071432,-6.599662017219226e-05
50.0,0.9800000000000005,-0.14118268082785096,0.010000792126673375,0.24858192696948977,-0.14382250984093353,0.010002371411802463,0.24858416458402444,-0.002639829013082573,1.579285129088559e-06,2.237614534661425e-06,0.002639830433829574,-0.000978776576031787,-1.0186277793823081e-05,0.00023862576383531955,min_task,none,false,false,7.056074291941566,7.056074291941566,6.999999999994952,6.999999999994952,6.999999999994952,6.999999999994952,7.056327635702393,7.056327635702393,0.003605967928009837,-0.088208099205206,0.032580993229459745,-0.0011387209610955408,0.00013247014818880735,-6.56375415505409e-05,0.025855280492378837,-1.885477908909713e-05,-0.030333966630277667,-0.0007939134265035276,-0.23437283943926573,0.05203782503260135,-0.001621707395999053,-0.0007513391845105393,0.0008662182157955058,-0.000978776576031787,-1.0186277793823081e-05,0.00023862576383531955,-0.0034131349313056935,0.8275649168801823,0.8466531930654863,-0.000333636212520886,0.0022310701011157316,-0.000122272023676384,7.056074291941566,7.056074291941566,6.999999999994952,6.999999999994952,6.999999999994952,6.999999999994952,7.056327635702393,7.056327635702393,1.202781061286364,1.202781061286364,1.2013968713428336,1.2013968713428336,1.2013823991514494,1.2013823991514494,1.202766605750133,1.202766605750133,0.003605967928009837,-0.088208099205206,0.032580993229459745,-0.0011387209610955408,0.00013247014818880735,-6.56375415505409e-05
51.0,1.0000000000000004,-0.13851024815959756,0.010000739281603766,0.24858203679081553,-0.14122102311280854,0.010002371411802463,0.24858416458402444,-0.0027107749532109815,1.632130198696985e-06,2.1277932089058815e-06,0.0027107762796492307,-0.0010161613063910191,-1.045123381620678e-05,0.0002504486167494818,min_task,none,false,false,7.057268500485877,7.057268500485877,6.9999999999962155,6.9999999999962155,6.9999999999962155,6.9999999999962155,7.057593755155764,7.057593755155764,0.0037710648935754608,-0.08951670680047834,0.032372641728680235,-0.0011436687212866613,0.00014327632424794245,-6.522277793618482e-05,0.026475967419331718,-3.261617542276905e-05,-0.03188840751638482,-0.0008099166402605585,-0.24341756195064596,0.03731423169791512,-0.0016847244557101097,-0.0006849565906263935,0.0008863904163081269,-0.0010161613063910191,-1.045123381620678e-05,0.0002504486167494818,-0.003382605407721496,0.825899203028764,0.8500964455077396,-0.0003101735369595852,0.002182480185639006,-0.0001263033741540878,7.057268500485877,7.057268500485877,6.9999999999962155,6.9999999999962155,6.9999999999962155,6.9999999999962155,7.057593755155764,7.057593755155764,1.20280770217105,1.20280770217105,1.2013706428540896,1.2013706428540896,1.2013557901882197,1.2013557901882197,1.2027928672506811,1.2027928672506811,0.0037710648935754608,-0.08951670680047834,0.032372641728680235,-0.0011436687212866613,0.00014327632424794245,-6.522277793618482e-05
52.0,1.0200000000000005,-0.135768050774344,0.010000685807042092,0.24858213046296015,-0.13854922857218352,0.010002371411802463,0.24858416458402444,-0.0027811777978395125,1.685604760371523e-06,2.03412106428158e-06,0.0027811790525076505,-0.001053995697707281,-1.0738329554269658e-05,0.00026246283602029215,min_task,none,false,false,7.058453349139018,7.058453349139018,6.999999999997167,6.999999999997167,6.999999999997167,6.999999999997167,7.0588516738488964,7.0588516738488964,0.003938387893092681,-0.09078199225915674,0.03213824481517127,-0.0011479271608103344,0.00015403020417525793,-6.47531494295679e-05,0.027094684578009655,-4.655020840033892e-05,-0.03347108343546668,-0.0008167806656072555,-0.2524195488464259,0.02234027354707291,-0.0017439867973544423,-0.0006227836565354362,0.0009065542890007666,-0.001053995697707281,-1.0738329554269658e-05,0.00026246283602029215,-0.0033520357469246425,0.824132865413806,0.8535508166862464,-0.00028687381439691307,0.002133357210460476,-0.00013037475363036812,7.058453349139018,7.058453349139018,6.999999999997167,6.999999999997167,6.999999999997167,6.999999999997167,7.0588516738488964,7.0588516738488964,1.2028346776221979,1.2028346776221979,1.2013441130615146,1.2013441130615146,1.201328848270128,1.201328848270128,1.2028194317473309,1.2028194317473309,0.003938387893092681,-0.09078199225915674,0.03213824481517127,-0.0011479271608103344,0.00015403020417525793,-6.47531494295679e-05
53.0,1.0400000000000005,-0.13295664047059183,0.010000631737971754,0.24858220788948093,-0.13580762281280853,0.010002371411802463,0.24858416458402444,-0.0028509823422167013,1.739673830708846e-06,1.9566945435034455e-06,0.00285098354445444,-0.0010922623138209487,-1.1050921385922695e-05,0.00027464979154408865,min_task,none,false,false,7.059627975143576,7.059627975143576,6.999999999997878,6.999999999997878,6.999999999997878,6.999999999997878,7.060100208095842,7.060100208095842,0.004107760673463698,-0.09200110035329505,0.031878433973242935,-0.0011514962299392483,0.00016469686201865598,-6.422948874577307e-05,0.02771096229765705,-6.0581381155615474e-05,-0.035079564589721834,-0.0008135132363241652,-0.2613574686693969,0.007147426539873748,-0.0017991844943157566,-0.0005649571361408427,0.0009266421581693032,-0.0010922623138209487,-1.1050921385922695e-05,0.00027464979154408865,-0.0033214453247841064,0.8222623501336407,0.8570102580166782,-0.0002637732882719329,0.0020837284544355976,-0.00013448340301255922,7.059627975143576,7.059627975143576,6.999999999997878,6.999999999997878,6.999999999997878,6.999999999997878,7.060100208095842,7.060100208095842,1.2028619776963259,1.2028619776963259,1.2013172966859704,1.2013172966859704,1.2013015833628782,1.2013015833628782,1.202846284552098,1.202846284552098,0.004107760673463698,-0.09200110035329505,0.031878433973242935,-0.0011514962299392483,0.00016469686201865598,-6.422948874577307e-05
54.0,1.0600000000000005,-0.13007662304066964,0.010000577117671864,0.24858226904329522,-0.13299675755343354,0.010002371411802463,0.24858416458402444,-0.0029201345127639056,1.7942941305994914e-06,1.8955407292131632e-06,0.0029201356792452255,-0.0011309430385487659,-1.1392542131309856e-05,0.00028699074025603403,min_task,none,false,false,7.060791483123982,7.060791483123982,6.999999999998416,6.999999999998416,6.999999999998416,6.999999999998416,7.061338117130901,7.061338117130901,0.004279000434359757,-0.09317118594852389,0.03159385920631747,-0.001154376401386469,0.00017524183933376503,-6.365264415121518e-05,0.02832431058581566,-7.462862824350333e-05,-0.03671136025075592,-0.0007991046414404616,-0.27021000028610137,-0.00823308676758391,-0.0018500373940299227,-0.0005114975794403209,0.0009465798019256351,-0.0011309430385487659,-1.1392542131309856e-05,0.00028699074025603403,-0.0032908489893893303,0.8202841357583516,0.8604686402753665,-0.00024090829193587168,0.0020336196997180023,-0.00013862590536546982,7.060791483123982,7.060791483123982,6.999999999998416,6.999999999998416,6.999999999998416,6.999999999998416,7.061338117130901,7.061338117130901,1.202889592091688,1.202889592091688,1.2012902090524293,1.2012902090524293,1.2012740057870213,1.2012740057870213,1.2028734103707148,1.2028734103707148,0.004279000434359757,-0.09317118594852389,0.03159385920631747,-0.001154376401386469,0.00017524183933376503,-6.365264415121518e-05
55.0,1.0800000000000005,-0.12712865714316252,0.010000521993895214,0.24858231395647393,-0.13011723851280851,0.010002371411802463,0.24858416458402444,-0.0029885813696459984,1.849417907248685e-06,1.8506275505092429e-06,0.002988582514866216,-0.0011700190350339334,-1.1766889972675849e-05,0.000299467109674641,min_task,none,false,false,7.061942944724045,7.061942944724045,6.999999999998817,6.999999999998817,6.999999999998817,6.999999999998817,7.06256410785704,7.06256410785704,0.004451917351076316,-0.0942894233495388,0.03128518827759006,-0.001156568662101101,0.00018563133069390288,-6.30234801236458e-05,0.02893421986596667,-8.860637902810515e-05,-0.03836396305189746,-0.0007725290222260934,-0.27895589446327723,-0.023770369561906955,-0.00189630040366388,-0.0004623007072933882,0.0009662878115433424,-0.0011700190350339334,-1.1766889972675849e-05,0.000299467109674641,-0.003260256422579066,0.818194741972866,0.863919766042864,-0.00021831517674839756,0.0019830552553572155,-0.00014279816910512137,7.061942944724045,7.061942944724045,6.999999999998817,6.999999999998817,6.999999999998817,6.999999999998817,7.06256410785704,7.06256410785704,1.2029175101116039,1.2029175101116039,1.2012628661108211,1.2012628661108211,1.201246126254413,1.201246126254413,1.2029007932816191,1.2029007932816191,0.004451917351076316,-0.0942894233495388,0.03128518827759006,-0.001156568662101101,0.00018563133069390288,-6.30234801236458e-05
56.0,1.1000000000000005,-0.1241134531756457,0.010000466415263502,0.24858234271131804,-0.12716972428468354,0.010002371411802463,0.24858416458402444,-0.0030562711090378336,1.904996538961215e-06,1.8218727063923357e-06,0.003056272245754838,-0.00120947070761694,-1.2177815384535699e-05,0.00031206072175730346,min_task,none,false,false,7.063081397264535,7.063081397264535,6.999999999999115,6.999999999999115,6.999999999999115,6.999999999999115,7.0637768391630855,7.0637768391630855,0.00462631404354296,-0.09535301659948374,0.030953106535053742,-0.001158074517435812,0.00019583235982996542,-6.234287949487415e-05,0.02954016143954511,-0.00010242573906286035,-0.0400348868867453,-0.0007327462284750008,-0.287574035216689,-0.03943391091668889,-0.0019377682366042979,-0.0004171306046763419,0.0009856830156979523,-0.00120947070761694,-1.2177815384535699e-05,0.00031206072175730346,-0.003229671563537994,0.8159907381728554,0.8673573820100337,-0.00019603022909008854,0.0019320580280943935,-0.0001469954258402085,7.063081397264535,7.063081397264535,6.999999999999115,6.999999999999115,6.999999999999115,6.999999999999115,7.0637768391630855,7.0637768391630855,1.2029457206281713,1.2029457206281713,1.2012352844536867,1.2012352844536867,1.2012179559042933,1.2012179559042933,1.2029284167181313,1.2029284167181313,0.00462631404354296,-0.09535301659948374,0.030953106535053742,-0.001158074517435812,0.00019583235982996542,-6.234287949487415e-05
57.0,1.1200000000000006,-0.1210317721476302,0.010000410428159391,0.24858235543279808,-0.1241549252128085,0.010002371411802463,0.24858416458402444,-0.0031231530651783107,1.9609836430720118e-06,1.809151226356276e-06,0.003123154204809248,-0.0012492776658111306,-1.2629306296504931e-05,0.0003247539488659383,min_task,none,false,false,7.0642058417074844,7.0642058417074844,6.999999999999338,6.999999999999338,6.999999999999338,6.999999999999338,7.064974925851567,7.064974925851567,0.004801984829977861,-0.09635920726836211,0.030598316380303477,-0.0011588959692674173,0.00020581294047738465,-6.161174510328246e-05,0.030141587737552787,-0.00011599573924397095,-0.04172169684226096,-0.0006787042041566913,-0.2960434902397064,-0.055193630249074546,-0.001974279689043465,-0.00037561405191618877,0.0010046798947465872,-0.0012492776658111306,-1.2629306296504931e-05,0.0003247539488659383,-0.0031990921026134466,0.8136687519924316,0.8707751911271802,-0.00017408957961730705,0.0018806496430838798,-0.0001512122417967788,7.0642058417074844,7.0642058417074844,6.999999999999338,6.999999999999338,6.999999999999338,6.999999999999338,7.064974925851567,7.064974925851567,1.2029742120462097,1.2029742120462097,1.2012074813310833,1.2012074813310833,1.2011895063391322,1.2011895063391322,1.2029562634533653,1.2029562634533653,0.004801984829977861,-0.09635920726836211,0.030598316380303477,-0.0011588959692674173,0.00020581294047738465,-6.161174510328246e-05
58.0,1.1400000000000006,-0.11788442455371359,0.010000354074355018,0.2485823522822223,-0.12107360226593351,0.010002371411802463,0.24858416458402444,-0.0031891777122199233,2.017337447444978e-06,1.8123018021287685e-06,0.003189178865195319,-0.0012894186899392714,-1.3125471657485597e-05,0.000337529797546079,min_task,none,false,false,7.065315241242244,7.065315241242244,6.9999999999860245,6.9999999999860245,6.9999999999860245,6.9999999999860245,7.066156941482863,7.066156941482863,0.004978715034450226,-0.09730528367398664,0.030221536655130447,-0.00115903549508721,0.00021554224503013235,-6.08310016755851e-05,0.030737932521855544,-0.00012922418636731844,-0.043422013660062306,-0.0006093423194760626,-0.30434356802642004,-0.07101992693656915,-0.0020057213575668184,-0.00033723611616541315,0.0010231919167477622,-0.0012894186899392714,-1.3125471657485597e-05,0.000337529797546079,-0.003168509050065573,0.8112254777431686,0.8741668645783852,-0.00015252910833690432,0.0018288506169411537,-0.00015544254121490378,7.065315241242244,7.065315241242244,6.9999999999860245,6.9999999999860245,6.9999999999860245,6.9999999999860245,7.066156941482863,7.066156941482863,1.20300297226724,1.20300297226724,1.2011794746631717,1.2011794746631717,1.2011607896604335,1.2011607896604335,1.2029843155874465,1.2029843155874465,0.004978715034450226,-0.09730528367398664,0.030221536655130447,-0.00115903549508721,0.00021554224503013235,-6.08310016755851e-05
59.0,1.1600000000000006,-0.11467226924688825,0.010000297389562712,0.24858233345199748,-0.11792656591280849,0.010002371411802463,0.24858416458402444,-0.0032542966659202394,2.074022239751186e-06,1.83113202695262e-06,0.0032542978419979225,-0.0013298716980888947,-1.3670523817337373e-05,0.00035037191943431995,min_task,none,false,false,7.066408512505047,7.066408512505047,6.999999999988703,6.999999999988703,6.999999999988703,6.999999999988703,7.067321423195885,7.067321423195885,0.005156280046762491,-0.09818858786819622,0.02982350182266974,-0.0011584960015498696,0.00022499075612145332,-6.000159757590736e-05,0.031328609815591886,-0.00014202071603709293,-0.045133594188556385,-0.0005235959271961992,-0.3124538645359299,-0.08688371350286118,-0.0020320307271878024,-0.00030133713089048193,0.0010411327411524545,-0.0013298716980888947,-1.3670523817337373e-05,0.00035037191943431995,-0.003137906379884567,0.808657684744974,0.8775260535659463,-0.0001313843509498606,0.001776680585186714,-0.00015967963939623092,7.066408512505047,7.066408512505047,6.999999999988703,6.999999999988703,6.999999999988703,6.999999999988703,7.067321423195885,7.067321423195885,1.2030319886535514,1.2030319886535514,1.2011512830510152,1.2011512830510152,1.2011318185044484,1.2011318185044484,1.2030125545364945,1.2030125545364945,0.005156280046762491,-0.09818858786819622,0.02982350182266974,-0.0011584960015498696,0.00022499075612145332,-6.000159757590736e-05
60.0,1.1800000000000006,-0.11139621231212957,0.01000024040303073,0.24858229916155627,-0.11471467499718352,0.010002371411802463,0.24858416458402444,-0.0033184626850539523,2.1310087717323067e-06,1.8654224681613485e-06,0.003318463893595176,-0.0013706137137828422,-1.4268759695850686e-05,0.00036326455174626936,min_task,none,false,false,7.067484531525913,7.067484531525913,6.999999999990856,6.999999999990856,6.999999999990856,6.999999999990856,7.068466870633353,7.068466870633353,0.005334444297685256,-0.09900652252065892,0.029404960977725225,-0.0011572807637512399,0.00023413042159377284,-5.9124506563716394e-05,0.031913015012068696,-0.00015429503758405662,-0.04685422278017758,-0.0004204023425130212,-0.3203543097102695,-0.10275644616986096,-0.0020531984533108394,-0.0002671104073156516,0.001058417190041948,-0.0013706137137828422,-1.4268759695850686e-05,0.00036326455174626936,-0.003107260748468671,0.8059622255316614,0.8808464008932226,-0.00011069040956481843,0.001724158585706774,-0.00016391628317394383,7.067484531525913,7.067484531525913,6.999999999990856,6.999999999990856,6.999999999990856,6.999999999990856,7.068466870633353,7.068466870633353,1.203061247991899,1.203061247991899,1.201122925785993,1.201122925785993,1.2011026060782461,1.2011026060782461,1.2030409610229718,1.2030409610229718,0.005334444297685256,-0.09900652252065892,0.029404960977725225,-0.0011572807637512399,0.00023413042159377284,-5.9124506563716394e-05
61.0,1.2000000000000006,-0.10805720594046317,0.010000183138246901,0.24858224965432035,-0.1114388356128085,0.010002371411802463,0.24858416458402444,-0.0033816296723453293,2.188273555562073e-06,1.914929704083246e-06,0.003381630922555462,-0.0014116208338562294,-1.4924540835306027e-05,0.0003761923928592414,min_task,none,false,false,7.068542123495315,7.068542123495315,6.999999999992588,6.999999999992588,6.999999999992588,6.999999999992588,7.0695917498930845,7.0695917498930845,0.005512960169754732,-0.09975655745712476,0.028966676632160092,-0.0011553933518619818,0.00024293480446525736,-5.820072947824236e-05,0.03249052332599635,-0.00016596014045571817,-0.048581781626172514,-0.0002987082707117234,-0.32802521302963716,-0.11861015255645246,-0.0020692703091312386,-0.0002336014286529652,0.0010749620706584954,-0.0014116208338562294,-1.4924540835306027e-05,0.0003761923928592414,-0.003076541284718498,0.8031360439141708,0.8841215523352928,-9.048187166702299e-05,0.0016713033994641725,-0.000168144696340539,7.068542123495315,7.068542123495315,6.999999999992588,6.999999999992588,6.999999999992588,6.999999999992588,7.0695917498930845,7.0695917498930845,1.2030907364565426,1.2030907364565426,1.2010944228582539,1.2010944228582539,1.201073166196433,1.201073166196433,1.2030695150669675,1.2030695150669675,0.005512960169754732,-0.09975655745712476,0.028966676632160092,-0.0011553933518619818,0.00024293480446525736,-5.820072947824236e-05
62.0,1.2200000000000006,-0.10465624730335722,0.01000012561476462,0.24858218519542574,-0.10809999997843349,0.010002371411802463,0.24858416458402444,-0.003443752675076267,2.245797037843389e-06,1.979388598694065e-06,0.0034437539762123695,-0.0014528681961651793,-1.5642272577011e-05,0.0003891404210172353,min_task,none,false,false,7.069580061237976,7.069580061237976,6.999999999993981,6.999999999993981,6.999999999993981,6.999999999993981,7.070694493879117,7.070694493879117,0.005691566828371741,-0.10043623660376118,0.028509423663084673,-0.001152837551228341,0.00025137923545115074,-5.723129661202107e-05,0.03306048948965212,-0.0001769326649168127,-0.050314213065273776,-0.00015747905146612574,-0.3354473093157912,-0.1344174539532166,-0.002080348279079768,-0.00019970778697488142,0.0010906867131754887,-0.0014528681961651793,-1.5642272577011e-05,0.0003891404210172353,-0.0030457094453953323,0.8001761828842647,0.8873451677885141,-7.079274203112404e-05,0.0016181339493199737,-0.00017235662737236223,7.069580061237976,7.069580061237976,6.999999999993981,6.999999999993981,6.999999999993981,6.999999999993981,7.070694493879117,7.070694493879117,1.2031204395715251,1.2031204395715251,1.2010657949646388,1.2010657949646388,1.2010435133186188,1.2010435133186188,1.2030981959779805,1.2030981959779805,0.005691566828371741,-0.10043623660376118,0.028509423663084673,-0.001152837551228341,0.00025137923545115074,-5.723129661202107e-05
63.0,1.2400000000000007,-0.10119437742728785,0.010000067851084368,0.24858210607026526,-0.1046991653128085,0.010002371411802463,0.24858416458402444,-0.003504787885520652,2.303560718095593e-06,2.0585137591733194e-06,0.0035047892470679606,-0.0014943299465830972,-1.6426382305299477e-05,0.000402093665771059,min_task,none,false,false,7.070597062071246,7.070597062071246,6.999999999995103,6.999999999995103,6.999999999995103,6.999999999995103,7.071773502847558,7.071773502847558,0.005869988845039739,-0.1010431827779907,0.0280339879721652,-0.001149617255215429,0.00025944095146754223,-5.6217269789774296e-05,0.03362224711685816,-0.00018713371522682503,-0.052049495351375055,4.290244236140037e-06,-0.3426017952926489,-0.15015157503833887,-0.0020865910790481483,-0.00016418032121265044,0.0011055132883439664,-0.0014943299465830972,-1.6426382305299477e-05,0.000402093665771059,-0.0030147189303010398,0.7970797923437926,0.8905109321937228,-5.165639014250856e-05,0.0015646697572734636,-0.00017654339730858792,7.070597062071246,7.070597062071246,6.999999999995103,6.999999999995103,6.999999999995103,6.999999999995103,7.071773502847558,7.071773502847558,1.203150342171772,1.203150342171772,1.2010370635164245,1.2010370635164245,1.2010136625880516,1.2010136625880516,1.2031269823468609,1.2031269823468609,0.005869988845039739,-0.1010431827779907,0.0280339879721652,-0.001149617255215429,0.00025944095146754223,-5.6217269789774296e-05
64.0,1.2600000000000007,-0.09767268006866389,0.01000000986848032,0.24858201258385976,-0.10123737270968348,0.010002371411802463,0.24858416458402444,-0.003564692641019593,2.3615433221435556e-06,2.152000164679091e-06,0.003564694072838623,-0.0015359792047647215,-1.7281296706805734e-05,0.0004150369430677916,min_task,none,false,false,7.071591784804755,7.071591784804755,6.999999999996007,6.999999999996007,6.999999999996007,6.999999999996007,7.072827144380264,7.072827144380264,0.00604793487786724,-0.10157510316468155,0.027541164862254216,-0.001145736349743812,0.0002670992411856061,-5.515974425310309e-05,0.034175107977530726,-0.00019648953155292664,-0.05378561208709731,0.00018756189925533216,-0.3494703707981812,-0.1657863599630481,-0.0020882141707271097,-0.00012562526108879802,0.0011193669214984688,-0.0015359792047647215,-1.7281296706805734e-05,0.0004150369430677916,-0.0029835156512495607,0.793844136645212,0.8936125662286412,-3.310551522193935e-05,0.0015109314598982558,-0.00018069594598686502,7.071591784804755,7.071591784804755,6.999999999996007,6.999999999996007,6.999999999996007,6.999999999996007,7.072827144380264,7.072827144380264,1.2031804283626002,1.2031804283626002,1.2010082506472057,1.2010082506472057,1.2009836298718264,1.2009836298718264,1.2031558520375725,1.2031558520375725,0.00604793487786724,-0.10157510316468155,0.027541164862254216,-0.001145736349743812,0.0002670992411856061,-5.515974425310309e-05
65.0,1.2800000000000007,-0.09409228058903374,0.009999951695624211,0.24858190506070604,-0.09771570601280849,0.010002371411802463,0.24858416458402444,-0.003623425423774751,2.4197161782521515e-06,2.259523318393075e-06,0.003623426936220633,-0.00157778802825769,-1.821141793414215e-05,0.00042795456584371095,min_task,none,false,false,7.072562827048563,7.072562827048563,6.999999999996735,6.999999999996735,6.999999999996735,6.999999999996735,7.073853752937963,7.073853752937963,0.00622509635244666,-0.10202979517595333,0.02703175758737254,-0.001141198597350597,0.0002743355863118257,-5.4059851203309835e-05,0.03471836124551615,-0.00020493201768840265,-0.05552051678257015,0.0003932407478766183,-0.35603528021567127,-0.18129628396229022,-0.002085489245834084,-8.250772036287425e-05,0.0011321756391653687,-0.00157778802825769,-1.821141793414215e-05,0.00042795456584371095,-0.0029520377489009927,0.7904666019279212,0.8966438367647862,-1.5172129906432477e-05,0.0014569413811246705,-0.00018480487537265097,7.072562827048563,7.072562827048563,6.999999999996735,6.999999999996735,6.999999999996735,6.999999999996735,7.073853752937963,7.073853752937963,1.2032106814772692,1.2032106814772692,1.2009793792211525,1.2009793792211525,1.2009534318030428,1.2009534318030428,1.2031847821785628,1.2031847821785628,0.00622509635244666,-0.10202979517595333,0.02703175758737254,-0.001141198597350597,0.0002743355863118257,-5.4059851203309835e-05
66.0,1.3000000000000007,-0.09045434483041312,0.009999893373818968,0.2485817838452076,-0.09413529069093349,0.010002371411802463,0.24858416458402444,-0.003680945860520368,2.478037983495024e-06,2.3807388168373134e-06,0.0036809474645356725,-0.0016197273744987528,-1.922109850535623e-05,0.00044083004188492285,min_task,none,false,false,7.07350872290005,7.07350872290005,6.9999999999973275,6.9999999999973275,6.999999999997327,6.999999999997327,7.074851629109717,7.074851629109717,0.00640114601292966,-0.10240515016741793,0.026506575700868083,-0.001136007501287218,0.00028113378419074054,-5.291876011793366e-05,0.03525127275619493,-0.00021239913445833842,-0.057252094125924496,0.0006221575509811219,-0.3622793442975561,-0.19665645218459643,-0.002078743243276571,-3.3156652226744665e-05,0.0011438702039219938,-0.0016197273744987528,-1.922109850535623e-05,0.00044083004188492285,-0.0029202156527630098,0.7869447032371047,0.8995985670877709,2.1124375759651287e-06,0.0014027241607543024,-0.00018886048942167856,7.07350872290005,7.07350872290005,6.9999999999973275,6.9999999999973275,6.999999999997327,6.999999999997327,7.074851629109717,7.074851629109717,1.2032410840321257,1.2032410840321257,1.200950472841833,1.200950472841833,1.2009230858253603,1.2009230858253603,1.2032137491535275,1.2032137491535275,0.00640114601292966,-0.10240515016741793,0.026506575700868083,-0.001136007501287218,0.00028113378419074054,-5.291876011793366e-05
67.0,1.3200000000000007,-0.08676007799078744,0.009999834962625706,0.2485816493022911,-0.09049729271280847,0.010002371411802463,0.24858416458402444,-0.003737214722021029,2.536449176757452e-06,2.5152817333395916e-06,0.0037372164292033367,-0.0016617670603438497,-2.0314614728649354e-05,0.00045364577072325163,min_task,none,false,false,7.074427940789002,7.074427940789002,6.999999999997802,6.999999999997802,6.999999999997802,6.999999999997802,7.075819038454698,7.075819038454698,0.006575736785438034,-0.1026991596270732,0.025966433127109525,-0.0011301661795403446,0.00028748008026463056,-5.173768084293271e-05,0.03577308420669037,-0.00021883518299995304,-0.05897811953960784,0.0008750506490615681,-0.3681860054447169,-0.21184261776161148,-0.0020683569427593276,2.4228309678953958e-05,0.0011543839125669132,-0.0016617670603438497,-2.0314614728649354e-05,0.00045364577072325163,-0.0028879721806472063,0.7832760914102901,0.9024706468778431,1.871752415026173e-05,0.0013483074362097736,-0.00019285283065649162,7.074427940789002,7.074427940789002,6.999999999997802,6.999999999997802,6.999999999997802,6.999999999997802,7.075819038454698,7.075819038454698,1.2032716176789506,1.2032716176789506,1.2009215558617217,1.2009215558617217,1.2008926102403426,1.2008926102403426,1.203242728591469,1.203242728591469,0.006575736785438034,-0.1026991596270732,0.025966433127109525,-0.0011301661795403446,0.00028748008026463056,-5.173768084293271e-05
68.0,1.3400000000000007,-0.08301072349985542,0.009999776545654938,0.24858150181844352,-0.08680291742218345,0.010002371411802463,0.24858416458402444,-0.0037921939223280327,2.5948661475250906e-06,2.6627655809186024e-06,0.0037921957449731586,-0.0017038757187243674,-2.149613840877789e-05,0.00046638275026421864,min_task,none,false,false,7.075318881746992,7.075318881746992,6.999999999998237,6.999999999998237,6.999999999998237,6.999999999998237,7.0767542102551495,7.0767542102551495,0.006748500361440457,-0.10290991681523882,0.025412146396337886,-0.00112367721864761,0.00029336325433179124,-5.0517865934047236e-05,0.036283012415675234,-0.0002241909895214821,-0.06069621864066224,0.0011525461742886635,-0.37373934930978303,-0.22683116516027313,-0.002054763183969578,9.156809380330665e-05,0.0011636524289085493,-0.0017038757187243674,-2.149613840877789e-05,0.00046638275026421864,-0.002855222675920132,0.7794585597197136,0.9052540419516815,3.46130982766025e-05,0.001293722574023579,-0.0001967717144771216,7.075318881746992,7.075318881746992,6.999999999998237,6.999999999998237,6.999999999998237,6.999999999998237,7.0767542102551495,7.0767542102551495,1.2033022631540524,1.2033022631540524,1.2008926533924977,1.2008926533924977,1.2008620242580546,1.2008620242580546,1.2032716953559337,1.2032716953559337,0.006748500361440457,-0.10290991681523882,0.025412146396337886,-0.00112367721864761,0.00029336325433179124,-5.0517865934047236e-05
69.0,1.3600000000000008,-0.07920756189459144,0.009999718236310505,0.24858134180282704,-0.08305340841280846,0.010002371411802463,0.24858416458402444,-0.003845846518217025,2.6531754919578016e-06,2.8227811973979833e-06,0.0038458484693388393,-0.0017460207522463156,-2.2769706585198915e-05,0.00047902030336518706,min_task,none,false,false,7.076179877581122,7.076179877581122,6.999999999998588,6.999999999998588,6.999999999998586,6.999999999998586,7.07765533583666,7.07765533583666,0.006919046489183227,-0.103035624543005,0.024844532874285407,-0.0011165425735818345,0.00029877473061851504,-4.926061330736323e-05,0.036780248467467115,-0.00022842402701003475,-0.062403827823141404,0.0014551371402580404,-0.37892415601567103,-0.24159913199101068,-0.0020384447707955454,0.00017089294273374596,0.0011716137505841616,-0.0017460207522463156,-2.2769706585198915e-05,0.00047902030336518706,-0.002821875181971929,0.7754900502558005,0.907942803764091,4.976971587327878e-05,0.0012390054464720456,-0.00020060676298348597,7.076179877581122,7.076179877581122,6.999999999998588,6.999999999998588,6.999999999998586,6.999999999998586,7.07765533583666,7.07765533583666,1.2033330002238019,1.2033330002238019,1.2008637913160998,1.2008637913160998,1.2008313480512178,1.2008313480512178,1.203300623533473,1.203300623533473,0.006919046489183227,-0.103035624543005,0.024844532874285407,-0.0011165425735818345,0.00029877473061851504,-4.926061330736323e-05
