LordTarzan10086/HCDR_ML/results/tracking/routeb_trajectory_suite_20260416_105416/line/line_cooperative_detailed.csv
step,time_s,tip_x,tip_y,tip_z,des_x,des_y,des_z,err_x,err_y,err_z,err_norm,q_platform_x,q_platform_y,q_platform_psi,solver_status,fail_reason,fallback_applied,hold_active,u_a_1,u_a_2,u_a_3,u_a_4,u_a_5,u_a_6,u_a_7,u_a_8,u_a_9,u_a_10,u_a_11,u_a_12,u_a_13,u_a_14,qdd_1,qdd_2,qdd_3,qdd_4,qdd_5,qdd_6,qdd_7,qdd_8,qdd_9,q_1,q_2,q_3,q_4,q_5,q_6,q_7,q_8,q_9,cable_force_1,cable_force_2,cable_force_3,cable_force_4,cable_force_5,cable_force_6,cable_force_7,cable_force_8,cable_length_1,cable_length_2,cable_length_3,cable_length_4,cable_length_5,cable_length_6,cable_length_7,cable_length_8,arm_torque_1,arm_torque_2,arm_torque_3,arm_torque_4,arm_torque_5,arm_torque_6
1.0,0.0,-0.19304066384372762,0.009980180559711404,0.24858673969767764,-0.1929788356128086,0.010002371411802463,0.24858416458402444,6.18282309190199e-05,2.2190852091059227e-05,-2.575113653202621e-06,6.574036252888956e-05,-0.18670812226452044,-4.4988385388098455e-06,0.0017824538247752347,min_task,none,false,false,6.999999999999999,6.999999999999999,6.999999999999999,6.999999999999999,6.999999999999999,6.999999999999999,6.999999999999999,6.999999999999999,-0.01784068290471585,0.3444794752229077,-0.11096309309355913,0.00414926854987746,-0.0008663482734972635,0.00023087360855755532,0.6328185964396277,1.073917191583917e-05,-0.24733702734508736,-0.013892224213843321,0.9676034027792314,-0.02282893228356761,-0.0030022322700247145,0.011596612946593999,-5.956598385850287e-06,-0.18670812226452044,-4.4988385388098455e-06,0.0017824538247752347,-0.002041225306419895,0.6853295377345585,0.9340017667228726,4.089085325014922e-05,3.8851521686932075e-05,-5.298410806427299e-05,6.999999999999999,6.999999999999999,6.999999999999999,6.999999999999999,6.999999999999999,6.999999999999999,6.999999999999999,6.999999999999999,1.3406611272288391,1.3406611272288391,1.0782228291105298,1.0782228291105298,1.0781231349440294,1.0781231349440294,1.3405809497933827,1.3405809497933827,-0.01784068290471585,0.3444794752229077,-0.11096309309355913,0.00414926854987746,-0.0008663482734972635,0.00023087360855755532
2.0,0.02,-0.19346488477254603,0.009970271821074938,0.2486362288734571,-0.1929782152909336,0.010002371411802463,0.24858416458402444,0.0004866694816124395,3.20995907275249e-05,-5.2064289432662836e-05,0.0004904979697123356,-0.18639835987830963,2.5323692328543825e-06,0.001578865535945528,min_task,none,false,false,7.0,7.0,7.0,7.0,7.0,7.0,7.0,7.0,-0.0033409391356255935,0.12470718144876129,-0.052371699431891114,0.0016529948576201067,6.330083901552488e-05,0.00011026765364154548,0.6324178008915907,2.6667216590573265e-06,-0.23575185381445274,0.025644005569896936,0.275891104463315,-0.2479687057668197,-0.019156702457442453,0.03998350552634631,0.009432886840397437,-0.18639835987830963,2.5323692328543825e-06,0.001578865535945528,-0.0024609397242847057,0.6866027417244424,0.9342420138740282,0.00017793046514701793,1.7489271139934687e-05,-0.00019208950217672484,7.0,7.0,7.0,7.0,7.0,7.0,7.0,7.0,1.3404127586031875,1.3404127586031875,1.0784024286155685,1.0784024286155685,1.078324547344993,1.078324547344993,1.3403501015738517,1.3403501015738517,-0.0033409391356255935,0.12470718144876129,-0.052371699431891114,0.0016529948576201067,6.330083901552488e-05,0.00011026765364154548
3.0,0.04,-0.19401174436945073,0.009958176520910446,0.24869763275573353,-0.19297391031280858,0.010002371411802463,0.24858416458402444,0.0010378340566421507,4.419489089201728e-05,-0.00011346817170909684,0.0010449534647525053,-0.18591159309567404,1.2945922498758118e-05,0.0013216311599025836,min_task,none,false,false,7.0,7.0,7.0,7.0,7.0,7.0,7.0,7.0,0.0060897045718803795,-0.018853008606911817,-0.01330461127717811,1.8821148121859557e-05,0.0006179444595198297,3.053031041858391e-05,0.6313321287475704,-1.8367719847766074e-05,-0.20883220672634287,0.053827942027279876,-0.1713968025874024,-0.38160670006822206,-0.030888585608909287,0.0557986327260367,0.01781747415828327,-0.18591159309567404,1.2945922498758118e-05,0.0013216311599025836,-0.003038006499092455,0.6883586618932314,0.9345250837965461,0.0003784536249158601,-1.7516561385319102e-06,-0.00040261608012981913,7.0,7.0,7.0,7.0,7.0,7.0,7.0,7.0,1.3400242947821395,1.3400242947821395,1.078686973313029,1.078686973313029,1.0786390400169872,1.0786390400169872,1.3399857099461598,1.3399857099461598,0.0060897045718803795,-0.018853008606911817,-0.01330461127717811,1.8821148121859557e-05,0.0006179444595198297,3.053031041858391e-05
4.0,0.06,-0.19460106048677972,0.00994567078563477,0.2487616470853826,-0.1929623380221836,0.010002371411802463,0.24858416458402444,0.0016387224645961207,5.670062616769389e-05,-0.00017748250135815602,0.0016492805447431132,-0.1852602137491439,2.6118588606670796e-05,0.0010551947452917456,min_task,none,false,false,7.0,7.0,7.0,7.0,7.0,7.0,7.0,7.0,0.012055010839588223,-0.11060603375169545,0.012375225799351994,-0.0010384124239027868,0.000941793680064935,-2.1520130520954146e-05,0.6296264199369183,-4.984025039002213e-05,-0.1748192229939521,0.07269061289496527,-0.45309737448028925,-0.4539772624898827,-0.03970734283970905,0.06442149658995767,0.025304129551506998,-0.1852602137491439,2.6118588606670796e-05,0.0010551947452917456,-0.0037082505146151428,0.690421041154383,0.9347973311909604,0.0006292882297367825,-1.1620506211920123e-05,-0.0006745229554873203,7.0,7.0,7.0,7.0,7.0,7.0,7.0,7.0,1.339506748082876,1.339506748082876,1.0790706756249786,1.0790706756249786,1.0790574752361735,1.0790574752361735,1.3394961142268682,1.3394961142268682,0.012055010839588223,-0.11060603375169545,0.012375225799351994,-0.0010384124239027868,0.000941793680064935,-2.1520130520954146e-05
5.0,0.08,-0.19518097327998274,0.009933734303383752,0.24882318793717634,-0.1929400260128086,0.010002371411802463,0.24858416458402444,0.002240947267174137,6.863710841871137e-05,-0.00023902335315190149,0.0022547034994116837,-0.18445258379438517,4.162574844709568e-05,0.0008104041217035735,min_task,none,false,false,7.0,7.0,7.0,7.0,7.0,7.0,7.0,7.0,0.01573005430558038,-0.16766811900044742,0.028934117144419878,-0.0017123956249575716,0.00112001782865603,-5.4803746154988053e-05,0.6273445462470163,-9.00855841023217e-05,-0.13958935764059688,0.08501537130626519,-0.6248028052872444,-0.4878929893988176,-0.04664932245951421,0.06867550730583627,0.03216983641113991,-0.18445258379438517,4.162574844709568e-05,0.0008104041217035735,-0.004427320310689635,0.692678419275752,0.9350287001122798,0.0009206424013991983,-7.900783914081408e-06,-0.001000117189015831,7.0,7.0,7.0,7.0,7.0,7.0,7.0,7.0,1.3388676020159815,1.3388676020159815,1.079549727546107,1.079549727546107,1.0795737367716545,1.0795737367716545,1.3388869611024912,1.3388869611024912,0.01573005430558038,-0.16766811900044742,0.028934117144419878,-0.0017123956249575716,0.00112001782865603,-5.4803746154988053e-05
6.0,0.1,-0.19571871103317118,0.009922912339824765,0.24887974676931743,-0.1929036110034336,0.010002371411802463,0.24858416458402444,0.0028151000297375883,7.945907197769858e-05,-0.00029558218529299185,0.002831690440321948,-0.1834944318504278,5.916899473121521e-05,0.0006076548989960264,min_task,none,false,false,7.0,7.0,7.0,7.0,7.0,7.0,7.0,7.0,0.01791283100530077,-0.20181748927208512,0.039326675431745776,-0.002132675388505624,0.0012060748917243473,-7.544569656736571e-05,0.6245163748107527,-0.0001379762816809856,-0.10722159795268629,0.092843662426891,-0.7247175583470422,-0.4990641140865569,-0.05225782571279441,0.07012554372714094,0.038548350547622144,-0.1834944318504278,5.916899473121521e-05,0.0006076548989960264,-0.005165388179569244,0.6950619925710486,0.9352037014937937,0.0012444123027464545,1.1834050676269756e-05,-0.0013728813056862552,7.0,7.0,7.0,7.0,7.0,7.0,7.0,7.0,1.3381120053942976,1.3381120053942976,1.0801215805593398,1.0801215805593398,1.0801837355785788,1.0801837355785788,1.3381621773159016,1.3381621773159016,0.01791283100530077,-0.20181748927208512,0.039326675431745776,-0.002132675388505624,0.0012060748917243473,-7.544569656736571e-05
7.0,0.12000000000000001,-0.1961942375119441,0.009913490768568118,0.24893032878900961,-0.19284983771280859,0.010002371411802463,0.24858416458402444,0.0033443997991355057,8.888064323434551e-05,-0.00034616420498517764,0.00336344160674931,-0.182389809884574,7.853052125346852e-05,0.0004591502950709281,min_task,none,false,false,7.0,7.0,7.0,7.0,7.0,7.0,7.0,7.0,0.01913927500317495,-0.22105215559952365,0.04559086361992556,-0.002386026446283576,0.0012335814338202294,-8.76404601324292e-05,0.6211626493028073,-0.00019271103339686427,-0.08041335016539014,0.09765946104519341,-0.7786104003716495,-0.4976683688583132,-0.056821292871489786,0.06967652626097123,0.04449846499121889,-0.182389809884574,7.853052125346852e-05,0.0004591502950709281,-0.005903456953662509,0.6975305027175549,0.9353153673790479,0.001593413210848276,4.889282527582421e-05,-0.0017869268315020474,7.0,7.0,7.0,7.0,7.0,7.0,7.0,7.0,1.3372435929785327,1.3372435929785327,1.0807844559322768,1.0807844559322768,1.0808847289895465,1.0808847289895465,1.3373246367805065,1.3373246367805065,0.01913927500317495,-0.22105215559952365,0.04559086361992556,-0.002386026446283576,0.0012335814338202294,-8.76404601324292e-05
8.0,0.14,-0.19659590678695216,0.009905583393029983,0.2489747867099393,-0.1927755577346836,0.010002371411802463,0.24858416458402444,0.0038203490522685513,9.678801877248053e-05,-0.000390622125914869,0.0038414867495543143,-0.18114173836844275,9.954326661935757e-05,0.0003705942865852279,min_task,none,false,false,7.0,7.0,7.0,7.0,7.0,7.0,7.0,7.0,0.019767411068352777,-0.23074538438842696,0.0491263132350074,-0.0025306223564416238,0.001223684910071639,-9.424768172166802e-05,0.6172983338852419,-0.00025368456267734835,-0.060779242440550205,0.10055832352352446,-0.8036069184779838,-0.4899768903753285,-0.06050341058041144,0.06788817492420174,0.05004469217862642,-0.18114173836844275,9.954326661935757e-05,0.0003705942865852279,-0.006630696446427222,0.7000600977626704,0.9353613912515724,0.0019610404098737875,0.0001038447491083528,-0.002236749449151448,7.0,7.0,7.0,7.0,7.0,7.0,7.0,7.0,1.3362650433156489,1.3362650433156489,1.0815370201417795,1.0815370201417795,1.0816748564114396,1.0816748564114396,1.3363766067403757,1.3363766067403757,0.019767411068352777,-0.23074538438842696,0.0491263132350074,-0.0025306223564416238,0.001223684910071639,-9.424768172166802e-05
9.0,0.16,-0.19691750828521032,0.00989917914665829,0.249013414123534,-0.19267772841280859,0.010002371411802463,0.24858416458402444,0.004239779872401733,0.00010319226514417246,-0.00042924953950956857,0.00426270303647552,-0.17975263568652236,0.00012207059198134472,0.00034253413697215787,min_task,none,false,false,7.0,7.0,7.0,7.0,7.0,7.0,7.0,7.0,0.02003538852351336,-0.2344716931530024,0.05088934655188329,-0.0026054245020944856,0.001189743007264163,-9.720626574884279e-05,0.6129348669637477,-0.00032040512644195056,-0.04907489805008628,0.10235909945681168,-0.810938558307534,-0.4796630196792032,-0.06340831258816544,0.0651401466553634,0.055197092290845365,-0.17975263568652236,0.00012207059198134472,0.00034253413697215787,-0.0073424305473734465,0.7026376251303109,0.9353417673709221,0.0023411267300026254,0.00017674611917456977,-0.002717128548030287,7.0,7.0,7.0,7.0,7.0,7.0,7.0,7.0,1.335178455460659,1.335178455460659,1.0823781756747664,1.0823781756747664,1.0825528219659453,1.0825528219659453,1.3353200384535937,1.3353200384535937,0.02003538852351336,-0.2344716931530024,0.05088934655188329,-0.0026054245020944856,0.001189743007264163,-9.720626574884279e-05
10.0,0.18,-0.1971562703733334,0.00989417165893556,0.249046705019282,-0.1925534117159336,0.010002371411802463,0.24858416458402444,0.004602858657399789,0.0001081997528669023,-0.0004625404352575635,0.004627305766941374,-0.1782246002986247,0.0001459920347483123,0.00037148758099357534,min_task,none,false,false,7.0,7.0,7.0,7.0,7.0,7.0,7.0,7.0,0.020100780051765983,-0.23458432109941663,0.05152914339799136,-0.0026364444414182634,0.001140285245125234,-9.782197496977735e-05,0.608081659129823,-0.0003924406721286076,-0.04537428891333999,0.10367594386179223,-0.8078713512665733,-0.4687472145523094,-0.065612744904416,0.06171733664838732,0.05996086660335382,-0.1782246002986247,0.0001459920347483123,0.00037148758099357534,-0.008038541124421482,0.70525625453562,0.9352574119960484,0.002727889716462691,0.00026728872506480157,-0.0032230961000167396,7.0,7.0,7.0,7.0,7.0,7.0,7.0,7.0,1.3339856023730488,1.3339856023730488,1.0833069308391161,1.0833069308391161,1.0835176760873746,1.0835176760873746,1.3341567506587464,1.3341567506587464,0.020100780051765983,-0.23458432109941663,0.05152914339799136,-0.0026364444414182634,0.001140285245125234,-9.782197496977735e-05
11.0,0.19999999999999998,-0.1973115224349967,0.009890381560217033,0.24907521719079162,-0.1923997731128086,0.010002371411802463,0.24858416458402444,0.0049117493221881026,0.00011198985158543048,-0.0004910526067671839,0.0049375050170593505,-0.17655959342858432,0.00017119316142352088,0.00045093294249981346,min_task,none,false,false,7.0,7.0,7.0,7.0,7.0,7.0,7.0,7.0,0.020066921631644037,-0.2326132621183567,0.051482603907475964,-0.0026409467056468005,0.001080877924235579,-9.696699633844096e-05,0.6027470747361603,-0.0004693831511672405,-0.04921858666952342,0.10496474249694566,-0.7990314161698779,-0.4582381253962658,-0.0671816562330088,0.057852672024956676,0.06434104057511754,-0.17655959342858432,0.00017119316142352088,0.00045093294249981346,-0.008722149715285052,0.7079126636171549,0.9351094051730544,0.0031159195687749694,0.0003749070671771352,-0.003749938526263206,7.0,7.0,7.0,7.0,7.0,7.0,7.0,7.0,1.3326881009052371,1.3326881009052371,1.0843223227199212,1.0843223227199212,1.084568663749526,1.084568663749526,1.3328885404013024,1.3328885404013024,0.020066921631644037,-0.2326132621183567,0.051482603907475964,-0.0026409467056468005,0.001080877924235579,-9.696699633844096e-05
12.0,0.21999999999999997,-0.19738380777480513,0.00988757609109512,0.24909949906446127,-0.1922140804471836,0.010002371411802463,0.24858416458402444,0.005169727327621526,0.0001147953207073435,-0.0005153344804368354,0.005196616999004276,-0.17475955507349503,0.00019755834719913914,0.0005722021877480558,min_task,none,false,false,7.0,7.0,7.0,7.0,7.0,7.0,7.0,7.0,0.020000475165349148,-0.229537046542247,0.051040337597053106,-0.002630284549272522,0.0010152874965322076,-9.521823691237269e-05,0.596939064230462,-0.0005508249101771143,-0.059746886186997264,0.10655363099919254,-0.7873033636377473,-0.44854953491017474,-0.06817540030233739,0.053747192638261325,0.06834472693090454,-0.17475955507349503,0.00019755834719913914,0.0005722021877480558,-0.009398498527700238,0.7106052616156231,0.9348986120676929,0.0035001850553203332,0.0004988629211675457,-0.004293213189673876,7.0,7.0,7.0,7.0,7.0,7.0,7.0,7.0,1.3312875255190033,1.3312875255190033,1.0854233751679354,1.0854233751679354,1.0857051179230313,1.0857051179230313,1.3315172455983517,1.3315172455983517,0.020000475165349148,-0.229537046542247,0.051040337597053106,-0.002630284549272522,0.0010152874965322076,-9.521823691237269e-05
13.0,0.23999999999999996,-0.19737430402816997,0.009885487805889883,0.24912005420086145,-0.1919937028128086,0.010002371411802463,0.24858416458402444,0.00538060121536138,0.00011688360591258044,-0.0005358896168370098,0.005408484898519474,-0.17282647561657466,0.00022496575408447096,0.0007252925313107368,min_task,none,false,false,7.0,7.0,7.0,7.0,7.0,7.0,7.0,7.0,0.019943129049661352,-0.22596711416635776,0.050392514490898994,-0.00261182169760866,0.0009461931966809583,-9.295295381247167e-05,0.5906655620420002,-0.0006363434434117928,-0.07581411239960416,0.10866403136632019,-0.7744332833705702,-0.4397625985492044,-0.0686525760183956,0.049577906906433274,0.07198210883743632,-0.17282647561657466,0.00022496575408447096,0.0007252925313107368,-0.010073989840477054,0.7133330965798527,0.9346255283605682,0.0038760459941443092,0.0006383161210327653,-0.004848769442424695,7.0,7.0,7.0,7.0,7.0,7.0,7.0,7.0,1.3297854839620789,1.3297854839620789,1.0866090792395193,1.0866090792395193,1.0869263842784171,1.0869263842784171,1.3300447763556902,1.3300447763556902,0.019943129049661352,-0.22596711416635776,0.050392514490898994,-0.00261182169760866,0.0009461931966809583,-9.295295381247167e-05
14.0,0.25999999999999995,-0.1972844523820917,0.009883832824482488,0.24913732740662226,-0.1917361094284336,0.010002371411802463,0.24858416458402444,0.005548342953658081,0.00011853858731997527,-0.0005531628225978191,0.005577109469644242,-0.17076243808093264,0.0002532840286530003,0.0008995978093140144,min_task,none,false,false,7.0,7.0,7.0,7.0,7.0,7.0,7.0,7.0,0.01991941875392003,-0.22227228844203914,0.04966068671789678,-0.002590238371200564,0.0008756093266802289,-9.041465229191408e-05,0.5839347280725443,-0.0007254920965133478,-0.09609819341848422,0.11142633068806412,-0.7614304501511208,-0.43178576825488313,-0.06867050431182369,0.04549908474991466,0.07526666566842623,-0.17076243808093264,0.0002532840286530003,0.0008995978093140144,-0.010755365159143174,0.7160952086239982,0.9342902521461094,0.0042392658745071775,0.0007923853494511287,-0.005412768123267931,7.0,7.0,7.0,7.0,7.0,7.0,7.0,7.0,1.3281836670380653,1.3281836670380653,1.0878783873857796,1.0878783873857796,1.0882317680546285,1.0882317680546285,1.3284731268072008,1.3284731268072008,0.01991941875392003,-0.22227228844203914,0.04966068671789678,-0.002590238371200564,0.0008756093266802289,-9.041465229191408e-05
15.0,0.27999999999999997,-0.19711572777016875,0.00988232843581547,0.2491517026469327,-0.19143886851280859,0.010002371411802463,0.24858416458402444,0.005676859257360167,0.00012004297598699337,-0.0005675380629082682,0.0057064210146824355,-0.16856964112315437,0.00028237038326825404,0.0010845534467070013,min_task,none,false,false,7.0,7.0,7.0,7.0,7.0,7.0,7.0,7.0,0.019941993151981283,-0.21866249174425553,0.04891984256751139,-0.0025684194175308065,0.0008051216039676646,-8.775826215498066e-05,0.5767550855216266,-0.000817795072009624,-0.11919667386475635,0.11489274865964946,-0.7488333258722154,-0.42444919179275287,-0.06828439488288086,0.04164021725068765,0.07821489804034863,-0.16856964112315437,0.00028237038326825404,0.0010845534467070013,-0.011449017600891764,0.7188902712259875,0.9338925227072328,0.004586020602378164,0.000960200028879978,-0.005981695552389763,7.0,7.0,7.0,7.0,7.0,7.0,7.0,7.0,1.3264838804776087,1.3264838804776087,1.0892302153890443,1.0892302153890443,1.0896204971775945,1.0896204971775945,1.3268043755279144,1.3268043755279144,0.019941993151981283,-0.21866249174425553,0.04891984256751139,-0.0025684194175308065,0.0008051216039676646,-8.775826215498066e-05
16.0,0.3,-0.19686950350087068,0.00988070954129084,0.24916350691267913,-0.19109964615968358,0.010002371411802463,0.24858416458402444,0.005769857341187096,0.0001216618705116232,-0.0005793423286546973,0.0058001459362810905,-0.1662504095246321,0.00031206980873799595,0.0012701862713073702,min_task,none,false,false,7.0,7.0,7.0,7.0,7.0,7.0,7.0,7.0,0.02001520184106461,-0.21524485202168372,0.048213663445816526,-0.0025480567507868545,0.0007360067553732763,-8.508088227935501e-05,0.5691355905326945,-0.0009127455617237406,-0.14371195994188782,0.11904887899692553,-0.736884708019612,-0.4175582199117007,-0.06754582685720907,0.03810262556621678,0.08084570574602244,-0.1662504095246321,0.00031206980873799595,0.0012701862713073702,-0.01216043646622851,0.7217164160265932,0.9334317907432086,0.004912900856246471,0.0011409430166745215,-0.006552369535135686,7.0,7.0,7.0,7.0,7.0,7.0,7.0,7.0,1.324688064163388,1.324688064163388,1.0906634479315849,1.0906634479315849,1.0910916977028882,1.0910916977028882,1.3250406799336774,1.3250406799336774,0.02001520184106461,-0.21524485202168372,0.048213663445816526,-0.0025480567507868545,0.0007360067553732763,-8.508088227935501e-05
17.0,0.32,-0.1965469784536843,0.009878743293565334,0.2491730166651541,-0.1907162052128086,0.010002371411802463,0.24858416458402444,0.005830773240875692,0.00012362811823712905,-0.0005888520811296594,0.005861735858223364,-0.16380719668915883,0.0003422152178126369,0.0014475610507546294,min_task,none,false,false,7.0,7.0,7.0,7.0,7.0,7.0,7.0,7.0,0.02013757771687801,-0.21206117402315067,0.0475650519081968,-0.0025300553642059564,0.000669282413331548,-8.244249185689948e-05,0.5610856574926074,-0.0010098061532334873,-0.1683240415401948,0.12382469946680516,-0.7256463858677302,-0.4109220594874114,-0.0665009820230349,0.03495606409201788,0.08317953858447062,-0.16380719668915883,0.0003422152178126369,0.0014475610507546294,-0.012893784184625905,0.7245711723325615,0.9329072997284495,0.0052169067740859675,0.001333883193145353,-0.007121936102412304,7.0,7.0,7.0,7.0,7.0,7.0,7.0,7.0,1.3227983021506455,1.3227983021506455,1.0921769450180951,1.0921769450180951,1.0926443788734646,1.0926443788734646,1.3231842682058124,1.3231842682058124,0.02013757771687801,-0.21206117402315067,0.0475650519081968,-0.0025300553642059564,0.000669282413331548,-8.244249185689948e-05
18.0,0.34,-0.1961491450773801,0.009876241271065647,0.2491804649876958,-0.1902864041409336,0.010002371411802463,0.24858416458402444,0.005862740936446509,0.00012613014073681664,-0.0005963004036713682,0.0058943374752135295,-0.1612425821461763,0.00037262835189085105,0.0016091182599351319,min_task,none,false,false,7.0,7.0,7.0,7.0,7.0,7.0,7.0,7.0,0.020303590382026723,-0.20911287092393313,0.04698337288806748,-0.002514804004831641,0.0006057196602428206,-7.987971443102882e-05,0.5526151559742836,-0.0011084108925110108,-0.19184961347097299,0.12910540604059975,-0.7150736983487193,-0.4043677391478774,-0.06518897290013521,0.03223626455572685,0.08523743034502267,-0.1612425821461763,0.00037262835189085105,0.0016091182599351319,-0.013651604435719684,0.7274514762934252,0.932318167282365,0.005495434822713491,0.0015383969286738954,-0.007687856808321839,7.0,7.0,7.0,7.0,7.0,7.0,7.0,7.0,1.3208168257635162,1.3208168257635162,1.093769547442045,1.093769547442045,1.0942774258087884,1.0942774258087884,1.3212374309499195,1.3212374309499195,0.020303590382026723,-0.20911287092393313,0.04698337288806748,-0.002514804004831641,0.0006057196602428206,-7.987971443102882e-05
19.0,0.36000000000000004,-0.1956767833680783,0.00987306860111348,0.2491860484726044,-0.1898081959128086,0.010002371411802463,0.24858416458402444,0.005868587455269719,0.0001293028106889825,-0.0006018838885799571,0.005900788265336532,-0.1585592660485732,0.00040312130533300887,0.0017489013407734205,min_task,none,false,false,7.0,7.0,7.0,7.0,7.0,7.0,7.0,7.0,0.02050491506402329,-0.20637746725949307,0.04646941120075285,-0.0025023527748358216,0.0005458402714720208,-7.741479668095047e-05,0.5437343900449801,-0.0012079685640516145,-0.21328686102489308,0.13474215590458538,-0.7050635560254258,-0.39774564155781583,-0.06364053677101278,0.02994406567534437,0.08704001968442017,-0.1585592660485732,0.00040312130533300887,0.0017489013407734205,-0.014434657388772336,0.7303537204636448,0.9316634609059611,0.005746257702196045,0.001753977671854959,-0.00824788736478428,7.0,7.0,7.0,7.0,7.0,7.0,7.0,7.0,1.3187460113288134,1.3187460113288134,1.0954400802077917,1.0954400802077917,1.0959895982675727,1.0959895982675727,1.3192025138623398,1.3192025138623398,0.02050491506402329,-0.20637746725949307,0.04646941120075285,-0.0025023527748358216,0.0005458402714720208,-7.741479668095047e-05
20.0,0.38000000000000006,-0.19513047077456247,0.009869149587356948,0.24918993339227594,-0.18927962687218358,0.010002371411802463,0.24858416458402444,0.005850843902378888,0.00013322182444551467,-0.0006057688082515,0.005883627985653346,-0.15576006197823916,0.00043349853694884323,0.0018626759342866349,min_task,none,false,false,7.0,7.0,7.0,7.0,7.0,7.0,7.0,7.0,0.02073137852936455,-0.2038194538319657,0.04601874432803225,-0.0024925274671399426,0.0004899134530583936,-7.506132013829983e-05,0.5344540671220293,-0.001307866886757135,-0.2318456677569394,0.14056264881515643,-0.6954849793106336,-0.3909304360282002,-0.061877298993919305,0.028046520308200974,0.08860665043193502,-0.15576006197823916,0.00043349853694884323,0.0018626759342866349,-0.015241874474156692,0.7332738248517949,0.9309422656002918,0.0059674989303269395,0.001980233410086859,-0.00880004916769872,7.0,7.0,7.0,7.0,7.0,7.0,7.0,7.0,1.3165883736876445,1.3165883736876445,1.0971873533711891,1.0971873533711891,1.0977795341796985,1.0977795341796985,1.3170819120296196,1.3170819120296196,0.02073137852936455,-0.2038194538319657,0.04601874432803225,-0.0024925274671399426,0.0004899134530583936,-7.506132013829983e-05
21.0,0.4000000000000001,-0.1945106012525153,0.009864469592906716,0.24919226099389213,-0.1886988356128086,0.010002371411802463,0.24858416458402444,0.005811765639706701,0.0001379018188957474,-0.0006080964098676978,0.0058451191609944254,-0.15284788892095438,0.00046355924876012507,0.0019479477535360704,min_task,none,false,false,7.0,7.0,7.0,7.0,7.0,7.0,7.0,7.0,0.020971687869648342,-0.20139735616455962,0.045624017204935724,-0.002485001808856889,0.000437960970339012,-7.282770888163136e-05,0.5247852611717516,-0.0014074774238333043,-0.24696355875007042,0.14638138698398845,-0.6861981115692277,-0.38381962645558654,-0.05991172576990127,0.02648010324172424,0.08995462625843592,-0.15284788892095438,0.00046355924876012507,0.0019479477535360704,-0.016070421474752697,0.7362073173981939,0.9301537426375874,0.006157604267566819,0.0022168724216132325,-0.009342595813620316,7.0,7.0,7.0,7.0,7.0,7.0,7.0,7.0,1.3143465563964722,1.3143465563964722,1.0990101601861941,1.0990101601861941,1.0996457568043558,1.0996457568043558,1.3148780660489419,1.3148780660489419,0.020971687869648342,-0.20139735616455962,0.045624017204935724,-0.002485001808856889,0.000437960970339012,-7.282770888163136e-05
22.0,0.4200000000000001,-0.19381740893828703,0.009859073159682626,0.24919315191091107,-0.18806405185343358,0.010002371411802463,0.24858416458402444,0.005753357084853444,0.0001432982521198372,-0.0006089873268866342,0.005787272042957929,-0.14982576296996272,0.0004931000194460392,0.002003889562270582,min_task,none,false,false,7.0,7.0,7.0,7.0,7.0,7.0,7.0,7.0,0.021214012843956107,-0.19906826728912227,0.04527645635227037,-0.0024793427858191513,0.00038977525986709917,-7.071927318002213e-05,0.5147393734327514,-0.0015061610710586806,-0.258308245493392,0.15200941357106584,-0.6770656695508739,-0.37633102402257834,-0.05774780563419633,0.025155916679419223,0.09109867232148243,-0.14982576296996272,0.0004931000194460392,0.002003889562270582,-0.01691585541209815,0.739149416319686,0.9292971796820503,0.006315312349258974,0.0024636784721418863,-0.009873976996954777,7.0,7.0,7.0,7.0,7.0,7.0,7.0,7.0,1.3120233194165214,1.3120233194165214,1.100907272768074,1.100907272768074,1.1015866844896025,1.1015866844896025,1.3125934598739641,1.3125934598739641,0.021214012843956107,-0.19906826728912227,0.04527645635227037,-0.0024793427858191513,0.00038977525986709917,-7.071927318002213e-05
23.0,0.4400000000000001,-0.19305099345987933,0.009853058585068422,0.24919270976051933,-0.1873735953128086,0.010002371411802463,0.24858416458402444,0.005677398147070745,0.000149312826734041,-0.0006085451764948901,0.005711871083316292,-0.14669678911474973,0.0005219175850574324,0.00203119086932898,min_task,none,false,false,7.0,7.0,7.0,7.0,7.0,7.0,7.0,7.0,0.021446467821369716,-0.19679067691381671,0.04496685821461918,-0.002475039847892216,0.00034495147377453536,-6.873930341367738e-05,0.5043280927468555,-0.0016032740223893905,-0.26576814084370065,0.1572633124422684,-0.6679594302417782,-0.3683998374936838,-0.055382413694015496,0.0239665672402661,0.09205063191045308,-0.14669678911474973,0.0005219175850574324,0.00203119086932898,-0.017772357990445298,0.7420951097186428,0.928372032909458,0.0064396267987962014,0.0027204773207385167,-0.01039280221949793,7.0,7.0,7.0,7.0,7.0,7.0,7.0,7.0,1.3096215250382386,1.3096215250382386,1.1028774357178635,1.1028774357178635,1.1036006421104336,1.1036006421104336,1.3102306201178604,1.3102306201178604,0.021446467821369716,-0.19679067691381671,0.04496685821461918,-0.002475039847892216,0.00034495147377453536,-6.873930341367738e-05
24.0,0.46000000000000013,-0.19221134496831327,0.009846569407123145,0.24919102402826937,-0.1866258745846836,0.010002371411802463,0.24858416458402444,0.005585470383629665,0.00015580200467931772,-0.0006068594442449338,0.005620501050274386,-0.14346415333521131,0.0005498116636453004,0.002031846274667929,min_task,none,false,false,7.0,7.0,7.0,7.0,7.0,7.0,7.0,7.0,0.021657523730026187,-0.19452616249823979,0.044686214981820106,-0.0024715256214897937,0.0003029320072904184,-6.688957004783058e-05,0.49356335683148506,-0.0016981741195053162,-0.2694326300471593,0.1619732574941382,-0.6587635257575712,-0.3599758044216594,-0.05280724500445862,0.022794237097804246,0.09281940210977235,-0.14346415333521131,0.0005498116636453004,0.002031846274667929,-0.018633026442829614,0.7450392297954443,0.9273779619600906,0.006529791746450486,0.002987097009872906,-0.01089780656447667,7.0,7.0,7.0,7.0,7.0,7.0,7.0,7.0,1.3071441227570313,1.3071441227570313,1.104919358304574,1.104919358304574,1.1056858733612265,1.1056858733612265,1.3077921164514776,1.3077921164514776,0.021657523730026187,-0.19452616249823979,0.044686214981820106,-0.0024715256214897937,0.0003029320072904184,-6.688957004783058e-05
25.0,0.48000000000000015,-0.1912983677104782,0.009839783448382473,0.2491881723508595,-0.1858193860128086,0.010002371411802463,0.24858416458402444,0.00547898169766961,0.00016258796341999011,-0.0006040077668350574,0.005514571667105678,-0.14013111512905357,0.0005765877244730702,0.002008899814432474,min_task,none,false,false,7.0,7.0,7.0,7.0,7.0,7.0,7.0,7.0,0.0218363668439272,-0.19224030641017012,0.044426089425410986,-0.0024681930930212813,0.00026306001899119454,-6.517046879977062e-05,0.482457315316246,-0.0017902274780708096,-0.26956419399069975,0.16598991083400813,-0.6493756735334768,-0.3510205316843333,-0.05001114424836655,0.02151934474110832,0.09341109117080852,-0.14013111512905357,0.0005765877244730702,0.002008899814432474,-0.01949020161283603,0.7479765202839322,0.9263148586057552,0.006585272142984615,0.003263324856913689,-0.011387820431526571,7.0,7.0,7.0,7.0,7.0,7.0,7.0,7.0,1.3045941337816886,1.3045941337816886,1.1070317058774406,1.1070317058774406,1.10784055317997,1.10784055317997,1.305280562695155,1.305280562695155,0.0218363668439272,-0.19224030641017012,0.044426089425410986,-0.0024681930930212813,0.00026306001899119454,-6.517046879977062e-05
26.0,0.5000000000000001,-0.19031190147536534,0.009832900218406725,0.24918422230666717,-0.1849527125659336,0.010002371411802463,0.24858416458402444,0.005359188909431739,0.00016947119339573782,-0.0006000577226427384,0.005395340167484375,-0.13670100053764087,0.0006020596075135931,0.0019661631235765257,min_task,none,false,false,7.0,7.0,7.0,7.0,7.0,7.0,7.0,7.0,0.02197321351726984,-0.18990310076922137,0.044178819171133143,-0.0024644124458344666,0.0002246375857273102,-6.358097961620856e-05,0.4710222950186976,-0.001878815255723471,-0.2665646709380165,0.16918999697611053,-0.6397071632143738,-0.34150516837499,-0.04698262748284327,0.02002915182453606,0.09382936344711056,-0.13670100053764087,0.0006020596075135931,0.0019661631235765257,-0.0203358130486675,0.7509016965683345,0.9251828699864816,0.006605739616102396,0.0035488642925203774,-0.01186174465201557,7.0,7.0,7.0,7.0,7.0,7.0,7.0,7.0,1.3019746358033832,1.3019746358033832,1.1092130911875906,1.1092130911875906,1.1100627996874248,1.1100627996874248,1.3026986182011964,1.3026986182011964,0.02197321351726984,-0.18990310076922137,0.044178819171133143,-0.0024644124458344666,0.0002246375857273102,-6.358097961620856e-05
27.0,0.5200000000000001,-0.18925174059854658,0.009826127565008792,0.2491792328157767,-0.18402452271280859,0.010002371411802463,0.24858416458402444,0.005227217885737989,0.00017624384679367118,-0.0005950682317522604,0.005263931507813578,-0.13317719569328756,0.0006260519059022583,0.0019079247972485795,min_task,none,false,false,7.0,7.0,7.0,7.0,7.0,7.0,7.0,7.0,0.0220595823246161,-0.18748900942938054,0.043937604089461776,-0.0024595490502725952,0.00018698370274568447,-6.211854767237444e-05,0.4592707677007122,-0.001963340393113982,-0.26093800920252486,0.17148041426134977,-0.6296821307264306,-0.33140846319902645,-0.04371237969446833,0.01822568437408537,0.09407592604375152,-0.13317719569328756,0.0006260519059022583,0.0019079247972485795,-0.021161721765111545,0.7538094984776628,0.9239824172040442,0.006591063952595319,0.0038432946840074177,-0.012318531862883658,7.0,7.0,7.0,7.0,7.0,7.0,7.0,7.0,1.2992887485756284,1.2992887485756284,1.111462066246968,1.111462066246968,1.1123506851338603,1.1123506851338603,1.3000489891488747,1.3000489891488747,0.0220595823246161,-0.18748900942938054,0.043937604089461776,-0.0024595490502725952,0.00018698370274568447,-6.211854767237444e-05
28.0,0.5400000000000001,-0.18811765045303397,0.009819668486433517,0.2491732552421453,-0.1830335692971836,0.010002371411802463,0.24858416458402444,0.0050840811558503785,0.00018270292536894626,-0.0005890906581208499,0.005121356203360253,-0.12956314088227078,0.0006484020337300703,0.0018386670649905375,min_task,none,false,false,7.0,7.0,7.0,7.0,7.0,7.0,7.0,7.0,0.02208851948554563,-0.18497680187676235,0.04369651604464883,-0.0024529829220498543,0.00014948742006237956,-6.077896071672296e-05,0.44721532039372874,-0.0020432341277408397,-0.25325180941491493,0.17280078695896528,-0.6192364571704272,-0.3207151786681414,-0.04019551935323908,0.01603239692272481,0.0941511051141844,-0.12956314088227078,0.0006484020337300703,0.0018386670649905375,-0.021960043076786402,0.756694736095812,0.9227142099786646,0.006541309674702787,0.0041460370368551274,-0.012757174466270232,7.0,7.0,7.0,7.0,7.0,7.0,7.0,7.0,1.2965396207548268,1.2965396207548268,1.1137771152552967,1.1137771152552967,1.1147022454589643,1.1147022454589643,1.2973344294174562,1.2973344294174562,0.02208851948554563,-0.18497680187676235,0.04369651604464883,-0.0024529829220498543,0.00014948742006237956,-6.077896071672296e-05
29.0,0.5600000000000002,-0.18690938151522518,0.009813708972259895,0.2491663342781662,-0.1819786884128086,0.010002371411802463,0.24858416458402444,0.004930693102416589,0.00018866243954256817,-0.0005821696941417653,0.004968525891961296,-0.1258623250994961,0.0006689619143773316,0.0017628039193576537,min_task,none,false,false,7.0,7.0,7.0,7.0,7.0,7.0,7.0,7.0,0.02205477216374812,-0.18234925894133483,0.04345046001769734,-0.002444129249781548,0.00011165237192598795,-5.9556273957117744e-05,0.43486862828195855,-0.0021179620582648297,-0.24409979128703108,0.17312442074109013,-0.6083165997453012,-0.30941492193890924,-0.036433455301405133,0.01339914445970322,0.09405445869955154,-0.1258623250994961,0.0006689619143773316,0.0017628039193576537,-0.022723434399107664,0.7595523291143526,0.9213792579742409,0.006456736673085006,0.004456328010889726,-0.013176698987513908,7.0,7.0,7.0,7.0,7.0,7.0,7.0,7.0,1.2937304183339426,1.2937304183339426,1.1161566489974017,1.1161566489974017,1.1171154881848975,1.1171154881848975,1.29455774076091,1.29455774076091,0.02205477216374812,-0.18234925894133483,0.04345046001769734,-0.002444129249781548,0.00011165237192598795,-5.9556273957117744e-05
30.0,0.5800000000000002,-0.1856266811960534,0.009808407634319298,0.24915850867917472,-0.1808587982784336,0.010002371411802463,0.24858416458402444,0.0047678829176198145,0.00019396377748316478,-0.000574344095150281,0.004806266805197186,-0.12207828105929763,0.0006875992406167147,0.0016844523125861155,min_task,none,false,false,7.0,7.0,7.0,7.0,7.0,7.0,7.0,7.0,0.02195490008161421,-0.17959279680902016,0.04319510593942651,-0.002432458764361833,7.312955073518861e-05,-5.84428099103951e-05,0.42224343007311305,-0.0021870295299197544,-0.23406706221516427,0.1724576782355579,-0.5968784428870595,-0.2975012875006204,-0.032435197964013805,0.010305152530220501,0.09378537623520239,-0.12207828105929763,0.0006875992406167147,0.0016844523125861155,-0.02344533599735723,0.7623773403452383,0.9199788792946904,0.006337803502041097,0.004773204058711838,-0.01357616620255406,7.0,7.0,7.0,7.0,7.0,7.0,7.0,7.0,1.2908643148763557,1.2908643148763557,1.1185990009687738,1.1185990009687738,1.119588398477033,1.119588398477033,1.2917217720768015,1.2917217720768015,0.02195490008161421,-0.17959279680902016,0.04319510593942651,-0.002432458764361833,7.312955073518861e-05,-5.84428099103951e-05
31.0,0.6000000000000002,-0.18426930368585834,0.00980388773094912,0.24914981190288626,-0.1796728981128086,0.010002371411802463,0.24858416458402444,0.004596405573049744,0.0001984836808533435,-0.0005656473188618283,0.004635331363868544,-0.11821458062023271,0.0007041982765912346,0.0016072451244330613,min_task,none,false,false,7.0,7.0,7.0,7.0,7.0,7.0,7.0,7.0,0.021787318443068467,-0.17669705994493554,0.04292680563086829,-0.002417516577070437,3.373668910603553e-05,-5.7429248755370674e-05,0.4093525057510713,-0.0022499861231689644,-0.22369973324650386,0.17083786418146024,-0.5848862896384268,-0.2849713155857736,-0.028218045346227273,0.006759865355835836,0.09334362175608056,-0.11821458062023271,0.0007041982765912346,0.0016072451244330613,-0.024120156151321712,0.7651650040337631,0.9185147065535929,0.006185171754977774,0.0050954967485231815,-0.013954676062437466,7.0,7.0,7.0,7.0,7.0,7.0,7.0,7.0,1.2879444836322227,1.2879444836322227,1.121102425341131,1.121102425341131,1.1221189433192844,1.1221189433192844,1.2888294176379178,1.2888294176379178,0.021787318443068467,-0.17669705994493554,0.04292680563086829,-0.002417516577070437,3.373668910603553e-05,-5.7429248755370674e-05
32.0,0.6200000000000002,-0.1828370180835801,0.009800231993306001,0.24914027269425942,-0.17842006700968358,0.010002371411802463,0.24858416458402444,0.00441695107389653,0.00020213941849646193,-0.0005561081102349874,0.0044564081235873056,-0.1142748305794058,0.0007186601926563473,0.0015341914969790084,min_task,none,false,false,7.0,7.0,7.0,7.0,7.0,7.0,7.0,7.0,0.02155226682067347,-0.17365452008397925,0.04264250745929936,-0.0023989380821651525,-6.536255685129908e-06,-5.650481792025654e-05,0.396208656584931,-0.002306429059131043,-0.21348004456417338,0.16832977506047922,-0.5723120461844379,-0.27182521004191385,-0.02380761821178003,0.002801713165209665,0.09272978701132549,-0.1142748305794058,0.0007186601926563473,0.0015341914969790084,-0.02474339588358539,0.7679107495745504,0.9169886908142825,0.005999709919321785,0.005421839537227017,-0.01431137621083416,7.0,7.0,7.0,7.0,7.0,7.0,7.0,7.0,1.2849740915049979,1.2849740915049979,1.1236650967436352,1.1236650967436352,1.1247050738569673,1.1247050738569673,1.2858836142352923,1.2858836142352923,0.02155226682067347,-0.17365452008397925,0.04264250745929936,-0.0023989380821651525,-6.536255685129908e-06,-5.650481792025654e-05
33.0,0.6400000000000002,-0.18132961507984646,0.009797480446775277,0.24912991564398174,-0.17709946281280858,0.010002371411802463,0.24858416458402444,0.004230152267037879,0.00020489096502718587,-0.0005457510599573001,0.004270130294185412,-0.11026266879168414,0.0007309029459491913,0.0014675870068361918,min_task,none,false,false,7.0,7.0,7.0,7.0,7.0,7.0,7.0,7.0,0.021251700853117075,-0.17046008841741342,0.0423396735664234,-0.00237646044534632,-4.753498879641344e-05,-5.565757047805169e-05,0.3828246872604148,-0.0023560053847307932,-0.2038077522161318,0.16502112878310105,-0.5591345492485057,-0.2580662167480236,-0.019237271336830116,-0.0015050103923807678,0.09194563128619854,-0.11026266879168414,0.0007309029459491913,0.0014675870068361918,-0.025311712068652507,0.7706102211740622,0.9154031036104493,0.005782495246175062,0.005750685474045933,-0.014645472774345386,7.0,7.0,7.0,7.0,7.0,7.0,7.0,7.0,1.2819562947368714,1.2819562947368714,1.1262851117191868,1.1262851117191868,1.127344726056593,1.127344726056593,1.282887337260292,1.282887337260292,0.021251700853117075,-0.17046008841741342,0.0423396735664234,-0.00237646044534632,-4.753498879641344e-05,-5.565757047805169e-05
34.0,0.6600000000000003,-0.17974691244521732,0.009795631201686673,0.24911876173694752,-0.1757103209909336,0.010002371411802463,0.24858416458402444,0.004036591454283728,0.00020674021011578975,-0.0005345971529230886,0.0040770830503177894,-0.10618176057088245,0.0007408607410167643,0.0014089731757157347,min_task,none,false,false,7.0,7.0,7.0,7.0,7.0,7.0,7.0,7.0,0.020889110295813865,-0.16711076674938513,0.04201620619590278,-0.0023499287836074587,-8.89603374370311e-05,-5.487474330668961e-05,0.36921338999537173,-0.0023984128648400897,-0.19498811399365618,0.16101715047205084,-0.5453390647345643,-0.24370064695307195,-0.014546959950901724,-0.006074823785526443,0.09099429580863418,-0.10618176057088245,0.0007408607410167643,0.0014089731757157347,-0.025822921191645604,0.7732592939253462,0.9137605371801879,0.005534812431665869,0.00608033460282161,-0.014956242098923562,7.0,7.0,7.0,7.0,7.0,7.0,7.0,7.0,1.278894236103899,1.278894236103899,1.1289604916246914,1.1289604916246914,1.1300358199138703,1.1300358199138703,1.2798435958267416,1.2798435958267416,0.020889110295813865,-0.16711076674938513,0.04201620619590278,-0.0023499287836074587,-8.89603374370311e-05,-5.487474330668961e-05
35.0,0.6800000000000003,-0.1780887595474962,0.009794643982232992,0.24910682889670038,-0.1742519535128086,0.010002371411802463,0.24858416458402444,0.003836806034687612,0.00020772742956947157,-0.0005226643126759467,0.0038778098479110394,-0.10203579533271293,0.0007484831244719053,0.0013591431575120515,min_task,none,false,false,7.0,7.0,7.0,7.0,7.0,7.0,7.0,7.0,0.020469270084332778,-0.16360533035597474,0.04167038246654078,-0.0023192963023159346,-0.00013039693156245474,-5.414316837661016e-05,0.3553875305003838,-0.002433399582154029,-0.18722641827035297,0.15643462689643278,-0.5309168763885609,-0.2287379642281931,-0.009781675132236954,-0.010806864829608277,0.08988039110142916,-0.10203579533271293,0.0007484831244719053,0.0013591431575120515,-0.02627594907847131,0.7758540866801384,0.9120639029827987,0.005258148257661663,0.006408969243876773,-0.015243042196258376,7.0,7.0,7.0,7.0,7.0,7.0,7.0,7.0,1.2757910433564754,1.2757910433564754,1.1316891866823875,1.1316891866823875,1.1327762575043814,1.1327762575043814,1.2767554270965107,1.2767554270965107,0.020469270084332778,-0.16360533035597474,0.04167038246654078,-0.0023192963023159346,-0.00013039693156245474,-5.414316837661016e-05
36.0,0.7000000000000003,-0.17635504108753644,0.009794445984855423,0.24909413252475948,-0.17272374772218357,0.010002371411802463,0.24858416458402444,0.0036312933653528667,0.00020792542694703965,-0.0005099679407350455,0.00367281796295493,-0.0978284834425879,0.0007537337840909261,0.0013181882067744247,min_task,none,false,false,7.0,7.0,7.0,7.0,7.0,7.0,7.0,7.0,0.019997937270095925,-0.15994405417507457,0.04130080232329707,-0.002284618437655798,-0.00017134818817558008,-5.344972047743416e-05,0.34135983564650474,-0.0024607623218746108,-0.1806286453736593,0.15139576607802835,-0.5158649490269315,-0.2131908709264242,-0.004989587291360986,-0.015591353598379577,0.08860996510535524,-0.0978284834425879,0.0007537337840909261,0.0013181882067744247,-0.0266707344259537,0.7783909720311053,0.910316428529701,0.004954181739894828,0.006734694909052343,-0.01550532283371722,7.0,7.0,7.0,7.0,7.0,7.0,7.0,7.0,1.2726498286088415,1.2726498286088415,1.1344690808563629,1.1344690808563629,1.1355639202125136,1.1355639202125136,1.2736258900192965,1.2736258900192965,0.019997937270095925,-0.15994405417507457,0.04130080232329707,-0.002284618437655798,-0.00017134818817558008,-5.344972047743416e-05
37.0,0.7200000000000003,-0.17454568020857145,0.009794939519572244,0.2490806860284457,-0.17112516521280857,0.010002371411802463,0.24858416458402444,0.0034205149957628744,0.0002074318922302195,-0.0004965214444212773,0.003462583482159397,-0.09356355323493597,0.0007565891347994092,0.0012855778206285278,min_task,none,false,false,7.0,7.0,7.0,7.0,7.0,7.0,7.0,7.0,0.019481510616228152,-0.15612847157298354,0.04090634446172899,-0.0022460412996125967,-0.0002112744057936969,-5.278176412279141e-05,0.32714298270458686,-0.0024803438905494444,-0.1752075531483406,0.1460222037624035,-0.5001856154822218,-0.1970753902119258,-0.00022005168740865257,-0.02031621103581198,0.0871903676392655,-0.09356355323493597,0.0007565891347994092,0.0012855778206285278,-0.02700809580980061,0.7808665836548238,0.9085216525359686,0.004624769740416729,0.007055584360775625,-0.015742633428681038,7.0,7.0,7.0,7.0,7.0,7.0,7.0,7.0,1.2694736883711617,1.2694736883711617,1.1372979972221458,1.1372979972221458,1.1383966654912132,1.1383966654912132,1.270458058726336,1.270458058726336,0.019481510616228152,-0.15612847157298354,0.04090634446172899,-0.0022460412996125967,-0.0002112744057936969,-5.278176412279141e-05
38.0,0.7400000000000003,-0.172660641103733,0.009796010797551376,0.24906650132826263,-0.16945574070343355,0.010002371411802463,0.24858416458402444,0.003204900400299443,0.00020636061425108668,-0.0004823367442381987,0.00324755600626008,-0.08924474817412982,0.0007570367807615192,0.0012602653058782908,min_task,none,false,false,7.0,7.0,7.0,7.0,7.0,7.0,7.0,7.0,0.018926672845582377,-0.1521611649435974,0.04048613088027826,-0.002203785367460532,-0.0002496309387219093,-5.2127575398086576e-05,0.31274959002449154,-0.0024920295800268384,-0.1708932490697976,0.14042947684911536,-0.4838862587072802,-0.18041089372387642,0.004478374376438064,-0.024873370329762088,0.08563003249416364,-0.08924474817412982,0.0007570367807615192,0.0012602653058782908,-0.02728957297933012,0.7832778212213587,0.9066834183895994,0.004271928382440727,0.007369722272883197,-0.01595462817007056,7.0,7.0,7.0,7.0,7.0,7.0,7.0,7.0,1.2662657039267267,1.2662657039267267,1.140173703514276,1.140173703514276,1.1412723234980828,1.1412723234980828,1.2672550158268465,1.2672550158268465,0.018926672845582377,-0.1521611649435974,0.04048613088027826,-0.002203785367460532,-0.0002496309387219093,-5.2127575398086576e-05
39.0,0.7600000000000003,-0.17069993121693863,0.009797539189268413,0.24905158933528265,-0.16771508091280857,0.010002371411802463,0.24858416458402444,0.0029848503041300656,0.0002048322225340505,-0.00046742475125821636,0.0030281633832312266,-0.08487582413087394,0.0007550739438113859,0.0012408099707221358,min_task,none,false,false,7.0,7.0,7.0,7.0,7.0,7.0,7.0,7.0,0.018340037649025923,-0.14804558881073662,0.040039498744275544,-0.0021581257650960845,-0.0002859036493176781,-5.147671337350646e-05,0.2981922090271251,-0.0024957430332442562,-0.167547157698226,0.13472224611792627,-0.4669789893891388,-0.16322008004950117,0.009059764825286493,-0.029164373569376772,0.08393820202620328,-0.08487582413087394,0.0007550739438113859,0.0012408099707221358,-0.027517253646208294,0.7856218530413029,0.9048058659394658,0.0038978109292559654,0.00767524807657571,-0.01614106806366589,7.0,7.0,7.0,7.0,7.0,7.0,7.0,7.0,1.2630289417823093,1.2630289417823093,1.143093917572072,1.143093917572072,1.1441886939237262,1.1441886939237262,1.264019845845925,1.264019845845925,0.018340037649025923,-0.14804558881073662,0.040039498744275544,-0.0021581257650960845,-0.0002859036493176781,-5.147671337350646e-05
40.0,0.7800000000000004,-0.16866360310974202,0.00979940628970627,0.2490359603900823,-0.16590286343468355,0.010002371411802463,0.24858416458402444,0.0027607396750584656,0.00020296512209619366,-0.0004517958060578642,0.002804816900369955,-0.08046054675146667,0.0007507059437478665,0.0012255071537819226,min_task,none,false,false,7.0,7.0,7.0,7.0,7.0,7.0,7.0,7.0,0.017727822866685197,-0.1437859152626119,0.03956597560024564,-0.0021093705914528,-0.0003196393468566001,-5.0820314107734036e-05,0.28348331738936217,-0.0024914417941779986,-0.16497821671572713,0.12899049395613807,-0.4494802916907639,-0.14552889973331806,0.013482393067431056,-0.033104930096723204,0.08212462046002439,-0.08046054675146667,0.0007507059437478665,0.0012255071537819226,-0.0276935966744781,0.787896116600415,0.9028934216132242,0.0035046830325530577,0.007970394857654694,-0.016301819862346086,7.0,7.0,7.0,7.0,7.0,7.0,7.0,7.0,1.259766453957746,1.259766453957746,1.1460563124527503,1.1460563124527503,1.147143543280091,1.147143543280091,1.2607556290152662,1.2607556290152662,0.017727822866685197,-0.1437859152626119,0.03956597560024564,-0.0021093705914528,-0.0003196393468566001,-5.0820314107734036e-05
41.0,0.8000000000000004,-0.16655175604844574,0.009801504185750532,0.2490196246572033,-0.16401883561280856,0.010002371411802463,0.24858416458402444,0.002532920435637187,0.00020086722605193105,-0.0004354600731788505,0.0025779175803549662,-0.0760026889009679,0.0007439448060122126,0.0012125178275613068,min_task,none,false,false,7.0,7.0,7.0,7.0,7.0,7.0,7.0,7.0,0.017095569937340044,-0.13938690645427063,0.0390652586025527,-0.0020578390577489594,-0.0003504695459272853,-5.0151295214442676e-05,0.26863531330983187,-0.002479112828404287,-0.1629601344702494,0.12330685075097929,-0.43141065912660975,-0.12736643362231106,0.01770995107820614,-0.03662822244039351,0.08019922142798128,-0.0760026889009679,0.0007439448060122126,0.0012125178275613068,-0.027821261657459347,0.7900983171200107,0.9009507868922986,0.003094896406822685,0.008253522576548251,-0.016436852079500932,7.0,7.0,7.0,7.0,7.0,7.0,7.0,7.0,1.2564812779280485,1.2564812779280485,1.1490585210384237,1.1490585210384237,1.1501346028548063,1.1501346028548063,1.257465435587267,1.257465435587267,0.017095569937340044,-0.13938690645427063,0.0390652586025527,-0.0020578390577489594,-0.0003504695459272853,-5.0151295214442676e-05
42.0,0.8200000000000004,-0.16436453735078616,0.009803742418830988,0.24900259247138284,-0.16206281341593354,0.010002371411802463,0.24858416458402444,0.0023017239348526175,0.00019862899297147518,-0.00041842788735840797,0.00234786465667029,-0.07150602816517598,0.0007348080578339589,0.001199990468347676,min_task,none,false,false,7.0,7.0,7.0,7.0,7.0,7.0,7.0,7.0,0.016447926106484184,-0.13485381228745846,0.03853719548759397,-0.0020038410490660686,-0.00037812650099137957,-4.9464459038287206e-05,0.2536605107526367,-0.0024587682828702937,-0.16124860980259983,0.11772512710770847,-0.41279423354156675,-0.10876475483251959,0.021712366900580336,-0.039686849150625286,0.07817183279393197,-0.07150602816517598,0.0007348080578339589,0.001199990468347676,-0.027902953433923235,0.7922264242702833,0.8989829251843469,0.0026708620416386543,0.008523144370888846,-0.01654622847925828,7.0,7.0,7.0,7.0,7.0,7.0,7.0,7.0,1.25317643608431,1.25317643608431,1.152098140024448,1.152098140024448,1.1531595674679542,1.1531595674679542,1.2541523207936345,1.2541523207936345,0.016447926106484184,-0.13485381228745846,0.03853719548759397,-0.0020038410490660686,-0.00037812650099137957,-4.9464459038287206e-05
43.0,0.8400000000000004,-0.16210214352083815,0.00980605326282266,0.2489848746352647,-0.16003468031280854,0.010002371411802463,0.24858416458402444,0.002067463208029613,0.00019631814897980333,-0.0004007100512402606,0.002115068196853219,-0.066974344399946,0.0007233177562970105,0.0011861691675350595,min_task,none,false,false,7.0,7.0,7.0,7.0,7.0,7.0,7.0,7.0,0.015788500406469053,-0.13019228867438568,0.037981767268893366,-0.0019476595467035568,-0.00040245123838300524,-4.875649333244334e-05,0.23857113557658244,-0.002430441716352669,-0.15959754035596935,0.11228004639896365,-0.39365843631247127,-0.08975875020413694,0.025466204145432027,-0.04225340709676118,0.076051917909985,-0.066974344399946,0.0007233177562970105,0.0011861691675350595,-0.027941288289365675,0.7942786671605574,0.8969950471511501,0.0022350240276790894,0.008777945228737214,-0.016630099581334712,7.0,7.0,7.0,7.0,7.0,7.0,7.0,7.0,1.2498549346344927,1.2498549346344927,1.1551727332370474,1.1551727332370474,1.156216095096779,1.156216095096779,1.2508193205162308,1.2508193205162308,0.015788500406469053,-0.13019228867438568,0.037981767268893366,-0.0019476595467035568,-0.00040245123838300524,-4.875649333244334e-05
44.0,0.8600000000000004,-0.15976482119195695,0.009808395081910289,0.2489664826701674,-0.15793438614718355,0.010002371411802463,0.24858416458402444,0.0018304350447733986,0.00019397632989217456,-0.00038231808614297424,0.0018799697839819282,-0.062411417320254126,0.0007094997723265297,0.0011694834600482651,min_task,none,false,false,7.0,7.0,7.0,7.0,7.0,7.0,7.0,7.0,0.015119800145388149,-0.12540834545442392,0.03739907242918348,-0.0018895371289423311,-0.00042339378462022143,-4.80258749145978e-05,0.22337932246732659,-0.0023941849791580586,-0.15777341503379058,0.10698809845652724,-0.37403365111183656,-0.0703859764063626,0.028954657347167952,-0.04431980781867546,0.07384836761688016,-0.062411417320254126,0.0007094997723265297,0.0011694834600482651,-0.02793868655536248,0.7962535277209133,0.8949925945578701,0.0017898349570257884,0.00901679284732483,-0.01668869280626044,7.0,7.0,7.0,7.0,7.0,7.0,7.0,7.0,1.2465197619190138,1.2465197619190138,1.158279834284042,1.158279834284042,1.1593018073667913,1.1593018073667913,1.2474694476857846,1.2474694476857846,0.015119800145388149,-0.12540834545442392,0.03739907242918348,-0.0018895371289423311,-0.00042339378462022143,-4.80258749145978e-05
45.0,0.8800000000000004,-0.1573528678912397,0.009810753683412412,0.2489474290232176,-0.15576194601280854,0.010002371411802463,0.24858416458402444,0.0015909218784311563,0.00019161772839005123,-0.0003632644391931561,0.0016430796784960248,-0.05782102412499293,0.0006933833348654085,0.0011486169472429387,min_task,none,false,false,7.0,7.0,7.0,7.0,7.0,7.0,7.0,7.0,0.014443246763969315,-0.12050831300757195,0.03678931244630902,-0.0018296672338516235,-0.0004410064854281434,-4.7272687080913144e-05,0.20809711260039346,-0.002350065857113981,-0.15556728514428697,0.10184936568083054,-0.35395292198780004,-0.0506865020583459,0.03216718662733971,-0.0458955069173706,0.07156935189870756,-0.05782102412499293,0.0006933833348654085,0.0011486169472429387,-0.027897294214546935,0.798149732581351,0.8929812227163667,0.0013377336811772776,0.009238740979732618,-0.016722301918531843,7.0,7.0,7.0,7.0,7.0,7.0,7.0,7.0,1.2431738861654837,1.2431738861654837,1.1614169485910164,1.1614169485910164,1.162414290849558,1.162414290849558,1.2441056893771543,1.2441056893771543,0.014443246763969315,-0.12050831300757195,0.03678931244630902,-0.0018296672338516235,-0.0004410064854281434,-4.7272687080913144e-05
46.0,0.9000000000000005,-0.1548666326339918,0.009813141724980344,0.24892772723607287,-0.15351743912843355,0.010002371411802463,0.24858416458402444,0.0013491935055582605,0.0001892296868221191,-0.0003435626520484347,0.0014050502787081817,-0.05320693715659964,0.0006750008209561195,0.0011225533841063404,min_task,none,false,false,7.0,7.0,7.0,7.0,7.0,7.0,7.0,7.0,0.01375926551912004,-0.11549883132724242,0.03615277942855626,-0.0017681905507413638,-0.00045543158080975235,-4.6498368843202814e-05,0.19273645197225556,-0.0022981665265354497,-0.15280392151737854,0.09685012317567589,-0.3334516975543704,-0.030702768429367613,0.035098854999555104,-0.04700487931653006,0.06922223473021513,-0.05320693715659964,0.0006750008209561195,0.0011225533841063404,-0.027818934083389295,0.7999662435486612,0.8909667816040008,0.0008811259918940637,0.00944302598962488,-0.016731276405063947,7.0,7.0,7.0,7.0,7.0,7.0,7.0,7.0,1.2398202527493016,1.2398202527493016,1.1645815549140783,1.1645815549140783,1.1655510990615674,1.1655510990615674,1.2407310045311504,1.2407310045311504,0.01375926551912004,-0.11549883132724242,0.03615277942855626,-0.0017681905507413638,-0.00045543158080975235,-4.6498368843202814e-05
47.0,0.9200000000000005,-0.1523065163527721,0.009815596364057853,0.24890739208040696,-0.15120100771280853,0.010002371411802463,0.24858416458402444,0.0011055086399635594,0.00018677504774461048,-0.0003232274963825277,0.0011668377290402455,-0.04857292159748939,0.0006543877613360471,0.0010906003868766422,min_task,none,false,false,7.0,7.0,7.0,7.0,7.0,7.0,7.0,7.0,0.01306743785122996,-0.11038685833583509,0.035489845521401824,-0.0017051963982409875,-0.00046688451825238565,-4.5705415282739224e-05,0.17730919034426212,-0.002238582799639901,-0.14934797679565773,0.09196597784574101,-0.31256762657919346,-0.010479482401886415,0.037749446833300025,-0.04768401073223715,0.06681355059977333,-0.04857292159748939,0.0006543877613360471,0.0010906003868766422,-0.02770508530236747,0.8017022467689122,0.8889552957384098,0.0004223685520602427,0.009629057659885316,-0.01671601136169415,7.0,7.0,7.0,7.0,7.0,7.0,7.0,7.0,1.2364617810603173,1.2364617810603173,1.167771106447759,1.167771106447759,1.1687097550265915,1.1687097550265915,1.2373483222047639,1.2373483222047639,0.01306743785122996,-0.11038685833583509,0.035489845521401824,-0.0017051963982409875,-0.00046688451825238565,-4.5705415282739224e-05
48.0,0.9400000000000005,-0.14967297216393075,0.009818175441900723,0.24888643966575325,-0.1488128558596835,0.010002371411802463,0.24858416458402444,0.0008601163042472326,0.00018419596990174036,-0.0003022750817288089,0.000930106680544828,-0.04392273320723353,0.0006315830185392509,0.0010523922148927428,min_task,none,false,false,7.0,7.0,7.0,7.0,7.0,7.0,7.0,7.0,0.012366700936762311,-0.10517968776129166,0.0348009539793785,-0.0016407285224045304,-0.00047563461589067923,-4.489705046542124e-05,0.16182708075089786,-0.0021714240790003418,-0.14510717022391206,0.08716529700389943,-0.2913403774322597,0.009936490070110967,0.04012245197656912,-0.047977182062914736,0.06434903687503175,-0.04392273320723353,0.0006315830185392509,0.0010523922148927428,-0.02755688831404584,0.8033571406571749,0.8869529428911314,-3.6243832856579904e-05,0.009796405522155934,-0.0166769383616606,7.0,7.0,7.0,7.0,7.0,7.0,7.0,7.0,1.2331013610985357,1.2331013610985357,1.1709830316622851,1.1709830316622851,1.1718877542467572,1.1718877542467572,1.2339605402344003,1.2339605402344003,0.012366700936762311,-0.10517968776129166,0.0348009539793785,-0.0016407285224045304,-0.00047563461589067923,-4.489705046542124e-05
49.0,0.9600000000000005,-0.1469665054738858,0.009820952569161615,0.2488648875249888,-0.14635324841280853,0.010002371411802463,0.24858416458402444,0.0006132570610772603,0.00018141884264084862,-0.000280722940964373,0.0006984285138866758,-0.039260116105725607,0.0006066290860419444,0.0010078741309236076,min_task,none,false,false,7.0,7.0,7.0,7.0,7.0,7.0,7.0,7.0,0.011655577112595348,-0.09988497708944984,0.034086612056059166,-0.0015747944853630774,-0.0004819846531285446,-4.4076895797071384e-05,0.14630177952777232,-0.0020968138899398283,-0.14003268553291082,0.08241267820607473,-0.26981150159965683,0.030496201045792478,0.04222400054359067,-0.04793331738697366,0.06183371281889528,-0.039260116105725607,0.0006066290860419444,0.0010078741309236076,-0.027375171321579246,0.8049305226698775,0.8849660317227541,-0.0004924877288950075,0.009944782086693292,-0.0166145176584354,7.0,7.0,7.0,7.0,7.0,7.0,7.0,7.0,1.229741849933553,1.229741849933553,1.174214735008417,1.174214735008417,1.1750825679240908,1.1750825679240908,1.2305705241903795,1.2305705241903795,0.011655577112595348,-0.09988497708944984,0.034086612056059166,-0.0015747944853630774,-0.0004819846531285446,-4.4076895797071384e-05
50.0,0.9800000000000005,-0.14418767392691745,0.009824011522349371,0.24884275468197636,-0.14382250984093353,0.010002371411802463,0.24858416458402444,0.0003651640859839156,0.00017835988945309224,-0.00025859009795192733,0.00048169066693986835,-0.03458880060821088,0.0005795724529864322,0.0009572716108832794,min_task,none,false,false,7.0,7.0,7.0,7.0,7.0,7.0,7.0,7.0,0.010932414314827485,-0.094510777591144,0.03334738600566346,-0.0015073775515275906,-0.00048625084920252257,-4.324865530686885e-05,0.130744846816917,-0.0020148908241316194,-0.13411711303419552,0.07767223454464003,-0.2480243170893013,0.05114870054838952,0.044061825430906254,-0.0476026301920651,0.05927199379962121,-0.03458880060821088,0.0005795724529864322,0.0009572716108832794,-0.027160493429338652,0.8064221749897639,0.8830009784217687,-0.0009442176817998621,0.010074024360844603,-0.01652923194281102,7.0,7.0,7.0,7.0,7.0,7.0,7.0,7.0,1.2263860681632972,1.2263860681632972,1.177463597621337,1.177463597621337,1.178291646282776,1.178291646282776,1.2271811065044247,1.2271811065044247,0.010932414314827485,-0.094510777591144,0.03334738600566346,-0.0015073775515275906,-0.00048625084920252257,-4.324865530686885e-05
51.0,1.0000000000000004,-0.14133708719845256,0.009827440370188234,0.24882006170540968,-0.14122102311280854,0.010002371411802463,0.24858416458402444,0.00011606408564401871,0.00017493104161422912,-0.00023589712138524788,0.0003157834593110723,-0.02991250111773346,0.0005504639794197581,0.0009010481424669553,min_task,none,false,false,7.0,7.0,7.0,7.0,7.0,7.0,7.0,7.0,0.010195619337192837,-0.08906555878997416,0.03258389614865272,-0.001438449812680719,-0.0004887444902227594,-4.241583229955999e-05,0.11516774750747293,-0.0019258097082127344,-0.12739036986074706,0.07291050192612777,-0.22602380213331974,0.0718411060490561,0.045644318927818686,-0.04703366397205135,0.0566678280994735,-0.02991250111773346,0.0005504639794197581,0.0009010481424669553,-0.026913199279698145,0.8078320491941345,0.8810642824294377,-0.0013893703658461145,0.010184074961636013,-0.016421581741955838,7.0,7.0,7.0,7.0,7.0,7.0,7.0,7.0,1.2230367964984847,1.2230367964984847,1.180726978139577,1.180726978139577,1.1815124218605433,1.1815124218605433,1.2237950856632105,1.2237950856632105,0.010195619337192837,-0.08906555878997416,0.03258389614865272,-0.001438449812680719,-0.0004887444902227594,-4.241583229955999e-05
52.0,1.0200000000000005,-0.13841540663967156,0.009831325728384549,0.24879683075211165,-0.13854922857218352,0.010002371411802463,0.24858416458402444,-0.00013382193251196273,0.00017104568341791415,-0.00021266616808721106,0.0003039602514902821,-0.02523491407969985,0.0005193592313658439,0.0008398555312700309,min_task,none,false,false,7.0,7.0,7.0,7.0,7.0,7.0,7.0,7.0,0.009443867876483561,-0.08355822727945776,0.03179681382466576,-0.0013679854118764218,-0.0004897561706753285,-4.1581495875282114e-05,0.09958185256795234,-0.001829742807924169,-0.11991409542299997,0.06809882137264718,-0.20385649748660023,0.09251868318438475,0.04697973413685029,-0.046270868306255646,0.054024843680331974,-0.02523491407969985,0.0005193592313658439,0.0008398555312700309,-0.026633479991385812,0.8091602499784958,0.8791625013331575,-0.0018259668079438276,0.010274963970178486,-0.016292082425920756,7.0,7.0,7.0,7.0,7.0,7.0,7.0,7.0,1.2196967725819685,1.2196967725819685,1.1840022137327273,1.1840022137327273,1.184742312662435,1.184742312662435,1.2204152253784804,1.2204152253784804,0.009443867876483561,-0.08355822727945776,0.03179681382466576,-0.0013679854118764218,-0.0004897561706753285,-4.1581495875282114e-05
53.0,1.0400000000000005,-0.13542334478187845,0.009835747495071072,0.24877308560174038,-0.13580762281280853,0.010002371411802463,0.24858416458402444,-0.00038427803093007973,0.0001666239167313916,-0.00018892101771594838,0.00045948262819962924,-0.02055971600195497,0.0004863187327266909,0.0007744805485144306,min_task,none,false,false,7.0,7.0,7.0,7.0,7.0,7.0,7.0,7.0,0.00867627828967217,-0.07799813412894124,0.030986857726659628,-0.0012959727070481865,-0.0004895433051329329,-4.0748102685368885e-05,0.08399844072316828,-0.0017268808902257693,-0.11177504365573562,0.0632150996986912,-0.18157041200762536,0.11312491490090788,0.04807556488396164,-0.045352796439126104,0.05134649312764434,-0.02055971600195497,0.0004863187327266909,0.0007744805485144306,-0.0263214355281823,0.810407018009253,0.8773022250076055,-0.0022521132596118993,0.010346792463579243,-0.016141262682400202,7.0,7.0,7.0,7.0,7.0,7.0,7.0,7.0,1.2163686881289895,1.2163686881289895,1.1872866214051836,1.1872866214051836,1.1879787250988112,1.1879787250988112,1.2170442536655353,1.2170442536655353,0.00867627828967217,-0.07799813412894124,0.030986857726659628,-0.0012959727070481865,-0.0004895433051329329,-4.0748102685368885e-05
54.0,1.0600000000000005,-0.13236166471172123,0.009840774353141483,0.24874885168456254,-0.13299675755343354,0.010002371411802463,0.24858416458402444,-0.0006350928417123147,0.00016159705866098002,-0.00016468710053810232,0.0006757058295188451,-0.015890561541931178,0.00045140810111706295,0.0007057914457990739,min_task,none,false,false,7.0,7.0,7.0,7.0,7.0,7.0,7.0,7.0,0.007892539407815055,-0.07239506705198143,0.030154791225301708,-0.0012224244790374648,-0.0004883212982165913,-3.99173825354144e-05,0.06842870042516769,-0.001617433990518897,-0.10307798294230675,0.05824490490689905,-0.15921490431199353,0.13360161377865376,0.048938121022299025,-0.04431095524562647,0.04863618661366242,-0.015890561541931178,0.00045140810111706295,0.0007057914457990739,-0.0259771342193911,0.8115727119865415,0.8754900490859291,-0.0026660012805062106,0.01039971841542636,-0.015969664238788758,7.0,7.0,7.0,7.0,7.0,7.0,7.0,7.0,1.2130551864475494,1.2130551864475494,1.1905774996152239,1.1905774996152239,1.1912190566593581,1.1912190566593581,1.2136848617848341,1.2136848617848341,0.007892539407815055,-0.07239506705198143,0.030154791225301708,-0.0012224244790374648,-0.0004883212982165913,-3.99173825354144e-05
55.0,1.0800000000000005,-0.1292311793301762,0.00984646024662679,0.2487241561031304,-0.13011723851280851,0.010002371411802463,0.24858416458402444,-0.0008860591826323205,0.00015591116517567338,-0.00013999151910595864,0.000910498101027721,-0.011231081660571823,0.0004146980462773335,0.0006346873802964197,min_task,none,false,false,7.0,7.0,7.0,7.0,7.0,7.0,7.0,7.0,0.00709298782812536,-0.06675923095808965,0.02930141927808792,-0.0011473855193492749,-0.0004862583948092826,-3.9090286099327396e-05,0.05288373206233663,-0.0015016317665098877,-0.09393857390221172,0.05318190246407115,-0.13684056523531998,0.1538890281839523,0.04957229950791537,-0.0431692901811901,0.045897404856835446,-0.011231081660571823,0.0004146980462773335,0.0006346873802964197,-0.025600665939536082,0.8126577900032996,0.8737325478435628,-0.003065907548268203,0.010433945399701206,-0.015777842554496355,7.0,7.0,7.0,7.0,7.0,7.0,7.0,7.0,1.2097588603704048,1.2097588603704048,1.193872130221381,1.193872130221381,1.194460698303467,1.194460698303467,1.210339703024307,1.210339703024307,0.00709298782812536,-0.06675923095808965,0.02930141927808792,-0.0011473855193492749,-0.0004862583948092826,-3.9090286099327396e-05
56.0,1.1000000000000005,-0.12603275051032617,0.009852841953308784,0.24869902764770527,-0.12716972428468354,0.010002371411802463,0.24858416458402444,-0.0011369737743573693,0.00014952945849367946,-0.00011486306368083121,0.0011525024711175251,-0.006584881840826537,0.0003762642216913279,0.0005620531927996364,min_task,none,false,false,7.0,7.0,7.0,7.0,7.0,7.0,7.0,7.0,0.00627863343587991,-0.0611012127637542,0.028427585066000825,-0.001070937183306786,-0.0004834740395847857,-3.826699129148735e-05,0.03737455034618549,-0.0013797233607020952,-0.084476631301476,0.04802768327680127,-0.11449907410949865,0.1739259805319299,0.049981537853726936,-0.04194424447175464,0.04313378646659534,-0.006584881840826537,0.0003762642216913279,0.0005620531927996364,-0.025192186356375688,0.8136627902917005,0.8720362465760473,-0.0034501938296529794,0.010449714284608188,-0.015566368176642566,7.0,7.0,7.0,7.0,7.0,7.0,7.0,7.0,1.2064822506036859,1.2064822506036859,1.1971677807436059,1.1971677807436059,1.1977010365728917,1.1977010365728917,1.2070113913211191,1.2070113913211191,0.00627863343587991,-0.0611012127637542,0.028427585066000825,-0.001070937183306786,-0.0004834740395847857,-3.826699129148735e-05
57.0,1.1200000000000006,-0.12276728816946067,0.009859937791668171,0.24867349680502687,-0.1241549252128085,0.010002371411802463,0.24858416458402444,-0.0013876370433478363,0.00014243362013429198,-8.93322210024361e-05,0.0013977854434515024,-0.0019555403667067305,0.0003361869315343994,0.000488721315766249,min_task,none,false,false,7.0,7.0,7.0,7.0,7.0,7.0,7.0,7.0,0.005451136314161799,-0.055431934884674516,0.027534166976044223,-0.0009931988273258285,-0.0004800403391811651,-3.744696248161292e-05,0.021912086810790758,-0.0012519767360901905,-0.0748100964174362,0.04279106900381515,-0.09224303778245509,0.1936500335137326,0.050167925834709456,-0.040645302739530764,0.04034918654935162,-0.0019555403667067305,0.0003361869315343994,0.000488721315766249,-0.024751950598098597,0.814588311454591,0.8704075935563974,-0.0038173074473637943,0.010447297878177459,-0.0153358284471637,7.0,7.0,7.0,7.0,7.0,7.0,7.0,7.0,1.2032278444737412,1.2032278444737412,1.2004617069065433,1.2004617069065433,1.2009374554537566,1.2009374554537566,1.2037024997397396,1.2037024997397396,0.005451136314161799,-0.055431934884674516,0.027534166976044223,-0.0009931988273258285,-0.0004800403391811651,-3.744696248161292e-05
58.0,1.1400000000000006,-0.11943574927187986,0.009867747422900995,0.24864759575954615,-0.12107360226593351,0.010002371411802463,0.24858416458402444,-0.001637852994053654,0.00013462398890146804,-6.343117552171096e-05,0.0016446001223842613,0.002653393342707986,0.0002945507053031397,0.0004154419109664813,min_task,none,false,false,7.0,7.0,7.0,7.0,7.0,7.0,7.0,7.0,0.004612741171500166,-0.04976259602220152,0.026622074450426244,-0.0009143262329653877,-0.0004759860791622801,-3.6629049632680274e-05,0.00650719235588477,-0.0011186774910609337,-0.06504995757991201,0.03748700565132662,-0.07012580484259716,0.21299767829727564,0.05013244343345837,-0.039275908018716124,0.03754770580598514,0.002653393342707986,0.0002945507053031397,0.0004154419109664813,-0.02428033560399229,0.8154349922850053,0.8688529316595495,-0.004165782466232719,0.010426998298561405,-0.015086829265952863,7.0,7.0,7.0,7.0,7.0,7.0,7.0,7.0,1.1999980750348667,1.1999980750348667,1.203751155417413,1.203751155417413,1.2041673380309317,1.2041673380309317,1.2004155588374923,1.2004155588374923,0.004612741171500166,-0.04976259602220152,0.026622074450426244,-0.0009143262329653877,-0.0004759860791622801,-3.6629049632680274e-05
59.0,1.1600000000000006,-0.11603913677773102,0.009876252642916009,0.2486213583858068,-0.11792656591280849,0.010002371411802463,0.24858416458402444,-0.001887429135077473,0.00012611876888645422,-3.719380178235365e-05,0.00189200371635358,0.007238400351088606,0.00025144376081516446,0.0003428616916766265,min_task,none,false,false,7.0,7.0,7.0,7.0,7.0,7.0,7.0,7.0,0.003766178125780473,-0.044104606817394185,0.025692244961861965,-0.000834507458152881,-0.00047130265203708377,-3.581162035823843e-05,-0.008829360238388333,-0.0009801271965173153,-0.05529626626394892,0.03213517074731585,-0.04820126602616852,0.23190455725787895,0.04987528906308909,-0.0378346323328939,0.03473369143087913,0.007238400351088606,0.00025144376081516446,0.0003428616916766265,-0.023777851250929606,0.8162034912799945,0.8673784697453438,-0.004494241711168265,0.010389146696632054,-0.014819996648657173,7.0,7.0,7.0,7.0,7.0,7.0,7.0,7.0,1.1967953204870208,1.1967953204870208,1.2070333669217037,1.2070333669217037,1.2073880679881128,1.2073880679881128,1.1971530549588696,1.1971530549588696,0.003766178125780473,-0.044104606817394185,0.025692244961861965,-0.000834507458152881,-0.00047130265203708377,-3.581162035823843e-05
60.0,1.1800000000000006,-0.11257849855252304,0.009885419008277118,0.24859482023066037,-0.11471467499718352,0.010002371411802463,0.24858416458402444,-0.0021361764446604786,0.00011695240352534511,-1.0655646635937543e-05,0.002139402068386835,0.011795993782206825,0.0002069573823351232,0.00027151130826744233,min_task,none,false,false,7.0,7.0,7.0,7.0,7.0,7.0,7.0,7.0,0.0029145397136281998,-0.03846951605209957,0.024745639646683696,-0.0007539565617492522,-0.00046595123697045653,-3.499270750870442e-05,-0.024086873898531334,-0.0008366413285624226,-0.04563531007069821,0.026758422575337514,-0.026523624844489436,0.25030571566736126,0.049396260924920936,-0.036316481140446825,0.031911712799111557,0.011795993782206825,0.0002069573823351232,0.00027151130826744233,-0.023245141048720348,0.8168944659594828,0.8659902538971987,-0.0048013996260970705,0.010334104860469802,-0.014535977864336217,7.0,7.0,7.0,7.0,7.0,7.0,7.0,7.0,1.193621903844521,1.193621903844521,1.2103055790762247,1.2103055790762247,1.2105970310119512,1.2105970310119512,1.1939174285055623,1.1939174285055623,0.0029145397136281998,-0.03846951605209957,0.024745639646683696,-0.0007539565617492522,-0.00046595123697045653,-3.499270750870442e-05
61.0,1.2000000000000006,-0.10905492625056422,0.009895198105680524,0.2485680184841047,-0.1114388356128085,0.010002371411802463,0.24858416458402444,-0.0023839093622442797,0.0001071733061219389,1.6146099919733814e-05,0.002386371861526123,0.016322720365047283,0.00016118524420497197,0.0002018006949778614,min_task,none,false,false,7.0,7.0,7.0,7.0,7.0,7.0,7.0,7.0,0.0020611450386268894,-0.03286893616565366,0.02378323994056341,-0.000672905912601037,-0.00045987057932717675,-3.417016512349422e-05,-0.03925472502045576,-0.0006885468922370009,-0.03613792699202105,0.02138121349079981,-0.0051471559674235055,0.26813588737380484,0.048695156766882006,-0.0347142230648773,0.02908651616799098,0.016322720365047283,0.00016118524420497197,0.0002018006949778614,-0.022682973742979534,0.8175085521041229,0.8646941386203794,-0.005086065894396533,0.010262268179970363,-0.014235441992310287,7.0,7.0,7.0,7.0,7.0,7.0,7.0,7.0,1.190480092793968,1.190480092793968,1.2135650296802944,1.2135650296802944,1.2137916161586284,1.2137916161586284,1.1907110722306966,1.1907110722306966,0.0020611450386268894,-0.03286893616565366,0.02378323994056341,-0.000672905912601037,-0.00045987057932717675,-3.417016512349422e-05
62.0,1.2200000000000006,-0.105469554183902,0.009905530257206295,0.24854099193758994,-0.10809999997843349,0.010002371411802463,0.24858416458402444,-0.0026304457945314913,9.684115459616775e-05,4.317264643449725e-05,0.002632581843854448,0.020815161955045024,0.00011422271155974006,0.00013402140555927267,min_task,none,false,false,7.0,7.0,7.0,7.0,7.0,7.0,7.0,7.0,0.0012094013010798062,-0.027314465889824443,0.022806043411229437,-0.0005915976985160867,-0.0004529847805448921,-3.334181810715639e-05,-0.05432236148084525,-0.0005361798450588096,-0.026858881061651307,0.016028076014680075,0.01587405596174649,0.2853298050218055,0.047772160779074896,-0.03301964966794212,0.026262963371708654,0.020815161955045024,0.00011422271155974006,0.00013402140555927267,-0.022092227541831686,0.81804634302798,0.8634957581104288,-0.00534714967165721,0.01017406944168597,-0.013919079794325122,7.0,7.0,7.0,7.0,7.0,7.0,7.0,7.0,1.1873720996815853,1.1873720996815853,1.2168089598111118,1.2168089598111118,1.2169692172371784,1.2169692172371784,1.1875363296036578,1.1875363296036578,0.0012094013010798062,-0.027314465889824443,0.022806043411229437,-0.0005915976985160867,-0.0004529847805448921,-3.334181810715639e-05
63.0,1.2400000000000007,-0.10182355818696778,0.009916347452344518,0.24851378092917478,-0.1046991653128085,0.010002371411802463,0.24858416458402444,-0.002875607125840715,8.602395945794469e-05,7.038365484965392e-05,0.002877754388869334,0.02526993703970671,6.616614870132188e-05,6.835471210829069e-05,min_task,none,false,false,7.0,7.0,7.0,7.0,7.0,7.0,7.0,7.0,0.0003626720621919269,-0.02181761375842864,0.021815060040776015,-0.0005102753240728181,-0.00044521060230624343,-3.250559892519042e-05,-0.06927930096745806,-0.0003798824334999674,-0.017837169999031757,0.010722270844501672,0.036486393441785926,0.301822545748854,0.04662819231799931,-0.03122469036486486,0.02344595979038109,0.02526993703970671,6.616614870132188e-05,6.835471210829069e-05,-0.02147386889350709,0.818508369004959,0.8624004977109397,-0.005583664233522863,0.010069982953393319,-0.013587602853331871,7.0,7.0,7.0,7.0,7.0,7.0,7.0,7.0,1.1843000815758897,1.1843000815758897,1.2200346169176601,1.2200346169176601,1.2201272342566005,1.2201272342566005,1.1843954932867222,1.1843954932867222,0.0003626720621919269,-0.02181761375842864,0.021815060040776015,-0.0005102753240728181,-0.00044521060230624343,-3.250559892519042e-05
64.0,1.2600000000000007,-0.09811815448498672,0.009927576310424874,0.24848642727492398,-0.10123737270968348,0.010002371411802463,0.24858416458402444,-0.003119218224696768,7.479510137758938e-05,9.773730910045408e-05,0.0031216452748607966,0.02968370223633125,1.711226283895843e-05,4.8841023781417e-06,min_task,none,false,false,7.0,7.0,7.0,7.0,7.0,7.0,7.0,7.0,-0.00047584002669925907,-0.01638972596876536,0.020811308578635734,-0.00042917527787971475,-0.0004364639112002606,-3.165966374270007e-05,-0.08411512969528301,-0.00022000055199682196,-0.009097101537084531,0.005484660363036571,0.056636983740678055,0.3175498880961691,0.04526519853049936,-0.029322333591740003,0.020640376762506043,0.02968370223633125,1.711226283895843e-05,4.8841023781417e-06,-0.020828927798114915,0.8188950769672441,0.8614134656861203,-0.0057947318147762855,0.009950528555868025,-0.01324174198026565,7.0,7.0,7.0,7.0,7.0,7.0,7.0,7.0,1.181266140360142,1.181266140360142,1.223239257837541,1.223239257837541,1.2232630749742819,1.2232630749742819,1.1812908037574592,1.1812908037574592,-0.00047584002669925907,-0.01638972596876536,0.020811308578635734,-0.00042917527787971475,-0.0004364639112002606,-3.165966374270007e-05
65.0,1.2800000000000007,-0.09435459857280223,0.009939140901241685,0.24845897418670673,-0.09771570601280849,0.010002371411802463,0.24858416458402444,-0.0033611074400062557,6.323051056077861e-05,0.00012519039731770376,0.0033640323952530164,0.03405315378894291,-3.284249340369988e-05,-5.6389223824723775e-05,min_task,none,false,false,7.0,7.0,7.0,7.0,7.0,7.0,7.0,7.0,-0.0013031903804950672,-0.01104191488912946,0.019795812888746107,-0.00034851994111496736,-0.0004266649749742503,-3.080248268678389e-05,-0.09881950157030979,-5.688122375269913e-05,-0.0006499564849823111,0.0003328526271809513,0.07627399737273834,0.332448707254556,0.04368637744819687,-0.027307316692474937,0.01785097317711616,0.03405315378894291,-3.284249340369988e-05,-5.6389223824723775e-05,-0.020158471558870454,0.819206810596235,0.8605394654426076,-0.005979588410247478,0.009816275159132852,-0.01288224493244848,7.0,7.0,7.0,7.0,7.0,7.0,7.0,7.0,1.1782723228191965,1.1782723228191965,1.2264201517120703,1.2264201517120703,1.2263741565726618,1.2263741565726618,1.178224448102141,1.178224448102141,-0.0013031903804950672,-0.01104191488912946,0.019795812888746107,-0.00034851994111496736,-0.0004266649749742503,-3.080248268678389e-05
66.0,1.3000000000000007,-0.09053418410925998,0.009950965283774224,0.24843146617685385,-0.09413529069093349,0.010002371411802463,0.24858416458402444,-0.0036011065816735077,5.140612802823942e-05,0.0001526984071705817,0.003604709143068764,0.038375029070693505,-8.360244256199496e-05,-0.00011552920376021111,min_task,none,false,false,7.0,7.0,7.0,7.0,7.0,7.0,7.0,7.0,-0.0021167658570274334,-0.005784994940987822,0.018769598555430634,-0.0002685117083905257,-0.00041574249492519195,-2.993290291571438e-05,-0.11338213785732285,0.0001091297128658563,0.007503948116774827,-0.004719371242545473,0.09534693602458573,0.3464573690574649,0.041896328173343704,-0.025176583036967026,0.015082320261205042,0.038375029070693505,-8.360244256199496e-05,-0.00011552920376021111,-0.019463578693155435,0.8194437909260033,0.8597829683409559,-0.006137588320149694,0.009667843531676967,-0.012509873520125375,7.0,7.0,7.0,7.0,7.0,7.0,7.0,7.0,1.1753206206961908,1.1753206206961908,1.2295745827856805,1.2295745827856805,1.229457907480207,1.229457907480207,1.1751985589961842,1.1751985589961842,-0.0021167658570274334,-0.005784994940987822,0.018769598555430634,-0.0002685117083905257,-0.00041574249492519195,-2.993290291571438e-05
67.0,1.3200000000000007,-0.08665824183052573,0.009962975659784021,0.24840394895042206,-0.09049729271280847,0.010002371411802463,0.24858416458402444,-0.0038390508822827435,3.939575201844167e-05,0.00018021563360237636,0.0038434803728688034,0.04264610809699308,-0.00013507311355179613,-0.00017264732496526797,min_task,none,false,false,7.0,7.0,7.0,7.0,7.0,7.0,7.0,7.0,-0.0029143328578029033,-0.000629422360689889,0.017733689934842655,-0.0001893286409341165,-0.0004036363067612754,-2.9050184192289572e-05,-0.12779282740160305,0.0002776896473425125,0.015372975121593194,-0.009662346022625164,0.1138069274546111,0.35951614783886493,0.039901126995538445,-0.022929506703184173,0.012338732745559642,0.04264610809699308,-0.00013507311355179613,-0.00017264732496526797,-0.018745314460971073,0.8196060975776278,0.8591480872422457,-0.006268208248905711,0.00950590816648498,-0.012125400200363444,7.0,7.0,7.0,7.0,7.0,7.0,7.0,7.0,1.1724129707051665,1.1724129707051665,1.2326998530854256,1.2326998530854256,1.2325117693424588,1.2325117693424588,1.1722152138786468,1.1722152138786468,-0.0029143328578029033,-0.000629422360689889,0.017733689934842655,-0.0001893286409341165,-0.0004036363067612754,-2.9050184192289572e-05
68.0,1.3400000000000007,-0.08272813848446672,0.009975102077529736,0.24837646928610946,-0.08680291742218345,0.010002371411802463,0.24858416458402444,-0.004074778937716725,2.7269334272727458e-05,0.0002076952979149782,0.00408015984302423,0.04686321505363116,-0.00018716157684519447,-0.0002278856439546392,min_task,none,false,false,7.0,7.0,7.0,7.0,7.0,7.0,7.0,7.0,-0.003694060630698111,0.004414758700458378,0.01668910727934788,-0.00011112172446356268,-0.00039029883578652443,-2.8154008187228448e-05,-0.1420414274474914,0.00044846092474202246,0.02297182525596865,-0.014490552912194407,0.13160700984358467,0.37156763872260024,0.037708336247880336,-0.020567913000441033,0.009624208631412983,0.04686321505363116,-0.00018716157684519447,-0.0002278856439546392,-0.018004709157902712,0.8196936507410995,0.8586385509388123,-0.006371050803242541,0.009331198139925015,-0.011729604270260747,7.0,7.0,7.0,7.0,7.0,7.0,7.0,7.0,1.1695512544953435,1.1695512544953435,1.235793284984679,1.235793284984679,1.2355331991398393,1.2355331991398393,1.1692764343195894,1.1692764343195894,-0.003694060630698111,0.004414758700458378,0.01668910727934788,-0.00011112172446356268,-0.00039029883578652443,-2.8154008187228448e-05
69.0,1.3600000000000008,-0.07874527578692472,0.009987279657956974,0.2483490749070721,-0.08305340841280846,0.010002371411802463,0.24858416458402444,-0.00430813262588374,1.5091753845489567e-05,0.00023508967695234917,0.004314568534563755,0.051023219843128666,-0.0002397766822838789,-0.0002814012430336334,min_task,none,false,false,7.0,7.0,7.0,7.0,7.0,7.0,7.0,7.0,-0.004454521728957437,0.009337965081660597,0.015636864495388862,-3.40137116768969e-05,-0.00037569541587506176,-2.7244465440266686e-05,-0.15611786508958622,0.0006211122338504228,0.030319275884453763,-0.019202424229501983,0.1487024126207311,0.3825571784574736,0.03532695384225208,-0.01809592247904576,0.006942378874691565,0.051023219843128666,-0.0002397766822838789,-0.0002814012430336334,-0.01724273998942077,0.8197061940185509,0.8582576796197195,-0.006445847278089739,0.009144496962842193,-0.01132326777494655,7.0,7.0,7.0,7.0,7.0,7.0,7.0,7.0,1.1667372985709334,1.1667372985709334,1.238852223661592,1.238852223661592,1.2385196714414475,1.2385196714414475,1.1663841855721293,1.1663841855721293,-0.004454521728957437,0.009337965081660597,0.015636864495388862,-3.40137116768969e-05,-0.00037569541587506176,-2.7244465440266686e-05
70.0,1.3800000000000008,-0.07471108939942628,0.009999449349342875,0.24832181434303077,-0.07925004640343344,0.010002371411802463,0.24858416458402444,-0.004538957004007166,2.922062459588537e-06,0.000262350240993664,0.004546533500550079,0.05512303965158004,-0.000292829202936679,-0.00033335273570608403,min_task,none,false,false,7.0,7.0,7.0,7.0,7.0,7.0,7.0,7.0,-0.005194672880517095,0.014131117664533514,0.014577967229885221,4.190059647816397e-05,-0.0003598036688627495,-2.632202363672729e-05,-0.17001213938509116,0.0007953196502475205,0.03743611162067288,-0.02379996837599944,0.16505082316053588,0.39243325461155787,0.032767315574620814,-0.015519660095140489,0.004296467429861968,0.05512303965158004,-0.000292829202936679,-0.00033335273570608403,-0.016460317017462405,0.8196432782388368,0.8580083615214718,-0.0064924596637479645,0.008946641493722278,-0.010907171241537247,7.0,7.0,7.0,7.0,7.0,7.0,7.0,7.0,1.163972874176753,1.163972874176753,1.2418740394673944,1.2418740394673944,1.241468680778488,1.241468680778488,1.1635403762956005,1.1635403762956005,-0.005194672880517095,0.014131117664533514,0.014577967229885221,4.190059647816397e-05,-0.0003598036688627495,-2.632202363672729e-05
71.0,1.4000000000000008,-0.0706270479267915,0.01001155824444559,0.24829473678496383,-0.07539414811280844,0.010002371411802463,0.24858416458402444,-0.004767100186016934,-9.186832643127626e-06,0.00028942779906060423,0.004775887041407676,0.059159640537312506,-0.0003462318922500987,-0.0003838892117425797,min_task,none,false,false,7.0,7.0,7.0,7.0,7.0,7.0,7.0,7.0,-0.005913820365268622,0.018785679295029868,0.01351341154448203,0.00011655284197341879,-0.00034261216585187326,-2.538748235688088e-05,-0.18371432414856234,0.0009707673452898422,0.04434332818412982,-0.028288264016348534,0.18061264018067236,0.4011479047341918,0.030040962833632112,-0.012846870697111119,0.0016892613737758916,0.059159640537312506,-0.0003462318922500987,-0.0003838892117425797,-0.015658273369337884,0.8195042463480905,0.8578930309110332,-0.006510881851005359,0.008738520038144541,-0.010482089339836492,7.0,7.0,7.0,7.0,7.0,7.0,7.0,7.0,1.1612596971643168,1.1612596971643168,1.2448561302221777,1.2448561302221777,1.2443777441172952,1.2443777441172952,1.160746858432481,1.160746858432481,-0.005913820365268622,0.018785679295029868,0.01351341154448203,0.00011655284197341879,-0.00034261216585187326,-2.538748235688088e-05
72.0,1.4200000000000008,-0.06649465193216306,0.010023559516047467,0.2482678919336444,-0.07148706513468346,0.010002371411802463,0.24858416458402444,-0.004992413202520404,-2.1188104245003364e-05,0.00031627265038003394,0.005002466082827544,0.0631300390418724,-0.00039989946461205006,-0.00043314180884998537,min_task,none,false,false,7.0,7.0,7.0,7.0,7.0,7.0,7.0,7.0,-0.006611574237780428,0.023293688166451325,0.012444183006731068,0.00018989863317004653,-0.0003241185828143165,-2.444191872146877e-05,-0.19721457144320606,0.0011471479852908674,0.051060661604875185,-0.0326748720243654,0.19535121127251528,0.4086570974348753,0.02716048796747623,-0.010086479633785433,-0.0008769097453120002,0.0631300390418724,-0.00039989946461205006,-0.00043314180884998537,-0.014837359636887235,0.8192882194751593,0.8579136475432977,-0.006501240049963834,0.00852106979686372,-0.01004878655589609,7.0,7.0,7.0,7.0,7.0,7.0,7.0,7.0,1.158599427855617,1.158599427855617,1.24779592345664,1.24779592345664,1.2472444034100738,1.2472444034100738,1.1580054272196247,1.1580054272196247,-0.006611574237780428,0.023293688166451325,0.012444183006731068,0.00018989863317004653,-0.0003241185828143165,-2.444191872146877e-05
73.0,1.4400000000000008,-0.06231543296625132,0.010035412041457125,0.2482413298431239,-0.0675301828128084,0.010002371411802463,0.24858416458402444,-0.005214749846557079,-3.304062965466155e-05,0.00034283474090054944,0.005226111681254373,0.06703130382313477,-0.0004537485112873458,-0.00048121791904247486,min_task,none,false,false,7.0,7.0,7.0,7.0,7.0,7.0,7.0,7.0,-0.007287796107725947,0.027647786892627018,0.0113712563006781,0.00026191439926219473,-0.0003043276148595093,-2.3486629012061762e-05,-0.21050311577607228,0.0013241628548410652,0.057605467625699916,-0.03696921495414484,0.2092330519113932,0.41492109041522524,0.024139370590108816,-0.007248140965326263,-0.0034001865981373243,0.06703130382313477,-0.0004537485112873458,-0.00048121791904247486,-0.013998242181291922,0.8189940842639596,0.858071677727575,-0.006463792470523303,0.008295273845571398,-0.009608012947610491,7.0,7.0,7.0,7.0,7.0,7.0,7.0,7.0,1.1559936709225327,1.1559936709225327,1.2506908786175792,1.2506908786175792,1.2500662282012653,1.2500662282012653,1.155317821313719,1.155317821313719,-0.007287796107725947,0.027647786892627018,0.0113712563006781,0.00026191439926219473,-0.0003043276148595093,-2.3486629012061762e-05
74.0,1.4600000000000009,-0.0580909526069896,0.010047079794666583,0.24821510076011058,-0.06352491911593341,0.010002371411802463,0.24858416458402444,-0.005433966508943816,-4.470838286411982e-05,0.0003690638239138566,0.005446668611724353,0.07086055730972046,-0.0005076973645762808,-0.0005281978897192404,min_task,none,false,false,7.0,7.0,7.0,7.0,7.0,7.0,7.0,7.0,-0.007942544276372164,0.03184124777191017,0.010295595285373804,0.0003325938353226409,-0.0002832487947387201,-2.252307002030021e-05,-0.22357027899805582,0.001501521744441984,0.06399195227939328,-0.0411819612199671,0.22222804463153759,0.4199047604937501,0.020991813498266752,-0.004341798328239436,-0.005879186273516231,0.07086055730972046,-0.0005076973645762808,-0.0005281978897192404,-0.013141504898793732,0.8186204815570965,0.8583680771280446,-0.006398928337183935,0.008062157835557826,-0.009160500033847576,7.0,7.0,7.0,7.0,7.0,7.0,7.0,7.0,1.1534439752990817,1.1534439752990817,1.2535384892530743,1.2535384892530743,1.2528408182685342,1.2528408182685342,1.152685723011541,1.152685723011541,-0.007942544276372164,0.03184124777191017,0.010295595285373804,0.0003325938353226409,-0.0002832487947387201,-2.252307002030021e-05
75.0,1.4800000000000009,-0.053822801505408434,0.010058531086585202,0.2481892549599831,-0.05947272351280847,0.010002371411802463,0.24858416458402444,-0.005649922007400034,-5.6159674782738436e-05,0.0003949096240413452,0.005663985011450454,0.07461497737539674,-0.0005616659230634994,-0.0005741339658155668,min_task,none,false,false,7.0,7.0,7.0,7.0,7.0,7.0,7.0,7.0,-0.00857602027775716,0.03586799454648435,0.009218153483693913,0.0004019442272796996,-0.00026089445576997657,-2.15528039785333e-05,-0.23640647590347022,0.0016789426453743632,0.07023073486008424,-0.04532445295571362,0.2343096161640011,0.42357790031067655,0.017732588921183325,-0.0013772925132927286,-0.008313003552708354,0.07461497737539674,-0.0005616659230634994,-0.0005741339658155668,-0.012267653896551267,0.8181657965065394,0.8588032754114108,-0.006307166326836066,0.00782278659683915,-0.00870695685186155,7.0,7.0,7.0,7.0,7.0,7.0,7.0,7.0,1.150951834141804,1.150951834141804,1.2563362851905726,1.2563362851905726,1.2555658062794555,1.2555658062794555,1.1501107585472428,1.1501107585472428,-0.00857602027775716,0.03586799454648435,0.009218153483693913,0.0004019442272796996,-0.00026089445576997657,-2.15528039785333e-05
76.0,1.5000000000000009,-0.04951259843334678,0.010069737730053154,0.24816384257998197,-0.055375075847183375,0.010002371411802463,0.24858416458402444,-0.005862477413836595,-6.736631825069068e-05,0.00042032200404246156,0.0058779120643015015,0.07829179903172245,-0.0006155754501165665,-0.0006190511403888447,min_task,none,false,false,7.0,7.0,7.0,7.0,7.0,7.0,7.0,7.0,-0.009188519463237095,0.039722620957519585,0.008139874930348916,0.0004699828628707353,-0.0002372779309798698,-2.0577449448672185e-05,-0.24900222051828105,0.0018561512945883092,0.07632870935461922,-0.04940820015137162,0.2454548914387478,0.4259154776358594,0.01437690007492019,0.00163597099009028,-0.010701208713991503,0.07829179903172245,-0.0006155754501165665,-0.0006190511403888447,-0.01137712447230731,0.8176281501778738,0.8593771628414298,-0.006189152525750439,0.007578260806695559,-0.008248066203020559,7.0,7.0,7.0,7.0,7.0,7.0,7.0,7.0,1.1485186848507594,1.1485186848507594,1.2590818347178925,1.2590818347178925,1.2582388604477213,1.2582388604477213,1.1475944984512272,1.1475944984512272,-0.009188519463237095,0.039722620957519585,0.008139874930348916,0.0004699828628707353,-0.0002372779309798698,-2.0577449448672185e-05
77.0,1.520000000000001,-0.04516198932869818,0.010080674198422086,0.24813891344995367,-0.051233485212808405,0.010002371411802463,0.24858416458402444,-0.006071495884110226,-7.830278661962245e-05,0.0004452511340707621,0.0060883037185698215,0.0818883161368637,-0.0006693483565386478,-0.0006629495347073023,min_task,none,false,false,7.0,7.0,7.0,7.0,7.0,7.0,7.0,7.0,-0.00978038800311069,0.0434004063321802,0.007061695287247088,0.0005367337235324794,-0.00021241212217855117,-1.959864010270626e-05,-0.2613481330606125,0.0020328806098409147,0.08228915987794083,-0.05344446107924791,0.25564482303702285,0.42689785287496235,0.010940263364307258,0.0046892781230061,-0.013043843162538711,0.0818883161368637,-0.0006693483565386478,-0.0006629495347073023,-0.010470289780280393,0.8170053927048031,0.8600890789048322,-0.006045658001851814,0.007329713860106117,-0.007784481094993819,7.0,7.0,7.0,7.0,7.0,7.0,7.0,7.0,1.146145909160353,1.146145909160353,1.2617727467737145,1.2617727467737145,1.2608576871757322,1.2608576871757322,1.1451384579579293,1.1451384579579293,-0.00978038800311069,0.0434004063321802,0.007061695287247088,0.0005367337235324794,-0.00021241212217855117,-1.959864010270626e-05
78.0,1.540000000000001,-0.040772646333977106,0.01009131683544547,0.24811451692090375,-0.047049488828433406,0.010002371411802463,0.24858416458402444,-0.0062768424944563,-8.894542364300609e-05,0.00046964766312068695,0.006295016434932806,0.08540188311822652,-0.0007229079766444404,-0.0007058079120005958,min_task,none,false,false,7.0,7.0,7.0,7.0,7.0,7.0,7.0,7.0,-0.010351987537944593,0.04689732805153364,0.005984543329797586,0.0006022245727323017,-0.00018630848055034885,-1.861799262685525e-05,-0.2734349475522273,0.002208870050840897,0.08811207950525435,-0.05744391695311323,0.2648642951679303,0.42651095368754083,0.007438412742708355,0.0077747828184245825,-0.015341413898087021,0.08540188311822652,-0.0007229079766444404,-0.0007058079120005958,-0.009547470591542682,0.8162950980402215,0.8609378030371315,-0.005877576081438145,0.007078309046703448,-0.007316821379986778,7.0,7.0,7.0,7.0,7.0,7.0,7.0,7.0,1.1438348333056632,1.1438348333056632,1.2644066731507515,1.2644066731507515,1.2634200336735373,1.2634200336735373,1.142744097452656,1.142744097452656,-0.010351987537944593,0.04689732805153364,0.005984543329797586,0.0006022245727323017,-0.00018630848055034885,-1.861799262685525e-05
79.0,1.560000000000001,-0.036346266824372336,0.01010164316133181,0.24809070169155514,-0.042824650912808404,0.010002371411802463,0.24858416458402444,-0.006478384088436068,-9.927174952934631e-05,0.000493462892469293,0.006497908963951434,0.08882991670632663,-0.0007761783451874486,-0.0007475879368903689,min_task,none,false,false,7.0,7.0,7.0,7.0,7.0,7.0,7.0,7.0,-0.0109036682081531,0.05021007124134846,0.004909342526902354,0.0006664845315510583,-0.00015897644143586666,-1.763708367497653e-05,-0.28525352005481996,0.002383864936691848,0.09379463966687415,-0.061416444264155524,0.2731022015043412,0.42474640195471264,0.0038872270469883586,0.010885601668399945,-0.01759488753563098,0.08882991670632663,-0.0007761783451874486,-0.0007475879368903689,-0.008608945611505544,0.815494560339551,0.8619215474997958,-0.005685919407233827,0.006825237104439273,-0.006845670583504311,7.0,7.0,7.0,7.0,7.0,7.0,7.0,7.0,1.1415867282665273,1.1415867282665273,1.2669813107116699,1.2669813107116699,1.2659236905469844,1.2659236905469844,1.1404128229504045,1.1404128229504045,-0.0109036682081531,0.05021007124134846,0.004909342526902354,0.0006664845315510583,-0.00015897644143586666,-1.763708367497653e-05
80.0,1.580000000000001,-0.031884572421778765,0.010111631306300075,0.24806751563293056,-0.038560561559683376,0.010002371411802463,0.24858416458402444,-0.006675989137904612,-0.00010925989449761184,0.0005166489510938788,0.006696842153779077,0.09216989767708077,-0.0008290839806825222,-0.0007882388197641571,min_task,none,false,false,7.0,7.0,7.0,7.0,7.0,7.0,7.0,7.0,-0.011435749812488231,0.053336034476456226,0.0038370129573047102,0.0007295421493290105,-0.0001304232809354965,-1.665743602336677e-05,-0.2967948375006073,0.0025576157436784535,0.09933175835269095,-0.06537097916528832,0.28035149291534256,0.42160159026548416,0.000302678267640864,0.014015833962354677,-0.019805684260988193,0.09216989767708077,-0.0008290839806825222,-0.0007882388197641571,-0.007654961890985435,0.8146007920003664,0.8630379524420372,-0.005471816838663554,0.006571714185765744,-0.00637157291627654,7.0,7.0,7.0,7.0,7.0,7.0,7.0,7.0,1.1394028100884661,1.1394028100884661,1.2694944036150821,1.2694944036150821,1.2683664943504502,1.2683664943504502,1.13814598660204,1.13814598660204,-0.011435749812488231,0.053336034476456226,0.0038370129573047102,0.0007295421493290105,-0.0001304232809354965,-1.665743602336677e-05
81.0,1.600000000000001,-0.02738930799195763,0.01012125958956369,0.24804500561104614,-0.0342588356128084,0.010002371411802463,0.24858416458402444,-0.006869527620850774,-0.0001188881777612269,0.0005391589729782931,0.006891678788987926,0.09541937259953197,-0.0008815496788474595,-0.0008277020273062296,min_task,none,false,false,7.0,7.0,7.0,7.0,7.0,7.0,7.0,7.0,-0.01194851083885809,0.056273333193414724,0.002768473133757698,0.0007914239907180408,-0.00010065440732234977,-1.5680512445206798e-05,-0.30805002708233226,0.00272987740125961,0.10471671903735709,-0.0693154677215119,0.2866092009966383,0.4170797110468004,-0.003299200608660178,0.017160510590797637,-0.021975671806758964,0.09541937259953197,-0.0008815496788474595,-0.0008277020273062296,-0.006685744953707037,0.8136105233714602,0.8642840831628068,-0.005236510236635841,0.0063189802389498765,-0.005895030463133731,7.0,7.0,7.0,7.0,7.0,7.0,7.0,7.0,1.1372842402767862,1.1372842402767862,1.271943745546715,1.271943745546715,1.2707463301015929,1.2707463301015929,1.135944887225259,1.135944887225259,-0.01194851083885809,0.056273333193414724,0.002768473133757698,0.0007914239907180408,-0.00010065440732234977,-1.5680512445206798e-05
82.0,1.620000000000001,-0.02286224062234383,0.010130506249307695,0.24802321730799076,-0.02992111154093341,0.010002371411802463,0.24858416458402444,-0.007058870918589578,-0.00012813483750523207,0.0005609472760336742,0.007082283461453781,0.09857595558585448,-0.0009335003182480541,-0.0008659157916409458,min_task,none,false,false,7.0,7.0,7.0,7.0,7.0,7.0,7.0,7.0,-0.012442184124822593,0.05902079893501961,0.00170464229219413,0.0008521536610351763,-6.967400822922027e-05,-1.470771718024116e-05,-0.31901036616387796,0.0029004085982303036,0.10994179786200331,-0.07325688785638568,0.29187643312747635,0.41118973943074105,-0.006902332398746168,0.020315485286402243,-0.024107159232944427,0.09857595558585448,-0.0009335003182480541,-0.0008659157916409458,-0.005701508354086879,0.8125202041338477,0.865656429572086,-0.0049813511555769725,0.006068297777054581,-0.0054165005461777405,7.0,7.0,7.0,7.0,7.0,7.0,7.0,7.0,1.135232126257961,1.135232126257961,1.2743271819491693,1.2743271819491693,1.2730611337570998,1.2730611337570998,1.1338107708593057,1.1338107708593057,-0.012442184124822593,0.05902079893501961,0.00170464229219413,0.0008521536610351763,-6.967400822922027e-05,-1.470771718024116e-05
83.0,1.640000000000001,-0.018305158578684,0.010139349318790906,0.2480021950414401,-0.025549050312808408,0.010002371411802463,0.24858416458402444,-0.007243891734124409,-0.00013697790698844262,0.0005819695425843263,0.007268522473736646,0.1016373300402518,-0.0009848606788709325,-0.000902819205818156,min_task,none,false,false,7.0,7.0,7.0,7.0,7.0,7.0,7.0,7.0,-0.01291695776106936,0.061577974360645965,0.0006464423733068352,0.0009117512108147526,-3.748597427053266e-05,-1.3740402084503571e-05,-0.32966729266895817,0.0030689711057793525,0.1149988634654201,-0.07720132827398075,0.2961583349515266,0.403946356139919,-0.01049060135788186,0.023477280824504117,-0.02620289008604345,0.1016373300402518,-0.0009848606788709325,-0.000902819205818156,-0.004702462467307619,0.8113260063439055,0.8671509078316078,-0.0047077974467461675,0.005820950982194976,-0.00493639326480724,7.0,7.0,7.0,7.0,7.0,7.0,7.0,7.0,1.1332475219007943,1.1332475219007943,1.27664261224251,1.27664261224251,1.2753088946493403,1.2753088946493403,1.1317448313434586,1.1317448313434586,-0.01291695776106936,0.061577974360645965,0.0006464423733068352,0.0009117512108147526,-3.748597427053266e-05,-1.3740402084503571e-05
84.0,1.660000000000001,-0.013719870238991842,0.010147766634975073,0.24798198158314388,-0.021144334272183374,0.010002371411802463,0.24858416458402444,-0.0074244640331915315,-0.00014539522317261015,0.0006021830008805518,0.007450263775036799,0.10460125040322889,-0.0010355552732572437,-0.0009383557502783659,min_task,none,false,false,7.0,7.0,7.0,7.0,7.0,7.0,7.0,7.0,-0.013372980336012304,0.06394510555303097,-0.0004051993597489741,0.000970232844945261,-4.095101336126685e-06,-1.2779877942227455e-05,-0.3400124159016229,0.0032353291199114153,0.1198799212484751,-0.08115411212283984,0.2994640352796402,0.3953698426311734,-0.014047850153986094,0.02664289671300394,-0.028266034345491364,0.10460125040322889,-0.0010355552732572437,-0.0009383557502783659,-0.0036888223971510196,0.8100238291194791,0.8687628641412284,-0.0044174097590429975,0.005578245071466199,-0.004455069221628651,7.0,7.0,7.0,7.0,7.0,7.0,7.0,7.0,1.1313314280887627,1.1313314280887627,1.278887992027314,1.278887992027314,1.2774876578843322,1.2774876578843322,1.1297482109198052,1.1297482109198052,-0.013372980336012304,0.06394510555303097,-0.0004051993597489741,0.000970232844945261,-4.095101336126685e-06,-1.2779877942227455e-05
