LordTarzan10086/HCDR_ML/results/tracking/routeb_trajectory_suite_20260416_105416/line/line_platform_only_detailed.csv
step,time_s,tip_x,tip_y,tip_z,des_x,des_y,des_z,err_x,err_y,err_z,err_norm,q_platform_x,q_platform_y,q_platform_psi,solver_status,fail_reason,fallback_applied,hold_active,u_a_1,u_a_2,u_a_3,u_a_4,u_a_5,u_a_6,u_a_7,u_a_8,u_a_9,u_a_10,u_a_11,u_a_12,u_a_13,u_a_14,qdd_1,qdd_2,qdd_3,qdd_4,qdd_5,qdd_6,qdd_7,qdd_8,qdd_9,q_1,q_2,q_3,q_4,q_5,q_6,q_7,q_8,q_9,cable_force_1,cable_force_2,cable_force_3,cable_force_4,cable_force_5,cable_force_6,cable_force_7,cable_force_8,cable_length_1,cable_length_2,cable_length_3,cable_length_4,cable_length_5,cable_length_6,cable_length_7,cable_length_8,arm_torque_1,arm_torque_2,arm_torque_3,arm_torque_4,arm_torque_5,arm_torque_6
1.0,0.0,-0.1929539812576334,0.010000934281920176,0.24858416458402458,-0.1929788356128086,0.010002371411802463,0.24858416458402444,-2.485435517518564e-05,1.437129882287183e-06,-1.3877787807814457e-16,2.489586940584401e-05,-0.24995091663467695,-0.00013859132610803318,0.0024058308348455246,min_task,none,false,false,6.999999999999999,6.999999999999999,9.681720761789933,9.681720761789933,9.57085155848495,9.57085155848495,6.999999999999999,6.999999999999999,0.0,0.0,0.0,0.0,0.0,0.0,-0.007258011966429393,0.026782934723475663,-0.4699351264661299,0.0,0.0,0.0,0.0,0.0,0.0,-0.24995091663467695,-0.00013859132610803318,0.0024058308348455246,0.0,0.58,0.92,0.0,0.0,0.0,6.999999999999999,6.999999999999999,9.681720761789933,9.681720761789933,9.57085155848495,9.57085155848495,6.999999999999999,6.999999999999999,1.3902553357877159,1.3902553357877159,1.040661591569651,1.040661591569651,1.0402617622471064,1.0402617622471064,1.3899560728711504,1.3899560728711504,0.0,0.0,0.0,0.0,0.0,0.0
2.0,0.02,-0.19295250308897965,0.009998068873289767,0.24858416458402463,-0.1929782152909336,0.010002371411802463,0.24858416458402444,-2.5712201953936864e-05,4.302538512695672e-06,-1.942890293094024e-16,2.6069698252439827e-05,-0.24995208710827885,-0.00012655672757002156,0.002144419220485185,min_task,none,false,false,6.999999999999999,6.999999999999999,9.651572042269754,9.651572042269754,9.53188939338236,9.53188939338236,6.999999999999999,6.999999999999999,0.0,0.0,0.0,0.0,0.0,0.0,0.004135250050288485,0.02880336045150125,-0.45970613985839703,0.0,0.0,0.0,0.0,0.0,0.0,-0.24995208710827885,-0.00012655672757002156,0.002144419220485185,0.0,0.58,0.92,0.0,0.0,0.0,6.999999999999999,6.999999999999999,9.651572042269754,9.651572042269754,9.53188939338236,9.53188939338236,6.999999999999999,6.999999999999999,1.3902417155026305,1.3902417155026305,1.0406415085734508,1.0406415085734508,1.0402801811667384,1.0402801811667384,1.3899712707412233,1.3899712707412233,0.0,0.0,0.0,0.0,0.0,0.0
3.0,0.04,-0.19294644034892428,0.009995501080926275,0.2485841645840248,-0.19297391031280858,0.010002371411802463,0.24858416458402444,-2.746996388430789e-05,6.8703308761883936e-06,-3.608224830031759e-16,2.831607956892139e-05,-0.24995000891355149,-0.00010666664825749251,0.001750432372285771,min_task,none,false,false,7.0,7.0,9.610191155031831,9.610191155031831,9.498262452638663,9.498262452638663,7.0,7.0,0.0,0.0,0.0,0.0,0.0,0.0,0.016497667481972823,0.026903760430154886,-0.4126012881985424,0.0,0.0,0.0,0.0,0.0,0.0,-0.24995000891355149,-0.00010666664825749251,0.001750432372285771,0.0,0.58,0.92,0.0,0.0,0.0,7.0,7.0,9.610191155031831,9.610191155031831,9.498262452638663,9.498262452638663,7.0,7.0,1.3902171057120398,1.3902171057120398,1.0406120569073185,1.0406120569073185,1.0403116235343044,1.0403116235343044,1.3899922381416598,1.3899922381416598,0.0,0.0,0.0,0.0,0.0,0.0
4.0,0.06,-0.19293262777088346,0.009994454736392933,0.24858416458402463,-0.1929623380221836,0.010002371411802463,0.24858416458402444,-2.9710251300135715e-05,7.91667540953056e-06,-1.942890293094024e-16,3.074691499739578e-05,-0.24994111219387177,-7.993485924156871e-05,0.0012631482251874264,min_task,none,false,false,7.0,7.0,9.559816376307412,9.559816376307412,9.46921485155468,9.46921485155468,7.0,7.0,0.0,0.0,0.0,0.0,0.0,0.0,0.029570842464694096,0.021789280089296956,-0.3356224126865913,0.0,0.0,0.0,0.0,0.0,0.0,-0.24994111219387177,-7.993485924156871e-05,0.0012631482251874264,0.0,0.58,0.92,0.0,0.0,0.0,7.0,7.0,9.559816376307412,9.559816376307412,9.46921485155468,9.46921485155468,7.0,7.0,1.3901804084114728,1.3901804084114728,1.0405775931741468,1.0405775931741468,1.0403559589407028,1.0403559589407028,1.3900145185638957,1.3900145185638957,0.0,0.0,0.0,0.0,0.0,0.0
5.0,0.08,-0.1929078182134975,0.00999566587380794,0.24858416458402474,-0.1929400260128086,0.010002371411802463,0.24858416458402444,-3.220779931109585e-05,6.705537994523142e-06,-3.0531133177191805e-16,3.289842817308784e-05,-0.24992169918426851,-4.81381157912018e-05,0.0007266639100928562,min_task,none,false,false,7.000000000000001,7.000000000000001,9.503080411033354,9.503080411033354,9.443671757442413,9.443671757442413,7.000000000000001,7.000000000000001,0.0,0.0,0.0,0.0,0.0,0.0,0.0430836180876681,0.01433620220640322,-0.23761053524389178,0.0,0.0,0.0,0.0,0.0,0.0,-0.24992169918426851,-4.81381157912018e-05,0.0007266639100928562,0.0,0.58,0.92,0.0,0.0,0.0,7.000000000000001,7.000000000000001,9.503080411033354,9.503080411033354,9.443671757442413,9.443671757442413,7.000000000000001,7.000000000000001,1.3901310124900685,1.3901310124900685,1.0405433369435702,1.0405433369435702,1.0404123226002497,1.0404123226002497,1.3900329481157812,1.3900329481157812,0.0,0.0,0.0,0.0,0.0,0.0
6.0,0.1,-0.1928687109910924,0.009999414380133218,0.24858416458402463,-0.1929036110034336,0.010002371411802463,0.24858416458402444,-3.4900012341188e-05,2.957031669244964e-06,-1.942890293094024e-16,3.5025060995064554e-05,-0.24988801569739214,-1.3552849457994266e-05,0.0001858255730225416,min_task,none,false,false,6.999999999999999,6.999999999999999,9.442784318874521,9.442784318874521,9.42036944330388,9.42036944330388,6.999999999999999,6.999999999999999,0.0,0.0,0.0,0.0,0.0,0.0,0.0567676659528704,0.005507180620970489,-0.12834082488699328,0.0,0.0,0.0,0.0,0.0,0.0,-0.24988801569739214,-1.3552849457994266e-05,0.0001858255730225416,0.0,0.58,0.92,0.0,0.0,0.0,6.999999999999999,6.999999999999999,9.442784318874521,9.442784318874521,9.42036944330388,9.42036944330388,6.999999999999999,6.999999999999999,1.3900685697747965,1.3900685697747965,1.0405149562726235,1.0405149562726235,1.0404794246829954,1.0404794246829954,1.3900419733365559,1.3900419733365559,0.0,0.0,0.0,0.0,0.0,0.0
7.0,0.12000000000000001,-0.1928119814947024,0.010005582975683944,0.24858416458402455,-0.19284983771280859,0.010002371411802463,0.24858416458402444,-3.785621810617479e-05,-3.2115638814809305e-06,-1.1102230246251565e-16,3.799220172439482e-05,-0.2498363190941588,2.1318191837091238e-05,-0.00031753339654307284,min_task,none,false,false,6.999999999999999,6.999999999999999,9.38167511155361,9.38167511155361,9.397985603464372,9.397985603464372,6.999999999999999,6.999999999999999,0.0,0.0,0.0,0.0,0.0,0.0,0.07037256216603668,-0.00373277109849705,-0.01762964208692884,0.0,0.0,0.0,0.0,0.0,0.0,-0.2498363190941588,2.1318191837091238e-05,-0.00031753339654307284,0.0,0.58,0.92,0.0,0.0,0.0,6.999999999999999,6.999999999999999,9.38167511155361,9.38167511155361,9.397985603464372,9.397985603464372,6.999999999999999,6.999999999999999,1.389992777287182,1.389992777287182,1.0404981655413084,1.0404981655413084,1.0405558673958395,1.0405558673958395,1.3900359713286607,1.3900359713286607,0.0,0.0,0.0,0.0,0.0,0.0
8.0,0.14,-0.1927343114640021,0.01001373699562605,0.24858416458402455,-0.1927755577346836,0.010002371411802463,0.24858416458402444,-4.1246270681499775e-05,-1.1365583823587724e-05,-1.1102230246251565e-16,4.2783540535847975e-05,-0.24976293933760807,5.4006839417027747e-05,-0.0007477655638085381,min_task,none,false,false,7.000000000000001,7.000000000000001,9.322247957858899,9.322247957858899,9.375262084321937,9.375262084321937,7.000000000000001,7.000000000000001,0.0,0.0,0.0,0.0,0.0,0.0,0.08367828555907651,-0.012492665909543059,0.08547209012964109,0.0,0.0,0.0,0.0,0.0,0.0,-0.24976293933760807,5.4006839417027747e-05,-0.0007477655638085381,0.0,0.58,0.92,0.0,0.0,0.0,7.000000000000001,7.000000000000001,9.322247957858899,9.322247957858899,9.375262084321937,9.375262084321937,7.000000000000001,7.000000000000001,1.389903184172335,1.389903184172335,1.0404983661488694,1.0404983661488694,1.0406404430379363,1.0406404430379363,1.3900095478449497,1.3900095478449497,0.0,0.0,0.0,0.0,0.0,0.0
9.0,0.16,-0.19263241881116278,0.010023217264781926,0.24858416458402469,-0.19267772841280859,0.010002371411802463,0.24858416458402444,-4.530960164580988e-05,-2.0845852979463342e-05,-2.498001805406602e-16,4.987493947608737e-05,-0.2496643305391902,8.230852477090212e-05,-0.0010777905854867334,min_task,none,false,false,7.000000000000001,7.000000000000001,9.266587969130086,9.266587969130086,9.35111177779406,9.35111177779406,7.000000000000001,7.000000000000001,0.0,0.0,0.0,0.0,0.0,0.0,0.09650402685864685,-0.02001876705660694,0.17334165484856737,0.0,0.0,0.0,0.0,0.0,0.0,-0.2496643305391902,8.230852477090212e-05,-0.0010777905854867334,0.0,0.58,0.92,0.0,0.0,0.0,7.000000000000001,7.000000000000001,9.266587969130086,9.266587969130086,9.35111177779406,9.35111177779406,7.000000000000001,7.000000000000001,1.3897990364666528,1.3897990364666528,1.0405203525889035,1.0405203525889035,1.040732388586218,1.040732388586218,1.3899577915405472,1.3899577915405472,0.0,0.0,0.0,0.0,0.0,0.0
10.0,0.18,-0.19250308576441735,0.010033237937960201,0.2485841645840246,-0.1925534117159336,0.010002371411802463,0.24858416458402444,-5.032595151624464e-05,-3.086652615773809e-05,-1.6653345369377348e-16,5.903764759085287e-05,-0.24953711138185866,0.00010446440847574929,-0.0012905659461821283,min_task,none,false,false,6.999999999999999,6.999999999999999,9.216260103849017,9.216260103849017,9.324701969757223,9.324701969757223,6.999999999999999,6.999999999999999,0.0,0.0,0.0,0.0,0.0,0.0,0.10871308954883314,-0.02574077919205747,0.24026516679510507,0.0,0.0,0.0,0.0,0.0,0.0,-0.24953711138185866,0.00010446440847574929,-0.0012905659461821283,0.0,0.58,0.92,0.0,0.0,0.0,6.999999999999999,6.999999999999999,9.216260103849017,9.216260103849017,9.324701969757223,9.324701969757223,6.999999999999999,6.999999999999999,1.389679167671837,1.389679167671837,1.0405680979964484,1.0405680979964484,1.0408315771604346,1.0408315771604346,1.3898764673550745,1.3898764673550745,0.0,0.0,0.0,0.0,0.0,0.0
11.0,0.19999999999999998,-0.19234318421267071,0.010042981482028968,0.2485841645840246,-0.1923997731128086,0.010002371411802463,0.24858416458402444,-5.658890013787721e-05,-4.061007022650512e-05,-1.6653345369377348e-16,6.965257656839636e-05,-0.24937809374648667,0.00011928678700010263,-0.0013796144578643256,min_task,none,false,false,7.000000000000001,7.000000000000001,9.172249897186298,9.172249897186298,9.295508184041136,9.295508184041136,7.000000000000001,7.000000000000001,0.0,0.0,0.0,0.0,0.0,0.0,0.1202142956529353,-0.0292989419994294,0.2827172335002436,0.0,0.0,0.0,0.0,0.0,0.0,-0.24937809374648667,0.00011928678700010263,-0.0013796144578643256,0.0,0.58,0.92,0.0,0.0,0.0,7.000000000000001,7.000000000000001,9.172249897186298,9.172249897186298,9.295508184041136,9.295508184041136,7.000000000000001,7.000000000000001,1.389541938496296,1.389541938496296,1.0406446254359607,1.0406446254359607,1.0409386335905422,1.0409386335905422,1.3897621383865073,1.3897621383865073,0.0,0.0,0.0,0.0,0.0,0.0
12.0,0.21999999999999997,-0.19214969738742918,0.010051683904765104,0.2485841645840247,-0.1922140804471836,0.010002371411802463,0.24858416458402444,-6.438305975442482e-05,-4.931249296264047e-05,-2.7755575615628914e-16,8.109809088709982e-05,-0.24918429965794836,0.00012622342303378746,-0.0013486546216320105,min_task,none,false,false,6.999999999999999,6.999999999999999,9.134953100887651,9.134953100887651,9.263335388573923,9.263335388573923,6.999999999999999,6.999999999999999,0.0,0.0,0.0,0.0,0.0,0.0,0.1309606090032055,-0.030551730653544478,0.29943887026080623,0.0,0.0,0.0,0.0,0.0,0.0,-0.24918429965794836,0.00012622342303378746,-0.0013486546216320105,0.0,0.58,0.92,0.0,0.0,0.0,6.999999999999999,6.999999999999999,9.134953100887651,9.134953100887651,9.263335388573923,9.263335388573923,6.999999999999999,6.999999999999999,1.389385225282341,1.389385225282341,1.0407519644779961,1.0407519644779961,1.0410549694157822,1.0410549694157822,1.3896122128181478,1.3896122128181478,0.0,0.0,0.0,0.0,0.0,0.0
13.0,0.23999999999999996,-0.19191973731675532,0.010058704743950127,0.24858416458402485,-0.1919937028128086,0.010002371411802463,0.24858416458402444,-7.396549605326319e-05,-5.6333332147663964e-05,-4.163336342344337e-16,9.297493703823801e-05,-0.24895296726742036,0.0001253617354113445,-0.0012104469141386049,min_task,none,false,false,6.999999999999999,6.999999999999999,9.104209063001436,9.104209063001436,9.228306882251443,9.228306882251443,6.999999999999999,6.999999999999999,0.0,0.0,0.0,0.0,0.0,0.0,0.1409456958278032,-0.029565459431893572,0.2913284713762092,0.0,0.0,0.0,0.0,0.0,0.0,-0.24895296726742036,0.0001253617354113445,-0.0012104469141386049,0.0,0.58,0.92,0.0,0.0,0.0,6.999999999999999,6.999999999999999,9.104209063001436,9.104209063001436,9.228306882251443,9.228306882251443,6.999999999999999,6.999999999999999,1.389206453507186,1.389206453507186,1.0408911870962347,1.0408911870962347,1.0411827408752774,1.0411827408752774,1.3894249195217276,1.3894249195217276,0.0,0.0,0.0,0.0,0.0,0.0
14.0,0.25999999999999995,-0.1916505577605661,0.010063578047957588,0.2485841645840246,-0.1917361094284336,0.010002371411802463,0.24858416458402444,-8.555166786750057e-05,-6.120663615512452e-05,-1.6653345369377348e-16,0.00010519192071797589,-0.24868154702197512,0.00011737848250679342,-0.0009850202738432914,min_task,none,false,false,7.0,7.0,9.079370606249933,9.079370606249933,9.190824629038262,9.190824629038262,7.0,7.0,0.0,0.0,0.0,0.0,0.0,0.0,0.1501989731229769,-0.02658839486290093,0.26117315286139364,0.0,0.0,0.0,0.0,0.0,0.0,-0.24868154702197512,0.00011737848250679342,-0.0009850202738432914,0.0,0.58,0.92,0.0,0.0,0.0,7.0,7.0,9.079370606249933,9.079370606249933,9.190824629038262,9.190824629038262,7.0,7.0,1.3890026701902471,1.3890026701902471,1.0410625124875696,1.0410625124875696,1.0413247406919621,1.0413247406919621,1.3891992220217688,1.3891992220217688,0.0,0.0,0.0,0.0,0.0,0.0
15.0,0.27999999999999997,-0.1913395625585725,0.01006604243033067,0.2485841645840248,-0.19143886851280859,0.010002371411802463,0.24858416458402444,-9.930595423607302e-05,-6.367101852820627e-05,-3.608224830031759e-16,0.00011796470297150846,-0.24836768949319665,0.00010344436260067938,-0.0006974763630501067,min_task,none,false,false,7.000000000000001,7.000000000000001,9.059401950390384,9.059401950390384,9.151507627322346,9.151507627322346,7.000000000000001,7.000000000000001,0.0,0.0,0.0,0.0,0.0,0.0,0.15877948551550045,-0.02201294442755369,0.21325687800771312,0.0,0.0,0.0,0.0,0.0,0.0,-0.24836768949319665,0.00010344436260067938,-0.0006974763630501067,0.0,0.58,0.92,0.0,0.0,0.0,7.000000000000001,7.000000000000001,9.059401950390384,9.059401950390384,9.151507627322346,9.151507627322346,7.000000000000001,7.000000000000001,1.3887706469559287,1.3887706469559287,1.041265466925819,1.041265466925819,1.0414842398267081,1.0414842398267081,1.388934684944386,1.388934684944386,0.0,0.0,0.0,0.0,0.0,0.0
16.0,0.3,-0.19098430949541442,0.010066050100453139,0.24858416458402496,-0.19109964615968358,0.010002371411802463,0.24858416458402444,-0.00011533666426916112,-6.367868865067572e-05,-5.273559366969494e-16,0.0001317479469024352,-0.24800922659074007,8.509562695916916e-05,-0.00037558393551167813,min_task,none,false,false,6.999999999999999,6.999999999999999,9.04299555412015,9.04299555412015,9.11111664477013,9.11111664477013,6.999999999999999,6.999999999999999,0.0,0.0,0.0,0.0,0.0,0.0,0.16676881126004453,-0.016330063258887396,0.15288732175606845,0.0,0.0,0.0,0.0,0.0,0.0,-0.24800922659074007,8.509562695916916e-05,-0.00037558393551167813,0.0,0.58,0.92,0.0,0.0,0.0,6.999999999999999,6.999999999999999,9.04299555412015,9.04299555412015,9.11111664477013,9.11111664477013,6.999999999999999,6.999999999999999,1.3885070038882947,1.3885070038882947,1.041499082149938,1.041499082149938,1.0416647983981848,1.0416647983981848,1.3886313095813507,1.3886313095813507,0.0,0.0,0.0,0.0,0.0,0.0
17.0,0.32,-0.19058250993435988,0.010063756418195596,0.2485841645840248,-0.1907162052128086,0.010002371411802463,0.24858416458402444,-0.00013369527844872553,-6.138500639313316e-05,-3.608224830031759e-16,0.00014711405945512908,-0.24760414809577974,6.408625769399422e-05,-4.7372587129322536e-05,min_task,none,false,false,7.0,7.0,9.0286984333103,9.0286984333103,9.07047412510136,9.07047412510136,7.0,7.0,0.0,0.0,0.0,0.0,0.0,0.0,0.17426318238717975,-0.010080215416269632,0.08588548071114513,0.0,0.0,0.0,0.0,0.0,0.0,-0.24760414809577974,6.408625769399422e-05,-4.7372587129322536e-05,0.0,0.58,0.92,0.0,0.0,0.0,7.0,7.0,9.0286984333103,9.0286984333103,9.07047412510136,9.07047412510136,7.0,7.0,1.3882083432745627,1.3882083432745627,1.0417621141442583,1.0417621141442583,1.0418700655705404,1.0418700655705404,1.388289355791059,1.388289355791059,0.0,0.0,0.0,0.0,0.0,0.0
18.0,0.34,-0.19013202461529144,0.010059492881440174,0.24858416458402482,-0.1902864041409336,0.010002371411802463,0.24858416458402444,-0.00015437952564215096,-5.712146963771092e-05,-3.885780586188048e-16,0.00016460832369922086,-0.24715057560219836,4.2234509798660266e-05,0.000261083776050131,min_task,none,false,false,7.000000000000001,7.000000000000001,9.015038504485307,9.015038504485307,9.030387373997305,9.030387373997305,7.000000000000001,7.000000000000001,0.0,0.0,0.0,0.0,0.0,0.0,0.1813651060297174,-0.00380506822725537,0.018080824838167798,0.0,0.0,0.0,0.0,0.0,0.0,-0.24715057560219836,4.2234509798660266e-05,0.000261083776050131,0.0,0.58,0.92,0.0,0.0,0.0,7.000000000000001,7.000000000000001,9.015038504485307,9.015038504485307,9.030387373997305,9.030387373997305,7.000000000000001,7.000000000000001,1.3878713820260244,1.3878713820260244,1.0420532636718811,1.0420532636718811,1.0421035867227977,1.0421035867227977,1.3879091664003547,1.3879091664003547,0.0,0.0,0.0,0.0,0.0,0.0
19.0,0.36000000000000004,-0.18963085616703879,0.010053727456003152,0.24858416458402466,-0.1898081959128086,0.010002371411802463,0.24858416458402444,-0.0001773397457698056,-5.1356044200688913e-05,-2.220446049250313e-16,0.00018462618640280258,-0.24664673601513779,2.1276754511303754e-05,0.0005275354020927209,min_task,none,false,false,7.0,7.0,9.000641886289177,9.000641886289177,8.991581561290225,8.991581561290225,7.0,7.0,0.0,0.0,0.0,0.0,0.0,0.0,0.1881749389182461,0.0019963602311253675,-0.04514931810589557,0.0,0.0,0.0,0.0,0.0,0.0,-0.24664673601513779,2.1276754511303754e-05,0.0005275354020927209,0.0,0.58,0.92,0.0,0.0,0.0,7.0,7.0,9.000641886289177,9.000641886289177,8.991581561290225,8.991581561290225,7.0,7.0,1.3874930721257266,1.3874930721257266,1.0423713807558284,1.0423713807558284,1.0423686331900595,1.0423686331900595,1.3874910079840472,1.3874910079840472,0.0,0.0,0.0,0.0,0.0,0.0
20.0,0.38000000000000006,-0.18907713904334217,0.010047016758134887,0.24858416458402488,-0.18927962687218358,0.010002371411802463,0.24858416458402444,-0.00020248782884141336,-4.464534633242395e-05,-4.440892098500626e-16,0.00020735121841467823,-0.24609093668549373,2.7397632228432274e-06,0.0007349602346146132,min_task,none,false,false,6.999999999999999,6.999999999999999,8.984332996141578,8.984332996141578,8.954647046352731,8.954647046352731,6.999999999999999,6.999999999999999,0.0,0.0,0.0,0.0,0.0,0.0,0.19478301816833896,0.0069040736304231375,-0.0992639908753446,0.0,0.0,0.0,0.0,0.0,0.0,-0.24609093668549373,2.7397632228432274e-06,0.0007349602346146132,0.0,0.58,0.92,0.0,0.0,0.0,6.999999999999999,6.999999999999999,8.984332996141578,8.984332996141578,8.954647046352731,8.954647046352731,6.999999999999999,6.999999999999999,1.387070699927847,1.387070699927847,1.042715637544797,1.042715637544797,1.042668065951042,1.042668065951042,1.3870349388432726,1.3870349388432726,0.0,0.0,0.0,0.0,0.0,0.0
21.0,0.4000000000000001,-0.1884691277345798,0.010039954794832898,0.2485841645840249,-0.1886988356128086,0.010002371411802463,0.24858416458402444,-0.0002297078782287909,-3.7583383030434514e-05,-4.718447854656915e-16,0.00023276215328181123,-0.24548154402605057,-1.215993485275733e-05,0.0008724327418700206,min_task,none,false,false,6.999999999999998,6.999999999999998,8.965210797200696,8.965210797200696,8.920003444121669,8.920003444121669,6.999999999999998,6.999999999999998,0.0,0.0,0.0,0.0,0.0,0.0,0.20126301864415522,0.010603818941913198,-0.14084272108755094,0.0,0.0,0.0,0.0,0.0,0.0,-0.24548154402605057,-1.215993485275733e-05,0.0008724327418700206,0.0,0.58,0.92,0.0,0.0,0.0,6.999999999999998,6.999999999999998,8.965210797200696,8.965210797200696,8.920003444121669,8.920003444121669,6.999999999999998,6.999999999999998,1.386601957433667,1.386601957433667,1.043085657547777,1.043085657547777,1.043004240420423,1.043004240420423,1.3865407115955817,1.3865407115955817,0.0,0.0,0.0,0.0,0.0,0.0
22.0,0.4200000000000001,-0.18780518420417944,0.01003312278095824,0.24858416458402496,-0.18806405185343358,0.010002371411802463,0.24858416458402444,-0.0002588676492541464,-3.075136915577613e-05,-5.273559366969494e-16,0.00026068775678064087,-0.24481696705849415,-2.2583942251002954e-05,0.0009354367980151434,min_task,none,false,false,7.0,7.0,8.942696671426638,8.942696671426638,8.887881004127024,8.887881004127024,7.0,7.0,0.0,0.0,0.0,0.0,0.0,0.0,0.2076671491304155,0.012902930799876042,-0.16775548429228704,0.0,0.0,0.0,0.0,0.0,0.0,-0.24481696705849415,-2.2583942251002954e-05,0.0009354367980151434,0.0,0.58,0.92,0.0,0.0,0.0,7.0,7.0,8.942696671426638,8.942696671426638,8.887881004127024,8.887881004127024,7.0,7.0,1.3860849815622742,1.3860849815622742,1.0434815937627189,1.0434815937627189,1.0433789554386184,1.0433789554386184,1.3860077143519398,1.3860077143519398,0.0,0.0,0.0,0.0,0.0,0.0
23.0,0.4400000000000001,-0.1870837655215159,0.010027044033862731,0.24858416458402482,-0.1873735953128086,0.010002371411802463,0.24858416458402444,-0.0002898297912926895,-2.4672622060267768e-05,-3.885780586188048e-16,0.00029087806070601606,-0.24409564681156326,-2.8104582655502077e-05,0.0009256474846234316,min_task,none,false,false,7.000000000000001,7.000000000000001,8.916551971179317,8.916551971179317,8.858318437069997,8.858318437069997,7.000000000000001,7.000000000000001,0.0,0.0,0.0,0.0,0.0,0.0,0.21402361504308284,0.013735032084994265,-0.1792146923482511,0.0,0.0,0.0,0.0,0.0,0.0,-0.24409564681156326,-2.8104582655502077e-05,0.0009256474846234316,0.0,0.58,0.92,0.0,0.0,0.0,7.000000000000001,7.000000000000001,8.916551971179317,8.916551971179317,8.858318437069997,8.858318437069997,7.000000000000001,7.000000000000001,1.3855183605846855,1.3855183605846855,1.0439041532740805,1.0439041532740805,1.0437934459178666,1.0437934459178666,1.3854349512104474,1.3854349512104474,0.0,0.0,0.0,0.0,0.0,0.0
24.0,0.46000000000000013,-0.186303412595604,0.010022147164533741,0.24858416458402496,-0.1866258745846836,0.010002371411802463,0.24858416458402444,-0.0003224619890795921,-1.9775752731278004e-05,-5.273559366969494e-16,0.00032306781764399815,-0.24331605188841432,-2.8702690012067026e-05,0.0008502468260935806,min_task,none,false,false,6.999999999999999,6.999999999999999,8.886866067273317,8.886866067273317,8.831175319087965,8.831175319087965,6.999999999999999,6.999999999999999,0.0,0.0,0.0,0.0,0.0,0.0,0.22033650044232753,0.013154227895744722,-0.17571529395573085,0.0,0.0,0.0,0.0,0.0,0.0,-0.24331605188841432,-2.8702690012067026e-05,0.0008502468260935806,0.0,0.58,0.92,0.0,0.0,0.0,6.999999999999999,6.999999999999999,8.886866067273317,8.886866067273317,8.831175319087965,8.831175319087965,6.999999999999999,6.999999999999999,1.3849011099204502,1.3849011099204502,1.044354570876923,1.044354570876923,1.044248415538036,1.044248415538036,1.3848210598850201,1.3848210598850201,0.0,0.0,0.0,0.0,0.0,0.0
25.0,0.48000000000000015,-0.1854627407566718,0.010018739821455463,0.24858416458402482,-0.1858193860128086,0.010002371411802463,0.24858416458402444,-0.000356645256136795,-1.6368409653000002e-05,-3.885780586188048e-16,0.00035702067665535636,-0.24247667992080207,-2.4733826619331837e-05,0.0007208698587128266,min_task,none,false,false,6.999999999999998,6.999999999999998,8.854018327956576,8.854018327956576,8.806156564608997,8.806156564608997,6.999999999999998,6.999999999999998,0.0,0.0,0.0,0.0,0.0,0.0,0.22658791672703366,0.01132021205186666,-0.15887782600877393,0.0,0.0,0.0,0.0,0.0,0.0,-0.24247667992080207,-2.4733826619331837e-05,0.0007208698587128266,0.0,0.58,0.92,0.0,0.0,0.0,6.999999999999998,6.999999999999998,8.854018327956576,8.854018327956576,8.806156564608997,8.806156564608997,6.999999999999998,6.999999999999998,1.3842326220588033,1.3842326220588033,1.0448345386413291,1.0448345386413291,1.0447441034313443,1.0447441034313443,1.3841643618040864,1.3841643618040864,0.0,0.0,0.0,0.0,0.0,0.0
26.0,0.5000000000000001,-0.18456043270402256,0.010016994189058222,0.248584164584025,-0.1849527125659336,0.010002371411802463,0.24858416458402444,-0.0003922798619110379,-1.4622777255758612e-05,-5.551115123125783e-16,0.0003925523094768575,-0.24157606410321256,-1.6868381379345437e-05,0.0005522981879269249,min_task,none,false,false,7.0,7.0,8.818619600635373,8.818619600635373,8.782846076545763,8.782846076545763,7.0,7.0,0.0,0.0,0.0,0.0,0.0,0.0,0.2327419944283322,0.008476310655917986,-0.13121608491721515,0.0,0.0,0.0,0.0,0.0,0.0,-0.24157606410321256,-1.6868381379345437e-05,0.0005522981879269249,0.0,0.58,0.92,0.0,0.0,0.0,7.0,7.0,8.818619600635373,8.818619600635373,8.782846076545763,8.782846076545763,7.0,7.0,1.3835125972067628,1.3835125972067628,1.045346101615194,1.045346101615194,1.045280376958474,1.045280376958474,1.3834629380370724,1.3834629380370724,0.0,0.0,0.0,0.0,0.0,0.0
27.0,0.5200000000000001,-0.1835952340700766,0.010016944387230355,0.24858416458402463,-0.18402452271280859,0.010002371411802463,0.24858416458402444,-0.00042928864273197864,-1.4572975427892126e-05,-1.942890293094024e-16,0.0004295359244481029,-0.24061278361008867,-6.012580800773507e-06,0.0003610275019150817,min_task,none,false,false,7.000000000000001,7.000000000000001,8.781440173768427,8.781440173768427,8.760746462856876,8.760746462856876,7.000000000000001,7.000000000000001,0.0,0.0,0.0,0.0,0.0,0.0,0.23875010962630291,0.0049228769373531505,-0.09585544786272594,0.0,0.0,0.0,0.0,0.0,0.0,-0.24061278361008867,-6.012580800773507e-06,0.0003610275019150817,0.0,0.58,0.92,0.0,0.0,0.0,7.000000000000001,7.000000000000001,8.781440173768427,8.781440173768427,8.760746462856876,8.760746462856876,7.000000000000001,7.000000000000001,1.3827409622564035,1.3827409622564035,1.0458915318145494,1.0458915318145494,1.0458568414693485,1.0458568414693485,1.3827147230100003,1.3827147230100003,0.0,0.0,0.0,0.0,0.0,0.0
28.0,0.5400000000000001,-0.1825659515794562,0.010018494946086505,0.24858416458402477,-0.1830335692971836,0.010002371411802463,0.24858416458402444,-0.00046761771772738103,-1.6123534284042187e-05,-3.3306690738754696e-16,0.00046789560618836043,-0.23958547647640135,6.781683243439064e-06,0.00016383364706923893,min_task,none,false,false,6.999999999999999,6.999999999999999,8.743331748081255,8.743331748081255,8.7393216013447,8.7393216013447,6.999999999999999,6.999999999999999,0.0,0.0,0.0,0.0,0.0,0.0,0.24455666368653253,0.0009886077652231607,-0.05622952509020344,0.0,0.0,0.0,0.0,0.0,0.0,-0.23958547647640135,6.781683243439064e-06,0.00016383364706923893,0.0,0.58,0.92,0.0,0.0,0.0,6.999999999999999,6.999999999999999,8.743331748081255,8.743331748081255,8.7393216013447,8.7393216013447,6.999999999999999,6.999999999999999,1.3819177858077543,1.3819177858077543,1.0464731932143092,1.0464731932143092,1.0464729573868132,1.0464729573868132,1.3819176072246695,1.3819176072246695,0.0,0.0,0.0,0.0,0.0,0.0
29.0,0.5600000000000002,-0.1814714535432883,0.01002143871259225,0.24858416458402482,-0.1819786884128086,0.010002371411802463,0.24858416458402444,-0.0005072348695202844,-1.9067300789786523e-05,-3.885780586188048e-16,0.000507593119355127,-0.23849285346989085,2.0410148430328757e-05,-2.3549937662953813e-05,min_task,none,false,false,6.999999999999999,6.999999999999999,8.70515066509305,8.70515066509305,8.718038841045253,8.718038841045253,6.999999999999999,6.999999999999999,0.0,0.0,0.0,0.0,0.0,0.0,0.25010477168830886,-0.002997720112330851,-0.015781858607321377,0.0,0.0,0.0,0.0,0.0,0.0,-0.23849285346989085,2.0410148430328757e-05,-2.3549937662953813e-05,0.0,0.58,0.92,0.0,0.0,0.0,6.999999999999999,6.999999999999999,8.70515066509305,8.70515066509305,8.718038841045253,8.718038841045253,6.999999999999999,6.999999999999999,1.3810431963967453,1.3810431963967453,1.0470934097609559,1.0470934097609559,1.0471281550815976,1.0471281550815976,1.38106954014398,1.38106954014398,0.0,0.0,0.0,0.0,0.0,0.0
30.0,0.5800000000000002,-0.18031067224815,0.010025481936019973,0.24858416458402482,-0.1808587982784336,0.010002371411802463,0.24858416458402444,-0.0005481260302835911,-2.3110524217509476e-05,-3.885780586188048e-16,0.0005486130160724008,-0.23733371158124952,3.380504239893906e-05,-0.00018755040240331887,min_task,none,false,false,6.999999999999999,6.999999999999999,8.667688670237679,8.667688670237679,8.696407785402405,8.696407785402405,6.999999999999999,6.999999999999999,0.0,0.0,0.0,0.0,0.0,0.0,0.2553413350309628,-0.006732870411866671,0.02230381910658729,0.0,0.0,0.0,0.0,0.0,0.0,-0.23733371158124952,3.380504239893906e-05,-0.00018755040240331887,0.0,0.58,0.92,0.0,0.0,0.0,6.999999999999999,6.999999999999999,8.667688670237679,8.667688670237679,8.696407785402405,8.696407785402405,6.999999999999999,6.999999999999999,1.3801173099430586,1.3801173099430586,1.0477543467472852,1.0477543467472852,1.0478219388293286,1.0478219388293286,1.3801686250486522,1.3801686250486522,0.0,0.0,0.0,0.0,0.0,0.0
31.0,0.6000000000000002,-0.17908260768908896,0.010030273909010337,0.2485841645840249,-0.1796728981128086,0.010002371411802463,0.24858416458402444,-0.000590290423719636,-2.790249720787362e-05,-4.718447854656915e-16,0.0005909495187285821,-0.23610694596880985,4.6013010442179464e-05,-0.0003176015302368533,min_task,none,false,false,7.000000000000001,7.000000000000001,8.63161604746247,8.63161604746247,8.674012952231474,8.674012952231474,7.000000000000001,7.000000000000001,0.0,0.0,0.0,0.0,0.0,0.0,0.2602211386414005,-0.009960333352411348,0.05532611468575649,0.0,0.0,0.0,0.0,0.0,0.0,-0.23610694596880985,4.6013010442179464e-05,-0.0003176015302368533,0.0,0.58,0.92,0.0,0.0,0.0,7.000000000000001,7.000000000000001,8.63161604746247,8.63161604746247,8.674012952231474,8.674012952231474,7.000000000000001,7.000000000000001,1.379140170958754,1.379140170958754,1.0484579135480763,1.0484579135480763,1.0485539726090063,1.0485539726090063,1.3792131989452119,1.3792131989452119,0.0,0.0,0.0,0.0,0.0,0.0
32.0,0.6200000000000002,-0.1777863320569039,0.010035438418584506,0.24858416458402469,-0.17842006700968358,0.010002371411802463,0.24858416458402444,-0.0006337349527796854,-3.306700678204315e-05,-2.498001805406602e-16,0.000634597051137329,-0.2348115594731492,5.6257086619661476e-05,-0.00040667800447142876,min_task,none,false,false,7.0,7.0,8.597440293059979,8.597440293059979,8.650538169263625,8.650538169263625,7.0,7.0,0.0,0.0,0.0,0.0,0.0,0.0,0.26470978392156064,-0.012485824005583969,0.08122850261032237,0.0,0.0,0.0,0.0,0.0,0.0,-0.2348115594731492,5.6257086619661476e-05,-0.00040667800447142876,0.0,0.58,0.92,0.0,0.0,0.0,7.0,7.0,8.597440293059979,8.597440293059979,8.650538169263625,8.650538169263625,7.0,7.0,1.3781117104401939,1.3781117104401939,1.0492056930461096,1.0492056930461096,1.049324142500279,1.049324142500279,1.3782018923822357,1.3782018923822357,0.0,0.0,0.0,0.0,0.0,0.0
33.0,0.6400000000000002,-0.176420994411343,0.010040604373158932,0.2485841645840248,-0.17709946281280858,0.010002371411802463,0.24858416458402444,-0.0006784684014655706,-3.823296135646928e-05,-3.608224830031759e-16,0.0006795447969937905,-0.23344666912329987,6.397941394485111e-05,-0.00045150663278855366,min_task,none,false,false,6.999999999999998,6.999999999999998,8.565481815034989,8.565481815034989,8.625781321397065,8.625781321397065,6.999999999999998,6.999999999999998,0.0,0.0,0.0,0.0,0.0,0.0,0.2687854152730524,-0.014186424404489565,0.09869527926794956,0.0,0.0,0.0,0.0,0.0,0.0,-0.23344666912329987,6.397941394485111e-05,-0.00045150663278855366,0.0,0.58,0.92,0.0,0.0,0.0,6.999999999999998,6.999999999999998,8.565481815034989,8.565481815034989,8.625781321397065,8.625781321397065,6.999999999999998,6.999999999999998,1.377031721761388,1.377031721761388,1.0499989003676065,1.0499989003676065,1.0501325927777245,1.0501325927777245,1.3771336661261377,1.3771336661261377,0.0,0.0,0.0,0.0,0.0,0.0
34.0,0.6600000000000003,-0.17498582503838345,0.010045433285220857,0.24858416458402455,-0.1757103209909336,0.010002371411802463,0.24858416458402444,-0.0007244959525501415,-4.3061873418393654e-05,-1.1102230246251565e-16,0.0007257745588017252,-0.23201150935738366,6.88632393348218e-05,-0.00045246959067471074,min_task,none,false,false,6.999999999999999,6.999999999999999,8.535866612613653,8.535866612613653,8.599658951567122,8.599658951567122,6.999999999999999,6.999999999999999,0.0,0.0,0.0,0.0,0.0,0.0,0.2724393051912239,-0.015013278389953262,0.10718036821018397,0.0,0.0,0.0,0.0,0.0,0.0,-0.23201150935738366,6.88632393348218e-05,-0.00045246959067471074,0.0,0.58,0.92,0.0,0.0,0.0,6.999999999999999,6.999999999999999,8.535866612613653,8.535866612613653,8.599658951567122,8.599658951567122,6.999999999999999,6.999999999999999,1.3758998544102887,1.3758998544102887,1.050838371014513,1.050838371014513,1.050979735248904,1.050979735248904,1.376007823841738,1.376007823841738,0.0,0.0,0.0,0.0,0.0,0.0
35.0,0.6800000000000003,-0.1734801390844481,0.010049641758784311,0.24858416458402488,-0.1742519535128086,0.010002371411802463,0.24858416458402444,-0.0007718144283604955,-4.7270346981848066e-05,-4.440892098500626e-16,0.0007732606271686299,-0.23050543195454648,7.083446481198974e-05,-0.00041323716775372703,min_task,none,false,false,7.0,7.0,8.508534607823893,8.508534607823893,8.572201133059847,8.572201133059847,7.0,7.0,0.0,0.0,0.0,0.0,0.0,0.0,0.27567542905623327,-0.014988271282945458,0.1068737333974945,0.0,0.0,0.0,0.0,0.0,0.0,-0.23050543195454648,7.083446481198974e-05,-0.00041323716775372703,0.0,0.58,0.92,0.0,0.0,0.0,7.0,7.0,8.508534607823893,8.508534607823893,8.572201133059847,8.572201133059847,7.0,7.0,1.3747156241341185,1.3747156241341185,1.0517245762780223,1.0517245762780223,1.0518662336897502,1.0518662336897502,1.3748240019973224,1.3748240019973224,0.0,0.0,0.0,0.0,0.0,0.0
36.0,0.7000000000000003,-0.17190333916855777,0.01005301770181601,0.24858416458402466,-0.17272374772218357,0.010002371411802463,0.24858416458402444,-0.0008204085536258066,-5.0646290013547576e-05,-2.220446049250313e-16,0.0008219703410431086,-0.2289279029097802,7.004459487024022e-05,-0.0003401846783322594,min_task,none,false,false,7.0,7.0,8.483261311943679,8.483261311943679,8.543537865896006,8.543537865896006,7.0,7.0,0.0,0.0,0.0,0.0,0.0,0.0,0.2785091944945632,-0.014195558337179795,0.09861449271511429,0.0,0.0,0.0,0.0,0.0,0.0,-0.2289279029097802,7.004459487024022e-05,-0.0003401846783322594,0.0,0.58,0.92,0.0,0.0,0.0,7.0,7.0,8.483261311943679,8.483261311943679,8.543537865896006,8.543537865896006,7.0,7.0,1.373478437029563,1.373478437029563,1.0526576620349706,1.0526576620349706,1.0527929671706717,1.0527929671706717,1.3735821399786283,1.3735821399786283,0.0,0.0,0.0,0.0,0.0,0.0
37.0,0.7200000000000003,-0.17025491678420163,0.010055429599751392,0.2485841645840248,-0.17112516521280857,0.010002371411802463,0.24858416458402444,-0.0008702484286069456,-5.3058187948928914e-05,-3.608224830031759e-16,0.0008718643809683259,-0.22727849667303662,6.683817791490273e-05,-0.00024165935898203566,min_task,none,false,false,7.0,7.0,8.459689819451704,8.459689819451704,8.51387890490925,8.51387890490925,7.0,7.0,0.0,0.0,0.0,0.0,0.0,0.0,0.280965504395365,-0.012769122218039528,0.08376296290875068,0.0,0.0,0.0,0.0,0.0,0.0,-0.22727849667303662,6.683817791490273e-05,-0.00024165935898203566,0.0,0.58,0.92,0.0,0.0,0.0,7.0,7.0,8.459689819451704,8.459689819451704,8.51387890490925,8.51387890490925,7.0,7.0,1.3721876243542355,1.3721876243542355,1.0536375057162548,1.0536375057162548,1.0537609774722263,1.0537609774722263,1.372282434713121,1.372282434713121,0.0,0.0,0.0,0.0,0.0,0.0
38.0,0.7400000000000003,-0.16853445240921383,0.01005682879279014,0.24858416458402463,-0.16945574070343355,0.010002371411802463,0.24858416458402444,-0.0009212882942197242,-5.4457380987676246e-05,-1.942890293094024e-16,0.0009228963795629096,-0.22555688831690351,6.170872927121796e-05,-0.0001271679998662752,min_task,none,false,false,7.000000000000002,7.000000000000002,8.437369716560795,8.437369716560795,8.48348933432789,8.48348933432789,7.000000000000002,7.000000000000002,0.0,0.0,0.0,0.0,0.0,0.0,0.2830763389925157,-0.010877728269289288,0.0640457217233155,0.0,0.0,0.0,0.0,0.0,0.0,-0.22555688831690351,6.170872927121796e-05,-0.0001271679998662752,0.0,0.58,0.92,0.0,0.0,0.0,7.000000000000002,7.000000000000002,8.437369716560795,8.437369716560795,8.48348933432789,8.48348933432789,7.000000000000002,7.000000000000002,1.3708424843624303,1.3708424843624303,1.0546637854167658,1.0546637854167658,1.054771406571302,1.054771406571302,1.3709252849020406,1.3709252849020406,0.0,0.0,0.0,0.0,0.0,0.0
39.0,0.7600000000000003,-0.16674161434024695,0.010057245249567918,0.24858416458402474,-0.16771508091280857,0.010002371411802463,0.24858416458402444,-0.0009734665725616154,-5.487383776545465e-05,-3.0531133177191805e-16,0.0009750119517041667,-0.22376284429198412,5.524761300330612e-05,-6.555022627171391e-06,min_task,none,false,false,7.0,7.0,8.415799348742683,8.415799348742683,8.452663337748588,8.452663337748588,7.0,7.0,0.0,0.0,0.0,0.0,0.0,0.0,0.2848780476858893,-0.008708706793050998,0.04138835728049141,0.0,0.0,0.0,0.0,0.0,0.0,-0.22376284429198412,5.524761300330612e-05,-6.555022627171391e-06,0.0,0.58,0.92,0.0,0.0,0.0,7.0,7.0,8.415799348742683,8.415799348742683,8.452663337748588,8.452663337748588,7.0,7.0,1.3694423272875496,1.3694423272875496,1.055736054792295,1.055736054792295,1.0558254303316035,1.0558254303316035,1.3695112302253152,1.3695112302253152,0.0,0.0,0.0,0.0,0.0,0.0
40.0,0.7800000000000004,-0.16487615635592895,0.010056777785458656,0.2485841645840247,-0.16590286343468355,0.010002371411802463,0.24858416458402444,-0.0010267070787546018,-5.440637365619269e-05,-2.7755575615628914e-16,0.0010281475959507103,-0.2218962124749412,4.809045317515516e-05,0.00011076557137647439,min_task,none,false,false,6.999999999999999,6.999999999999999,8.394467989905941,8.394467989905941,8.421698490197901,8.421698490197901,6.999999999999999,6.999999999999999,0.0,0.0,0.0,0.0,0.0,0.0,0.2864085464032172,-0.006451933754277107,0.017749987355485136,0.0,0.0,0.0,0.0,0.0,0.0,-0.2218962124749412,4.809045317515516e-05,0.00011076557137647439,0.0,0.58,0.92,0.0,0.0,0.0,6.999999999999999,6.999999999999999,8.394467989905941,8.394467989905941,8.421698490197901,8.421698490197901,6.999999999999999,6.999999999999999,1.367986519701727,1.367986519701727,1.056853817544342,1.056853817544342,1.0569241941230199,1.0569241941230199,1.3680408906718358,1.3680408906718358,0.0,0.0,0.0,0.0,0.0,0.0
41.0,0.8000000000000004,-0.16293791438715954,0.010055580009330456,0.24858416458402485,-0.16401883561280856,0.010002371411802463,0.24858416458402444,-0.001080921225649012,-5.320859752799313e-05,-4.163336342344337e-16,0.0010822300360410712,-0.21995691221026606,4.086537638666461e-05,0.0002164714755626705,min_task,none,false,false,6.999999999999999,6.999999999999999,8.372894772759821,8.372894772759821,8.390872570650359,8.390872570650359,6.999999999999999,6.999999999999999,0.0,0.0,0.0,0.0,0.0,0.0,0.28770461751450355,-0.004285222942394783,-0.0050279608646133485,0.0,0.0,0.0,0.0,0.0,0.0,-0.21995691221026606,4.086537638666461e-05,0.0002164714755626705,0.0,0.58,0.92,0.0,0.0,0.0,6.999999999999999,6.999999999999999,8.372894772759821,8.372894772759821,8.390872570650359,8.390872570650359,6.999999999999999,6.999999999999999,1.3664745248607286,1.3664745248607286,1.0580165958899646,1.0580165958899646,1.0580687552426322,1.0580687552426322,1.3665149105426762,1.3665149105426762,0.0,0.0,0.0,0.0,0.0,0.0
42.0,0.8200000000000004,-0.16092680243137564,0.01005384348445433,0.2485841645840248,-0.16206281341593354,0.010002371411802463,0.24858416458402444,-0.0011360109845579003,-5.1472072651867484e-05,-3.608224830031759e-16,0.001137176473243836,-0.21794492499417428,3.414681517353646e-05,0.0003038471707206681,min_task,none,false,false,7.000000000000001,7.000000000000001,8.350661748047473,8.350661748047473,8.360424428184952,8.360424428184952,7.000000000000001,7.000000000000001,0.0,0.0,0.0,0.0,0.0,0.0,0.28879950077339145,-0.002362107059095664,-0.025348598459513455,0.0,0.0,0.0,0.0,0.0,0.0,-0.21794492499417428,3.414681517353646e-05,0.0003038471707206681,0.0,0.58,0.92,0.0,0.0,0.0,7.000000000000001,7.000000000000001,8.350661748047473,8.350661748047473,8.360424428184952,8.360424428184952,7.000000000000001,7.000000000000001,1.364905936250792,1.364905936250792,1.0592239883852732,1.0592239883852732,1.0592600358621356,1.0592600358621356,1.3649339107870748,1.3649339107870748,0.0,0.0,0.0,0.0,0.0,0.0
43.0,0.8400000000000004,-0.1588428079868392,0.010051779655738807,0.24858416458402488,-0.16003468031280854,0.010002371411802463,0.24858416458402444,-0.0011918723259693453,-4.940824393634413e-05,-4.440892098500626e-16,0.0011928959786923798,-0.21586028635166837,2.8417802200915608e-05,0.0003681285745282122,min_task,none,false,false,6.999999999999999,6.999999999999999,8.327439102726947,8.327439102726947,8.330539905729717,8.330539905729717,6.999999999999999,6.999999999999999,0.0,0.0,0.0,0.0,0.0,0.0,0.28972094050864067,-0.0008026988970557282,-0.04195485060206199,0.0,0.0,0.0,0.0,0.0,0.0,-0.21586028635166837,2.8417802200915608e-05,0.0003681285745282122,0.0,0.58,0.92,0.0,0.0,0.0,6.999999999999999,6.999999999999999,8.327439102726947,8.327439102726947,8.330539905729717,8.330539905729717,6.999999999999999,6.999999999999999,1.363280502335527,1.363280502335527,1.0604757137246301,1.0604757137246301,1.0604987889317798,1.0604987889317798,1.3632984522745617,1.3632984522745617,0.0,0.0,0.0,0.0,0.0,0.0
44.0,0.8600000000000004,-0.15668598730027405,0.010049602035453568,0.24858416458402496,-0.15793438614718355,0.010002371411802463,0.24858416458402444,-0.0012483988469094986,-4.723062365110525e-05,-5.273559366969494e-16,0.0012492919645845154,-0.2137030793237863,2.4042743670784375e-05,0.000406668435501892,min_task,none,false,false,6.999999999999999,6.999999999999999,8.303001333676027,8.303001333676027,8.301343296130858,8.301343296130858,6.999999999999999,6.999999999999999,0.0,0.0,0.0,0.0,0.0,0.0,0.2904898145360864,0.00031198587805275624,-0.05398913903308391,0.0,0.0,0.0,0.0,0.0,0.0,-0.2137030793237863,2.4042743670784375e-05,0.000406668435501892,0.0,0.58,0.92,0.0,0.0,0.0,6.999999999999999,6.999999999999999,8.303001333676027,8.303001333676027,8.301343296130858,8.301343296130858,6.999999999999999,6.999999999999999,1.3615981413812157,1.3615981413812157,1.0617716385564455,1.0617716385564455,1.0617855781634027,1.0617855781634027,1.361609011488149,1.361609011488149,0.0,0.0,0.0,0.0,0.0,0.0
45.0,0.8800000000000004,-0.1544564607149806,0.010047509970820255,0.248584164584025,-0.15576194601280854,0.010002371411802463,0.24858416458402444,-0.0013054852978279519,-4.513855901779225e-05,-5.551115123125783e-16,0.0013062654218630833,-0.211473429823354,2.125166447663575e-05,0.0004189281858586934,min_task,none,false,false,6.999999999999998,6.999999999999998,8.277233981959345,8.277233981959345,8.272894323852716,8.272894323852716,6.999999999999998,6.999999999999998,0.0,0.0,0.0,0.0,0.0,0.0,0.2911194163843099,0.0009421695540288116,-0.06101662388055452,0.0,0.0,0.0,0.0,0.0,0.0,-0.211473429823354,2.125166447663575e-05,0.0004189281858586934,0.0,0.58,0.92,0.0,0.0,0.0,6.999999999999998,6.999999999999998,8.277233981959345,8.277233981959345,8.272894323852716,8.272894323852716,6.999999999999998,6.999999999999998,1.3598589461351946,1.3598589461351946,1.0631117888108652,1.0631117888108652,1.0631207720021014,1.0631207720021014,1.359865969034312,1.359865969034312,0.0,0.0,0.0,0.0,0.0,0.0
46.0,0.9000000000000005,-0.15215440837750266,0.010045675063502957,0.24858416458402485,-0.15351743912843355,0.010002371411802463,0.24858416458402444,-0.001363030750930888,-4.330365170049366e-05,-4.163336342344337e-16,0.0013637184585660702,-0.20917150394901146,2.013594981109976e-05,0.0004063145400386029,min_task,none,false,false,6.999999999999999,6.999999999999999,8.250131314362134,8.250131314362134,8.245190241410082,8.245190241410082,6.999999999999999,6.999999999999999,0.0,0.0,0.0,0.0,0.0,0.0,0.2916154005277781,0.001088122424649023,-0.0630140789549807,0.0,0.0,0.0,0.0,0.0,0.0,-0.20917150394901146,2.013594981109976e-05,0.0004063145400386029,0.0,0.58,0.92,0.0,0.0,0.0,6.999999999999999,6.999999999999999,8.250131314362134,8.250131314362134,8.245190241410082,8.245190241410082,6.999999999999999,6.999999999999999,1.358063178963331,1.358063178963331,1.0644963453956526,1.0644963453956526,1.0645045504545338,1.0645045504545338,1.3580696103785317,1.3580696103785317,0.0,0.0,0.0,0.0,0.0,0.0
47.0,0.9200000000000005,-0.1497800665120559,0.01004423100132346,0.2485841645840247,-0.15120100771280853,0.010002371411802463,0.24858416458402444,-0.0014209412007526456,-4.185958952099625e-05,-2.7755575615628914e-16,0.0014215576390815944,-0.20679750718469622,2.0654739695094346e-05,0.0003718889681394072,min_task,none,false,false,6.999999999999998,6.999999999999998,8.22178602626135,8.22178602626135,8.2181723162297,8.2181723162297,6.999999999999998,6.999999999999998,0.0,0.0,0.0,0.0,0.0,0.0,0.2919763387437182,0.0007860825848146455,-0.06032893202294936,0.0,0.0,0.0,0.0,0.0,0.0,-0.20679750718469622,2.0654739695094346e-05,0.0003718889681394072,0.0,0.58,0.92,0.0,0.0,0.0,6.999999999999998,6.999999999999998,8.22178602626135,8.22178602626135,8.2181723162297,8.2181723162297,6.999999999999998,6.999999999999998,1.356211258749275,1.356211258749275,1.0659256262711052,1.0659256262711052,1.0659369228201991,1.0659369228201991,1.3562201373848715,1.3562201373848715,0.0,0.0,0.0,0.0,0.0,0.0
48.0,0.9400000000000005,-0.1473337244086197,0.010043267226168023,0.2485841645840248,-0.1488128558596835,0.010002371411802463,0.24858416458402444,-0.0014791314510638198,-4.0895814365560224e-05,-3.608224830031759e-16,0.001479696697691383,-0.20435168526976857,2.2650420441407897e-05,0.00031998480747643185,min_task,none,false,false,6.999999999999998,6.999999999999998,8.19237257653224,8.19237257653224,8.191735763268643,8.191735763268643,6.999999999999998,6.999999999999998,0.0,0.0,0.0,0.0,0.0,0.0,0.2921947829161963,0.0001019016552621672,-0.05361483863307664,0.0,0.0,0.0,0.0,0.0,0.0,-0.20435168526976857,2.2650420441407897e-05,0.00031998480747643185,0.0,0.58,0.92,0.0,0.0,0.0,6.999999999999998,6.999999999999998,8.19237257653224,8.19237257653224,8.191735763268643,8.191735763268643,6.999999999999998,6.999999999999998,1.3543037413701458,1.3543037413701458,1.0674000577788063,1.0674000577788063,1.067417753794766,1.067417753794766,1.3543176886016215,1.3543176886016215,0.0,0.0,0.0,0.0,0.0,0.0
49.0,0.9600000000000005,-0.14481572219973304,0.010042826527777497,0.24858416458402466,-0.14635324841280853,0.010002371411802463,0.24858416458402444,-0.0015375262130754852,-4.04551159750334e-05,-2.220446049250313e-16,0.001538058344895536,-0.20183432641501228,2.5871138435209487e-05,0.0002557700289878588,min_task,none,false,false,6.999999999999997,6.999999999999997,8.162126112868847,8.162126112868847,8.165742047502025,8.165742047502025,6.999999999999997,6.999999999999997,0.0,0.0,0.0,0.0,0.0,0.0,0.2922586923175483,-0.0008768587197422282,-0.043751285089131155,0.0,0.0,0.0,0.0,0.0,0.0,-0.20183432641501228,2.5871138435209487e-05,0.0002557700289878588,0.0,0.58,0.92,0.0,0.0,0.0,6.999999999999997,6.999999999999997,8.162126112868847,8.162126112868847,8.165742047502025,8.165742047502025,6.999999999999997,6.999999999999997,1.3523412958647276,1.3523412958647276,1.0689201386252922,1.0689201386252922,1.0689467950872618,1.0689467950872618,1.3523623658138766,1.3523623658138766,0.0,0.0,0.0,0.0,0.0,0.0
50.0,0.9800000000000005,-0.14222644943010898,0.010042906346600499,0.24858416458402463,-0.14382250984093353,0.010002371411802463,0.24858416458402444,-0.0015960604108245513,-4.053493479803591e-05,-1.942890293094024e-16,0.0015965750580353298,-0.1992457644688269,2.9997955619610733e-05,0.00018479366627948893,min_task,none,false,false,7.0,7.0,8.13131908973984,8.13131908973984,8.140032431941357,8.140032431941357,7.0,7.0,0.0,0.0,0.0,0.0,0.0,0.0,0.29215306520390205,-0.00204961464373245,-0.03175511484783546,0.0,0.0,0.0,0.0,0.0,0.0,-0.1992457644688269,2.9997955619610733e-05,0.00018479366627948893,0.0,0.58,0.92,0.0,0.0,0.0,7.0,7.0,8.13131908973984,8.13131908973984,8.140032431941357,8.140032431941357,7.0,7.0,1.3503246784998448,1.3503246784998448,1.0704864001025158,1.0704864001025158,1.0705237196068096,1.0705237196068096,1.3503542641847972,1.3503542641847972,0.0,0.0,0.0,0.0,0.0,0.0
51.0,1.0000000000000004,-0.13956634435905313,0.010043463310991674,0.2485841645840247,-0.14122102311280854,0.010002371411802463,0.24858416458402444,-0.001654678753755412,-4.109189918921098e-05,-2.7755575615628914e-16,0.0016551889083450686,-0.1965863826080705,3.467417287254472e-05,0.00011255101071843904,min_task,none,false,false,6.999999999999998,6.999999999999998,8.100237629593007,8.100237629593007,8.114441674159037,8.114441674159037,6.999999999999998,6.999999999999998,0.0,0.0,0.0,0.0,0.0,0.0,0.29186161560644525,-0.003311491256847895,-0.018691591894314165,0.0,0.0,0.0,0.0,0.0,0.0,-0.1965863826080705,3.467417287254472e-05,0.00011255101071843904,0.0,0.58,0.92,0.0,0.0,0.0,6.999999999999998,6.999999999999998,8.100237629593007,8.100237629593007,8.114441674159037,8.114441674159037,6.999999999999998,6.999999999999998,1.3482547068386028,1.3482547068386028,1.0720993659900877,1.0720993659900877,1.0721481554088692,1.0721481554088692,1.3482935033229002,1.3482935033229002,0.0,0.0,0.0,0.0,0.0,0.0
52.0,1.0200000000000005,-0.13683589388382417,0.010044420339655469,0.24858416458402482,-0.13854922857218352,0.010002371411802463,0.24858416458402444,-0.0017133346883593525,-4.2048927853005624e-05,-3.885780586188048e-16,0.0017138505963674392,-0.19385661713666985,3.9534450595121766e-05,4.409743313884402e-05,min_task,none,false,false,7.000000000000001,7.000000000000001,8.06915945930871,8.06915945930871,8.088810869763615,8.088810869763615,7.000000000000001,7.000000000000001,0.0,0.0,0.0,0.0,0.0,0.0,0.2913683535672893,-0.0045614361866096655,-0.005591759099561419,0.0,0.0,0.0,0.0,0.0,0.0,-0.19385661713666985,3.9534450595121766e-05,4.409743313884402e-05,0.0,0.58,0.92,0.0,0.0,0.0,7.000000000000001,7.000000000000001,8.06915945930871,8.06915945930871,8.088810869763615,8.088810869763615,7.000000000000001,7.000000000000001,1.3461322356565328,1.3461322356565328,1.0737595151847859,1.0737595151847859,1.0738197169145234,1.0738197169145234,1.3461802568223082,1.3461802568223082,0.0,0.0,0.0,0.0,0.0,0.0
53.0,1.0400000000000005,-0.1340356339358566,0.01004567551761919,0.24858416458402463,-0.13580762281280853,0.010002371411802463,0.24858416458402444,-0.0017719888769519299,-4.330410581672613e-05,-1.942890293094024e-16,0.0017725179337941684,-0.1910569610161855,4.4231625416959876e-05,-1.626621074277143e-05,min_task,none,false,false,6.999999999999999,6.999999999999999,8.038334910315344,8.038334910315344,8.062998595600831,8.062998595600831,6.999999999999999,6.999999999999999,0.0,0.0,0.0,0.0,0.0,0.0,0.29065895588347657,-0.005709175705213109,0.006618437874490094,0.0,0.0,0.0,0.0,0.0,0.0,-0.1910569610161855,4.4231625416959876e-05,-1.626621074277143e-05,0.0,0.58,0.92,0.0,0.0,0.0,6.999999999999999,6.999999999999999,8.038334910315344,8.038334910315344,8.062998595600831,8.062998595600831,6.999999999999999,6.999999999999999,1.3439581361831028,1.3439581361831028,1.0754672495126256,1.0754672495126256,1.0755380313891034,1.0755380313891034,1.3440147781936238,1.3440147781936238,0.0,0.0,0.0,0.0,0.0,0.0
54.0,1.0600000000000005,-0.13116615018242966,0.010047111904903884,0.24858416458402469,-0.13299675755343354,0.010002371411802463,0.24858416458402444,-0.0018306073710038784,-4.474049310142052e-05,-2.498001805406602e-16,0.0018311540236956283,-0.18818796681771582,4.845951858072118e-05,-6.522147078883472e-05,min_task,none,false,false,6.999999999999997,6.999999999999997,8.007972050672064,8.007972050672064,8.036889706476959,8.036889706476959,6.999999999999997,6.999999999999997,0.0,0.0,0.0,0.0,0.0,0.0,0.2897218490956399,-0.006680623787435568,0.01717334790636795,0.0,0.0,0.0,0.0,0.0,0.0,-0.18818796681771582,4.845951858072118e-05,-6.522147078883472e-05,0.0,0.58,0.92,0.0,0.0,0.0,6.999999999999997,6.999999999999997,8.007972050672064,8.007972050672064,8.036889706476959,8.036889706476959,6.999999999999997,6.999999999999997,1.3417332797136203,1.3417332797136203,1.0772228684757106,1.0772228684757106,1.0773027592408078,1.0773027592408078,1.3417974215923532,1.3417974215923532,0.0,0.0,0.0,0.0,0.0,0.0
55.0,1.0800000000000005,-0.12822807886316429,0.010048607457116315,0.24858416458402477,-0.13011723851280851,0.010002371411802463,0.24858416458402444,-0.0018891596496442287,-4.6236045313851476e-05,-3.3306690738754696e-16,0.0018897253646311066,-0.1852502488647683,5.197051067812318e-05,-0.00010056642748521007,min_task,none,false,false,7.0,7.0,7.978226568715997,7.978226568715997,8.010401371191127,8.010401371191127,7.0,7.0,0.0,0.0,0.0,0.0,0.0,0.0,0.2885489618662265,-0.007421516372865871,0.025504884444517387,0.0,0.0,0.0,0.0,0.0,0.0,-0.1852502488647683,5.197051067812318e-05,-0.00010056642748521007,0.0,0.58,0.92,0.0,0.0,0.0,7.0,7.0,7.978226568715997,7.978226568715997,8.010401371191127,8.010401371191127,7.0,7.0,1.3394585261842666,1.3394585261842666,1.07902655194455,1.07902655194455,1.079113607323724,1.079113607323724,1.3395286563107205,1.3395286563107205,0.0,0.0,0.0,0.0,0.0,0.0
56.0,1.1000000000000005,-0.1252221076014316,0.010050044317152052,0.2485841645840249,-0.12716972428468354,0.010002371411802463,0.24858416458402444,-0.0019476166832519404,-4.767290534958904e-05,-4.718447854656915e-16,0.0019482000540975662,-0.18224448442330463,5.458717327698494e-05,-0.0001212566331307816,min_task,none,false,false,7.0,7.0,7.949196592397748,7.949196592397748,7.983486178135844,7.983486178135844,7.0,7.0,0.0,0.0,0.0,0.0,0.0,0.0,0.2871361361514382,-0.007899203393672621,0.03126124401860814,0.0,0.0,0.0,0.0,0.0,0.0,-0.18224448442330463,5.458717327698494e-05,-0.0001212566331307816,0.0,0.58,0.92,0.0,0.0,0.0,7.0,7.0,7.949196592397748,7.949196592397748,7.983486178135844,7.983486178135844,7.0,7.0,1.3371347178683277,1.3371347178683277,1.0808783510909723,1.0808783510909723,1.0809703350499689,1.0809703350499689,1.3372090745764909,1.3372090745764909,0.0,0.0,0.0,0.0,0.0,0.0
57.0,1.1200000000000006,-0.1221489760522665,0.010051316864095125,0.24858416458402477,-0.1241549252128085,0.010002371411802463,0.24858416458402444,-0.0020059491605420032,-4.894545229266155e-05,-3.3306690738754696e-16,0.0020065462097792067,-0.17917141388053984,5.6207757565353865e-05,-0.00012736015210743553,min_task,none,false,false,7.000000000000001,7.000000000000001,7.920922239323164,7.920922239323164,7.9561323775958765,7.9561323775958765,7.000000000000001,7.000000000000001,0.0,0.0,0.0,0.0,0.0,0.0,0.28548321331237325,-0.008102677094131509,0.03430791046558359,0.0,0.0,0.0,0.0,0.0,0.0,-0.17917141388053984,5.6207757565353865e-05,-0.00012736015210743553,0.0,0.58,0.92,0.0,0.0,0.0,7.000000000000001,7.000000000000001,7.920922239323164,7.920922239323164,7.9561323775958765,7.9561323775958765,7.000000000000001,7.000000000000001,1.3347626779638315,1.3347626779638315,1.0827781872177882,1.0827781872177882,1.082872753683328,1.082872753683328,1.3348393927511477,1.3348393927511477,0.0,0.0,0.0,0.0,0.0,0.0
58.0,1.1400000000000006,-0.11900947627723134,0.010052338064168534,0.24858416458402463,-0.12107360226593351,0.010002371411802463,0.24858416458402444,-0.0020641259887021757,-4.996665236607113e-05,-1.942890293094024e-16,0.0020647306757987606,-0.17603183993228033,5.6805806100617825e-05,-0.00011993935725013984,min_task,none,false,false,6.999999999999999,6.999999999999999,7.893389372259657,7.893389372259657,7.928361538179319,7.928361538179319,6.999999999999999,6.999999999999999,0.0,0.0,0.0,0.0,0.0,0.0,0.28359383163333,-0.008041037328212371,0.03471299011143423,0.0,0.0,0.0,0.0,0.0,0.0,-0.17603183993228033,5.6805806100617825e-05,-0.00011993935725013984,0.0,0.58,0.92,0.0,0.0,0.0,6.999999999999999,6.999999999999999,7.893389372259657,7.893389372259657,7.928361538179319,7.928361538179319,6.999999999999999,6.999999999999999,1.3323432135223356,1.3323432135223356,1.0847258576145096,1.0847258576145096,1.0848207196610564,1.0848207196610564,1.3324204464985605,1.3324204464985605,0.0,0.0,0.0,0.0,0.0,0.0
59.0,1.1600000000000006,-0.11580445276952864,0.010053043843381487,0.2485841645840249,-0.11792656591280849,0.010002371411802463,0.24858416458402444,-0.002122113143279855,-5.0672431579024124e-05,-4.718447854656915e-16,0.002122718042558464,-0.17282662586532022,5.642454662371627e-05,-0.00010087595060706901,min_task,none,false,false,7.0,7.0,7.8665367965479005,7.8665367965479005,7.900224062622952,7.900224062622952,7.0,7.0,0.0,0.0,0.0,0.0,0.0,0.0,0.28147498573776497,-0.007740686411664864,0.0327198204644475,0.0,0.0,0.0,0.0,0.0,0.0,-0.17282662586532022,5.642454662371627e-05,-0.00010087595060706901,0.0,0.58,0.92,0.0,0.0,0.0,7.0,7.0,7.8665367965479005,7.8665367965479005,7.900224062622952,7.900224062622952,7.0,7.0,1.3298771219279624,1.3298771219279624,1.0867210471748656,1.0867210471748656,1.0868141231423227,1.0868141231423227,1.3299531808737404,1.3299531808737404,0.0,0.0,0.0,0.0,0.0,0.0
60.0,1.1800000000000006,-0.11253480208656112,0.010053395377269202,0.24858416458402488,-0.11471467499718352,0.010002371411802463,0.24858416458402444,-0.0021798729106223963,-5.102396546673854e-05,-4.440892098500626e-16,0.002180469984089969,-0.16955669307391685,5.516702636413679e-05,-7.265783754624845e-05,min_task,none,false,false,6.999999999999999,6.999999999999999,7.840265983874692,7.840265983874692,7.87179312290836,7.87179312290836,6.999999999999999,6.999999999999999,0.0,0.0,0.0,0.0,0.0,0.0,0.2791364068364478,-0.007241604619256499,0.028710356987427334,0.0,0.0,0.0,0.0,0.0,0.0,-0.16955669307391685,5.516702636413679e-05,-7.265783754624845e-05,0.0,0.58,0.92,0.0,0.0,0.0,6.999999999999999,6.999999999999999,7.840265983874692,7.840265983874692,7.87179312290836,7.87179312290836,6.999999999999999,6.999999999999999,1.3273651999804295,1.3273651999804295,1.0887633442600018,1.0887633442600018,1.0888528731961624,1.0888528731961624,1.3274386365412152,1.3274386365412152,0.0,0.0,0.0,0.0,0.0,0.0
61.0,1.2000000000000006,-0.10920147207962244,0.0100533793564363,0.24858416458402485,-0.1114388356128085,0.010002371411802463,0.24858416458402444,-0.002237363533186057,-5.100794463383691e-05,-4.163336342344337e-16,0.0022379449032642793,-0.1662230179861839,5.3183140530202264e-05,-3.814703965070059e-05,min_task,none,false,false,7.0,7.0,7.814452339169776,7.814452339169776,7.8431576316089,7.8431576316089,7.0,7.0,0.0,0.0,0.0,0.0,0.0,0.0,0.2765898264790499,-0.006593082398664399,0.02316307328618289,0.0,0.0,0.0,0.0,0.0,0.0,-0.1662230179861839,5.3183140530202264e-05,-3.814703965070059e-05,0.0,0.58,0.92,0.0,0.0,0.0,7.0,7.0,7.814452339169776,7.814452339169776,7.8431576316089,7.8431576316089,7.0,7.0,1.3248082545651172,1.3248082545651172,1.0908522591788261,1.0908522591788261,1.0909368811177889,1.0909368811177889,1.3248779334683376,1.3248779334683376,0.0,0.0,0.0,0.0,0.0,0.0
62.0,1.2200000000000006,-0.10580546073958007,0.010053006426775675,0.2485841645840248,-0.10809999997843349,0.010002371411802463,0.24858416458402444,-0.0022945392388534214,-5.063501497321217e-05,-3.608224830031759e-16,0.002295097867930554,-0.1628266285970218,5.065479807438073e-05,-3.4694311160768623e-07,min_task,none,false,false,7.0,7.0,7.788957036798459,7.788957036798459,7.814414867381747,7.814414867381747,7.0,7.0,0.0,0.0,0.0,0.0,0.0,0.0,0.2738481862811502,-0.00584927932775097,0.016609037666894855,0.0,0.0,0.0,0.0,0.0,0.0,-0.1628266285970218,5.065479807438073e-05,-3.4694311160768623e-07,0.0,0.58,0.92,0.0,0.0,0.0,7.0,7.0,7.788957036798459,7.788957036798459,7.814414867381747,7.814414867381747,7.0,7.0,1.3222071139014817,1.3222071139014817,1.092987243673205,1.092987243673205,1.0930660433115418,1.0930660433115418,1.3222722534561802,1.3222722534561802,0.0,0.0,0.0,0.0,0.0,0.0
63.0,1.2400000000000007,-0.1023478147018608,0.010052308112572668,0.24858416458402488,-0.1046991653128085,0.010002371411802463,0.24858416458402444,-0.0023513506109476973,-4.993670077020444e-05,-4.440892098500626e-16,0.0023518808153662725,-0.15936860080950788,4.7780457720893556e-05,3.781491004098705e-05,min_task,none,false,false,6.999999999999998,6.999999999999998,7.76363852804087,7.76363852804087,7.785663324430868,7.785663324430868,6.999999999999998,6.999999999999998,0.0,0.0,0.0,0.0,0.0,0.0,0.2709248525405764,-0.005064947260033769,0.009589499586766553,0.0,0.0,0.0,0.0,0.0,0.0,-0.15936860080950788,4.7780457720893556e-05,3.781491004098705e-05,0.0,0.58,0.92,0.0,0.0,0.0,6.999999999999998,6.999999999999998,7.76363852804087,7.76363852804087,7.785663324430868,7.785663324430868,6.999999999999998,6.999999999999998,1.3195626384385808,1.3195626384385808,1.0951677099230994,1.0951677099230994,1.0952402250232123,1.0952402250232123,1.31962282278448,1.31962282278448,0.0,0.0,0.0,0.0,0.0,0.0
64.0,1.2600000000000007,-0.09882962747281569,0.010051332604859537,0.24858416458402466,-0.10123737270968348,0.010002371411802463,0.24858416458402444,-0.002407745236867792,-4.896119305707394e-05,-2.220446049250313e-16,0.0024082429952322322,-0.15585005477783886,4.476017053951614e-05,7.367526976181863e-05,min_task,none,false,false,6.999999999999998,6.999999999999998,7.7383629507726726,7.7383629507726726,7.756996269380609,7.756996269380609,6.999999999999998,6.999999999999998,0.0,0.0,0.0,0.0,0.0,0.0,0.2678328881666265,-0.004291601908313212,0.0026177914219589885,0.0,0.0,0.0,0.0,0.0,0.0,-0.15585005477783886,4.476017053951614e-05,7.367526976181863e-05,0.0,0.58,0.92,0.0,0.0,0.0,6.999999999999998,6.999999999999998,7.7383629507726726,7.7383629507726726,7.756996269380609,7.756996269380609,6.999999999999998,6.999999999999998,1.3168757305999566,1.3168757305999566,1.0973930478028817,1.0973930478028817,1.097459245971856,1.097459245971856,1.3169308960785246,1.3169308960785246,0.0,0.0,0.0,0.0,0.0,0.0
65.0,1.2800000000000007,-0.09525203745206814,0.010050139835139771,0.24858416458402488,-0.09771570601280849,0.010002371411802463,0.24858416458402444,-0.0024636685607403452,-4.776842333730803e-05,-4.440892098500626e-16,0.0024641316116328967,-0.15227215142397435,4.1782099648745724e-05,0.00010498520832752533,min_task,none,false,false,6.999999999999998,6.999999999999998,7.71301283947605,7.71301283947605,7.7284963769392645,7.7284963769392645,6.999999999999998,6.999999999999998,0.0,0.0,0.0,0.0,0.0,0.0,0.2645844253303441,-0.003574359921271929,-0.0038523111966187983,0.0,0.0,0.0,0.0,0.0,0.0,-0.15227215142397435,4.1782099648745724e-05,0.00010498520832752533,0.0,0.58,0.92,0.0,0.0,0.0,6.999999999999998,6.999999999999998,7.71301283947605,7.71301283947605,7.7284963769392645,7.7284963769392645,6.999999999999998,6.999999999999998,1.3141473427540897,1.3141473427540897,1.09966263939934,1.09966263939934,1.0997228686517164,1.0997228686517164,1.3141977422794764,1.3141977422794764,0.0,0.0,0.0,0.0,0.0,0.0
66.0,1.3000000000000007,-0.09161622583157242,0.010048796257638177,0.24858416458402474,-0.09413529069093349,0.010002371411802463,0.24858416458402444,-0.00251906485936107,-4.642484583571374e-05,-3.0531133177191805e-16,0.0025194926139956585,-0.14863608926966268,3.9011273320934695e-05,0.0001300158836852388,min_task,none,false,false,7.0,7.0,7.687493723461941,7.687493723461941,7.7002316910138315,7.7002316910138315,7.0,7.0,0.0,0.0,0.0,0.0,0.0,0.0,0.26119017121462684,-0.002949584130300516,-0.009450357766257906,0.0,0.0,0.0,0.0,0.0,0.0,-0.14863608926966268,3.9011273320934695e-05,0.0001300158836852388,0.0,0.58,0.92,0.0,0.0,0.0,7.0,7.0,7.687493723461941,7.687493723461941,7.7002316910138315,7.7002316910138315,7.0,7.0,1.3113784829843829,1.3113784829843829,1.1019758701171947,1.1019758701171947,1.1020307897779325,1.1020307897779325,1.3114246333405695,1.3114246333405695,0.0,0.0,0.0,0.0,0.0,0.0
67.0,1.3200000000000007,-0.08792341445204085,0.010047369735551257,0.2485841645840246,-0.09049729271280847,0.010002371411802463,0.24858416458402444,-0.0025738782607676175,-4.499832374879435e-05,-1.6653345369377348e-16,0.0025742715766585967,-0.14494310168853572,3.6581086146762833e-05,0.0001476179363266368,min_task,none,false,false,7.000000000000002,7.000000000000002,7.661738397945697,7.661738397945697,7.672253032266178,7.672253032266178,7.000000000000002,7.000000000000002,0.0,0.0,0.0,0.0,0.0,0.0,0.25765906689491347,-0.0024434044465662737,-0.013904444362292984,0.0,0.0,0.0,0.0,0.0,0.0,-0.14494310168853572,3.6581086146762833e-05,0.0001476179363266368,0.0,0.58,0.92,0.0,0.0,0.0,7.000000000000002,7.000000000000002,7.661738397945697,7.661738397945697,7.672253032266178,7.672253032266178,7.000000000000002,7.000000000000002,1.3085702184371872,1.3085702184371872,1.1043321360225702,1.1043321360225702,1.104382635061066,1.104382635061066,1.3086128360034524,1.3086128360034524,0.0,0.0,0.0,0.0,0.0,0.0
68.0,1.3400000000000007,-0.08417486369173618,0.010045924874132452,0.24858416458402458,-0.08680291742218345,0.010002371411802463,0.24858416458402444,-0.0026280537304472634,-4.3553462329988524e-05,-1.3877787807814457e-16,0.0026284146008951305,-0.14119445464265365,3.458781453913768e-05,0.00015723585390126936,min_task,none,false,false,7.0,7.0,7.635708841723596,7.635708841723596,7.644592856250953,7.644592856250953,7.0,7.0,0.0,0.0,0.0,0.0,0.0,0.0,0.2539981065872477,-0.00207111148891543,-0.017047901755428148,0.0,0.0,0.0,0.0,0.0,0.0,-0.14119445464265365,3.458781453913768e-05,0.00015723585390126936,0.0,0.58,0.92,0.0,0.0,0.0,7.0,7.0,7.635708841723596,7.635708841723596,7.644592856250953,7.644592856250953,7.0,7.0,1.305723676222143,1.305723676222143,1.1067308473841995,1.1067308473841995,1.1067779572358258,1.1067779572358258,1.3057636067521665,1.3057636067521665,0.0,0.0,0.0,0.0,0.0,0.0
69.0,1.3600000000000008,-0.08037187045226346,0.010044519072728362,0.2485841645840246,-0.08305340841280846,0.010002371411802463,0.24858416458402444,-0.0026815379605450024,-4.21476609258984e-05,-1.6653345369377348e-16,0.0026818691726416067,-0.13739144492746216,3.3088176098379516e-05,0.00015888155231347085,min_task,none,false,false,7.0,7.0,7.609395923945297,7.609395923945297,7.617265465442417,7.617265465442417,7.0,7.0,0.0,0.0,0.0,0.0,0.0,0.0,0.2502123122391059,-0.0018373589058832019,-0.01881806151444496,0.0,0.0,0.0,0.0,0.0,0.0,-0.13739144492746216,3.3088176098379516e-05,0.00015888155231347085,0.0,0.58,0.92,0.0,0.0,0.0,7.0,7.0,7.609395923945297,7.609395923945297,7.617265465442417,7.617265465442417,7.0,7.0,1.302840042012614,1.302840042012614,1.1091714286454246,1.1091714286454246,1.1092162370533283,1.1092162370533283,1.3028781898131703,1.3028781898131703,0.0,0.0,0.0,0.0,0.0,0.0
70.0,1.3800000000000008,-0.07651576629215504,0.01004319948635506,0.24858416458402474,-0.07925004640343344,0.010002371411802463,0.24858416458402444,-0.0027342801112784088,-4.082807455259643e-05,-3.0531133177191805e-16,0.00273458491523016,-0.13353539891152083,3.209975239478836e-05,0.00015307367836744774,min_task,none,false,false,7.0,7.0,7.582817180883171,7.582817180883171,7.590268398254813,7.590268398254813,7.0,7.0,0.0,0.0,0.0,0.0,0.0,0.0,0.24630484767300997,-0.0017370617137292585,-0.019248186315719316,0.0,0.0,0.0,0.0,0.0,0.0,-0.13353539891152083,3.209975239478836e-05,0.00015307367836744774,0.0,0.58,0.92,0.0,0.0,0.0,7.0,7.0,7.582817180883171,7.582817180883171,7.590268398254813,7.590268398254813,7.0,7.0,1.2999205566351109,1.2999205566351109,1.1116533152815704,1.1116533152815704,1.111696886782589,1.111696886782589,1.299957817880307,1.299957817880307,0.0,0.0,0.0,0.0,0.0,0.0
71.0,1.4000000000000008,-0.07260791574304543,0.010042001002270103,0.24858416458402474,-0.07539414811280844,0.010002371411802463,0.24858416458402444,-0.0027862323697630115,-3.962959046763942e-05,-3.0531133177191805e-16,0.0027865141885078997,-0.1296276717250114,3.160392284387746e-05,0.000140750663616282,min_task,none,false,false,6.999999999999998,6.999999999999998,7.556013044963443,7.556013044963443,7.563584761003682,7.563584761003682,6.999999999999998,6.999999999999998,0.0,0.0,0.0,0.0,0.0,0.0,0.24227724801363495,-0.0017568436870779901,-0.018453984660243793,0.0,0.0,0.0,0.0,0.0,0.0,-0.1296276717250114,3.160392284387746e-05,0.000140750663616282,0.0,0.58,0.92,0.0,0.0,0.0,6.999999999999998,6.999999999999998,7.556013044963443,7.556013044963443,7.563584761003682,7.563584761003682,6.999999999999998,6.999999999999998,1.296966511038887,1.296966511038887,1.1141759481571905,1.1141759481571905,1.1142192556590362,1.1142192556590362,1.297003715100996,1.297003715100996,0.0,0.0,0.0,0.0,0.0,0.0
72.0,1.4200000000000008,-0.06864971482651475,0.010040945254737262,0.2485841645840247,-0.07148706513468346,0.010002371411802463,0.24858416458402444,-0.002837350308168715,-3.857384293479843e-05,-2.7755575615628914e-16,0.002837612502196849,-0.1256696468257215,3.15508306695303e-05,0.0001231663405430428,min_task,none,false,false,7.0,7.0,7.529041969559559,7.529041969559559,7.5371862349364855,7.5371862349364855,7.0,7.0,0.0,0.0,0.0,0.0,0.0,0.0,0.23812973448551883,-0.0018768674452990077,-0.016616318148210168,0.0,0.0,0.0,0.0,0.0,0.0,-0.1256696468257215,3.15508306695303e-05,0.0001231663405430428,0.0,0.58,0.92,0.0,0.0,0.0,7.0,7.0,7.529041969559559,7.529041969559559,7.5371862349364855,7.5371862349364855,7.0,7.0,1.2939792400978312,1.2939792400978312,1.1167387660922259,1.1167387660922259,1.1167826366645035,1.1167826366645035,1.2940171017673199,1.2940171017673199,0.0,0.0,0.0,0.0,0.0,0.0
73.0,1.4400000000000008,-0.06464258977356846,0.010040040627277431,0.24858416458402488,-0.0675301828128084,0.010002371411802463,0.24858416458402444,-0.0028875930392399385,-3.766921547496832e-05,-4.440892098500626e-16,0.002887838729926144,-0.12166273585394051,3.186582346076395e-05,0.00010177701370838351,min_task,none,false,false,6.999999999999999,6.999999999999999,7.50197491460418,7.50197491460418,7.511036478891108,7.511036478891108,6.999999999999999,6.999999999999999,0.0,0.0,0.0,0.0,0.0,0.0,0.23386158204788915,-0.0020728757757208375,-0.013961757865618082,0.0,0.0,0.0,0.0,0.0,0.0,-0.12166273585394051,3.186582346076395e-05,0.00010177701370838351,0.0,0.58,0.92,0.0,0.0,0.0,6.999999999999999,6.999999999999999,7.50197491460418,7.50197491460418,7.511036478891108,7.511036478891108,6.999999999999999,6.999999999999999,1.2909601157174473,1.2909601157174473,1.1193411973771925,1.1193411973771925,1.1193862740197078,1.1193862740197078,1.2909992001125028,1.2909992001125028,0.0,0.0,0.0,0.0,0.0,0.0
74.0,1.4600000000000009,-0.06058799593435485,0.0100392831303287,0.248584164584025,-0.06352491911593341,0.010002371411802463,0.24858416458402444,-0.0029369231815785657,-3.6911718526237355e-05,-5.551115123125783e-16,0.002937155128599462,-0.11760837867877183,3.2456779735900395e-05,7.812834708603527e-05,min_task,none,false,false,6.999999999999998,6.999999999999998,7.474889643461201,7.474889643461201,7.485094656447894,7.485094656447894,6.999999999999998,6.999999999999998,0.0,0.0,0.0,0.0,0.0,0.0,0.2294715076190404,-0.0023182803450219488,-0.010742571392730533,0.0,0.0,0.0,0.0,0.0,0.0,-0.11760837867877183,3.2456779735900395e-05,7.812834708603527e-05,0.0,0.58,0.92,0.0,0.0,0.0,6.999999999999998,6.999999999999998,7.474889643461201,7.474889643461201,7.485094656447894,7.485094656447894,6.999999999999998,6.999999999999998,1.2879105397042616,1.2879105397042616,1.1219826509517228,1.1219826509517228,1.1220293708093763,1.1220293708093763,1.287951240615712,1.287951240615712,0.0,0.0,0.0,0.0,0.0,0.0
75.0,1.4800000000000009,-0.0564874168539928,0.010038657996125288,0.24858416458402466,-0.05947272351280847,0.010002371411802463,0.24858416458402444,-0.0029853066588156688,-3.628658432282446e-05,-2.220446049250313e-16,0.00298552718349222,-0.11350804353732588,3.322174523192925e-05,5.374940294626858e-05,min_task,none,false,false,6.999999999999998,6.999999999999998,7.447865236675635,7.447865236675635,7.459318841474722,7.459318841474722,6.999999999999998,6.999999999999998,0.0,0.0,0.0,0.0,0.0,0.0,0.22495804941872954,-0.0025861519866982375,-0.007217546504035298,0.0,0.0,0.0,0.0,0.0,0.0,-0.11350804353732588,3.322174523192925e-05,5.374940294626858e-05,0.0,0.58,0.92,0.0,0.0,0.0,6.999999999999998,6.999999999999998,7.447865236675635,7.447865236675635,7.459318841474722,7.459318841474722,6.999999999999998,6.999999999999998,1.2848319368097736,1.2848319368097736,1.124662507888335,1.124662507888335,1.1247110962330533,1.1247110962330533,1.2848744682600053,1.2848744682600053,0.0,0.0,0.0,0.0,0.0,0.0
76.0,1.5000000000000009,-0.052342363481829336,0.010038141803030105,0.24858416458402494,-0.055375075847183375,0.010002371411802463,0.24858416458402444,-0.0030327123653540386,-3.57703912276415e-05,-4.996003610813204e-16,0.0030329233112394824,-0.10936322717413292,3.405635185222634e-05,3.0059784176393913e-05,min_task,none,false,false,6.999999999999997,6.999999999999997,7.420977160695999,7.420977160695999,7.433669093985585,7.433669093985585,6.999999999999997,6.999999999999997,0.0,0.0,0.0,0.0,0.0,0.0,0.22031991262293485,-0.002850992489476365,-0.003634808993080596,0.0,0.0,0.0,0.0,0.0,0.0,-0.10936322717413292,3.405635185222634e-05,3.0059784176393913e-05,0.0,0.58,0.92,0.0,0.0,0.0,6.999999999999997,6.999999999999997,7.420977160695999,7.420977160695999,7.433669093985585,7.433669093985585,6.999999999999997,6.999999999999997,1.281725748293748,1.281725748293748,1.1273801137164141,1.1273801137164141,1.1274305920714314,1.1274305920714314,1.2817701482615642,1.2817701482615642,0.0,0.0,0.0,0.0,0.0,0.0
77.0,1.520000000000001,-0.04815437347630039,0.010037704928481238,0.248584164584025,-0.051233485212808405,0.010002371411802463,0.24858416458402444,-0.0030791117365080167,-3.533351667877466e-05,-5.551115123125783e-16,0.00307931445995733,-0.10517545489952607,3.486057016992365e-05,8.294233525130842e-06,min_task,none,false,false,7.000000000000001,7.000000000000001,7.394293147649098,7.394293147649098,7.408110045188784,7.408110045188784,7.000000000000001,7.000000000000001,0.0,0.0,0.0,0.0,0.0,0.0,0.21555626238785489,-0.003090198348760683,-0.00021749878665820537,0.0,0.0,0.0,0.0,0.0,0.0,-0.10517545489952607,3.486057016992365e-05,8.294233525130842e-06,0.0,0.58,0.92,0.0,0.0,0.0,7.000000000000001,7.000000000000001,7.394293147649098,7.394293147649098,7.408110045188784,7.408110045188784,7.000000000000001,7.000000000000001,1.2785934262704028,1.2785934262704028,1.130134771993077,1.130134771993077,1.1301869780689175,1.1301869780689175,1.278639570884069,1.278639570884069,0.0,0.0,0.0,0.0,0.0,0.0
78.0,1.540000000000001,-0.043925010565743106,0.010037314131911286,0.2485841645840249,-0.047049488828433406,0.010002371411802463,0.24858416458402444,-0.0031244782626903,-3.494272010882288e-05,-4.718447854656915e-16,0.0031246736481931677,-0.10094628050111071,3.5544444067314784e-05,-1.0552632652290386e-05,min_task,none,false,false,6.999999999999999,6.999999999999999,7.367870053827443,7.367870053827443,7.382612882367354,7.382612882367354,6.999999999999999,6.999999999999999,0.0,0.0,0.0,0.0,0.0,0.0,0.21066695167227242,-0.0032851594511960846,0.0028471419039118803,0.0,0.0,0.0,0.0,0.0,0.0,-0.10094628050111071,3.5544444067314784e-05,-1.0552632652290386e-05,0.0,0.58,0.92,0.0,0.0,0.0,6.999999999999999,6.999999999999999,7.367870053827443,7.367870053827443,7.382612882367354,7.382612882367354,6.999999999999999,6.999999999999999,1.275436429013713,1.275436429013713,1.1329257393903434,1.1329257393903434,1.1329793560486419,1.1329793560486419,1.2754840550608588,1.2754840550608588,0.0,0.0,0.0,0.0,0.0,0.0
79.0,1.560000000000001,-0.039655863926677686,0.010036935084328772,0.24858416458402463,-0.042824650912808404,0.010002371411802463,0.24858416458402444,-0.0031687869861307186,-3.4563672526308556e-05,-1.942890293094024e-16,0.0031689754828540264,-0.09667728596012622,3.603256435199448e-05,-2.576040883300539e-05,min_task,none,false,false,6.999999999999999,6.999999999999999,7.341751777012151,7.341751777012151,7.357156676853082,7.357156676853082,6.999999999999999,6.999999999999999,0.0,0.0,0.0,0.0,0.0,0.0,0.2056526775671209,-0.0034219675889375304,0.005415017781417754,0.0,0.0,0.0,0.0,0.0,0.0,-0.09667728596012622,3.603256435199448e-05,-2.576040883300539e-05,0.0,0.58,0.92,0.0,0.0,0.0,6.999999999999999,6.999999999999999,7.341751777012151,7.341751777012151,7.357156676853082,7.357156676853082,6.999999999999999,6.999999999999999,1.272256217311627,1.272256217311627,1.135752222432931,1.135752222432931,1.1358068126877885,1.1358068126877885,1.2723049506603126,1.2723049506603126,0.0,0.0,0.0,0.0,0.0,0.0
80.0,1.580000000000001,-0.03534854754472605,0.01003653468697479,0.24858416458402496,-0.038560561559683376,0.010002371411802463,0.24858416458402444,-0.003212014014957326,-3.4163275172326146e-05,-5.273559366969494e-16,0.003212195691680814,-0.09237008094298028,3.626714842863413e-05,-3.689623792946272e-05,min_task,none,false,false,7.000000000000001,7.000000000000001,7.315968232172308,7.315968232172308,7.33172904820653,7.33172904820653,7.000000000000001,7.000000000000001,0.0,0.0,0.0,0.0,0.0,0.0,0.2005150655592019,-0.003491738896571799,0.007388792208864646,0.0,0.0,0.0,0.0,0.0,0.0,-0.09237008094298028,3.626714842863413e-05,-3.689623792946272e-05,0.0,0.58,0.92,0.0,0.0,0.0,7.000000000000001,7.000000000000001,7.315968232172308,7.315968232172308,7.33172904820653,7.33172904820653,7.000000000000001,7.000000000000001,1.2690542518792212,1.2690542518792212,1.13861337589708,1.13861337589708,1.1386684209819413,1.1386684209819413,1.2691036393386048,1.2691036393386048,0.0,0.0,0.0,0.0,0.0,0.0
81.0,1.600000000000001,-0.031004699528852604,0.010036083054440585,0.2485841645840249,-0.0342588356128084,0.010002371411802463,0.24858416458402444,-0.0032541360839557984,-3.371164263812204e-05,-4.718447854656915e-16,0.003254310699326747,-0.0880263020561536,3.6209697781265404e-05,-4.380909390398553e-05,min_task,none,false,false,7.0,7.0,7.2905353159832424,7.2905353159832424,7.306326201843006,7.306326201843006,7.0,7.0,0.0,0.0,0.0,0.0,0.0,0.0,0.1952566859844504,-0.003490579161564946,0.008718120358609843,0.0,0.0,0.0,0.0,0.0,0.0,-0.0880263020561536,3.6209697781265404e-05,-4.380909390398553e-05,0.0,0.58,0.92,0.0,0.0,0.0,7.0,7.0,7.2905353159832424,7.2905353159832424,7.306326201843006,7.306326201843006,7.0,7.0,1.2658319917720142,1.2658319917720142,1.141508302774749,1.141508302774749,1.1415632405117484,1.1415632405117484,1.2658815340218454,1.2658815340218454,0.0,0.0,0.0,0.0,0.0,0.0
82.0,1.620000000000001,-0.026625981356339343,0.01003555507468121,0.24858416458402455,-0.02992111154093341,0.010002371411802463,0.24858416458402444,-0.003295130184594066,-3.318366287874755e-05,-1.1102230246251565e-16,0.003295297268670154,-0.08364761186894039,3.584129802035432e-05,-4.6607681671608174e-05,min_task,none,false,false,7.0,7.0,7.265455735994878,7.265455735994878,7.28095241341707,7.28095241341707,7.0,7.0,0.0,0.0,0.0,0.0,0.0,0.0,0.18988101069070065,-0.0034192403864292,0.009396944643809059,0.0,0.0,0.0,0.0,0.0,0.0,-0.08364761186894039,3.584129802035432e-05,-4.6607681671608174e-05,0.0,0.58,0.92,0.0,0.0,0.0,7.0,7.0,7.265455735994878,7.265455735994878,7.28095241341707,7.28095241341707,7.0,7.0,1.2625908936856558,1.2625908936856558,1.144436055623608,1.144436055623608,1.1444903166900862,1.1444903166900862,1.2626400771415403,1.2626400771415403,0.0,0.0,0.0,0.0,0.0,0.0
83.0,1.640000000000001,-0.022214077033215176,0.010034931496442343,0.24858416458402488,-0.025549050312808408,0.010002371411802463,0.24858416458402444,-0.003334973279593232,-3.256008463987936e-05,-4.440892098500626e-16,0.0033351322214737744,-0.0792356977223076,3.51617030928697e-05,-4.562530545699425e-05,min_task,none,false,false,7.000000000000001,7.000000000000001,7.2407205415788365,7.2407205415788365,7.255619059902702,7.255619059902702,7.000000000000001,7.000000000000001,0.0,0.0,0.0,0.0,0.0,0.0,0.18439232057134308,-0.0032825304681854107,0.00945841941962524,0.0,0.0,0.0,0.0,0.0,0.0,-0.0792356977223076,3.51617030928697e-05,-4.562530545699425e-05,0.0,0.58,0.92,0.0,0.0,0.0,7.000000000000001,7.000000000000001,7.2407205415788365,7.2407205415788365,7.255619059902702,7.255619059902702,7.000000000000001,7.000000000000001,1.2593324119884433,1.2593324119884433,1.147395639063466,1.147395639063466,1.1474486792114684,1.1474486792114684,1.2593807378100215,1.2593807378100215,0.0,0.0,0.0,0.0,0.0,0.0
84.0,1.660000000000001,-0.017770692162173047,0.010034199531056843,0.24858416458402477,-0.021144334272183374,0.010002371411802463,0.24858416458402444,-0.003373642110010327,-3.182811925438005e-05,-3.3306690738754696e-16,0.003373792245472475,-0.07479227035300084,3.418740316254491e-05,-4.137543265530283e-05,min_task,none,false,false,6.999999999999999,6.999999999999999,7.2163111711730625,7.2163111711730625,7.230343313863085,7.230343313863085,6.999999999999999,6.999999999999999,0.0,0.0,0.0,0.0,0.0,0.0,0.17879557617995576,-0.0030885453573492303,0.008968102368227334,0.0,0.0,0.0,0.0,0.0,0.0,-0.07479227035300084,3.418740316254491e-05,-4.137543265530283e-05,0.0,0.58,0.92,0.0,0.0,0.0,6.999999999999999,6.999999999999999,7.2163111711730625,7.2163111711730625,7.230343313863085,7.230343313863085,6.999999999999999,6.999999999999999,1.256057999308836,1.256057999308836,1.1503860131442023,1.1503860131442023,1.1504373399477739,1.1504373399477739,1.2561050081645295,1.2561050081645295,0.0,0.0,0.0,0.0,0.0,0.0
85.0,1.680000000000001,-0.013297552916858562,0.010033352988149396,0.24858416458402494,-0.01670866601280835,0.010002371411802463,0.24858416458402444,-0.0034111130959497866,-3.098157634693309e-05,-4.996003610813204e-16,0.0034112537887751888,-0.07031906236964706,3.294891349904893e-05,-3.4501771756458436e-05,min_task,none,false,false,6.999999999999999,6.999999999999999,7.192201822830365,7.192201822830365,7.205146624099798,7.205146624099798,6.999999999999999,6.999999999999999,0.0,0.0,0.0,0.0,0.0,0.0,0.17309626419537705,-0.002847794956017514,0.008016068739625754,0.0,0.0,0.0,0.0,0.0,0.0,-0.07031906236964706,3.294891349904893e-05,-3.4501771756458436e-05,0.0,0.58,0.92,0.0,0.0,0.0,6.999999999999999,6.999999999999999,7.192201822830365,7.192201822830365,7.205146624099798,7.205146624099798,6.999999999999999,6.999999999999999,1.2527691074905143,1.2527691074905143,1.153406097297368,1.153406097297368,1.1534552905370878,1.1534552905370878,1.2528143991301472,1.2528143991301472,0.0,0.0,0.0,0.0,0.0,0.0
86.0,1.700000000000001,-0.008796404927413619,0.010032391991911811,0.24858416458402477,-0.012243767253433346,0.010002371411802463,0.24858416458402444,-0.0034473623260197275,-3.0020580109348105e-05,-3.3306690738754696e-16,0.0034474930372794445,-0.06581782662198735,3.1487539796809375e-05,-2.5726524408503605e-05,min_task,none,false,false,7.0,7.0,7.168361960892571,7.168361960892571,7.180053103590587,7.180053103590587,7.0,7.0,0.0,0.0,0.0,0.0,0.0,0.0,0.16730023220935544,-0.0025722910150896296,0.006708578531382365,0.0,0.0,0.0,0.0,0.0,0.0,-0.06581782662198735,3.1487539796809375e-05,-2.5726524408503605e-05,0.0,0.58,0.92,0.0,0.0,0.0,7.0,7.0,7.168361960892571,7.168361960892571,7.180053103590587,7.180053103590587,7.0,7.0,1.2494671887309894,1.2494671887309894,1.1564547745906606,1.1564547745906606,1.156501499898381,1.156501499898381,1.2495104358543754,1.2495104358543754,0.0,0.0,0.0,0.0,0.0,0.0
87.0,1.720000000000001,-0.0042690120870662596,0.01003132234519645,0.2485841645840249,-0.007751377712808372,0.010002371411802463,0.24858416458402444,-0.003482365625742112,-2.895093339398691e-05,-4.718447854656915e-16,0.003482485966647193,-0.061290334505695085,2.9851875235297434e-05,-1.5800108645940248e-05,min_task,none,false,false,7.0,7.0,7.14475878839656,7.14475878839656,7.15508793577658,7.15508793577658,7.0,7.0,0.0,0.0,0.0,0.0,0.0,0.0,0.1614135233101671,-0.002274658323184593,0.005159864441873535,0.0,0.0,0.0,0.0,0.0,0.0,-0.061290334505695085,2.9851875235297434e-05,-1.5800108645940248e-05,0.0,0.58,0.92,0.0,0.0,0.0,7.0,7.0,7.14475878839656,7.14475878839656,7.15508793577658,7.15508793577658,7.0,7.0,1.2461536967341713,1.2461536967341713,1.159530896027909,1.159530896027909,1.1595749118773888,1.1595749118773888,1.2461946530524073,1.2461946530524073,0.0,0.0,0.0,0.0,0.0,0.0
88.0,1.740000000000001,0.00028284470678967624,0.010030154622329474,0.2485841645840249,-0.0032332539846833264,0.010002371411802463,0.24858416458402444,-0.0035160986914730026,-2.778321052701073e-05,-4.718447854656915e-16,0.003516208457268333,-0.05673837424383435,2.8094268796181167e-05,-5.455134484126804e-06,min_task,none,false,false,7.000000000000001,7.000000000000001,7.121359539892056,7.121359539892056,7.1302758945679425,7.1302758945679425,7.000000000000001,7.000000000000001,0.0,0.0,0.0,0.0,0.0,0.0,0.15544222040234437,-0.0019673205905350543,0.0034845196761825836,0.0,0.0,0.0,0.0,0.0,0.0,-0.05673837424383435,2.8094268796181167e-05,-5.455134484126804e-06,0.0,0.58,0.92,0.0,0.0,0.0,7.000000000000001,7.000000000000001,7.121359539892056,7.121359539892056,7.1302758945679425,7.1302758945679425,7.000000000000001,7.000000000000001,1.2428300877301173,1.2428300877301173,1.1626332846730574,1.1626332846730574,1.1626744431924385,1.1626744431924385,1.2428685904754515,1.2428685904754515,0.0,0.0,0.0,0.0,0.0,0.0
89.0,1.7600000000000011,0.004857368861237537,0.01002890307826329,0.24858416458402463,0.001308831587191639,0.010002371411802463,0.24858416458402444,-0.003548537274045898,-2.6531666460827275e-05,-1.942890293094024e-16,0.0035486364585032206,-0.05216374918233743,2.6267476012114387e-05,4.6332017125143136e-06,min_task,none,false,false,7.000000000000001,7.000000000000001,7.098133479921148,7.098133479921148,7.105640053817869,7.105640053817869,7.000000000000001,7.000000000000001,0.0,0.0,0.0,0.0,0.0,0.0,0.1493923082953232,-0.0016618007064554763,0.0017908592365736748,0.0,0.0,0.0,0.0,0.0,0.0,-0.05216374918233743,2.6267476012114387e-05,4.6332017125143136e-06,0.0,0.58,0.92,0.0,0.0,0.0,7.000000000000001,7.000000000000001,7.098133479921148,7.098133479921148,7.105640053817869,7.105640053817869,7.000000000000001,7.000000000000001,1.2394978212438137,1.2394978212438137,1.1657607394207683,1.1657607394207683,1.1657989818069814,1.1657989818069814,1.2395337886784288,1.2395337886784288,0.0,0.0,0.0,0.0,0.0,0.0
90.0,1.7800000000000011,0.009452749429341928,0.010027584462062082,0.24858416458402463,0.005873092034066663,0.010002371411802463,0.24858416458402444,-0.0035796573952752656,-2.5213050259619008e-05,-1.942890293094024e-16,0.0035797461872948888,-0.04756827613145135,2.4421665921413812e-05,1.387879939712329e-05,min_task,none,false,false,6.999999999999998,6.999999999999998,7.075053525792808,7.075053525792808,7.081200740314686,7.081200740314686,6.999999999999998,6.999999999999998,0.0,0.0,0.0,0.0,0.0,0.0,0.1432695594720987,-0.0013681625101536836,0.0001755154776872136,0.0,0.0,0.0,0.0,0.0,0.0,-0.04756827613145135,2.4421665921413812e-05,1.387879939712329e-05,0.0,0.58,0.92,0.0,0.0,0.0,6.999999999999998,6.999999999999998,7.075053525792808,7.075053525792808,7.081200740314686,7.081200740314686,6.999999999999998,6.999999999999998,1.2361583605266553,1.2361583605266553,1.168912038284703,1.168912038284703,1.1689473858119945,1.1689473858119945,1.2361917852217532,1.2361917852217532,0.0,0.0,0.0,0.0,0.0,0.0
91.0,1.8000000000000012,0.014067162467750484,0.0100262168175076,0.24858416458402463,0.01045772688719171,0.010002371411802463,0.24858416458402444,-0.003609435580558774,-2.3845405705137657e-05,-1.942890293094024e-16,0.0036095143459441877,-0.04295378377847473,2.2601915092301626e-05,2.1807569261473853e-05,min_task,none,false,false,7.0,7.0,7.052097446978703,7.052097446978703,7.056974762316762,7.056974762316762,7.0,7.0,0.0,0.0,0.0,0.0,0.0,0.0,0.13707944726039134,-0.0010946087982605028,-0.0012805832709156472,0.0,0.0,0.0,0.0,0.0,0.0,-0.04295378377847473,2.2601915092301626e-05,2.1807569261473853e-05,0.0,0.58,0.92,0.0,0.0,0.0,7.0,7.0,7.052097446978703,7.052097446978703,7.056974762316762,7.056974762316762,7.0,7.0,1.2328131725968743,1.2328131725968743,1.1720859411236415,1.1720859411236415,1.1721184828593227,1.1721184828593227,1.2328441113981599,1.2328441113981599,0.0,0.0,0.0,0.0,0.0,0.0
92.0,1.8200000000000012,0.018698772394728926,0.010024818344009059,0.248584164584025,0.015060923302816664,0.010002371411802463,0.24858416458402444,-0.003637849091912261,-2.244693220659552e-05,-5.551115123125783e-16,0.0036379183443684317,-0.03832211118983148,2.08462745391898e-05,2.8071359576106964e-05,min_task,none,false,false,7.0,7.0,7.029248625358812,7.029248625358812,7.0329749247421,7.0329749247421,7.0,7.0,0.0,0.0,0.0,0.0,0.0,0.0,0.13082708800841836,-0.0008472387563439023,-0.002514806453116518,0.0,0.0,0.0,0.0,0.0,0.0,-0.03832211118983148,2.08462745391898e-05,2.8071359576106964e-05,0.0,0.58,0.92,0.0,0.0,0.0,7.0,7.0,7.029248625358812,7.029248625358812,7.0329749247421,7.0329749247421,7.0,7.0,1.2294637278664309,1.2294637278664309,1.1752811917722605,1.1752811917722605,1.1753110701490075,1.1753110701490075,1.2294922895327167,1.2294922895327167,0.0,0.0,0.0,0.0,0.0,0.0
93.0,1.8400000000000012,0.023345733334881425,0.010023406378126426,0.24858416458402469,0.019680857187191703,0.010002371411802463,0.24858416458402444,-0.0036648761476897225,-2.1034966323963192e-05,-2.498001805406602e-16,0.003664936513462861,-0.03367510641312305,1.918445120298367e-05,3.24532199360257e-05,min_task,none,false,false,6.999999999999998,6.999999999999998,7.006496388932116,7.006496388932116,7.00920982350252,7.00920982350252,6.999999999999998,6.999999999999998,0.0,0.0,0.0,0.0,0.0,0.0,0.12451721193031937,-0.0006299579474301735,-0.0034840340698347166,0.0,0.0,0.0,0.0,0.0,0.0,-0.03367510641312305,1.918445120298367e-05,3.24532199360257e-05,0.0,0.58,0.92,0.0,0.0,0.0,6.999999999999998,6.999999999999998,7.006496388932116,7.006496388932116,7.00920982350252,7.00920982350252,6.999999999999998,6.999999999999998,1.2261114993600672,1.2261114993600672,1.1784965195850923,1.1784965195850923,1.1785239149414368,1.1785239149414368,1.2261378308647475,1.2261378308647475,0.0,0.0,0.0,0.0,0.0,0.0
94.0,1.8600000000000012,0.02800618889432459,0.010021996386590182,0.24858416458402485,0.02431569432156666,0.010002371411802463,0.24858416458402444,-0.0036904945727579304,-1.962497478771863e-05,-4.163336342344337e-16,0.0036905467523378104,-0.029014626747438915,1.7637062838423857e-05,3.486281014748638e-05,min_task,none,false,false,7.013687529083999,7.013687529083999,6.999999999999998,6.999999999999998,6.999999999999998,6.999999999999998,7.015606735273212,7.015606735273212,0.0,0.0,0.0,0.0,0.0,0.0,0.11815406625763344,-0.0004439879575442192,-0.004174042526940573,0.0,0.0,0.0,0.0,0.0,0.0,-0.029014626747438915,1.7637062838423857e-05,3.486281014748638e-05,0.0,0.58,0.92,0.0,0.0,0.0,7.013687529083999,7.013687529083999,6.999999999999998,6.999999999999998,6.999999999999998,6.999999999999998,7.015606735273212,7.015606735273212,1.2227579627031597,1.2227579627031597,1.1817306393731115,1.1817306393731115,1.1817557544298172,1.1817557544298172,1.2227822350888093,1.2227822350888093,0.0,0.0,0.0,0.0,0.0,0.0
95.0,1.8800000000000012,0.03267827221544209,0.010020601415338608,0.2485841645840248,0.02896359148719166,0.010002371411802463,0.24858416458402444,-0.00371468072825043,-1.8230003536144623e-05,-3.608224830031759e-16,0.0037147254603623232,-0.02434253878926299,1.6215662258824894e-05,3.5326313324856695e-05,min_task,none,false,false,7.036316093767793,7.036316093767793,6.999999999999999,6.999999999999999,6.999999999999999,6.999999999999999,7.037474104081248,7.037474104081248,0.0,0.0,0.0,0.0,0.0,0.0,0.1117460295972406,-0.0002888733074441338,-0.0045764567136288535,0.0,0.0,0.0,0.0,0.0,0.0,-0.02434253878926299,1.6215662258824894e-05,3.5326313324856695e-05,0.0,0.58,0.92,0.0,0.0,0.0,7.036316093767793,7.036316093767793,6.999999999999999,6.999999999999999,6.999999999999999,6.999999999999999,7.037474104081248,7.037474104081248,1.2194045954087582,1.2194045954087582,1.1849822509504884,1.1849822509504884,1.1850052963426285,1.1850052963426285,1.219426990268951,1.219426990268951,0.0,0.0,0.0,0.0,0.0,0.0
96.0,1.9000000000000012,0.03736011008763761,0.010019231991185474,0.2485841645840247,0.03362269759031672,0.010002371411802463,0.24858416458402444,-0.0037374124973208883,-1.6860579383010804e-05,-2.7755575615628914e-16,0.0037374505286715824,-0.019660714444413935,1.4923338624138765e-05,3.397416648705701e-05,min_task,none,false,false,7.058965531750107,7.058965531750107,6.999999999999997,6.999999999999997,6.999999999999997,6.999999999999997,7.059513990222866,7.059513990222866,0.0,0.0,0.0,0.0,0.0,0.0,0.10529816834970601,-0.000163531209021194,-0.004694686348909649,0.0,0.0,0.0,0.0,0.0,0.0,-0.019660714444413935,1.4923338624138765e-05,3.397416648705701e-05,0.0,0.58,0.92,0.0,0.0,0.0,7.058965531750107,7.058965531750107,6.999999999999997,6.999999999999997,6.999999999999997,6.999999999999997,7.059513990222866,7.059513990222866,1.2160528728980933,1.2160528728980933,1.1882500411368333,1.1882500411368333,1.188271222759847,1.188271222759847,1.2160735702502552,1.2160735702502552,0.0,0.0,0.0,0.0,0.0,0.0
97.0,1.9200000000000013,0.042049825502445265,0.010017895637377762,0.2485841645840249,0.03829115478719175,0.010002371411802463,0.24858416458402444,-0.003758670715253515,-1.5524225575299158e-05,-4.718447854656915e-16,0.003758702774533267,-0.014971028539149295,1.3755179651774524e-05,3.1024458317441825e-05,min_task,none,false,false,7.081639433130804,7.081639433130804,7.0,7.0,7.0,7.0,7.081713129105686,7.081713129105686,0.0,0.0,0.0,0.0,0.0,0.0,0.09881268788681363,-6.484371522153983e-05,-0.004550472262365244,0.0,0.0,0.0,0.0,0.0,0.0,-0.014971028539149295,1.3755179651774524e-05,3.1024458317441825e-05,0.0,0.58,0.92,0.0,0.0,0.0,7.081639433130804,7.081639433130804,7.0,7.0,7.0,7.0,7.081713129105686,7.081713129105686,1.2127042658270915,1.2127042658270915,1.1915326848482781,1.1915326848482781,1.1915521927266701,1.1915521927266701,1.2127234331393182,1.2127234331393182,0.0,0.0,0.0,0.0,0.0,0.0
98.0,1.9400000000000013,0.04674553851239886,0.010016596814915594,0.2485841645840246,0.042967099609066695,0.010002371411802463,0.24858416458402444,-0.003778438903332168,-1.4225403113131072e-05,-1.6653345369377348e-16,0.0037784656817692187,-0.0102753581655102,1.2699375519477359e-05,2.676253970598551e-05,min_task,none,false,false,7.104343880784246,7.104343880784246,6.999999999999999,6.999999999999999,6.999999999999999,6.999999999999999,7.104055526451161,7.104055526451161,0.0,0.0,0.0,0.0,0.0,0.0,0.09229177448917145,1.1412688700507607e-05,-0.004176950146290683,0.0,0.0,0.0,0.0,0.0,0.0,-0.0102753581655102,1.2699375519477359e-05,2.676253970598551e-05,0.0,0.58,0.92,0.0,0.0,0.0,7.104343880784246,7.104343880784246,6.999999999999999,6.999999999999999,6.999999999999999,6.999999999999999,7.104055526451161,7.104055526451161,1.2093602382689888,1.2093602382689888,1.1948288446205013,1.1948288446205013,1.1948468440838442,1.1948468440838442,1.2093780214581318,1.2093780214581318,0.0,0.0,0.0,0.0,0.0,0.0
99.0,1.9600000000000013,0.05144536710678928,0.010015337038116235,0.2485841645840249,0.04764866408719173,0.010002371411802463,0.24858416458402444,-0.0037967030195975443,-1.2965626313771877e-05,-4.718447854656915e-16,0.0037967251581444263,-0.005575582023573129,1.1738575395412835e-05,2.1519259519428457e-05,min_task,none,false,false,7.127086625931119,7.127086625931119,7.0,7.0,7.0,7.0,7.126523440033332,7.126523440033332,0.0,0.0,0.0,0.0,0.0,0.0,0.0857376323379828,7.021554267767862e-05,-0.003615655989875678,0.0,0.0,0.0,0.0,0.0,0.0,-0.005575582023573129,1.1738575395412835e-05,2.1519259519428457e-05,0.0,0.58,0.92,0.0,0.0,0.0,7.127086625931119,7.127086625931119,7.0,7.0,7.0,7.0,7.126523440033332,7.126523440033332,1.2060222457833887,1.2060222457833887,1.1981371700652317,1.1981371700652317,1.1981537954114363,1.1981537954114363,1.2060387624331634,1.2060387624331634,0.0,0.0,0.0,0.0,0.0,0.0
100.0,1.9800000000000013,0.05614742810043556,0.010014115138267415,0.24858416458402463,0.05233397687781677,0.010002371411802463,0.24858416458402444,-0.003813451222618794,-1.1743726464952253e-05,-1.942890293094024e-16,0.0038134693052919747,-0.0008735797513907569,1.0851396233364768e-05,1.5649127235693924e-05,min_task,none,false,false,7.149876292653515,7.149876292653515,6.999999999999999,6.999999999999999,6.999999999999999,6.999999999999999,7.149098356329739,7.149098356329739,0.0,0.0,0.0,0.0,0.0,0.0,0.07915252491368642,0.00011694508582509485,-0.002913436392562417,0.0,0.0,0.0,0.0,0.0,0.0,-0.0008735797513907569,1.0851396233364768e-05,1.5649127235693924e-05,0.0,0.58,0.92,0.0,0.0,0.0,7.149876292653515,7.149876292653515,6.999999999999999,6.999999999999999,6.999999999999999,6.999999999999999,7.149098356329739,7.149098356329739,1.202691733441606,1.202691733441606,1.201456297345889,1.201456297345889,1.2014716480120666,1.2014716480120666,1.2027070683393828,1.2027070683393828,0.0,0.0,0.0,0.0,0.0,0.0
101.0,2.0000000000000013,0.06084983803375366,0.010012927644309626,0.24858416458402485,0.057021164387191736,0.010002371411802463,0.24858416458402444,-0.0038286736465619267,-1.0556232507162935e-05,-4.163336342344337e-16,0.0038286881990993397,0.003828768767266004,1.0013986922492906e-05,9.509557426697128e-06,min_task,none,false,false,7.172721647636577,7.172721647636577,7.0,7.0,7.0,7.0,7.171761907832289,7.171761907832289,0.0,0.0,0.0,0.0,0.0,0.0,0.07253881701156754,0.0001570517859144921,-0.002119437929851803,0.0,0.0,0.0,0.0,0.0,0.0,0.003828768767266004,1.0013986922492906e-05,9.509557426697128e-06,0.0,0.58,0.92,0.0,0.0,0.0,7.172721647636577,7.172721647636577,7.0,7.0,7.0,7.0,7.171761907832289,7.171761907832289,1.199370133870737,1.199370133870737,1.2047848487480166,1.2047848487480166,1.2047989878706968,1.2047989878706968,1.1993843368256,1.1993843368256,0.0,0.0,0.0,0.0,0.0,0.0
102.0,2.0200000000000014,0.06555071408410865,0.010011769246812212,0.2485841645840248,0.06170835189656676,0.010002371411802463,0.24858416458402444,-0.0038423621875418867,-9.397835009748376e-06,-3.608224830031759e-16,0.003842373680364072,0.008529584127024389,9.20155906147744e-06,3.4421606425910088e-06,min_task,none,false,false,7.1956309635333735,7.1956309635333735,7.0,7.0,7.0,7.0,7.194496686951723,7.194496686951723,0.0,0.0,0.0,0.0,0.0,0.0,0.06589901412198915,0.00019575811125427666,-0.0012823238348549976,0.0,0.0,0.0,0.0,0.0,0.0,0.008529584127024389,9.20155906147744e-06,3.4421606425910088e-06,0.0,0.58,0.92,0.0,0.0,0.0,7.1956309635333735,7.1956309635333735,7.0,7.0,7.0,7.0,7.194496686951723,7.194496686951723,1.1960588653693782,1.1960588653693782,1.2081214324071872,1.2081214324071872,1.2081343875407744,1.2081343875407744,1.1960719511574596,1.1960719511574596,0.0,0.0,0.0,0.0,0.0,0.0
103.0,2.0400000000000014,0.07024817498965691,0.010010633310952814,0.24858416458402485,0.06639366468719177,0.010002371411802463,0.24858416458402444,-0.0038545103024651417,-8.261899150350388e-06,-4.163336342344337e-16,0.0038545191568842264,0.013226988165556411,8.389807530350366e-06,-2.2431733226948736e-06,min_task,none,false,false,7.218611495696336,7.218611495696336,7.0,7.0,7.0,7.0,7.217286923480647,7.217286923480647,0.0,0.0,0.0,0.0,0.0,0.0,0.05923579647070707,0.0002378062513900365,-0.0004478358079984751,0.0,0.0,0.0,0.0,0.0,0.0,0.013226988165556411,8.389807530350366e-06,-2.2431733226948736e-06,0.0,0.58,0.92,0.0,0.0,0.0,7.218611495696336,7.218611495696336,7.0,7.0,7.0,7.0,7.217286923480647,7.217286923480647,1.1927593301370798,1.1927593301370798,1.2114646422422977,1.2114646422422977,1.2114764079199418,1.2114764079199418,1.1927712803267867,1.1927712803267867,0.0,0.0,0.0,0.0,0.0,0.0
