LordTarzan10086/HCDR_ML/results/online_trajectories/routeb_traj_20260428_222237_623741/helix_cooperative.csv
step,time_s,tip_x,tip_y,tip_z,des_x,des_y,des_z,err_x,err_y,err_z,err_norm,q_platform_x,q_platform_y,q_platform_psi,fail_reason,fallback_applied,hold_active,q_1,q_2,q_3,q_4,q_5,q_6,q_7,q_8,q_9
1,0.0,0.05700972072002604,0.03995722577480175,0.24858889272533513,0.05702116438719139,0.04000237141180246,0.24858416458402444,1.1443667165350613e-05,4.51456370007125e-05,-4.728141310694767e-06,4.681283348234033e-05,2.471308297915404e-05,0.028212861715201876,0.0015518586069838917,none,False,False,2.471308297915404e-05,0.028212861715201876,0.0015518586069838917,-0.001603149194633573,0.5799955862792324,0.9200045314868762,-0.0018476041280126563,0.006478190197661083,0.00012412846694594745
2,0.02,0.057004231822882036,0.04001701637324257,0.24859220832811546,0.05702124072712867,0.04000237141126323,0.24858434445576402,1.7008904246634815e-05,-1.4644961979344562e-05,-7.863872351437928e-06,2.3782729519702938e-05,2.403560862702929e-05,0.02817373013688246,0.0014045324641355928,none,False,False,2.403560862702929e-05,0.02817373013688246,0.0014045324641355928,-0.001561551701073095,0.5800176304791324,0.9200260082948013,-0.002496883562092802,0.006801447808201284,0.000469073510731524
3,0.04,0.056997880023073176,0.040093571603352626,0.24859828665664235,0.05702177143798435,0.04000237137770508,0.24858559491375753,2.389141491117297e-05,-9.120022564754887e-05,-1.2691742884818336e-05,9.512813044560472e-05,2.2654214301591697e-05,0.02810914298913851,0.0011893430887991677,none,False,False,2.2654214301591697e-05,0.02810914298913851,0.0011893430887991677,-0.0014496871555979283,0.5800516863043189,0.9200642592575223,-0.0035237722934580596,0.007251740479361392,0.001020263309390735
4,0.06,0.05699224285877147,0.04017574197153178,0.24860780321907644,0.05702320084155043,0.0400023710280772,0.24858896286654428,3.09579827789605e-05,-0.00017337094345457743,-1.884035253216232e-05,0.00017711815157009982,2.0501449502846544e-05,0.028019162133071145,0.0009262176511409339,none,False,False,2.0501449502846544e-05,0.028019162133071145,0.0009262176511409339,-0.0012429694272231573,0.5800976336608406,0.9201228709912109,-0.004898856264584434,0.0077878318118083005,0.0017644122331383712
5,0.08,0.05698847848925091,0.040256627075089826,0.24862152720984673,0.05702596237736611,0.04000236928175282,0.24859546958177056,3.748388811519732e-05,-0.000254257793337008,-2.6057628076170403e-05,0.0002583235709760016,1.7608789322208016e-05,0.02790400367283604,0.000633291240892061,none,False,False,1.7608789322208016e-05,0.02790400367283604,0.000633291240892061,-0.0009241576982880654,0.5801564601810635,0.920206139837997,-0.006595884839508466,0.00838450785054382,0.0026885022281444384
6,0.1,0.05698745392009016,0.04033214323753833,0.24864028557215884,0.05703047869119139,0.040002363384459484,0.24860611089383175,4.3024771101234094e-05,-0.00032977985307884594,-3.417467832708687e-05,0.0003343258755522502,1.4075258973978767e-05,0.027763995945382362,0.0003269253437198528,none,False,False,1.4075258973978767e-05,0.027763995945382362,0.0003269253437198528,-0.0004816591927260063,0.5802298951921808,0.9203188057130525,-0.008590678848272188,0.00902709897522697,0.0037796777684646985
7,0.12000000000000001,0.05698983407730493,0.04040006594885699,0.24866493650876098,0.05703716172348067,0.04000234773264129,0.24862185740972995,4.73276461757377e-05,-0.00039771821621570336,-4.3079099031034795e-05,0.0004028343262132244,1.0044875788604763e-05,0.027599550384223893,2.1573680594271518e-05,none,False,False,1.0044875788604763e-05,0.027599550384223893,2.1573680594271518e-05,9.149268636458183e-05,0.5803201403461012,0.920465855408337,-0.010860423509474807,0.009707824059889862,0.005025194685797295
8,0.14,0.056996142813757554,0.04045938809324309,0.24869635081306674,0.05704641279785635,0.04000231242715742,0.24864365471113037,5.026998409879413e-05,-0.00045707566608567396,-5.269610193636698e-05,0.00046284134969581475,5.69078947811608e-06,0.027411140776508348,-0.00027040364237178804,none,False,False,5.69078947811608e-06,0.027411140776508348,-0.00027040364237178804,0.0007982684386486503,0.5804296800240292,0.9206523843149726,-0.013383224710743623,0.010423347349149941,0.006412406258122893
9,0.16,0.05700680450117273,0.040509888030810653,0.24873539910291445,0.05705862270958243,0.04000224158410498,0.24867242354953764,5.1818208409701305e-05,-0.0005076464467056729,-6.297555337680949e-05,0.000514155581413644,1.2041891019803303e-06,0.02719928802390684,-0.0005389099978999721,none,False,False,1.2041891019803303e-06,0.02719928802390684,-0.0005389099978999721,0.0016380667972230988,0.5805611509610985,0.9208835015850332,-0.016137840619574437,0.011173142588673426,0.007928772347453943
10,0.18,0.05702217251248855,0.04055183712618485,0.24878294329540818,0.05707417181403811,0.04000211142946755,0.24870906003031415,5.199930154956012e-05,-0.0005497256967172959,-7.388326509402687e-05,0.0005571005347815713,-3.2135245696546547e-06,0.026964548540315908,-0.0007762235813126581,none,False,False,-3.2135245696546547e-06,0.026964548540315908,-0.0007762235813126581,0.0026070520969718285,0.5807172534808666,0.9211642656500134,-0.019103529039465633,0.011958394365490599,0.009561882342457558
11,0.19999999999999998,0.057042549006547955,0.040585800083050676,0.2488398310288124,0.05709343011519139,0.04000188820324142,0.24875443577997855,5.0881108643437145e-05,-0.0005839118798092527,-8.53952488338583e-05,0.0005923126869505303,-7.356379063876078e-06,0.026707505102139543,-0.000977026926945529,none,False,False,-7.356379063876078e-06,0.026707505102139543,-0.000977026926945529,0.003698476138869097,0.5809006909988722,0.9214996401387336,-0.02225997013733059,0.012781257163905128,0.011299485812434024
12,0.21999999999999997,0.057068199016182666,0.040612497311144545,0.24890689207157182,0.05711675735407267,0.04000152589768483,0.24880939808988842,4.85583378900048e-05,-0.0006109714134597127,-9.749398168340528e-05,0.0006206037839943318,-1.1018019459105192e-05,0.026428759418400043,-0.0011383458604107446,none,False,False,-1.1018019459105192e-05,0.026428759418400043,-0.0011383458604107446,0.00490302288533106,0.5811141282896024,0.9218944630859499,-0.025587237080626834,0.01364435315120071,0.013129526768814228
13,0.23999999999999996,0.057099360831236706,0.04063270911149532,0.2489849360247252,0.05714450309724835,0.040000963853380325,0.24887477002806788,4.5142266011641285e-05,-0.0006317452581149977,-0.0001101659966573354,0.0006428658041543001,-1.3994932094289434e-05,0.026128925980775316,-0.001259399990289382,none,False,False,-1.3994932094289434e-05,0.026128925980775316,-0.001259399990289382,0.006209191468112702,0.5813601619958966,0.9223534245415377,-0.029065795867942775,0.01455043005582779,0.015040178730881154
14,0.25999999999999995,0.0571362539632617,0.04064720845763824,0.2490747508255968,0.05717700682529443,0.04000012423590654,0.24895135050962003,4.075286203273493e-05,-0.0006470842217316947,-0.00012340031597676826,0.0006600048664677696,-1.6089010720709688e-05,0.025808626937941722,-0.0013413746334686937,none,False,False,-1.6089010720709688e-05,0.025808626937941722,-0.0013413746334686937,0.007603717654466274,0.5816412990405182,0.9228810493135147,-0.03267652161725633,0.015502127315137395,0.017019878670560026
15,0.27999999999999997,0.057179085494896906,0.04065671374748105,0.24917710171074337,0.05721459802127011,0.03999890941509233,0.249039914314893,3.55125263732034e-05,-0.0006578043323887256,-0.00013718739585036333,0.0006728952822088952,-1.7109652312925276e-05,0.025468487849058478,-0.0013871293198396166,none,False,False,-1.7109652312925276e-05,0.025468487849058478,-0.0013871293198396166,0.009072024156228979,0.5819599401422226,0.9234816827355031,-0.03640072271256224,0.016501816405212436,0.01905735852058732
16,0.3,0.05722805529009853,0.04066185589347163,0.24929273040734173,0.05725759625919139,0.039997199268085065,0.2491412120433787,2.9540969092863023e-05,-0.0006646566253865616,-0.00015151836396304352,0.0006823480879604155,-1.687549000076088e-05,0.025109134232142106,-0.001400861138536299,none,False,False,-1.687549000076088e-05,0.025109134232142106,-0.001400861138536299,0.01059868457869241,0.5823183667080821,0.9241594781647009,-0.040220167106805996,0.01755149292138104,0.02114167336366332
17,0.32,0.05728336032530517,0.04066315604191681,0.24942235440400135,0.05730631129250467,0.03999484842681729,0.24925596999023025,2.2950967199501793e-05,-0.0006683076150995199,-0.00016638441377109237,0.0006890904065805522,-1.521582018148864e-05,0.02473118885153821,-0.0013877425116192094,none,False,False,-1.521582018148864e-05,0.02473118885153821,-0.0013877425116192094,0.01216788334907496,0.5827187300990441,0.9249183854828106,-0.04411710713380925,0.018652705575477397,0.02326222573613445
18,0.34,0.05734519826377801,0.04066101142685716,0.24956666621101975,0.057361043142560346,0.03999168348991128,0.24938488993131677,1.5844878782332594e-05,-0.0006693279369458793,-0.0001817762797029776,0.000693753243756387,-1.1971751311281354e-05,0.02433526969680597,-0.001353552821202412,none,False,False,-1.1971751311281354e-05,0.02433526969680597,-0.001353552821202412,0.013763853833696138,0.5831630427407004,0.9257621402540421,-0.04807430065369462,0.01980651217632554,0.025408785717682
19,0.36000000000000004,0.057413770312848986,0.04065568761486332,0.2497263325607894,0.05742208218708643,0.039987500218632316,0.24952864880190337,8.311874237443284e-06,-0.000668187396231007,-0.0001976837588860414,0.0006968660934947447,-6.997086992775e-06,0.02392198860169069,-0.0013043219641496841,none,False,False,-6.997086992775e-06,0.02392198860169069,-0.0013043219641496841,0.015371278404064798,0.5836531708428022,0.9266942534348308,-0.052075027415603166,0.021013455783497236,0.027571506665624707
20,0.38000000000000006,0.05748928336123641,0.040647315849248376,0.24990199352479442,0.05748970924866211,0.03998206073619587,0.24968789825337237,4.258874257007106e-07,-0.0006652551130525083,-0.00021409527142204898,0.0006988571614199041,-1.5895131750297853e-07,0.0234919504425068,-0.001246001643683063,none,False,False,-1.5895131750297853e-07,0.0234919504425068,-0.001246001643683063,0.016975636917175962,0.5841908286462791,0.9277180016605042,-0.05610310027946642,0.022273556187234266,0.02974093660733187
21,0.4000000000000001,0.057571951379096806,0.04063589446819395,0.2500942615372367,0.05756419568319139,0.03997509074956228,0.24986326407189813,-7.755695905414806e-06,-0.0006608037186316695,-0.00023099746533855603,0.0007000582364126983,8.661833527401598e-06,0.023045752844393384,-0.001184177298021234,none,False,False,8.661833527401598e-06,0.023045752844393384,-0.001184177298021234,0.01856349349073755,0.5847775741732051,0.928836418180721,-0.060142871470519894,0.02358631308944659,0.0319080254387027
22,0.4200000000000001,0.057661996068791875,0.04062129352550795,0.2503037203197236,0.057645803468376666,0.0399662768128204,0.25005534544267094,-1.6192600415208813e-05,-0.0006550167126875492,-0.0002483748770526484,0.000700713332083191,1.9570601305464904e-05,0.022583986314279568,-0.0011238302644894526,none,False,False,1.9570601305464904e-05,0.022583986314279568,-0.0011238302644894526,0.020122715211682934,0.5854148064429642,0.9300522845011069,-0.06417923439684949,0.024950718118255177,0.03406412819677767
23,0.4400000000000001,0.05775964677267435,0.04060326183543603,0.25053092369924335,0.05773478529219235,0.03995526365137522,0.25026471404314254,-2.486148048200243e-05,-0.0006479981840608051,-0.00026620965610080205,0.0007009902429842839,3.26589034318001e-05,0.022107234712697675,-0.0010691563155890789,none,False,False,3.26589034318001e-05,0.022107234712697675,-0.0010691563155890789,0.02164262021059117,0.5861037640623499,0.9313681227342898,-0.0681976217791718,0.02636527328917238,0.036201004782011194
24,0.46000000000000013,0.05786513967035192,0.040581435726828256,0.25077639430566906,0.05783138464135843,0.03994165156641706,0.2504919129488514,-3.375502899349153e-05,-0.0006397841604111956,-0.0002844813568176341,0.0007009941627946784,4.8004746253233006e-05,0.021616075973661282,-0.0010234432872398482,none,False,False,4.8004746253233006e-05,0.021616075973661282,-0.0010234432872398482,0.023114056120548877,0.5868455250198082,0.932786188589459,-0.07218400095241662,0.027828013852936952,0.03831081659892345
25,0.48000000000000015,0.057978716327015054,0.04055534884731773,0.2510406221275572,0.05793583588981411,0.039924993939562115,0.2507374553356905,-4.28804372009442e-05,-0.0006303549077556134,-0.0003031667918667047,0.0007007825235526938,6.567296491907454e-05,0.02111108298290758,-0.0009890073241219427,none,False,False,6.567296491907454e-05,0.02111108298290758,-0.0009890073241219427,0.024529413128589556,0.5876410074329025,0.9343084648524771,-0.07612486722448554,0.029336533721909728,0.04038612065912545
26,0.5000000000000001,0.05810062168332205,0.04052444241609507,0.2513240628983451,0.05804836438719139,0.039904794858114045,0.25100182296300927,-5.225729613066166e-05,-0.0006196475579810234,-0.00032223993533581075,0.0007003802517461218,8.57156899548273e-05,0.020592824529641875,-0.0009671844333922037,none,False,False,8.57156899548273e-05,0.020592824529641875,-0.0009671844333922037,0.02588257848825308,0.5884909709271474,0.9359366551434066,-0.08000723613893224,0.03088801188936991,0.04241986174368673
27,0.5200000000000001,0.058231101602591054,0.04048807539130701,0.2516271362802428,0.05816918654728867,0.03988050688210059,0.2512854644227156,-6.191505530238339e-05,-0.0006075685092064229,-0.00034167185752720375,0.0006997947025224627,0.00010817286024708782,0.020061866255012502,-0.0009583716714128412,none,False,False,0.00010817286024708782,0.020061866255012502,-0.0009583716714128412,0.027168841407252602,0.5893960182722962,0.9376721776922577,-0.08381863540456962,0.03247923848067972,0.04440536324878491
28,0.5400000000000001,0.058370400110433644,0.0404455340960994,0.2519502238112703,0.05829850993654435,0.03985152897507857,0.2515887931405546,-7.189017388929686e-05,-0.0005940051210208269,-0.0003614306707157011,0.0006990296207134588,0.00013307273643278832,0.019518771531155513,-0.000962110456885388,none,False,False,0.00013307273643278832,0.019518771531155513,-0.000962110456885388,0.028384758616611327,0.590356596875244,0.9395161588532903,-0.08754709714137555,0.03410663931217646,0.04633631733684231
29,0.5600000000000002,0.05851875647424223,0.040396040934392724,0.25229366658212715,0.05843653336251043,0.03981720462166553,0.2519121851170209,-8.222311173179675e-05,-0.0005788363127271906,-0.00038148146510624814,0.0006980975757400101,0.0001604323714530208,0.018964102216972988,-0.0009772032410977891,none,False,False,0.0001604323714530208,0.018964102216972988,-0.0009772032410977891,0.02952799166851744,0.5913729997270909,0.9414694260829285,-0.09118115096181902,0.035766298083970964,0.0482067749843306
30,0.5800000000000002,0.058676402273805175,0.04033876192196467,0.25265776261364614,0.05858344696232611,0.0397768201558324,0.25225597639689473,-9.29553114790635e-05,-0.000561941766132272,-0.0004017862167514097,0.0006970304171465099,0.00019025799998281996,0.018398419250081063,-0.0010018540737817643,none,False,False,0.00019025799998281996,0.018398419250081063,-0.0010018540737817643,0.030597127131673483,0.5924453654245256,0.9435325001336704,-0.09470981827175631,0.037453975597319604,0.05001113645856122
31,0.6000000000000002,0.058843558609815785,0.040272812855303,0.2530427639119306,0.05873943229119139,0.03972960332516008,0.25262046025821044,-0.00010412631862439375,-0.0005432095301429185,-0.00042230365372014633,0.0006958873901815899,0.00022254531506185802,0.017822283047803096,-0.0010338234532792422,none,False,False,0.00022254531506185802,0.017822283047803096,-0.0010338234532792422,0.03159149041846872,0.5935736769282958,0.9457055862610959,-0.09812260804280507,0.039165125653222756,0.051744142672452254
32,0.6200000000000002,0.05902043358442573,0.0401972640365309,0.25344887318601733,0.05890466241084067,0.03967472211750396,0.25300588411355773,-0.00011577117358505667,-0.0005225419190269392,-0.0004429890724595986,0.0006947606351055256,0.0002572796079644675,0.01723625370305652,-0.0010705881914907366,none,False,False,0.0002572796079644675,0.01723625370305652,-0.0010705881914907366,0.03251096306845484,0.5947577587786825,0.9479885642963897,-0.10140951418536881,0.040894907549359656,0.053400867763689346
33,0.6400000000000002,0.05920722016828178,0.04011114356337179,0.25387624022129285,0.05907930197801635,0.039611283877797485,0.25341244611900604,-0.00012791819026543305,-0.000499859685574304,-0.0004637941022868075,0.0006937778736593228,0.00029443575558526483,0.0166408909729433,-0.0011094977874441202,none,False,False,0.00029443575558526483,0.0166408909729433,-0.0011094977874441202,0.03335581202330065,0.5959972725539315,0.9503809774963301,-0.10456101454232124,0.04263819533674287,0.054976713129263846
34,0.6600000000000003,0.0594040945434302,0.04001343927490569,0.2543249579103135,0.05926350733294243,0.03953833474403122,0.2538402914886224,-0.00014058721048777062,-0.00047510453087447335,-0.0004846664216910934,0.0006931021709135204,0.0003339780478105308,0.016036754068384052,-0.001147919905112231,none,False,False,0.0003339780478105308,0.016036754068384052,-0.001147919905112231,0.03412653786338703,0.5972917104266254,0.952882020140939,-0.10756807143022473,0.044389584215651846,0.05646740302518776
35,0.6800000000000003,0.05961121498181722,0.03990309951426296,0.2547950579504723,0.05945742658779811,0.039454859432734246,0.25428950851553894,-0.00015378839401911093,-0.00044824008152871686,-0.0005055494349333611,0.0006929287640048497,0.0003758598551566016,0.015424401261950707,-0.0011833689009855307,none,False,False,0.0003758598551566016,0.015424401261950707,-0.0011833689009855307,0.0348237472400229,0.598640386741972,0.955490523901441,-0.11042213357932047,0.046143394635950255,0.05786898172139203
36,0.7000000000000003,0.05982872128793118,0.03977903292622763,0.25528650622487914,0.05966119971519139,0.03935978140552439,0.2547601243038183,-0.00016752157273978996,-0.0004192515207032399,-0.0005263819210608589,0.0006934790853118154,0.00042002314386231177,0.014804389337975154,-0.0012136128512111467,none,False,False,0.00042002314386231177,0.014804389337975154,-0.0012136128512111467,0.03544805293300165,0.6000424276049967,0.9582049430445766,-0.11311513926584645,0.0478936748136752,0.05917781209035594
37,0.7200000000000003,0.06005673480240364,0.039640107549557546,0.25579919788867456,0.059874958636632676,0.039251963449441964,0.25525210021896094,-0.000181776165770961,-0.0003881441001155825,-0.0005470976697136143,0.0006949922856427935,0.0004663978514942145,0.014177272913970432,-0.001236756096208471,none,False,False,0.0004663978514942145,0.014177272913970432,-0.001236756096208471,0.03600000318538064,0.601496758520078,0.9610233385726447,-0.11563952038994249,0.049634202479554634,0.060390575410776325
38,0.7400000000000003,0.060295358933697744,0.03948514949111429,0.25633295218785396,0.06009882731100835,0.039130208704796735,0.2557653270688072,-0.0001965316226893929,-0.0003549407863175577,-0.000567625119046733,0.0006977147814698137,0.0005149011406875435,0.013543603665451856,-0.0012512958683237277,none,False,False,0.0005149011406875435,0.013543603665451856,-0.0012512958683237277,0.036480040298530796,0.6030020901729112,0.9639433614213903,-0.11798820722943049,0.051358486737786764,0.06150427208949169
39,0.7600000000000003,0.06054468015810044,0.03931294148101076,0.25688750704175173,0.060332921823054435,0.03899326217509122,0.2562996200307922,-0.00021175833504600422,-0.00031967930591954297,-0.0005878870109595202,0.0007018885871344367,0.0005654365520005693,0.0129039294874744,-0.001256153020857077,none,False,False,0.0005654365520005693,0.0129039294874744,-0.001256153020857077,0.03688848698085707,0.6045569024839844,0.9669622348523857,-0.12015463359189253,0.05305977093226894,0.06251622294912854
40,0.7800000000000004,0.06080476940679552,0.03912222160678692,0.25746251342405957,0.06057735047183011,0.03883981275418749,0.2568547133460174,-0.0002274189349654107,-0.00028240885259942644,-0.0006078000780421755,0.000707739406049572,0.000617893078842636,0.012258793625817412,-0.0012506781728630742,none,False,False,0.000617893078842636,0.012258793625817412,-0.0012506781728630742,0.03722555768577039,0.6061594270915792,0.9700767361844193,-0.1221327420938829,0.05473103739865879,0.06342407069756613
41,0.8000000000000004,0.0610756837427191,0.03891168251116007,0.2580575295802975,0.060832213859191395,0.03866849580620634,0.25743025480539133,-0.0002434698835277055,-0.00024318670495372674,-0.0006272747749061502,0.0007154655832986007,0.0006721441882101307,0.011608733808966388,-0.001234635675769571,none,False,False,0.0006721441882101307,0.011608733808966388,-0.001234635675769571,0.03749139118564452,0.6078076284426481,0.973283178009786,-0.12391698931437373,0.05636501492661035,0.06422578118854337
42,0.8200000000000004,0.061357468220124375,0.03867997131394649,0.25867201512285337,0.06109760497826468,0.03847789633363306,0.25802580005814674,-0.000259863241859698,-0.0002020749803134242,-0.0006462150647066345,0.0007252290065850251,0.0007280468107149557,0.010954281409132308,-0.001208168662857249,none,False,False,0.0007280468107149557,0.010954281409132308,-0.001208168662857249,0.03768609992794711,0.609499183684039,0.9765773890410119,-0.1255023505969015,0.05795418967230243,0.0649196440992173
43,0.8400000000000004,0.06165015781693388,0.038425690487098096,0.2593053250480379,0.06137360930192036,0.03826655276869759,0.25864080677834267,-0.0002765485150135194,-0.0001591377184005094,-0.0006645182696952134,0.0007371488488308335,0.0007854403222152821,0.01029596065681925,-0.0011717490438012221,none,False,False,0.0007854403222152821,0.01029596065681925,-0.0011717490438012221,0.037809831310251237,0.6112314615544501,0.9799546947326134,-0.12688432430927915,0.059490820155643616,0.06550427268782588
44,0.8600000000000004,0.061953779333609196,0.03814739987352358,0.259956703723081,0.061660304871246435,0.03803296142224147,0.2592746287304812,-0.0002934744623627611,-0.00011443845128211033,-0.0006820749925998126,0.0007512986854247744,0.0008441455374640504,0.009634287929159024,-0.0011261166502536098,none,False,False,0.0008441455374640504,0.009634287929159024,-0.0011261166502536098,0.037862835883236086,0.6130015004805819,0.9834098978216513,-0.12805893540727392,0.06096695685126381,0.06597860234901332
45,0.8800000000000004,0.06226835316158863,0.03784361999844192,0.26062527889494874,0.06195776238402212,0.037775581622922626,0.25992650978106946,-0.00031059077756651066,-6.803837551929565e-05,-0.0006987691138792829,0.0007677070575188902,0.0009039637339084812,0.008969771127681669,-0.0010722118358150253,none,False,False,0.0009039637339084812,0.008969771127681669,-0.0010722118358150253,0.037845537619556946,0.6148059860827504,0.9869372589335546,-0.12902273818669932,0.062374466746885106,0.06634188775125278
46,0.9000000000000005,0.06259389483897217,0.03751283677845011,0.2613100557771334,0.0622660452831914,0.03749284157768536,0.26059557790880444,-0.00032784955578076674,-1.9995200764753862e-05,-0.0007144778683289554,0.0007863610898379682,0.000964675721193341,0.008302909156636052,-0.001011105705487801,none,False,False,0.000964675721193341,0.008302909156636052,-0.001011105705487801,0.03775860173886011,0.6166412282950259,0.9905304774049547,-0.12977281814415814,0.06370506310251314,0.06659369841519577
47,0.9200000000000005,0.06293041632963484,0.037153507689536965,0.2620099112752545,0.06258520984533668,0.037183144981881716,0.2612808392719922,-0.0003452064842981578,2.9637292344751598e-05,-0.0007290720032623321,0.0008072124081305816,0.0010260409693691973,0.007634191508622229,-0.0009439318261422786,none,False,False,0.0010260409693691973,0.007634191508622229,-0.0009439318261422786,0.03760299611475097,0.6185031383063088,0.9941826724852733,-0.13030679289694766,0.06495034050221343,0.06673391266829866
48,0.9400000000000005,0.06327792698279691,0.03676406941376455,0.26272358841725346,0.06291530526915236,0.036844878404218864,0.2619811723977893,-0.00036262171364455364,8.080899045431744e-05,-0.000742416019464176,0.0008301844048774889,0.001087796806448006,0.006964097960361412,-0.0008718227878251351,none,False,False,0.001087796806448006,0.006964097960361412,-0.0008718227878251351,0.03738004296119362,0.6203872055322047,0.9978863650923797,-0.13062281213632942,0.06610181515616667,0.06676270998472911
49,0.9600000000000005,0.06363643415212257,0.036342946945373746,0.26344969105938787,0.06325637376391843,0.036476419467776564,0.2626953225637926,-0.000380060388204137,0.00013347252240281798,-0.0007543684955952923,0.000855179887547149,0.0011496576940280086,0.006293098378013031,-0.0007958543862309524,none,False,False,0.0011496576940280086,0.006293098378013031,-0.0007958543862309524,0.037091458258117875,0.6222884748361854,1.0016334603172101,-0.1307195566029053,0.06715097028349325,0.06668056178557731
50,0.9800000000000005,0.06400594347577747,0.03588856410276672,0.26418667894481784,0.06360845063797411,0.03607614584364498,0.26342189644834235,-0.00039749283780335376,0.00018758174087826068,-0.0007647824964754912,0.0008820882793298905,0.0012113145882074081,0.005621652628673087,-0.0007169995217005215,none,False,False,0.0012113145882074081,0.005621652628673087,-0.0007169995217005215,0.03673937718146788,0.6242015242305836,1.0054152308951638,-0.13059623607874407,0.06808930629333769,0.06648822082920669
51,1.0000000000000004,0.06438645883929212,0.03539935536362003,0.2649328631970563,0.0639715643871914,0.03564244506823748,0.2641593571315529,-0.00041489445210071696,0.0002430897046174496,-0.0007735060655033599,0.0009107917677743036,0.0012724343921385328,0.004950210592589174,-0.0006360932013452842,none,False,False,0.0012724343921385328,0.004950210592589174,-0.0006360932013452842,0.03632636460816475,0.6261204433059814,1.0092223018877644,-0.13025258638799114,0.06890839538403964,0.06618670936222194
52,1.0200000000000005,0.06477798206013022,0.034873778916457376,0.26568640233626006,0.06434573678344868,0.0351737251890061,0.2649060195344538,-0.00043224527668153656,0.000299946272548722,-0.0007803828018062564,0.0009411700499826549,0.0013326595065222102,0.004279212269202279,-0.000553809327432065,none,False,False,0.0013326595065222102,0.004279212269202279,-0.000553809327432065,0.03585541053251351,0.6280388126645325,1.0130446368487311,-0.12968886538638977,0.06959994009828209,0.0657773062261979
53,1.0400000000000005,0.06518051234762379,0.03431033080416392,0.26644529891180224,0.06473098296310435,0.03466842623610615,0.26566004638861784,-0.00044952938451943425,0.00035809543194222776,-0.0007852525231843988,0.0009731035562013823,0.0013916074847270114,0.003609087969362074,-0.00047064929076208993,none,False,False,0.0013916074847270114,0.003609087969362074,-0.00047064929076208993,0.03532991092518311,0.6299496846623972,1.0168715257796983,-0.12890584790334428,0.07015583530976245,0.06526153312406295
54,1.0600000000000005,0.06559404560134333,0.03370756002216724,0.26720739684942896,0.06512731151547044,0.0341250325095115,0.2664194448331564,-0.00046673408587288856,0.00041747248734426423,-0.000787952016272575,0.0010064752180521008,0.0014488708003319046,0.0029402585858668566,-0.0003869417916363355,none,False,False,0.0014488708003319046,0.0029402585858668566,-0.0003869417916363355,0.03475363516366729,0.6318455658032772,1.0206915752121766,-0.12790481957887326,0.07056823307038416,0.06464114024329652
55,1.0800000000000005,0.06601857361596383,0.033064084426798215,0.26797037961584946,0.06553472457128612,0.033542085662172545,0.2671820637398679,-0.0004838490446777144,0.00047800123537432987,-0.000788315875981549,0.0010411709750946187,0.001504016736530979,0.0022731359347926503,-0.0003028528057980258,none,False,False,0.001504016736530979,0.0022731359347926503,-0.0003028528057980258,0.034130681644671604,0.6337184011666953,1.024492700784522,-0.12668756951531648,0.0708296097191212,0.06391809141295396
56,1.1000000000000005,0.06645408326106259,0.03237860730645244,0.2687317693072888,0.0659532178911914,0.03291819855005085,0.2679455918705113,-0.0005008653698711785,0.0005395912435984113,-0.0007861774367775021,0.0010770792872404128,0.0015565874088265975,0.0016081231607679603,-0.00021840421330481048,none,False,False,0.0015565874088265975,0.0016081231607679603,-0.00021840421330481048,0.03346542354518938,0.6355595612984027,1.0282621227121385,-0.12525638164232192,0.07093283464063076,0.0630945489408951
57,1.1200000000000006,0.06690055570022746,0.03164993446863406,0.2694889267707781,0.06638278095420068,0.03225206980928544,0.2687075569725121,-0.0005177747460267806,0.0006021353406513788,-0.0007813697982660406,0.0011140899504648457,0.0016060999346061875,0.0009456152002967409,-0.0001334993229981072,none,False,False,0.0016060999346061875,0.0009456152002967409,-0.0001334993229981072,0.03276244692719449,0.6373598320337278,1.0319863645736298,-0.12361402467604617,0.07087124006093484,0.06217285824002039
58,1.1400000000000006,0.067357965705534,0.030876991699676698,0.2702390528684884,0.06682339704617636,0.031542499109393204,0.2694653259207769,-0.0005345686593576371,0.0006655074097165065,-0.0007737269477115505,0.0011520925108558027,0.0016520467655572035,0.000285999298331756,-4.795335706282508e-05,none,False,False,0.0016520467655572035,0.000285999298331756,-4.795335706282508e-05,0.03202648348208221,0.6391094077690124,1.0356512558584172,-0.12176374054203426,0.07063869127930776,0.06115553231150204
59,1.1600000000000006,0.06782628111248336,0.03005884245913269,0.27097919099523793,0.06727504334830245,0.030788403019341305,0.27021610601354934,-0.0005512377641809091,0.0007295605602086162,-0.0007630849816885887,0.0011909745475658796,0.0016938962010170442,-0.00037034442559850445,3.8473096311824736e-05,none,False,False,0.0016938962010170442,-0.00037034442559850445,3.8473096311824736e-05,0.031262340197009936,0.6407978887347454,1.0392419387370497,-0.11970923112783811,0.0702296567545,0.060045236113178295
60,1.1800000000000006,0.06830546244642619,0.029194705676645692,0.2717062309572427,0.06773769102555813,0.029988831410636206,0.27095694752926885,-0.0005677714208680573,0.0007941257339905139,-0.000749283427973868,0.0012306200563849006,0.0017310931023135892,-0.0010230423644245123,0.00012603960766208828,none,False,False,0.0017310931023135892,-0.0010230423644245123,0.00012603960766208828,0.03047482810920141,0.6424142828570877,1.0427428795241118,-0.1174546432371729,0.06963927748669478,0.05884477080594979
61,1.2000000000000006,0.06879546273683426,0.028283973525184244,0.27241691431693593,0.0682113053151914,0.02914298430835246,0.27168474764905604,-0.0005841574216428613,0.0008590107831682146,-0.0007321666678798966,0.0012709081195798758,0.0017630598296918233,-0.0016717267656763551,0.00021499221762641838,none,False,False,0.0017630598296918233,-0.0016717267656763551,0.00021499221762641838,0.029668692112734447,0.6439470128191107,1.0461378853078205,-0.11500455163340854,0.06886343516352568,0.057557057843450034
62,1.2200000000000006,0.06929622752078754,0.027326229049331182,0.2731078413027679,0.06869584561519268,0.028250229087397705,0.27239625584563393,-0.00060038190559486,0.0009240000380665234,-0.0007115854571339564,0.0013117119980076395,0.0017891974243145596,-0.0023160350302424697,0.0003055321357325753,none,False,False,0.0017891974243145596,-0.0023160350302424697,0.0003055321357325753,0.028848543517321756,0.6453839289439806,1.0494101262132636,-0.11236394008654293,0.06789881856369286,0.05618512285306324
63,1.2400000000000007,0.06980769502224857,0.02632126353062805,0.2737754793756626,0.06919126557276836,0.0273101178974196,0.2730880808340774,-0.0006164294494802047,0.0009888543667915493,-0.0006873985415852268,0.0013528987323087715,0.0018088870582636844,-0.0029556089692278974,0.0003977881636553744,none,False,False,0.0018088870582636844,-0.0029556089692278974,0.0003977881636553744,0.028018796748754623,0.6467123285231027,1.052542163754817,-0.10953818037351838,0.06674298773420899,0.05473207925072696
64,1.2600000000000007,0.07032979648133289,0.02526909347318639,0.2744161735346504,0.06969751317281445,0.02632240518577056,0.27375669917266965,-0.0006322833085184443,0.00105331171258417,-0.0006594743619807719,0.0013943292940363742,0.0018214917751033617,-0.0035900940208328314,0.0004917938811679883,none,False,False,0.0018214917751033617,-0.0035900940208328314,0.0004917938811679883,0.027183611248463295,0.647918982196164,1.055515985713915,-0.10653300922626305,0.06539443547499432,0.053201111538811255
65,1.2800000000000007,0.07086245659713566,0.024169977091905992,0.2750261584327431,0.07021453082639012,0.025287065174039922,0.2743984655932445,-0.0006479257707455444,0.0011170880821339303,-0.0006276928394985948,0.0014358592857239456,0.001826358542487134,-0.004219138430112767,0.0005874703173501112,none,False,False,0.001826358542487134,-0.004219138430112767,0.0005874703173501112,0.026346839293966914,0.6489901679568553,1.0583130479494434,-0.10335450327380181,0.06385264567697334,0.05159545825527592
66,1.3000000000000007,0.07140559404047789,0.023024430181542325,0.27560157236083327,0.07074225545919141,0.024204309130043716,0.27500962512962696,-0.0006633385812864767,0.0011798789485013908,-0.0005919472312063134,0.001477340154152971,0.001822820636412701,-0.004842392395971496,0.0006846145154172317,none,False,False,0.001822820636412701,-0.004842392395971496,0.0006846145154172317,0.02551198014280656,0.6499117133060175,1.0609143235115155,-0.10000905208153989,0.062118148062301204,0.049918394572072436
67,1.3200000000000007,0.07195912198866442,0.02183324123922445,0.2761384731426756,0.07128061860002469,0.023074602264052307,0.2755863271001172,-0.0006785033886397285,0.0012413610248278584,-0.0005521460425583768,0.0015186208528365933,0.001810200374216223,-0.005459507191709266,0.0007828941006985653,none,False,False,0.001810200374216223,-0.005459507191709266,0.0007828941006985653,0.024682140611244484,0.6506690460045216,1.0633003593870578,-0.09650332945112053,0.060192568873592124,0.04817321457925631
68,1.3400000000000007,0.07252294863401604,0.020597485704747082,0.2766328559671193,0.07182954646928036,0.021898680065673574,0.2761246409853475,-0.0006934021647356792,0.0013011943609264921,-0.0005082149817717818,0.001559549869245713,0.0017878122100399739,-0.006070134267913396,0.0008818476924504923,none,False,False,0.0017878122100399739,-0.006070134267913396,0.0008818476924504923,0.023860001951480934,0.6512472537864225,1.06545134115293,-0.09284426320547845,0.05807867704822682,0.046363213336314144
69,1.3600000000000008,0.07309697762025358,0.01931853917304405,0.277080673165206,0.07238896006740644,0.0206775638864458,0.2766205742262971,-0.0007080175528471344,0.0013590247134017512,-0.00046009893890891496,0.0015999775187050182,0.0017549662025932154,-0.006673924349344937,0.0009808907698370983,none,False,False,0.0017549662025932154,-0.006673924349344937,0.0009808907698370983,0.023047792693352227,0.6516311532828316,1.067347165752125,-0.08903900374350295,0.055780425396903296,0.04449166882058538
70,1.3800000000000008,0.07368110836670147,0.017998089422486152,0.277477855919788,0.07295877526338213,0.01941257556309705,0.27707009194879456,-0.0007223331033193447,0.0014144861406108974,-0.00040776397099345774,0.0016397583999393386,0.0017109718604588987,-0.007270526540640217,0.0010793264174124289,none,False,False,0.0017109718604588987,-0.007270526540640217,0.0010793264174124289,0.02224726697340924,0.6518053682766397,1.0689675225406552,-0.08509489170533006,0.0533029862848994,0.042561823951554154
71,1.4000000000000008,0.07427523624809852,0.016638147091486782,0.2778203378736659,0.07353890288319141,0.01810535086786539,0.2774691386005373,-0.0007363333649071102,0.0014672037763786075,-0.00035119927312859955,0.0016787539054730837,0.0016551423651685476,-0.007859587458992817,0.001176360238834661,none,False,False,0.0016551423651685476,-0.007859587458992817,0.001176360238834661,0.021459687786930193,0.6517544172603517,1.0702919826762283,-0.08101942514032051,0.05065278129087454,0.0405768689160246
72,1.4200000000000008,0.07487925260843094,0.015241054824513467,0.2781040805789149,0.07412924879829669,0.01675785156552729,0.277813661464618,-0.0007500038101342504,0.0015167967410138223,-0.0002904191142968915,0.0017168346835717864,0.001586799166617574,-0.008440750415384007,0.0012711186405355893,none,False,False,0.001586799166617574,-0.008440750415384007,0.0012711186405355893,0.020685814566599563,0.6514628101019575,1.0713000968331954,-0.07682022661337325,0.047837504291677956,0.03853992406027653
73,1.4400000000000008,0.0754930445983246,0.013809494698933701,0.2783251007056652,0.07472971401411237,0.015372375852123202,0.27809963598989795,-0.0007633305842122268,0.0015628811531895014,-0.00022546471576723182,0.0017538829544313165,0.0015052769395116617,-0.009013654669170805,0.0013626696452384956,none,False,False,0.0015052769395116617,-0.009013654669170805,0.0013626696452384956,0.019925894506333464,0.6509151534446194,1.0719715011354394,-0.07250501071976831,0.04486613739899632,0.03645402364828447
74,1.4600000000000009,0.07611649483731661,0.012346493735957531,0.2784794989028836,0.07534019475847846,0.013951566948074449,0.27832309285348783,-0.0007763000788381519,0.001605073212116918,-0.00015640604939576308,0.0017897945918308703,0.0014099288833154615,-0.00957793478377112,0.0014500453950128099,none,False,False,0.0014099288833154615,-0.00957793478377112,0.0014500453950128099,0.01917965710538319,0.650096264275214,1.0722860310980553,-0.06808155250244545,0.04174895915383938,0.03432210080821324
75,1.4800000000000009,0.07674948091456857,0.010855427293954724,0.2785634901765164,0.07596058257013413,0.012498419618712616,0.27848014664430776,-0.0007888983444344355,0.0016429923247578918,-8.3343532208624e-05,0.001824480890945626,0.0013001323415645029,-0.010133220113576804,0.0015322655379627378,none,False,False,0.0013001323415645029,-0.010133220113576804,0.0015322655379627378,0.018446311495724663,0.648991290895995,1.0722238432586721,-0.06355765727790418,0.038497544373791326,0.0321469740011399
76,1.5000000000000009,0.07739187475245848,0.009340020139567102,0.27857343562266895,0.07659076438719141,0.011016284398437663,0.2785670260294491,-0.0008011103652670742,0.0016762642588705606,-6.409593219847132e-06,0.0018578699539500763,0.0011752947097786216,-0.010679134453932258,0.0016083607542192934,none,False,False,0.0011752947097786216,-0.010679134453932258,0.0016083607542192934,0.017724546226751382,0.6475858403333845,1.0717655440662797,-0.05894113237487752,0.03512475504169998,0.029931335344877803
77,1.520000000000001,0.07804354186702822,0.007804344994264479,0.27850587532502236,0.0772306226356087,0.009508869301008242,0.27858010523716353,-0.0008129192314195177,0.001704524306743763,7.422991214117713e-05,0.0018899076350310064,0.0010348595944800285,-0.011215295886763418,0.0016773957562474346,none,False,False,0.0010348595944800285,-0.011215295886763418,0.0016773957562474346,0.01701253130091326,0.6458661110201144,1.070892325477997,-0.05423976127459741,0.03164472163414464,0.027677741111510452
78,1.540000000000001,0.07870434056761987,0.006252818359493876,0.2783575621964777,0.07788003531766438,0.00798023880803855,0.27851593666208213,-0.0008243052499554843,0.001727420448544674,0.00015837446560440505,0.0019205579976949243,0.0008783131789397098,-0.011741316854136903,0.0017384911894787257,none,False,False,0.0008783131789397098,-0.011741316854136903,0.0017384911894787257,0.016307922377390403,0.6438190293960968,1.0695861065930998,-0.04946128061091236,0.028072814307401918,0.025388604689917098
79,1.560000000000001,0.079374121143677,0.004690193434775088,0.2781254965162778,0.07853887610043045,0.006434809940792454,0.2783712843701092,-0.0008352450432465575,0.001744616506017366,0.0002457878538313918,0.0019498032476194175,0.0007051907446488625,-0.012256804490435957,0.0017908439518934682,none,False,False,0.0007051907446488625,-0.012256804490435957,0.0017908439518934682,0.01560786717328955,0.6414323889014041,1.0678296805362526,-0.04461336044329861,0.024425603397002463,0.023066192264202593
80,1.580000000000001,0.08005272509008539,0.0031215499578149813,0.27780696088524987,0.07920701440424613,0.0048773452369468015,0.27814315825273794,-0.0008457106858392599,0.0017557952791318202,0.00033619736748807805,0.0019776431165076805,0.000515083291069001,-0.012761361240937604,0.0018337455415601812,none,False,False,0.000515083291069001,-0.012761361240937604,0.0018337455415601812,0.014909014191961193,0.6386949896854457,1.0656068656878648,-0.03970358815505742,0.020720808737009287,0.02071262140687184
81,1.600000000000001,0.08073998442391134,0.0015522808161767092,0.2773995552941517,0.07988431549119142,0.003312942474210754,0.27782884855374634,-0.0008556689327199191,0.001760661658034045,0.00042929325959462084,0.002004093685241938,0.00030764419005147183,-0.013254585790212495,0.0018665981226500363,none,False,False,0.00030764419005147183,-0.013254585790212495,0.0018665981226500363,0.014207523985614192,0.6355967772362208,1.0629026602526974,-0.0347394562549417,0.016977237375833756,0.018329862723201504
82,1.620000000000001,0.08143572114358608,-1.1924694756254225e-05,0.2769012319738646,0.0805706405535607,0.0017470210065592077,0.27742596046581114,-0.00086508059002538,0.001758945701315462,0.0005247284919465134,0.0020291856488934825,8.259580583659331e-05,-0.013736074317961968,0.001888928070191988,none,False,False,8.259580583659331e-05,-0.013736074317961968,0.001888928070191988,0.013499083212608419,0.6321289780530444,1.0597033990632825,-0.02972835427370163,0.013214709353617855,0.01591974461238529
83,1.640000000000001,0.08213974687811693,-0.0015651010637023344,0.27631032967199465,0.08126584680233638,0.00018530460632465266,0.276932448471004,-0.0008739000757805454,0.001750405670026987,0.0006221187990093635,0.002052962043534347,-0.00016026399328085119,-0.014205422092723885,0.0019003968111573793,none,False,False,-0.00016026399328085119,-0.014205422092723885,0.0019003968111573793,0.012778921779483745,0.6282842304483126,1.0559969114349812,-0.024677564849639705,0.00945397130972165,0.013483961134249725
84,1.660000000000001,0.08285186276772248,-0.003101030267713911,0.2756256069789748,0.08196978755566246,-0.0013661992636068761,0.2763466500779103,-0.0008820752120600184,0.001734831004107035,0.0007210430989355032,0.0020754754739731964,-0.0004210555092754471,-0.014662225405380137,0.0019008088234021756,none,False,False,-0.0004210555092754471,-0.014662225405380137,0.0019008088234021756,0.012041833362024188,0.6240567085768545,1.0517726788290778,-0.019594263992428487,0.005716597811096028,0.011024082890215553
85,1.680000000000001,0.08357185961002021,-0.004613269013202935,0.27484627430858277,0.08268231232731815,-0.0029012237889007673,0.27566731858972304,-0.0008895472827020606,0.0017120452243021677,0.0008210442811402707,0.0020967849030865383,-0.0006998111549695375,-0.015106083834755733,0.0018901166867664513,none,False,False,-0.0006998111549695375,-0.015106083834755733,0.0018901166867664513,0.011282199581978314,0.619442237855972,1.0470219910410294,-0.014485525405740779,0.0020248804321419994,0.008541570746961338
86,1.700000000000001,0.0842995182962663,-0.006095179497760913,0.2739720241236212,0.08340326691519143,-0.004413270758124498,0.27489365452261166,-0.0008962513810748668,0.0016819087396364157,0.0009216303989904584,0.0021169520870551782,-0.0009964697420897597,-0.015536602827072924,0.0018684231053692991,none,False,False,-0.0009964697420897597,-0.015536602827072924,0.0018684231053692991,0.010494018082152164,0.6144384000616563,1.041738099617111,-0.009358328639198162,-0.0015982952316787435,0.006037792153770963
87,1.720000000000001,0.08503461055080455,-0.0075399636336102825,0.2730030589879203,0.0841324934897527,-0.0058956420960225644,0.2740253352824222,-0.000902117061051852,0.001644321537587718,0.001022276294501856,0.0021360377649086906,-0.0013108711971197922,-0.015953396559863327,0.0018359798402111565,none,False,False,-0.0013108711971197922,-0.015953396559863327,0.0018359798402111565,0.00967093469604738,0.6090446265656733,1.0359163672151614,-0.004219570733069983,-0.005129584270042262,0.003514039732997206
88,1.740000000000001,0.08577689997571847,-0.008940700627092207,0.2719401170218616,0.08486983068252839,-0.007341474896699226,0.2730625427007844,-0.0009070692931900798,0.0015992257303929815,0.0011224256789227893,0.002154097733183107,-0.0016427517823703888,-0.01635609104942203,0.0017931835102070368,none,False,False,-0.0016427517823703888,-0.01635609104942203,0.0017931835102070368,0.008806279851922541,0.6032622784104458,1.029554411666353,0.000923919080789901,-0.008545328358620003,0.0009715517601774894
89,1.7600000000000011,0.08652614339016781,-0.010290387762545927,0.2707844943398213,0.08561511367457447,-0.00874377983301632,0.27200598802940074,-0.0009110297155933422,0.001546607929529608,0.0012214936895794115,0.002171178957170567,-0.001991739894502631,-0.016744327449471075,0.0017405682440575047,none,False,False,-0.001991739894502631,-0.016744327449471075,0.0017405682440575047,0.007893109296513847,0.597094712199932,1.0226522435605245,0.006065362150072299,-0.011821712149702962,-0.001588465901578828
90,1.7800000000000011,0.0872820924414765,-0.011581984190748604,0.2695380640560224,0.08636817428495015,-0.010095482772366396,0.2708569339940436,-0.0009139181565263471,0.0014865014183822085,0.0013188699380212165,0.0021873158841596066,-0.0023573525050303757,-0.017117765477633714,0.0016787951959089853,none,False,False,-0.0023573525050303757,-0.017117765477633714,0.0016787951959089853,0.006924249167034174,0.5905473311101493,1.0152123962723378,0.01119801125351707,-0.014934929258688638,-0.004164816887948088
91,1.8000000000000012,0.08804449545320986,-0.012808457474746324,0.26820329145975097,0.08712884105919144,-0.01138946938194077,0.26961721351790807,-0.000915654394018417,0.0014189880928055544,0.0014139220581571021,0.0022025271311274224,-0.0027389922972396097,-0.01747608689607447,0.0016086389801123551,none,False,False,-0.0027389922972396097,-0.01747608689607447,0.0016086389801123551,0.005892345390591969,0.5836276206795048,1.0072400474616046,0.016315130209695806,-0.017861356765639314,-0.0067562909418992095
92,1.8200000000000012,0.08881309946451926,-0.013962832598625342,0.266783244982311,0.08789693935778471,-0.012618632459310445,0.26828924473770804,-0.000916160106734551,0.0013442001393148967,0.0015059997553970583,0.002216812716257747,-0.003135945541479574,-0.017818998963550964,0.0015309711351845228,none,False,False,-0.003135945541479574,-0.017818998963550964,0.0015309711351845228,0.004789917345582619,0.5763451694165381,0.9987431312166531,0.02140997297687021,-0.02057773696474921,-0.009361640559267404
93,1.8400000000000012,0.08958765240373578,-0.015038243099254658,0.26528160260617284,0.0886722914446404,-0.013775921677254027,0.2668760419554406,-0.0009153609590953904,0.001262321422000631,0.0015944393492677844,0.0022301519895225087,-0.0035473807359820263,-0.018146237768548307,0.0014467407959530322,none,False,False,-0.0035473807359820263,-0.018146237768548307,0.0014467407959530322,0.003609415682256485,0.568711674649404,0.9897324401579313,0.02647576302555234,-0.023061364916115188,-0.011979558188146828
94,1.8600000000000012,0.09036790533278473,-0.016027983937354034,0.2637026534023067,0.08945471657556647,-0.014854395386025395,0.26538122219416566,-0.0009131887572182557,0.0011735885513286387,0.0016785687918589587,0.0022425023931140673,-0.003972348024253634,-0.01845757134744831,0.0013569528361262462,none,False,False,-0.003972348024253634,-0.01845757134744831,0.0013569528361262462,0.0023432841686388543,0.5607409344138182,0.9802217169735185,0.03150567380605603,-0.025290280185003143,-0.014608654490520265
95,1.8800000000000012,0.09115361469263511,-0.01692556568317579,0.26205129392356996,0.09024403108674216,-0.015847274072403814,0.2638090070574576,-0.0009095836058929524,0.0010782916107719767,0.0017577131338876173,0.0022537991469985695,-0.004409779382623453,-0.018752802488120335,0.001262643838506704,none,False,False,-0.004409779382623453,-0.018752802488120335,0.001262643838506704,0.0009840253994724592,0.5524488265267367,0.9702277350096653,0.036492811171580944,-0.027243460998117003,-0.017247438159279326
96,1.9000000000000012,0.09194454447573576,-0.01772476955394283,0.2603330192301703,0.09104004848319144,-0.016747995033680796,0.2621642196292871,-0.0009044959925443158,0.0009767745202620345,0.0018312003991167725,0.002263955910720719,-0.004858489553711152,-0.019031771118167187,0.0011648563542181886,none,False,False,-0.004858489553711152,-0.019031771118167187,0.0011648563542181886,-0.0004757298230755288,0.5438532763016788,0.9597703676776682,0.041430198656670296,-0.028901018906459096,-0.01989429776411945
97,1.9200000000000013,0.09274046825296352,-0.018419702805541165,0.2585539083771574,0.09184257952725672,-0.017550267786984517,0.26045227619377376,-0.0008978887257067997,0.0008694350185566475,0.001898367816616342,0.002272866424233654,-0.0053171776849159766,-0.019294356178547082,0.0010646120228939026,none,False,False,-0.0053171776849159766,-0.019294356178547082,0.0010646120228939026,-0.0020431496594195842,0.5349742146031348,0.9488726465481901,0.04631076655516763,-0.030244391922770196,-0.02254748607875502
98,1.9400000000000013,0.09354117098556367,-0.01900485395093539,0.2567206042533191,0.0926514323270724,-0.018248129700788727,0.2586791726022225,-0.0008897386584912625,0.0007567242501466641,0.0019585683489034,0.0022804070795583962,-0.005784429615847397,-0.019540476887600123,0.0009628842362942434,none,False,False,-0.005784429615847397,-0.019540476887600123,0.0009628842362942434,-0.003725125214048645,0.5258335281075602,0.9375608080780079,0.051127345795244354,-0.03125653400307124,-0.025205107322867636
99,1.9600000000000013,0.09434645055840465,-0.019475147251205353,0.25484028772456757,0.09346641242503848,-0.018836001306839958,0.25685146516768903,-0.0008800381333661789,0.0006391459443653956,0.002011177443121459,0.002286440325505551,-0.00625872074640805,-0.01977009330770619,0.000860571132295363,none,False,False,-0.00625872074640805,-0.01977009330770619,0.000860571132295363,-0.005528191640284081,0.516455003716815,0.9258643289336369,0.05587266767240256,-0.03192209866217374,-0.02786510773749334
100,1.9800000000000013,0.09515611898175233,-0.01982599590471457,0.2529206461010912,0.09428732288629416,-0.019308740727763635,0.2549762460245085,-0.0008687960954581742,0.0005172551769509343,0.002055599923417306,0.0022908187660133977,-0.0067384194098584075,-0.019983206137058986,0.0007584698012132038,none,False,False,-0.0067384194098584075,-0.019983206137058986,0.0007584698012132038,-0.007458446738690762,0.5068642690330173,0.9138159498168463,0.06053937057524247,-0.03222761446093046,-0.030525269903514396
101,2.0000000000000013,0.09597000322250912,-0.020053353343784237,0.2509698360180204,0.09511396438719144,-0.01966169663892577,0.2530611129511339,-0.0008560388353176795,0.0003916567048584674,0.002091276933113506,0.002293389777819129,-0.007221790673022058,-0.020179855662280803,0.0006572526610373282,none,False,False,-0.007221790673022058,-0.020179855662280803,0.0006572526610373282,-0.009521467495941119,0.4970887306551978,0.9014516875590338,0.06512001491958966,-0.03216165007090163,-0.03318321121128968
102,2.0200000000000014,0.09678794564150536,-0.02015376203827374,0.24899644089039014,0.09594613530376872,-0.01989075917330556,0.2511141337185554,-0.0008418103377366426,0.0002630028649681822,0.002117692828165263,0.0022940004503409195,-0.007707000490457212,-0.020360119823872376,0.0005574470085078664,none,False,False,-0.007707000490457212,-0.020360119823872376,0.0005574470085078664,-0.011722225098576391,0.48715751177881744,0.8888108350020965,0.06960710758826018,-0.031714966614872525,-0.03583638689431705
103,2.0400000000000014,0.09760980403084514,-0.020124399201819573,0.24700942317417585,0.0967836318002244,-0.019992408175669857,0.24914380509270284,-0.0008261722306207447,0.00013199102614971578,0.002134381918526995,0.0022925026411692285,-0.008192120151931687,-0.020524111365718543,0.00045941877210252255,none,False,False,-0.008192120151931687,-0.020524111365718543,0.00045941877210252255,-0.014064999053826027,0.47710139016265424,0.8759359478073446,0.0739931372455074,-0.030880654997897633,-0.03848209804956517
104,2.0600000000000014,0.09843545126650192,-0.019963118799144728,0.2450180717366367,0.09762624791739047,-0.019963758217624982,0.24715900668668447,-0.0008092033491114564,-6.39418480254117e-07,0.0021409349500477737,0.002288757944695169,-0.00867513098378845,-0.020671974061942724,0.0003633614747732136,none,False,False,-0.00867513098378845,-0.020671974061942724,0.0003633614747732136,-0.016553291154378903,0.4669527369698955,0.8628728168220569,0.07827062194130854,-0.029654255981779124,-0.041117505078215176
105,2.0800000000000014,0.09926477460888833,-0.019668489263666912,0.243031944708281,0.09847377566120616,-0.019802599798438108,0.245168949926535,-0.0007909989476821699,-0.00013411053477119586,0.0021370052182540233,0.0022826423884647023,-0.009153929294482147,-0.020803878039197317,0.00026929135326262576,none,False,False,-0.009153929294482147,-0.020803878039197317,0.00026929135326262576,-0.01918974012903592,0.4567454563012511,0.849670423970853,0.0824321704217561,-0.0280338608212039,-0.04373964698784023
106,2.1000000000000014,0.10009767470163344,-0.019239826351917823,0.24106080825507392,0.09932600509119144,-0.01950743617803051,0.24318312246133772,-0.0007716696104420051,-0.0002676098261126872,0.002122314206263798,0.0022740507023417296,-0.009626331593245809,-0.02092001423975327,0.00017704947320613547,none,False,False,-0.009626331593245809,-0.02092001423975327,0.00017704947320613547,-0.021976037922742022,0.4465149244155745,0.8363808788205745,0.08647055848971053,-0.02602019036664946,-0.046345466991755575
107,2.1200000000000014,0.10093406433571023,-0.018677220587485402,0.2391145717717646,0.10018272440892072,-0.01907751531827861,0.2412112284141085,-0.0007513399267895099,-0.0004002947307932096,0.0020966566423439026,0.0022629000492672413,-0.010090080158069368,-0.0210205881003282,8.631152394314132e-05,none,False,False,-0.010090080158069368,-0.0210205881003282,8.631152394314132e-05,-0.024912848635543522,0.43629792668909095,0.8230593319961694,0.09037882158398665,-0.023616650658016283,-0.048931844812334924
108,2.1400000000000015,0.1017738670565128,-0.01798155878257008,0.23720322005482478,0.1010437200464964,-0.018512856446609584,0.23926312493263138,-0.0007301470100164048,-0.000531297664039504,0.0020599048778066065,0.002249133159610871,-0.010542849082717179,-0.021105812553102055,-3.3942292731267003e-06,none,False,False,-0.010542849082717179,-0.021105812553102055,-3.3942292731267003e-06,-0.027999731217230883,0.4261325893349552,0.8097638605299292,0.09415036442928233,-0.02082936318952364,-0.0514956360282731
109,2.1600000000000015,0.10261701569737293,-0.01715453916836883,0.23533674306423374,0.1019087767550225,-0.01781427080159847,0.2373487555584642,-0.0007082389423504337,-0.0006597316332296425,0.002012012494230442,0.0022327208746918893,-0.010982250990937366,-0.021175900488343665,-9.266061373610032e-05,none,False,False,-0.010982250990937366,-0.021175900488343665,-9.266061373610032e-05,-0.031235067059548677,0.416058301813792,0.7965553190367244,0.09777908811184836,-0.01766716822349205,-0.05403371868285574
110,2.1800000000000015,0.10346345092360228,-0.016198679719476566,0.23352506392694694,0.10277767769307816,-0.016983376173472807,0.23547808098655681,-0.0006857732305241143,-0.0007846964539962413,0.001953017059609874,0.0022136641759185048,-0.011405844666085916,-0.02123105685199278,-0.00018216691877894964,none,False,False,-0.011405844666085916,-0.02123105685199278,-0.00018216691877894964,-0.03461599364373012,0.4061156247667072,0.7834971493944995,0.10125953421996368,-0.014141599790317894,-0.05654304717085393
111,2.2000000000000015,0.10431311986416539,-0.015117319319450997,0.2317779658697867,0.10365020451519144,-0.01602260491257719,0.23366100783635613,-0.000662915348973947,-0.0009052855931261927,0.0018830419665694376,0.0021919958514761808,-0.011811143901668923,-0.02127147058551551,-0.000272636393944878,none,False,False,-0.011811143901668923,-0.02127147058551551,-0.000272636393944878,-0.03813834539892391,0.3963461772659148,0.7706551404675324,0.10458704471839166,-0.010266831339079043,-0.059020713124257156
112,2.2200000000000015,0.10516597489181045,-0.01391461148787232,0.2301050187951957,0.10452613746031274,-0.014935205145276732,0.23190731609698068,-0.0006398374314977168,-0.0010205936574044124,0.0018022973017849664,0.002167782026934692,-0.012195627926970378,-0.02129730664834468,-0.0003647866901003532,none,False,False,-0.012195627926970378,-0.02129730664834468,-0.0003647866901003532,-0.04179660291134505,0.38679249630177737,0.7580971284801266,0.10775793498427866,-0.006059591425440895,-0.0614640126024638
113,2.2400000000000015,0.10602197259233605,-0.012595510470006482,0.22851550622773384,0.1054052554402884,-0.013725235008686394,0.23022658594319123,-0.0006167171520476411,-0.0011297245386799118,0.001711079715457392,0.002141123857130886,-0.012556753796428873,-0.021308698393753586,-0.0004592744761441247,none,False,False,-0.012556753796428873,-0.021308698393753586,-0.0004592744761441247,-0.045583851615912566,0.3774978608037423,0.7458926280880456,0.11076967591794665,-0.001539049346132112,-0.06387051834643068
114,2.2600000000000016,0.10688107293431408,-0.011165749581673622,0.22701835336270726,0.10628733612833449,-0.012397549792089159,0.22862812464471166,-0.0005937368059795861,-0.0012318002104155373,0.001609771282004402,0.0021121597320090868,-0.012891971142680009,-0.021305740595229435,-0.0005566359068479304,none,False,False,-0.012891971142680009,-0.021305740595229435,-0.0005566359068479304,-0.04949175112306745,0.3685060722819078,0.7341123842282615,0.1136210792973646,0.0032733287234778252,-0.06623815517900632
115,2.2800000000000016,0.10774323861349966,-0.009631811800414364,0.22562205693949172,0.10717215604751018,-0.01095778195292818,0.22712089430834254,-0.000571082565989478,-0.0013259701525138168,0.0014988373688508139,0.0020810683796546117,-0.013198739672797515,-0.02128848343987633,-0.0006572250736364873,none,False,False,-0.013198739672797515,-0.02128848343987633,-0.0006572250736364873,-0.053510516416674,0.3598611845234017,0.7228278356840708,0.11631247865022978,0.008353951766200378,-0.06856527584180822
116,2.3000000000000016,0.10860843451010654,-0.008000892702555681,0.22433461764288984,0.10805949065919146,-0.009412314057715126,0.22571344119975645,-0.0005489438509150846,-0.0014114213551594448,0.0013788235568666096,0.0020480732394687192,-0.013474549727350571,-0.021256927815339603,-0.0007611530203771897,none,False,False,-0.013474549727350571,-0.021256927815339603,-0.0007611530203771897,-0.05762891231925515,0.35160717583162115,0.712110483229605,0.11884589601551315,0.013677301923120198,-0.07085073369616328
117,2.3200000000000016,0.10947662715725273,-0.0062808559595560285,0.22316347570483508,0.10894911445154476,-0.007768244781909784,0.22441382738952564,-0.000527512705707972,-0.0014873888223537555,0.001250351684690565,0.0020134484098071077,-0.013716946113917486,-0.021211022213782328,-0.0008682303304301435,none,False,False,-0.013716946113917486,-0.021211022213782328,-0.0008682303304301435,-0.061834262882813094,0.3437875592087829,0.7020311584280992,0.12122518325343534,0.019216155276716024,-0.07309394785507047
118,2.3400000000000016,0.11034778408128457,-0.004480181728489694,0.2221154503405468,0.10984080102800041,-0.006033348186560764,0.22322956545560851,-0.0005069830532841574,-0.0015531664580710706,0.001114115115061709,0.001977526321545007,-0.01392355526523207,-0.021150661557056846,-0.0009779166565826666,none,False,False,-0.01392355526523207,-0.021150661557056846,-0.0009779166565826666,-0.06611247771143461,0.3364449287619263,0.6926591938188238,0.12345612529574683,0.024941821229179026,-0.07529495556065062
119,2.3600000000000017,0.11122187284865484,-0.002607908395723951,0.22119668361007033,0.1107343231957265,-0.004216026571991485,0.22216755695218715,-0.0004875496529283402,-0.001608118176267534,0.0009708733421168181,0.0019407070307868842,-0.014092115557494555,-0.02107568820794671,-0.00108928082809794,none,False,False,-0.014092115557494555,-0.02107568820794671,-0.00108928082809794,-0.07044809761608913,0.3296204444678104,0.6840615013494706,0.1255464921894732,0.030824395334377957,-0.07745444610684134
120,2.3800000000000017,0.11209885963677943,-0.000673568260430869,0.2204125892506047,0.11162945305410218,-0.002325257288806207,0.2212340353225396,-0.00046940658267724533,-0.0016516890283753381,0.0008214460719349059,0.0019034686326318815,-0.014220510361259925,-0.020985895370336023,-0.0012009752753849466,none,False,False,-0.014220510361259925,-0.020985895370336023,-0.0012009752753849466,-0.07482436235554764,0.32335326218710186,0.6763015733345671,0.1275060272681172,0.036833019641168085,-0.07957377047761294
121,2.4000000000000017,0.11297870715230676,0.0013128821308808838,0.21976780698317105,0.11252596208319146,-0.0003705339627192005,0.22043451389185387,-0.0004527450691153012,-0.0016834160936000844,0.0006667069086828126,0.0018663777602311326,-0.01430680310119046,-0.02088103299494203,-0.001311228398114185,none,False,False,-0.01430680310119046,-0.02088103299494203,-0.001311228398114185,-0.07922330340585187,0.3176799212140576,0.6694384285419986,0.12934636051628884,0.04293614409139922,-0.08165492126288945
122,2.4200000000000017,0.11386137174866823,0.0033411361673385404,0.2192661627621555,0.11342362123221675,0.0016381973390213796,0.2197737395250251,-0.00043775051645147944,-0.0017029388283171607,0.0005075767628696104,0.0018300984503159807,-0.014349273294593932,-0.020760816197491507,-0.0014178581007315626,none,False,False,-0.014349273294593932,-0.020760816197491507,-0.0014178581007315626,-0.08362586456544448,0.3126337072828399,0.6635255345636223,0.13108083931214384,0.04910178240231299,-0.08370047843463534
123,2.4400000000000017,0.11474679965023987,0.005400614933829479,0.21891063540821648,0.11432220100803243,0.003690606406690603,0.21925565247515255,-0.00042459864220743826,-0.0017100085271388758,0.0003450170669360708,0.0017953968771080217,-0.014346452255336085,-0.020624936066679474,-0.0015183089701119126,none,False,False,-0.014346452255336085,-0.020624936066679474,-0.0015183089701119126,-0.08801205258803754,0.3082440142329896,0.6586097454743746,0.13272427320046576,0.05529775625304192,-0.08571351825333863
124,2.4600000000000017,0.11563492227433633,0.00748054751758832,0.21870333004410691,0.1152214715635985,0.005776051001712136,0.2188833528814589,-0.00041345071073783934,-0.0017044965158761844,0.0001800228373519952,0.001763138702658398,-0.014297156928045581,-0.020473072597230572,-0.0016097144389437107,none,False,False,-0.014297156928045581,-0.020473072597230572,-0.0016097144389437107,-0.09236111882633836,0.30453573176697607,0.6547302998372796,0.13429259493625115,0.061491922534442564,-0.08769748488368544
125,2.4800000000000018,0.11652565075090679,0.009570052760828361,0.2186454587338702,0.11612120278645417,0.007883652084071185,0.21865907430161596,-0.0004044479644526172,-0.0016864006767571757,1.361556774576167e-05,0.0017342752902010585,-0.014200520197251957,-0.02030490933995307,-0.0016889837696502006,none,False,False,-0.014200520197251957,-0.02030490933995307,-0.0016889837696502006,-0.09665177102590236,0.3015286891839181,0.6519179272472193,0.13580244630291316,0.06765237985959095,-0.0896560270746651
126,2.5000000000000018,0.1174188698652409,0.011658221321233845,0.21873732869954177,0.11702116438719147,0.010002371411802644,0.21858416458402444,-0.00039770547804943157,-0.0016558499094312014,-0.00015316411551732911,0.0017098151409190557,-0.01405601603109015,-0.02012014922968477,-0.001752911873153838,none,False,False,-0.01405601603109015,-0.02012014922968477,-0.001752911873153838,-0.10086241203584259,0.29923718500951807,0.650194110869127,0.13727070352807882,0.07374765235602652,-0.0915928052511643
127,2.520000000000002,0.11831443177508025,0.013734196898442269,0.21897833844598716,0.11792112598792877,0.01212109073953413,0.218659074301616,-0.00039330578715147946,-0.0016131061589081397,-0.00031926414437116746,0.0016907780800552363,-0.013863477988270008,-0.019918530948584028,-0.0017983079773052268,none,False,False,-0.013863477988270008,-0.019918530948584028,-0.0017983079773052268,-0.10497139953490847,0.29766962968864485,0.6495705482790761,0.13871396277437045,0.07974685074762128,-0.09351127724302614
128,2.540000000000002,0.11921214996873944,0.015787255518207054,0.21936698205313437,0.11882085721078445,0.014228691821893177,0.21888335288145896,-0.00039129275795499185,-0.001558563696313877,-0.0004836291716754093,0.001678132293232879,-0.013623109940197395,-0.019699845120342584,-0.0018221371753440597,none,False,False,-0.013623109940197395,-0.019699845120342584,-0.0018221371753440597,-0.10895731826258095,0.2968283229279235,0.6500488433838437,0.14014801045705458,0.08561981261339122,-0.09541447328350001
129,2.560000000000002,0.12011179401321984,0.017806881842170906,0.2199008617886915,0.1197201277663505,0.016314136416914704,0.21925565247515263,-0.0003916662468693294,-0.001492745425256202,-0.0006452093135388692,0.0016727182703125247,-0.013335488312096088,-0.01946394962043833,-0.0018216671589876142,none,False,False,-0.013335488312096088,-0.01946394962043833,-0.0018216671589876142,-0.11279925412966868,0.29670937929012703,0.6516204489883161,0.1415873054448396,0.09133722522595057,-0.09730477251006978
130,2.580000000000002,0.12101308567211987,0.019782841582254053,0.2205767090522719,0.12061870754216618,0.01836654548458387,0.2197737395250252,-0.0003943781299536875,-0.0014162960976701819,-0.0008029695272466775,0.0016751682922465747,-0.013001555680501318,-0.019210783332124472,-0.0017946112214945434,none,False,False,-0.013001555680501318,-0.019210783332124472,-0.0017946112214945434,-0.1164770583474017,0.29730280607795123,0.6542668640420998,0.14304450018670603,0.09687073528907507,-0.09918369375334174
131,2.600000000000002,0.12191569694213143,0.021705249246922728,0.22139041349051736,0.12151636669119147,0.02037527678632447,0.22043451389185398,-0.00039933025093996655,-0.0013299724605982596,-0.0009558995986633789,0.0016858337515871411,-0.012622606118224562,-0.018940377773431286,-0.0017392581188119534,none,False,False,-0.012622606118224562,-0.018940377773431286,-0.0017392581188119534,-0.11997158965351172,0.2985927275039864,0.6579600734864615,0.14453002541856788,0.10219305012312181,-0.1010517127931101
132,2.620000000000002,0.12281925045678499,0.0235646306177179,0.2223370599354056,0.12241287572028073,0.022330000112411416,0.2212340353225397,-0.00040637473650426137,-0.0012346305053064846,-0.0011030246128658772,0.0017047334711591052,-0.0122002631852864,-0.01865286615579926,-0.0016545797340407128,none,False,False,-0.0122002631852864,-0.01865286615579926,-0.0016545797340407128,-0.12326492390875807,0.3005577398414629,0.6626632038351161,0.14605175860746863,0.10727803439022697,-0.1029081165459343
133,2.640000000000002,0.12372332254122065,0.025351979543917935,0.2234109726333287,0.12330800557865641,0.024220769395596704,0.22216755695218732,-0.00041531696256423556,-0.0011312101483212308,-0.001243415681141391,0.0017315331747231506,-0.011736451867235693,-0.018348489593491658,-0.0015403087278391234,none,False,False,-0.011736451867235693,-0.018348489593491658,-0.0015403087278391234,-0.12634052268078194,0.30317137476836453,0.668331355827641,0.14761479021220572,0.11210080547188189,-0.10475090202532228
134,2.660000000000002,0.1246274489869917,0.027058808834308203,0.2246057660690075,0.1242015277463825,0.02603809101016595,0.22322956545560868,-0.000425921240609195,-0.0010207178241422518,-0.0013762006133988258,0.0017655599417870447,-0.011233366020943322,-0.01802760034611811,-0.0013969803746167668,none,False,False,-0.011233366020943322,-0.01802760034611811,-0.0013969803746167668,-0.12918335560612207,0.3064026432175189,0.6749125678467643,0.1492212948881052,0.11663782932621501,-0.10657672470282309
135,2.680000000000002,0.12553113337540275,0.028677195204666963,0.22591440156190548,0.12509321432283818,0.027772987605515,0.22441382738952587,-0.00043791905256457264,-0.0009042075991519613,-0.001500574172379615,0.001805848090448356,-0.010693432986576788,-0.017690662127221167,-0.0012259353762048032,none,False,False,-0.010693432986576788,-0.017690662127221167,-0.0012259353762048032,-0.13177997490128973,0.31021663005626954,0.6823488607669582,0.1508705077074502,0.1208670173186922,-0.10838089747378082
136,2.700000000000002,0.12643385754003159,0.030199818397200387,0.2273292487321738,0.12598283811519145,0.029417056881320288,0.22571344119975664,-0.00045101942484013224,-0.0007827615158800989,-0.0016158075324171628,0.0018512071991384634,-0.010119276971597485,-0.017338247636902473,-0.0010292833325913746,none,False,False,-0.010119276971597485,-0.017338247636902473,-0.0010292833325913746,-0.13411854393267528,0.31457511071948063,0.6905773162779392,0.15255879901936809,0.12476782336984978,-0.11015743817171254
137,2.720000000000002,0.12733509355293138,0.031619994708309895,0.22884215089960547,0.1268701727268728,0.030962524776533395,0.2271208943083428,-0.0004649208260585902,-0.0006574699317765005,-0.0017212565912626543,0.0019003005916586803,-0.00951368263592068,-0.016971033568649922,-0.0008098294256612987,none,False,False,-0.00951368263592068,-0.016971033568649922,-0.0008098294256612987,-0.13618882484926456,0.3194371640269929,0.6995311457254303,0.1542798363096503,0.12832133993272113,-0.11189916079960359
138,2.740000000000002,0.1282343164735746,0.0329317052397058,0.23044449348770119,0.12775499264604845,0.032402292615694286,0.22862812464471188,-0.0004793238275261624,-0.000529412624011516,-0.0018163688429893021,0.0019517235541642124,-0.008879560046926267,-0.01658979339854754,-0.000570969449014265,none,False,False,-0.008879560046926267,-0.01658979339854754,-0.000570969449014265,-0.1379821326568453,0.3247597601089876,0.7091407140057578,0.15602481770799156,0.13151039086518115,-0.11359780357546106
139,2.760000000000002,0.12913101702528906,0.03412961921782005,0.23212727454481102,0.1286370733340945,0.033729977832291494,0.23022658594319145,-0.0004939436911945705,-0.0003996413855285527,-0.0019006886016195712,0.0020040735434171723,-0.008219911869975628,-0.01619538829218784,-0.00031656036437367036,none,False,False,-0.008219911869975628,-0.01619538829218784,-0.00031656036437367036,-0.13949126461987874,0.33049830787708007,0.7193344918294448,0.15778275978050685,0.13431961915904314,-0.11524418563256092
140,2.780000000000002,0.1300247133756594,0.035209112710865666,0.23388117655277402,0.12951619131407016,0.03493994796888182,0.2319073160969809,-0.000508522061589245,-0.0002691647419838447,-0.0019738604557931194,0.0020560081333482185,-0.007537803354511319,-0.015788756467609556,-5.077492679068956e-05,none,False,False,-0.007537803354511319,-0.015788756467609556,-5.077492679068956e-05,-0.14071041449577515,0.3366071520741945,0.7300399186021043,0.15954082187410334,0.13673556763867006,-0.11682838376649572
141,2.800000000000002,0.1309149612832643,0.03616628301690036,0.23569663876144886,0.13039212425919144,0.03602734773618227,0.23366100783635638,-0.000522837024072853,-0.00013893528071808742,-0.0020356309250924853,0.0021062893507688965,-0.0068363353952150385,-0.015370901338901554,0.00022205046545074983,none,False,False,-0.0068363353952150385,-0.015370901338901554,0.00022205046545074983,-0.14163508091553173,0.34304001508615356,0.7411841664220811,0.16128465032259484,0.1387467510333112,-0.11833992088994393
142,2.820000000000002,0.1318013620234889,0.03699795890930111,0.23756392935535575,0.13126465108130475,0.03698811899707785,0.23547808098655706,-0.0005367109421841598,-9.839912223259806e-06,-0.0020858483687986873,0.002153814958846956,-0.006118620712140229,-0.014942878742363863,0.0004975656641747254,none,False,False,-0.006118620712140229,-0.014942878742363863,0.0004975656641747254,-0.1422619783520034,0.34975038302280753,0.7526948026864321,0.16299872793723327,0.1403437181461675,-0.11976795868536405
143,2.840000000000002,0.1326835676997694,0.037701706821178266,0.23947321681920258,0.13213355201936042,0.03781901362520351,0.23734875555846444,-0.000550015680408994,0.00011730680402524674,-0.0021244612607381475,0.0021976382284951963,-0.005387763012588701,-0.014505783521536824,0.0007715461590004967,none,False,False,-0.005387763012588701,-0.014505783521536824,0.0007715461590004967,-0.14258895772082092,0.3566918388939188,0.764500354246277,0.16466671698664587,0.14151910310940768,-0.121101488149438
144,2.860000000000002,0.1335612837597844,0.03827583294232429,0.24141463992363058,0.13299860872788652,0.03851759927021463,0.23926312493263174,-0.0005626750318978857,0.0002417663278903373,-0.002151514990998832,0.0022369780743931237,-0.0046468388709768145,-0.0140607357233258,0.0010400150254817574,none,False,False,-0.0046468388709768145,-0.0140607357233258,0.0010400150254817574,-0.1426149419022483,0.36381834800806645,0.7765307799482952,0.1662717869273493,0.1422676648899207,-0.12232951311377185
145,2.880000000000002,0.13443426874726824,0.03871938110428617,0.24337837579894073,0.13385960436546218,0.03908225814188361,0.24121122841410877,-0.0005746643818060615,0.00036287703759744355,-0.0021671473848319522,0.002271221407902807,-0.003898881987477397,-0.013608866637692264,0.0012993421971009373,none,False,False,-0.003898881987477397,-0.013608866637692264,0.0012993421971009373,-0.14233987950257154,0.37108450207953964,0.788717860851867,0.1677969211219073,0.14258631428601826,-0.12344122323476099
146,2.900000000000002,0.13530233150485355,0.03903212625533781,0.24535470560545192,0.13471632368319147,0.03951217900163549,0.24318312246133805,-0.0005860078216620712,0.000480052746297685,-0.0021715831441138644,0.002299919380777625,-0.0031468694533104613,-0.013151304898860816,0.001546317738829141,none,False,False,-0.0031468694533104613,-0.013151304898860816,0.001546317738829141,-0.14176471813798142,0.3784457290970914,0.8009955186559286,0.1692251994018907,0.1424741276625219,-0.1244261542373881
147,2.920000000000002,0.13616532619774913,0.03921456328677217,0.24733407734611207,0.13556855311317675,0.039807342622043065,0.24516894992653532,-0.0005967730845723718,0.000592779335270896,-0.002165127419576751,0.0023227789816935465,-0.0023937096535430625,-0.012689162856888382,0.0017781977781564087,none,False,False,-0.0023937096535430625,-0.012689162856888382,0.0017781977781564087,-0.14089139653982058,0.3858584759249088,0.8133000731448031,0.17054005540977307,0.14193234664334542,-0.1252743342748482
148,2.940000000000002,0.13702314562808718,0.03926789097076387,0.2493071654032065,0.13641608085699242,0.039968501041229926,0.24715900668668478,-0.0006070647710947619,0.000700610070466054,-0.002148158716521714,0.0023396512514712534,-0.0016422314653895122,-0.012223523423119715,0.00199272364043703,none,False,False,-0.0016422314653895122,-0.012223523423119715,0.00199272364043703,-0.13972285297397924,0.3932803700808455,0.8255704490516093,0.17172550910567547,0.14096436296772424,-0.12597641607788818
149,2.960000000000002,0.13787571336370058,0.03919399081184158,0.25126492641763076,0.1372586969741585,0.039997150999274776,0.24914380509270312,-0.000617016389542091,0.0008031601874331981,-0.002121121324927644,0.002350517216849111,-0.0008951744555807463,-0.011755427590085148,0.002188116421165792,none,False,False,-0.0008951744555807463,-0.011755427590085148,0.002188116421165792,-0.13826304593639616,0.4006703662846204,0.8377483418443372,0.17276637564316222,0.1395756877554941,-0.12652379509396444
150,2.980000000000002,0.13872297521679955,0.038995400695054916,0.25319865116759377,0.1380961934706142,0.03989550199691046,0.25111413371855573,-0.0006267817461853564,0.0009001013018555409,-0.002084517449038037,0.002355472501706876,-0.0001551798376329157,-0.01128586282370317,0.0023630506123571995,none,False,False,-0.0001551798376329157,-0.01128586282370317,0.0023630506123571995,-0.13651698191358494,0.4079888823138273,0.849778350750687,0.17364845207091925,0.13777390453853725,-0.1269087140698918
151,3.000000000000002,0.13956489057011962,0.03867528332932767,0.25510001214498246,0.1389283643871915,0.03966643946253064,0.2530611129511343,-0.0006365261829281155,0.0009911561332029695,-0.0020388991938481427,0.0023547114440231323,0.000575217989534555,-0.01081575252053766,0.0025166114093961253,none,False,False,0.000575217989534555,-0.01081575252053766,0.0025166114093961253,-0.134490744260707,0.4151979275892471,0.861608086021323,0.1743586831258921,0.13556860562040052,-0.12712435455488982
152,3.0200000000000022,0.14040142398513497,0.03823738962446627,0.2569611065706402,0.13975500588808876,0.03931348355136849,0.2549762460245088,-0.0006464180970462141,0.0010760939269022218,-0.001984860546131395,0.0023485114185998147,0.001293599437854374,-0.010345946713778201,0.002648240928039048,none,False,False,0.001293599437854374,-0.010345946713778201,0.002648240928039048,-0.13219151697642895,0.42226122676831657,0.8731882560657322,0.1748853068865204,0.13297131160964482,-0.12716491564360963
153,3.0400000000000023,0.14123253744324904,0.037686017294223204,0.25877449463721924,0.1405759163493444,0.038840744130444804,0.2568514651676893,-0.0006566210939046302,0.0011547268362216007,-0.0019230294695299355,0.0023372179333411435,0.001997667318895904,-0.009877214196558981,0.0027576787453725353,none,False,False,0.001997667318895904,-0.009877214196558981,0.0027576787453725353,-0.1296275973613409,0.4291443395474513,0.8844727387846548,0.17521798040910816,0.12999537432476913,-0.12702568000786696
154,3.0600000000000023,0.14205818347448204,0.037025965132860286,0.2605332328165987,0.14139089644731057,0.03825287252439352,0.2586791726022229,-0.0006672870271714759,0.0012269073915332357,-0.0018540602143757856,0.0023212309240059287,0.002685254030792714,-0.009410236209088166,0.0028449019639633887,none,False,False,0.002685254030792714,-0.009410236209088166,0.0028449019639633887,-0.12680839221232065,0.4358147769030569,0.8954186402073424,0.1753478848192185,0.12665586366377404,-0.12670306694930242
155,3.0800000000000023,0.14287829933572896,0.036262483557847246,0.2622309021194116,0.1421997492471262,0.0375550106105893,0.2604522761937741,-0.000678550088602764,0.0012925270527420554,-0.0017786259256374892,0.002300992522404777,0.003354328304658673,-0.008945601806531278,0.0029100694308506576,none,False,False,0.003354328304658673,-0.008945601806531278,0.0029100694308506576,-0.12374439327250938,0.44224211316022827,0.9059863424564214,0.17526780879277218,0.12296943944203215,-0.12619467190591924
156,3.1000000000000023,0.1436928023160274,0.035401222135140416,0.26386163124634937,0.1430022802911915,0.03675273785728557,0.2621642196292874,-0.0006905220248359101,0.0013515157221451538,-0.0016974116170619946,0.002276976418790067,0.004003001437557188,-0.008483804987912243,0.0029534738867838042,none,False,False,0.004003001437557188,-0.008483804987912243,0.0029534738867838042,-0.12044712904323734,0.4483980926022832,0.9161395421357617,0.17497220903142902,0.1189542096000622,-0.12549929162186652
157,3.1200000000000023,0.14450158617537823,0.03444817489635988,0.26542011462312765,0.14379829768764077,0.03585201689600856,0.2638090070574579,-0.0007032884877374579,0.0014038419996486792,-0.0016111075656697338,0.00224967878709826,0.004629532915400827,-0.008025243623656007,0.0029755047588126233,none,False,False,0.004629532915400827,-0.008025243623656007,0.0029755047588126233,-0.11692909166033373,0.4542567288339211,0.9258452794747224,0.17445724626848466,0.1146295765396412,-0.12461693408600241
158,3.1400000000000023,0.14530451867125407,0.03340962431575505,0.2669016253637031,0.14458761219881644,0.034859138209630144,0.2653812221941659,-0.000716906472437634,0.0014495138938750915,-0.001520403169537221,0.0022196106002402155,0.005232335316058522,-0.0075702201726008216,0.0029766231313695167,none,False,False,0.005232335316058522,-0.0075702201726008216,0.0029766231313695167,-0.11320363922545681,0.45979439478851836,0.9350739579710117,0.17372079555061187,0.11001607364934932,-0.1235488123885838
159,3.1600000000000024,0.14610144009260934,0.032292084833829,0.2683020232561288,0.14537003732974252,0.033780664500858745,0.2668760419554409,-0.0007314027628668174,0.0014885796670297477,-0.001425981300687884,0.002187291040656254,0.005809978379829178,-0.007118944130804791,0.002957349234246173,none,False,False,0.005809978379829178,-0.007118944130804791,0.002957349234246173,-0.10928487562887397,0.4649899011178579,0.9437993538414232,0.1727624300105325,0.10513519430717476,-0.12229732184687545
160,3.1800000000000024,0.1468921627041522,0.03110224679534825,0.269617757914182,0.1461453894165982,0.03262337528291519,0.2682892447377082,-0.0007467732875540145,0.0015211284875669383,-0.0013285131764738112,0.0021532416210812123,0.006361192140747218,-0.006671536106862497,0.002918261659506258,none,False,False,0.006361192140747218,-0.006671536106862497,0.002918261659506258,-0.10518751138380826,0.46982456071746287,0.9519986143212679,0.1715833780303462,0.10000921579445418,-0.12086600010178508
161,3.2000000000000024,0.14767647100056203,0.029846921615341478,0.2708458672832632,0.14691348771519147,0.03139421220554548,0.2696172135179083,-0.0007629832853705554,0.0015472905902040035,-0.0012286537653549146,0.002117980580508119,0.00688486902631691,-0.006228033374495676,0.002860006544825551,none,False,False,0.00688486902631691,-0.006228033374495676,0.002860006544825551,-0.10092671020553101,0.4742822373007373,0.9596522437297831,0.1701864545246487,0.09466102061973215,-0.11925947036244382
162,3.2200000000000024,0.14845412267517966,0.028532988902249447,0.27198397172920474,0.14767415448943275,0.03010022559597111,0.2708569339940438,-0.0007799681857469098,0.001567236693721663,-0.0011270377351609295,0.0020820171184218477,0.007380064853741556,-0.005788396715390278,0.002783314202513353,none,False,False,0.007380064853741556,-0.005788396715390278,0.002783314202513353,-0.09651792692632785,0.4783493762204398,0.9667440762226188,0.16857596796518173,0.0891139177342039,-0.11748336853391327
163,3.2400000000000024,0.14922485022022025,0.02716734615963987,0.27303026397437025,0.14842721509980844,0.028748522656621003,0.27200598802940096,-0.0007976351204118104,0.0015811764969811334,-0.0010242759449692884,0.0020458450848885455,0.007845998675216606,-0.005352518335759024,0.0026890201766371674,none,False,False,0.007845998675216606,-0.005352518335759024,0.0026890201766371674,-0.09197674278452074,0.4820150161158386,0.9732612342685277,0.16675760563809958,0.08339146602772951,-0.1155442555535313
164,3.2600000000000025,0.1499883630867205,0.025756861567674236,0.27398349517495935,0.1491724980918545,0.02734621772030389,0.27306254270078456,-0.0008158649948659946,0.001589356152629652,-0.0009209524741747854,0.002009935852070428,0.008282051452027645,-0.004920230620154751,0.0025780874928133407,none,False,False,0.008282051452027645,-0.004920230620154751,0.0025780874928133407,-0.08731870415443944,0.48527078041711097,0.9791940720922534,0.1647383003899874,0.07751730234561102,-0.11344951683034851
165,3.2800000000000025,0.15074435034271547,0.024308330215808097,0.27484295745746073,0.1499098352846302,0.02590038491962721,0.2740253352824224,-0.0008345150580852667,0.001592054703819113,-0.000817622175038335,0.0019747302558167376,0.008687763564829122,-0.004491315476529911,0.002451626928188525,none,False,False,0.008687763564829122,-0.004491315476529911,0.002451626928188525,-0.08255917039546568,0.48811084823338824,0.984536103600804,0.16252608271554933,0.07151497605644912,-0.11120725117624054
166,3.3000000000000025,0.1514924837749546,0.022828434032061043,0.27560846324968524,0.15063906185919146,0.024418013581729188,0.27489365452261183,-0.0008534219157631528,0.001589579549668145,-0.0007148087270734127,0.0019406296986618403,0.009062831193672911,-0.004065514027177528,0.002310912444776161,none,False,False,0.009062831193672911,-0.004065514027177528,0.002310912444776161,-0.07771317575552543,0.4905319046539268,0.9892839146242091,0.16012992241789095,0.06540779195878897,-0.10882615199148662
167,3.3200000000000025,0.15223242137968104,0.02132370553550784,0.2762803217539909,0.1513600164470647,0.022905966612505498,0.27566731858972315,-0.0008724049326163386,0.0015822610769976563,-0.0006130031642677669,0.0019079867299426892,0.009407101625382275,-0.0036425364101689704,0.0021573894549841207,none,False,False,0.009407101625382275,-0.0036425364101689704,0.0021573894549841207,-0.07279530923755412,0.49253307098889937,0.9934370596420076,0.15755956421175726,0.05921866304433386,-0.10631538369121812
168,3.3400000000000025,0.1529638111845494,0.019800495432257058,0.2768593129177105,0.15207254121872044,0.021370942087211554,0.27634665007791037,-0.0008912699658289724,0.0015704466549544965,-0.0005126628398001154,0.0018770956383089446,0.0097205675662473,-0.0032220714738742085,0.0019926742680519654,none,False,False,0.0097205675662473,-0.0032220714738742085,0.0019926742680519654,-0.06781961511776438,0.49411581593817183,0.9969979435090875,0.1548253615420401,0.052969974348352385,-0.10368445641589089
169,3.3600000000000025,0.1536862953353888,0.018264943987766902,0.27734665925814866,0.1527764819720465,0.01981943821728007,0.27693244847100407,-0.00090981336334231,0.001554494229513169,-0.0004142107871445977,0.0018481837684313034,0.01000336055436218,-0.002803796171150781,0.0018185438331067534,none,False,False,0.01000336055436218,-0.002803796171150781,0.0018185438331067534,-0.0627995155034815,0.49528384908734635,0.9999716890176067,0.1519381125766457,0.04668345883414098,-0.1009431019607293
170,3.3800000000000026,0.15439951437132907,0.0167229560370312,0.27774399589892135,0.1534716882208222,0.01825772181704545,0.27742596046581125,-0.0009278261505068774,0.001534765780014248,-0.00031803543311009763,0.0018214043762384785,0.010255743578072546,-0.0023873844879309307,0.0016369156853252324,none,False,False,0.010255743578072546,-0.0023873844879309307,0.0016369156853252324,-0.05774775502474743,0.49604299848048305,1.0023659914289753,0.1489089018498765,0.04038008597335669,-0.09810115360402392
171,3.4000000000000026,0.15510311160120052,0.015180179445124262,0.2780533391700359,0.15415801328319148,0.016691800349393895,0.2778288485537464,-0.0009450983180090411,0.0015116209042696331,-0.00022449061628948552,0.0017968318301194732,0.010478103014838203,-0.001972515771024934,0.0014498187505415422,none,False,False,0.010478103014838203,-0.001972515771024934,0.0014498187505415422,-0.052676366574907776,0.49640107429426933,1.0041909613605358,0.14574895043033162,0.03407996342255755,-0.09516843214304589
172,3.4200000000000026,0.1557967374840432,0.013641986799644214,0.2782770541173022,0.15483531437013676,0.01512739758665786,0.278143158252738,-0.0009614231139064566,0.0014854107870136465,-0.000133895864564193,0.0017744598368735994,0.010670940009073636,-0.001558882350211905,0.0012593563188804916,none,False,False,0.010670940009073636,-0.001558882350211905,0.0012593563188804916,-0.04759665601850948,0.49636772084209696,1.0054589576159076,0.14246947682778363,0.027802251955156485,-0.09215463999932773
173,3.4400000000000026,0.15648005391047676,0.012113460100402953,0.27841782125764947,0.15550345267395244,0.013569932882812205,0.2783712843701093,-0.0009766012365243215,0.0014564727824092523,-4.6536887540193916e-05,0.0017542031304788256,0.010834861408395782,-0.001146196378657161,0.0010676630204881704,none,False,False,0.010834861408395782,-0.001146196378657161,0.0010676630204881704,-0.04251920301900643,0.495954259263725,1.0061844117002845,0.13908157019396417,0.02156509358691914,-0.08906926477446048
174,3.4600000000000026,0.15715273827810106,0.010599378213000013,0.2784786029055668,0.1561622934567185,0.012024504015566163,0.27851593666208213,-0.0009904448213825523,0.00142512580256615,3.733375651532311e-05,0.001735902735385504,0.010970570376185226,-0.0007341958420434467,0.0008768579952819202,none,False,False,0.010970570376185226,-0.0007341958420434467,0.0008768579952819202,-0.037453874649691285,0.4951735233147622,1.006383645861474,0.1355960767602923,0.015385552650750313,-0.08592149316529743
175,3.4800000000000026,0.1578144872559355,0.009104206864062186,0.27846260938223344,0.1568117061387742,0.010495873522596415,0.27858010523716353,-0.0010027811171612888,0.0013916666585342286,0.00011749585493009418,0.0017193345612000071,0.011078856794709236,-0.00032264971001438934,0.0006889966368758177,none,False,False,0.011078856794709236,-0.00032264971001438934,0.0006889966368758177,-0.03240984823104676,0.4940396906615325,1.0060746865459687,0.13202349993019938,0.009279569419691372,-0.08272013571731922
176,3.5000000000000027,0.1584650201395587,0.0076320909769543015,0.2783732654030453,0.1574515643871915,0.008988458425166929,0.2785670260294491,-0.0010134557523672205,0.0013563674482126274,0.00019376062640380498,0.0017042207594444559,0.011160587567965417,8.863777680831e-05,0.000506023308414366,none,False,False,0.011160587567965417,8.863777680831e-05,0.000506023308414366,-0.027395639880216375,0.49256811202028955,1.005277075161554,0.12837391402628712,0.0032619257547121024,-0.07947356253241916
177,3.5200000000000027,0.15910408170979182,0.006186849171961014,0.27821417692142714,0.15808174620424875,0.007506323204892049,0.2784801466443077,-0.001022335505543065,0.0013194740329310348,0.00026596972288056575,0.0016902430307392036,0.01121669692737629,0.000499823674728063,0.00032972729177569213,none,False,False,0.01121669692737629,0.000499823674728063,0.00032972729177569213,-0.022419135523454776,0.49077514036531306,1.0040116780019046,0.1246568913922333,-0.0026537778432723785,-0.07618964976652663
178,3.5400000000000027,0.15973144452326077,0.004771970283266253,0.27798909868677246,0.15870213401590438,0.006053175875530336,0.27832309285348783,-0.0010293105073563846,0.001281205592264083,0.00033399416671536786,0.0016770569440549448,0.011248176836694206,0.000911023737211894,0.00016170396448506085,none,False,False,0.011248176836694206,0.000911023737211894,0.00016170396448506085,-0.017487621569028465,0.4886779622745886,1.002300497117539,0.12088144235922309,-0.008455134467164583,-0.0728757365561305
179,3.5600000000000027,0.16034691058176487,0.0033906117744405915,0.2777019027523568,0.15931261476027045,0.004632366971481604,0.2780996359898979,-0.0010342958214944187,0.0012417551970410126,0.0003977332375411091,0.001664306325164965,0.011256067585276504,0.0013223106145288507,3.3228306809551432e-06,none,False,False,0.011256067585276504,0.0013223106145288507,3.3228306809551432e-06,-0.01260781301447073,0.4862944332952151,1.000166483819059,0.11705596749053483,-0.01413093305659447,-0.06953859189458844
180,3.5800000000000027,0.16095031234902923,0.0020455999601695692,0.2773565481455472,0.15991307997608617,0.0032468912580774527,0.277813661464618,-0.0010372323729430644,0.0012012912979078834,0.0004571133190707788,0.0016516368742499699,0.011241448651195893,0.001733712811627351,-0.00014429640107872018,none,False,False,0.011241448651195893,0.001733712811627351,-0.00014429640107872018,-0.007785877406182774,0.483642918999986,0.9976333563784344,0.11318822149296949,-0.019671151431034057,-0.06618439092475321
181,3.6000000000000028,0.16154151310609627,0.0007394319654199545,0.2769570518878901,0.16050342589119143,0.0018993919557393855,0.27746913860053724,-0.001038087214904837,0.001159959990319431,0.0005120867126471307,0.0016387083468880242,0.011205429907676293,0.0021452143565790214,-0.00028029896811357976,none,False,False,0.011205429907676293,0.0021452143565790214,-0.00028029896811357976,-0.0030274537355996977,0.48074214318191383,0.9947254233579792,0.1092852882031784,-0.025066940872248387,-0.06281870010643935
182,3.6200000000000028,0.16212040665977112,-0.0005257206306756457,0.2765074615272045,0.1610835535110007,0.0005921672605077675,0.2770700919487945,-0.001036853148770417,0.0011178878911834132,0.0005626304215899935,0.001625204842679273,0.011149143237941753,0.0025567551265747875,-0.0004041011746501469,none,False,False,0.011149143237941753,0.0025567551265747875,-0.0004041011746501469,0.0016623340127877198,0.47761104440062113,0.9914674138489423,0.10535356609603468,-0.03031060302772715,-0.059446470735634034
183,3.640000000000003,0.16268691644075534,-0.0017480065076299449,0.2760118293176415,0.16165336870697636,-0.0006728210628409136,0.27662057422629704,-0.0010335477337789778,0.0010751854447890313,0.0006087449086555341,0.0016108429540150344,0.011073734614736692,0.002968231774088385,-0.0005153876691049693,none,False,False,0.011073734614736692,0.002968231774088385,-0.0005153876691049693,0.006278868379457857,0.47426864185893947,0.9878843157433066,0.10139876379762462,-0.03539555989681732,-0.05607204031946048
184,3.660000000000003,0.1632409940486123,-0.002925887709985194,0.27547418815817615,0.1622127823051025,-0.0018939372420688355,0.2761246409853474,-0.0010282117435098104,0.0010319504679163587,0.000650452827171244,0.0015953777101675138,0.010980356691644181,0.0033794991921881337,-0.0006141004582761008,none,False,False,0.010980356691644181,0.0033794991921881337,-0.0006141004582761008,0.010818034261846814,0.4707339113580479,0.9840012230014422,0.0974259051015089,-0.040316317646526226,-0.05269914133205907
185,3.680000000000003,0.16378261731811936,-0.004058131186766477,0.2748985293744408,0.1627617101743582,-0.003069859440447631,0.2755863271001171,-0.0010209071437611572,0.000988271746318846,0.0006877977256762868,0.0015786063955907875,0.010870161943802305,0.003790372454996056,-0.0007004205694924307,none,False,False,0.010870161943802305,0.003790372454996056,-0.0007004205694924307,0.015276217954843359,0.46702567185673155,0.979843192711658,0.09343934297358661,-0.04506842498792421,-0.049330916881296226
186,3.700000000000003,0.16431178799559087,-0.005143798812384734,0.27428878240419063,0.16330007331519147,-0.004199566306438966,0.2750096251296269,-0.0010117146803994004,0.0009442325059457676,0.0007208427254362659,0.001560370422250649,0.010744296385830335,0.004200629167012676,-0.000774743527589722,none,False,False,0.010744296385830335,0.004200629167012676,-0.000774743527589722,0.019650308063986505,0.4631624829496437,0.975435112570192,0.08944278198488183,-0.04964842682716127,-0.04596994279952295
187,3.720000000000003,0.16482852912343943,-0.006182235951736611,0.2736487964233142,0.16382779794799268,-0.0052823223504351105,0.27439846559324443,-0.0010007311754467452,0.0008999136013015004,0.0007496691699302449,0.001540555497105626,0.010603893884953948,0.004610012153540515,-0.0008376499902328109,none,False,False,0.010603893884953948,0.004610012153540515,-0.0008376499902328109,0.023937696846875547,0.45916255338522177,0.9708015792447888,0.08543930853567097,-0.054053813888543446,-0.042618255633175985
188,3.740000000000003,0.1653328822365397,-0.007173058649905896,0.2729823239268401,0.16434481560156838,-0.0063176623621656915,0.27375669917266965,-0.0009880666349713074,0.0008553962877402045,0.0007743752458295727,0.0015190903546454559,0.010450071077537001,0.005018232423903863,-0.0008898729830030409,none,False,False,0.010450071077537001,0.005018232423903863,-0.0008898729830030409,0.028136280540179692,0.45504366056620044,0.9659667879205767,0.08143142813548475,-0.05828296898824497,-0.03927738594941915
189,3.760000000000003,0.16582490447394482,-0.008116139548818617,0.2722930062586454,0.1648510632016144,-0.007305375073814704,0.2730880808340773,-0.0009738412723304113,0.0008107644750039132,0.000795074575431931,0.0014959443298868948,0.010283922887903106,0.005424972339629026,-0.000932263198007682,none,False,False,0.010283922887903106,0.005424972339629026,-0.000932263198007682,0.03224445733307811,0.45082308082032074,0.960954433170307,0.07742110889320471,-0.06233511062294877,-0.035948396309729486
190,3.780000000000003,0.16630466570618485,-0.00901159265452102,0.2715843610636792,0.1653464831591902,-0.00824548626379304,0.27239625584563376,-0.0009581825469946459,0.0007661063907279803,0.0008118947819545363,0.0014711240370017763,0.01010651863928141,0.005829888921409398,-0.0009657537751647567,none,False,False,0.01010651863928141,0.005829888921409398,-0.0009657537751647567,0.03626112182681737,0.446517530089359,0.9557876211365544,0.07340983025998209,-0.06621023451726031,-0.03263192318832349
191,3.800000000000003,0.1667722457694971,-0.009859757101699625,0.2708597716191191,0.16583102345919143,-0.009138241484747595,0.271684747649056,-0.0009412223103056616,0.0007215156169520301,0.0008249760299368636,0.0014446693991682611,0.009918898738819586,0.006232617231457608,-0.0009913258826481897,none,False,False,0.009918898738819586,0.006232617231457608,-0.0009913258826481897,0.04018565506141147,0.4421431145737071,0.9504887928759648,0.06939863596909528,-0.06990905375791019,-0.029328222046657828
192,3.820000000000003,0.16722773188710238,-0.010661180082324332,0.27012247798425115,0.16630463774882465,-0.009984088587031249,0.27095694752926885,-0.0009230941382777358,0.0006770914952930838,0.000834469545017702,0.001416649251820291,0.009722071911334444,0.0066327737718051855,-0.0010099762632842972,none,False,False,0.009722071911334444,0.0066327737718051855,-0.0010099762632842972,0.04401790946835871,0.4377152907743488,0.9450796585833747,0.06538819003986349,-0.0734329381216506,-0.02603721472130019
193,3.840000000000003,0.1676712163436741,-0.011416599122315838,0.26937556989470124,0.16676728542608038,-0.010783660195736504,0.27021610601354923,-0.0009039309175937205,0.0006329389265793336,0.0008405361188479898,0.0013871567163263373,0.009517012950488632,0.007029959844131994,-0.0010226877297808672,none,False,False,0.009517012950488632,0.007029959844131994,-0.0010226877297808672,0.04775818840208753,0.4332488343030854,0.9395811422998455,0.06137883466631885,-0.07678385317917114,-0.022758538248335024
194,3.860000000000003,0.16810279446307225,-0.012126923903502312,0.2686219813140191,0.1672189317282065,-0.011537756285788424,0.2694653259207767,-0.0008838627348657369,0.0005891676177138885,0.0008433446067576122,0.0013563045165427086,0.009304660951304384,0.007423764822623839,-0.0010304033841658509,none,False,False,0.009304660951304384,0.007423764822623839,-0.0010304033841658509,0.051407220197110796,0.4287578167807899,0.9340133366092594,0.057370648801221905,-0.0799642997301306,-0.019491594237614398
195,3.880000000000003,0.1685225629224456,-0.012793217836228887,0.26786448654445216,0.16765954782018222,-0.01224732698568069,0.2687075569725119,-0.000863015102263387,0.0005458908505481981,0.0008430704280597556,0.0013242203872904914,0.00908591798437936,0.007813769297990557,-0.0010340051176338505,none,False,False,0.00908591798437936,0.007813769297990557,-0.0010340051176338505,0.05496612697451303,0.42425559011043373,0.9283954667438451,0.05336350627406224,-0.08297725409164591,-0.016235597926933496
196,3.900000000000003,0.1689306184192621,-0.013416679591409932,0.26710569779083804,0.1680891108831914,-0.012913455726445932,0.2679455918705113,-0.0008415075360707069,0.0005032238649640003,0.0008398940796732757,0.00129104270130903,0.008861648170038781,0.008199548057861954,-0.0010342967266765465,none,False,False,0.008861648170038781,0.008199548057861954,-0.0010342967266765465,0.05843638866939457,0.419754777399406,0.9227458634589949,0.04935713234780239,-0.08582610972727761,-0.012989626090080338
197,3.920000000000003,0.16932705669212245,-0.013998624797894389,0.2663480640641231,0.16850760420309668,-0.013537342838567685,0.26718206373986786,-0.0008194524890257626,0.00046128195932670403,0.0008339996757447676,0.0012569164200189199,0.008632677109502263,0.008580672876114798,-0.0010319917686967795,none,False,False,0.008632677109502263,0.008580672876114798,-0.0010319917686967795,0.061819802958887025,0.4152672698039961,0.9170819439875967,0.04535115771932513,-0.08851462066081425,-0.009752663041496388
198,3.940000000000003,0.1697119718825772,-0.014540468102881657,0.2655938713066228,0.16891501725891234,-0.014120289685906555,0.2664194448331564,-0.0007969546236648584,0.00042017841697510223,0.0008255735265335629,0.0012219894524853978,0.008399791630201476,0.008956715090987291,-0.0010277060839278148,none,False,False,0.008399791630201476,0.008956715090987291,-0.0010277060839278148,0.06511844193268168,0.4108042285831012,0.9114202003565278,0.04134516909790169,-0.09104684707265613,-0.006523644070942397
199,3.960000000000003,0.17008545621255705,-0.01504370578024835,0.26484524361858564,0.1693113458112785,-0.014663683412501356,0.2656600463886177,-0.0007741104012785605,0.00038002236774699327,0.0008148027700320415,0.0011864094855519205,0.008163739803602852,0.009327247958861749,-0.001021954736621866,none,False,False,0.008163739803602852,0.009327247958861749,-0.001021954736621866,0.06833460646192895,0.40637609167637206,0.9057761943381905,0.03733875564776511,-0.0934271034271735,-0.0033014957493792308
