LordTarzan10086/HCDR_ML/results/tracking/routeb_trajectory_suite_20260416_105416/helix/helix_arm_only_detailed.csv
step,time_s,tip_x,tip_y,tip_z,des_x,des_y,des_z,err_x,err_y,err_z,err_norm,q_platform_x,q_platform_y,q_platform_psi,solver_status,fail_reason,fallback_applied,hold_active,u_a_1,u_a_2,u_a_3,u_a_4,u_a_5,u_a_6,u_a_7,u_a_8,u_a_9,u_a_10,u_a_11,u_a_12,u_a_13,u_a_14,qdd_1,qdd_2,qdd_3,qdd_4,qdd_5,qdd_6,qdd_7,qdd_8,qdd_9,q_1,q_2,q_3,q_4,q_5,q_6,q_7,q_8,q_9,cable_force_1,cable_force_2,cable_force_3,cable_force_4,cable_force_5,cable_force_6,cable_force_7,cable_force_8,cable_length_1,cable_length_2,cable_length_3,cable_length_4,cable_length_5,cable_length_6,cable_length_7,cable_length_8,arm_torque_1,arm_torque_2,arm_torque_3,arm_torque_4,arm_torque_5,arm_torque_6
1.0,0.0,0.11699147501178286,0.0100012079103333,0.24868679431452145,0.11702116438719139,0.010002371411802463,0.24858416458402444,2.9689375408523122e-05,1.163501469163275e-06,-0.00010262973049701696,0.0001068441590809123,-6.467608734286976e-07,-1.1603578104617116e-08,1.9419580280240066e-06,min_task,none,false,false,6.999999999999999,6.999999999999999,6.999999999999999,6.999999999999999,6.999999999999999,6.999999999999999,6.999999999999999,6.999999999999999,0.0009731698241316773,-0.008666860969988978,-0.00040909200279463036,-4.436452140459056e-05,7.102360090702953e-05,5.496003719812487e-07,0.0,-6.428432399757374e-17,0.0,0.001085906784177935,-0.045066224994938696,-0.06536426316476819,-0.00031781461178430445,0.0010522048780829312,-1.213483807796295e-07,-6.467608734286976e-07,-1.1603578104617116e-08,1.9419580280240066e-06,0.0022298343489195478,0.4601605475882893,0.8743555837791167,-0.0002855217740607307,0.0010820203326529297,4.488025624101994e-07,6.999999999999999,6.999999999999999,6.999999999999999,6.999999999999999,6.999999999999999,6.999999999999999,6.999999999999999,6.999999999999999,1.2020819935518072,1.2020819935518072,1.2020810788938203,1.2020810788938203,1.2020810624835632,1.2020810624835632,1.2020819771415625,1.2020819771415625,0.0009731698241316773,-0.008666860969988978,-0.00040909200279463036,-4.436452140459056e-05,7.102360090702953e-05,5.496003719812487e-07
2.0,0.02,0.1169933584565127,0.010003141292503898,0.24868134797765595,0.1170211643857438,0.010002788199220363,0.24858422354738247,2.780592923110059e-05,-3.5309328353522185e-07,-9.71244302734875e-05,0.00010102697328546167,-2.0254164357592017e-06,1.550385315907639e-08,4.730234132152308e-06,min_task,none,false,false,32.71134674944899,32.71134674944911,32.71018912535661,32.71018912535641,32.71016837455378,32.71016837455381,32.711325997719364,32.71132599771917,-6.347886670607951e-05,-0.003913646710358546,-0.00014260276767177324,-4.22995785322815e-05,0.000333801171149687,-2.4077693048797476e-06,0.0004778074438435064,8.565048215674634e-06,-0.0012078651765959846,-0.01284070454343224,-0.021226391962805458,-0.030424901934907347,-0.0063029808597231795,0.025294856732245168,-0.0001134443291166909,-2.0254164357592017e-06,1.550385315907639e-08,4.730234132152308e-06,0.0022309813609043706,0.4601334830419246,0.8743198908831603,-0.0002884120422244115,0.001088943443340048,1.7103350376693804e-06,32.71134674944899,32.71134674944911,32.71018912535661,32.71018912535641,32.71016837455378,32.71016837455381,32.711325997719364,32.71132599771917,1.2020829492448106,1.2020829492448106,1.202080084873373,1.202080084873373,1.2020801067967677,1.2020801067967677,1.2020829711681529,1.2020829711681529,-6.347886670607951e-05,-0.003913646710358546,-0.00014260276767177324,-4.22995785322815e-05,0.000333801171149687,-2.4077693048797476e-06
3.0,0.04,0.11699566377837674,0.01001003525429328,0.24867480429608738,0.11702116429547019,0.010005689023003821,0.24858463392999974,2.5500517093449138e-05,-4.34623128945863e-06,-9.017036608763296e-05,9.380757442143203e-05,-3.4984426245610444e-06,1.7238879484809726e-07,4.749687418038677e-06,min_task,none,false,false,14.563011976945699,14.563011976944546,14.56145800585143,14.561458006069769,14.561524023943011,14.561524020887399,14.56307800371663,14.563078003717779,-0.0008601942831864488,-0.0007197498548364457,9.158961852525182e-05,-4.636340507267715e-05,0.0005718505580771157,-5.002787740300132e-06,0.0006419219140908618,-2.678460838269815e-05,-0.0013097834644294742,-0.024561583398137517,-0.005039907712622838,-0.006130131053613993,-0.011789048642023113,0.04685749113493591,-0.0001502094657411184,-3.4984426245610444e-06,1.7238879484809726e-07,4.749687418038677e-06,0.002220845851325504,0.4601010931325329,0.8742770558365287,-0.00029436910830678205,0.001112147265656699,3.0160966711677084e-06,14.563011976945699,14.563011976944546,14.56145800585143,14.561458006069769,14.561524023943011,14.561524020887399,14.56307800371663,14.563078003717779,1.2020838799001414,1.2020838799001414,1.2020789323544285,1.2020789323544285,1.202079176145355,1.202079176145355,1.2020841236900646,1.2020841236900646,-0.0008601942831864488,-0.0007197498548364457,9.158961852525182e-05,-4.636340507267715e-05,0.0005718505580771157,-5.002787740300132e-06
4.0,0.06,0.11699804013688417,0.010024635377594973,0.24866854290014595,0.11702116335288582,0.010013512177872089,0.24858574068002443,2.3123216001647018e-05,-1.11231997228841e-05,-8.280222012152505e-05,8.668688682486805e-05,-4.675678672463687e-06,5.237191443018122e-07,5.568976190431839e-08,min_task,none,false,false,7.001242834586262,7.0012428345862565,6.999999999999678,6.999999999999678,6.999999999999678,6.999999999999678,7.001707277397484,7.001707277397491,-0.0014974786749823853,0.0014607113730287092,0.0002922602948756461,-5.412862713203074e-05,0.0007927642345960427,-7.331123681855785e-06,0.0006076550470341706,-9.44056184377874e-05,-0.0006322327383862841,-0.03480970263638305,0.006093561826020164,0.010997594478722022,-0.01692802267395376,0.0665725705678909,-0.0001492427257887174,-4.675678672463687e-06,5.237191443018122e-07,5.568976190431839e-08,0.0021924305517059166,0.4600699274694964,0.8742359627360996,-0.0003048978381404047,0.001160535623129184,4.195151926476013e-06,7.001242834586262,7.0012428345862565,6.999999999999678,6.999999999999678,6.999999999999678,6.999999999999678,7.001707277397484,7.001707277397491,1.2020844639015271,1.2020844639015271,1.2020778514912909,1.2020778514912909,1.2020785921439796,1.2020785921439796,1.2020852045501418,1.2020852045501418,-0.0014974786749823853,0.0014607113730287092,0.0002922602948756461,-5.412862713203074e-05,0.0007927642345960427,-7.331123681855785e-06
5.0,0.08,0.11700029959057585,0.010049462661978379,0.24866355124623563,0.11702115863408241,0.010028646362674537,0.24858788172930837,2.085904350655754e-05,-2.0816299303842017e-05,-7.566951692725143e-05,8.120525724803282e-05,-5.324752647639865e-06,1.1160548647179404e-06,-1.0643036262620727e-05,min_task,none,false,false,7.0006165415071315,7.0006165415071315,6.999999999999996,6.999999999999996,6.999999999999996,6.999999999999996,7.001530589202102,7.001530589202102,-0.0020294560015623212,0.0029869022883221965,0.0004618534326364514,-6.401111184458418e-05,0.0010015464455534386,-9.462351775916409e-06,0.000449345651794584,-0.00018640785837273173,-7.392684997740514e-06,-0.0440896339469469,0.013903962688255927,0.023309346668124214,-0.021795052108723272,0.08498168390540665,-0.00014405952210121012,-5.324752647639865e-06,1.1160548647179404e-06,-1.0643036262620727e-05,0.0021400993044443104,0.460044413970283,0.8742028412072771,-0.0003217927116583573,0.0012423920188789162,5.352635018586839e-06,7.0006165415071315,7.0006165415071315,6.999999999999996,6.999999999999996,6.999999999999996,6.999999999999996,7.001530589202102,7.001530589202102,1.2020845040300814,1.2020845040300814,1.2020769736906916,1.2020769736906916,1.2020785520497048,1.2020785520497048,1.202086082379207,1.202086082379207,-0.0020294560015623212,0.0029869022883221965,0.0004618534326364514,-6.401111184458418e-05,0.0010015464455534386,-9.462351775916409e-06
6.0,0.1,0.11700234363178116,0.010086879691334157,0.24866055194341813,0.11702114266149691,0.010053431012906748,0.24859138804081457,1.8799029715743654e-05,-3.344867842740816e-05,-6.916390260355842e-05,7.909401387050785e-05,-5.3144026354147774e-06,1.9822655615123405e-06,-2.64251289348774e-05,min_task,none,false,false,33.667426999319346,33.66742699931884,33.66711020410237,33.66711020410798,33.667798026173195,33.66779802609626,33.66812016240814,33.668120162408336,-0.002491262465087426,0.004095447213380867,0.0006038547460868471,-7.497443988283237e-05,0.001201451302967403,-1.1442935668975006e-05,0.00021430383807466622,-0.00029686270878935653,0.0068134473504007365,-0.0527025122536399,0.01954687532320764,0.032397289466812924,-0.026446216487370593,0.10245265311345136,-0.00015820867677427848,-5.3144026354147774e-06,1.9822655615123405e-06,-2.64251289348774e-05,0.0020609107954214644,0.4600275988167304,0.874182150529499,-0.0003470511588734161,0.0013655578476721901,6.784094779511557e-06,33.667426999319346,33.66742699931884,33.66711020410237,33.66711020410798,33.667798026173195,33.66779802609626,33.66812016240814,33.668120162408336,1.202083884267999,1.202083884267999,1.2020763685720253,1.2020763685720253,1.2020791719626778,1.2020791719626778,1.2020866876411243,1.2020866876411243,-0.002491262465087426,0.004095447213380867,0.0006038547460868471,-7.497443988283237e-05,0.001201451302967403,-1.1442935668975006e-05
7.0,0.12000000000000001,0.1170041171217129,0.010139134487786621,0.24866008943526427,0.11702110016845615,0.010090156627542358,0.24859658365602444,1.6983046743260233e-05,-4.897786024426337e-05,-6.35057792398308e-05,8.197706183834891e-05,-4.577430374067641e-06,3.146956964438553e-06,-4.613365782648374e-05,min_task,none,false,false,17.808246472802495,17.80824647280665,17.808502685805923,17.80850268577465,17.809524295466048,17.809524295889485,17.809227983754923,17.8092279837531,-0.002914025672826689,0.0049465932669125485,0.0007223762367989239,-8.662666073224769e-05,0.0013943710269341703,-1.3336432262895775e-05,-6.663468291638573e-05,-0.0004214733971956711,0.008948350418239203,-0.061117255288706304,0.023787936483677777,0.03933475646969885,-0.030883988459238843,0.11909367388564397,-0.000210031798268008,-4.577430374067641e-06,3.146956964438553e-06,-4.613365782648374e-05,0.0019524220792992645,0.4600216348475329,0.8741771732021882,-0.00038276077433228346,0.0015375171350529354,8.885311066832078e-06,17.808246472802495,17.80824647280665,17.808502685805923,17.80850268577465,17.809524295466048,17.809524295889485,17.809227983754923,17.8092279837531,1.2020825397480994,1.2020825397480994,1.2020760663082328,1.2020760663082328,1.2020805168421373,1.2020805168421373,1.2020869902580373,1.2020869902580373,-0.002914025672826689,0.0049465932669125485,0.0007223762367989239,-8.662666073224769e-05,0.0013943710269341703,-1.3336432262895775e-05
8.0,0.14,0.11700557807671548,0.010208388643070589,0.24866258909536632,0.11702100408752211,0.010141065083669474,0.24860378574234543,1.5426010806632307e-05,-6.732355940111505e-05,-5.880335302088646e-05,9.070974471544278e-05,-3.0861619707751445e-06,4.630076236440337e-06,-7.037269081239462e-05,min_task,none,false,false,13.081772195586234,13.081772195586266,13.082768269160068,13.082768269159878,13.084103779638468,13.084103779641069,13.083107457369298,13.083107457369287,-0.0033045902367900225,0.005641208711501128,0.0008192243604502929,-9.822083117312645e-05,0.0015817937215082446,-1.5129221623284163e-05,-0.0003740524780638546,-0.0005591522566145645,0.011476589643762608,-0.06915628381659546,0.02715498693910362,0.044854929311453615,-0.03517260441412459,0.13520098645022868,-0.000304634939353998,-3.0861619707751445e-06,4.630076236440337e-06,-7.037269081239462e-05,0.0018106056689378089,0.46002810964043084,0.8741904163432517,-0.00043103205385147306,0.0017654773804799365,1.2093581073709695e-05,13.081772195586234,13.081772195586266,13.082768269160068,13.082768269159878,13.084103779638468,13.084103779641069,13.083107457369298,13.083107457369287,1.2020804368674753,1.2020804368674753,1.2020760724447905,1.2020760724447905,1.2020826204274868,1.2020826204274868,1.2020869848263975,1.2020869848263975,-0.0033045902367900225,0.005641208711501128,0.0008192243604502929,-9.822083117312645e-05,0.0015817937215082446,-1.5129221623284163e-05
9.0,0.16,0.11700667659962319,0.010296734565787937,0.24866839755094144,0.11702081082657054,0.010208349928877166,0.24861330464051826,1.4134226947348782e-05,-8.838463691077103e-05,-5.509291042318787e-05,0.00010510399227501014,-8.361417199031675e-07,6.445763615618859e-06,-9.918308524585401e-05,min_task,none,false,false,10.58797909706875,10.587979097068468,10.589741457588081,10.589741457589506,10.591433384082336,10.591433384062997,10.589672898282405,10.5896728982826,-0.003674563504720949,0.00624924889324172,0.0008964163488005397,-0.00010949246434210241,0.0017645453087085851,-1.6839662626517186e-05,-0.0006961782446253513,-0.0007073368643425735,0.014170267778434354,-0.0769479469762372,0.029992296516392767,0.04944409492959942,-0.03931500818841865,0.15085374382596428,-0.0004498805003380235,-8.361417199031675e-07,6.445763615618859e-06,-9.918308524585401e-05,0.001632174203543031,0.46004826844918206,0.8742238842260387,-0.0004940249733514795,0.0020564446843555815,1.689447550725002e-05,10.58797909706875,10.587979097068468,10.589741457588081,10.589741457589506,10.591433384082336,10.591433384062997,10.589672898282405,10.5896728982826,1.2020775625638842,1.2020775625638842,1.202076380235992,1.202076380235992,1.2020854959474954,1.2020854959474954,1.2020866782664217,1.2020866782664217,-0.003674563504720949,0.00624924889324172,0.0008964163488005397,-0.00010949246434210241,0.0017645453087085851,-1.6839662626517186e-05
10.0,0.18,0.11700734065714916,0.010406207110386135,0.2486778096492271,0.1170204548945149,0.010294156637266126,0.24862544391202443,1.3114237365746684e-05,-0.00011205047312000914,-5.236573720265869e-05,0.0001243762926802409,2.164094169263621e-06,8.603934053967736e-06,-0.00013245665100481853,min_task,none,false,false,8.961115280160136,8.961115280159747,8.96366470974182,8.963664709743728,8.96573451676753,8.965734516741731,8.96318759089047,8.96318759089072,-0.004030084339651292,0.006817516853283908,0.0009549024071306883,-0.00012024856886130008,0.0019430999111129297,-1.847629137947133e-05,-0.0010260419172665725,-0.000864316974863252,0.01690448184184921,-0.08451922303505416,0.03253413320083483,0.05342874793320441,-0.04333765229140871,0.16612208269580642,-0.000660561597072066,2.164094169263621e-06,8.603934053967736e-06,-0.00013245665100481853,0.0014141196001043498,0.4600831585911504,0.8742792572432416,-0.000573919468300487,0.0024172516230085333,2.379325252276245e-05,8.961115280160136,8.961115280159747,8.96366470974182,8.963664709743728,8.96573451676753,8.965734516741731,8.96318759089047,8.96318759089072,1.2020739159628382,1.2020739159628382,1.2020769767540715,1.2020769767540715,1.202089144467268,1.202089144467268,1.2020860837070164,1.2020860837070164,-0.004030084339651292,0.006817516853283908,0.0009549024071306883,-0.00012024856886130008,0.0019430999111129297,-1.847629137947133e-05
11.0,0.19999999999999998,0.11700746500896905,0.01053879074118845,0.24869108656676517,0.11701984293665578,0.010400582810485812,0.24864050038649357,1.2377927686726964e-05,-0.0001382079307026378,-5.058618027159456e-05,0.00014769430198011442,5.899920916969538e-06,1.1111534274538616e-05,-0.0001700408724103166,min_task,none,false,false,7.794226274361516,7.794226274361519,7.79757189896022,7.797571898960229,7.8000387746353566,7.800038774635182,7.796693200863388,7.796693200863381,-0.004378827497435814,0.007380471514320334,0.000994960380720717,-0.00013028432603866096,0.0021178113669206204,-2.004341284214275e-05,-0.0013598241077735576,-0.0010287005665775934,0.019638086499461537,-0.0920114491182706,0.03493714115745669,0.05702433083452621,-0.04717839145417157,0.1810035170624018,-0.0009129826895565226,5.899920916969538e-06,1.1111534274538616e-05,-0.0001700408724103166,0.0011535592379061214,0.46013372677790204,0.8743580112010532,-0.0006728784368132126,0.0028545675139674933,3.329856530089835e-05,7.794226274361516,7.794226274361519,7.79757189896022,7.797571898960229,7.8000387746353566,7.800038774635182,7.796693200863388,7.796693200863381,1.2020695026048573,1.2020695026048573,1.202077846879106,1.202077846879106,1.2020935606566572,1.2020935606566572,1.202085216491486,1.202085216491486,-0.004378827497435814,0.007380471514320334,0.000994960380720717,-0.00013028432603866096,0.0021178113669206204,-2.004341284214275e-05
12.0,0.21999999999999997,0.11700690179556564,0.010696423611570648,0.2487084678654422,0.1170188472378248,0.010529678300445695,0.24865876420911084,1.1945442259159167e-05,-0.00016674531112495332,-4.970365633136242e-05,0.0001744051198377805,1.0355128452754433e-05,1.3973053662632414e-05,-0.00021170909339304314,min_task,none,false,false,6.999999999999991,6.999999999999991,7.001268661073106,7.001268661073106,7.007023267155041,7.0070232671550405,6.999999999999991,6.999999999999991,-0.004720783553733798,0.007959785695458412,0.0010158863497788993,-0.00013949897189037303,0.002288755620366972,-2.1539836918945894e-05,-0.001694818156260284,-0.0011996374893549677,0.022639697803939495,-0.09933577665025471,0.03731362111273913,0.060374477300394185,-0.050900525731280274,0.19555904755369877,-0.0012374915077494706,1.0355128452754433e-05,1.3973053662632414e-05,-0.00021170909339304314,0.0008477534317445636,0.46020088579532953,0.8744614965165871,-0.0007930379881953986,0.0033749106743003097,4.591147555408352e-05,6.999999999999991,6.999999999999991,7.001268661073106,7.001268661073106,7.007023267155041,7.0070232671550405,6.999999999999991,6.999999999999991,1.2020643308946293,1.2020643308946293,1.2020789761163635,1.2020789761163635,1.202098736330856,1.202098736330856,1.2020840913498643,1.2020840913498643,-0.004720783553733798,0.007959785695458412,0.0010158863497788993,-0.00013949897189037303,0.002288755620366972,-2.1539836918945894e-05
13.0,0.23999999999999996,0.11700545149286377,0.010880999633003232,0.24873017961523675,0.11701729874983516,0.010683445225419,0.24868051888802445,1.1847256971384001e-05,-0.00019755440758423282,-4.9660727212297306e-05,0.000204044821745021,1.551675267376411e-05,1.7190604546915725e-05,-0.0002566190471782138,min_task,none,false,false,6.999999999996156,6.999999999996156,7.0016174240377556,7.0016174240377556,7.008200247485081,7.008200247485081,6.999999999996156,6.999999999996156,-0.005059444097034236,0.008573479619390006,0.0010166337263416757,-0.00014777256139276502,0.0024560005649541766,-2.2964379952793606e-05,-0.0020178779725334214,-0.0013765096671999378,0.028189036576374473,-0.10655280464869742,0.03973939358854061,0.06357047753916725,-0.0544788724189639,0.2097800499132594,-0.0016222178224054424,1.551675267376411e-05,1.7190604546915725e-05,-0.0002566190471782138,0.0004946458149086394,0.46028556651071123,0.8745909938570562,-0.0009365082416019949,0.00398465704516667,6.211859256368027e-05,6.999999999996156,6.999999999996156,7.0016174240377556,7.0016174240377556,7.008200247485081,7.008200247485081,6.999999999996156,6.999999999996156,1.2020584085874637,1.2020584085874637,1.2020803539123686,1.2020803539123686,1.202104663882787,1.202104663882787,1.202082719001687,1.202082719001687,-0.005059444097034236,0.008573479619390006,0.0010166337263416757,-0.00014777256139276502,0.0024560005649541766,-2.2964379952793606e-05
14.0,0.25999999999999995,0.11700285483374362,0.011094369460244556,0.24875643952102133,0.11701497969829086,0.010863837846253468,0.24870604134175284,1.2124864547241598e-05,-0.00023053161399108797,-5.039817926849599e-05,0.0002362875660359732,2.137817277819469e-05,2.0764693958133785e-05,-0.00030344501931705084,min_task,none,false,false,6.999999999996699,6.999999999996699,7.00192925679495,7.00192925679495,7.009360404473051,7.009360404473051,6.999999999996699,6.999999999996699,-0.0053983070097038755,0.009235209844007686,0.0009959622543453813,-0.00015508161306520803,0.0026194789873839057,-2.432215676484483e-05,-0.002332426613902897,-0.0015586339857025214,0.03417057816507232,-0.11374342334871229,0.04226503235179111,0.06666629156292282,-0.057901609662237764,0.22363356600517784,-0.002069266834460724,2.137817277819469e-05,2.0764693958133785e-05,-0.00030344501931705084,9.269557523495554e-05,0.4603887519088993,0.8747477485215166,-0.0011053490394626086,0.004690029618945664,8.238118840040579e-05,6.999999999996699,6.999999999996699,7.00192925679495,7.00192925679495,7.009360404473051,7.009360404473051,6.999999999996699,6.999999999996699,1.202051740023563,1.202051740023563,1.2020819752671936,1.2020819752671936,1.2021113389907148,1.2021113389907148,1.202081104485653,1.202081104485653,-0.0053983070097038755,0.009235209844007686,0.0009959622543453813,-0.00015508161306520803,0.0026194789873839057,-2.432215676484483e-05
15.0,0.27999999999999997,0.11699878512575634,0.011338340480564597,0.2487874599828988,0.11701161582258765,0.011072762264417313,0.24873560194659233,1.2830696831306332e-05,-0.0002655782161472848,-5.1858036306473565e-05,0.0002708978988525277,2.7940266275368044e-05,2.469487134673183e-05,-0.0003508870822866649,min_task,none,false,false,6.999999999998861,6.999999999998861,7.002204025636505,7.002204025636505,7.010502767885923,7.010502767885923,6.999999999998861,6.999999999998861,-0.005738397039625857,0.00995579176772969,0.0009519616985726911,-0.00016132688498138878,0.002779121761257645,-2.5607898608328235e-05,-0.002638219167533581,-0.0017458426491500263,0.040407808524783956,-0.12091095037680961,0.04493129887208011,0.0696958902198372,-0.06116613119425893,0.2371162984807956,-0.0025772740560859046,2.7940266275368044e-05,2.469487134673183e-05,-0.0003508870822866649,-0.00035965166154982447,0.46051149850284195,0.8749329900214438,-0.0013015540044094128,0.005497090393308574,0.00010712510685356932,6.999999999998861,6.999999999998861,7.002204025636505,7.002204025636505,7.010502767885923,7.010502767885923,6.999999999998861,6.999999999998861,1.2020443248623234,1.2020443248623234,1.2020838411022559,1.2020838411022559,1.2021187619034643,1.2021187619034643,1.2020792468114914,1.2020792468114914,-0.005738397039625857,0.00995579176772969,0.0009519616985726911,-0.00016132688498138878,0.002779121761257645,-2.5607898608328235e-05
16.0,0.3,0.11699284020538288,0.011614675958306633,0.24882344992946465,0.11700686830201543,0.011312075898724934,0.24876946458402444,1.4028096632548448e-05,-0.00030260005958169904,-5.398534544021061e-05,0.00030769790554418603,3.5212266345775046e-05,2.8979856135430244e-05,-0.0003977364234181006,min_task,none,false,false,6.999999999993997,6.999999999993997,7.002445872020662,7.002445872020662,7.011630929232838,7.011630929232838,6.999999999993998,6.999999999993998,-0.006080222091110429,0.010744498387828224,0.0008824141425780364,-0.0001664005458576848,0.0029348336702370663,-2.6814263255999646e-05,-0.002936821164490607,-0.001938022387642082,0.046727619277991905,-0.12804728542810728,0.04777060786046315,0.07267857306231365,-0.0642704504337938,0.2502257403352366,-0.003144269226455659,3.5212266345775046e-05,2.8979856135430244e-05,-0.0003977364234181006,-0.0008640289379349692,0.46065495356566916,0.8751479444455691,-0.0015270465017667048,0.006411738717588062,0.00013673829962471633,6.999999999993997,6.999999999993997,7.002445872020662,7.002445872020662,7.011630929232838,7.011630929232838,6.999999999993998,6.999999999993998,1.2020361573895892,1.2020361573895892,1.2020859587795636,1.2020859587795636,1.2021269381409345,1.2021269381409345,1.2020771384487126,1.2020771384487126,-0.006080222091110429,0.010744498387828224,0.0008824141425780364,-0.0001664005458576848,0.0029348336702370663,-2.6814263255999646e-05
17.0,0.32,0.11698453432016254,0.011925093628578307,0.2488646157670361,0.11700032542029412,0.011583586692885868,0.2488078866881232,1.579110013158469e-05,-0.00034150693569243856,-5.672907891290935e-05,0.0003465465832521109,4.3211907843156834e-05,3.361759801385487e-05,-0.000442928806672366,min_task,none,false,false,6.999999999998233,6.999999999998233,7.002663363427559,7.002663363427559,7.0127529261275185,7.0127529261275185,6.999999999998233,6.999999999998233,-0.006423975153268948,0.011609793096194067,0.0007848588071753776,-0.00017018686491299928,0.0030864946375154393,-2.7932405958216224e-05,-0.003231618491212153,-0.0021350612037556813,0.0529690544756321,-0.13513706958264476,0.05081062321202674,0.07562451989166319,-0.06721265140112258,0.2629591378675722,-0.0037679528935071504,4.3211907843156834e-05,3.361759801385487e-05,-0.000442928806672366,-0.001422196611258216,0.4608203676362717,0.8753938407849976,-0.0017836775017020968,0.007439709865032417,0.00017156977471348783,6.999999999998233,6.999999999998233,7.002663363427559,7.002663363427559,7.0127529261275185,7.0127529261275185,6.999999999998233,6.999999999998233,1.2020272263829344,1.2020272263829344,1.2020883421733952,1.2020883421733952,1.2021358786512149,1.2021358786512149,1.2020747652776,1.2020747652776,-0.006423975153268948,0.011609793096194067,0.0007848588071753776,-0.00017018686491299928,0.0030864946375154393,-2.7932405958216224e-05
18.0,0.34,0.11697328989785412,0.012271263795921819,0.24891116175425984,0.11699149402070408,0.011889052001576372,0.24885111929296272,1.8204122849960203e-05,-0.0003822117943454474,-6.004246129712176e-05,0.0003873271782151614,5.196497958918078e-05,3.8605301430634367e-05,-0.00048558506529613977,min_task,none,false,false,6.9999999999975,6.9999999999975,7.002869077112672,7.002869077112672,7.013880662973361,7.013880662973361,6.9999999999975,6.9999999999975,-0.0067696296492253,0.01255978804311307,0.0006566413510792469,-0.00017256158466800837,0.0032339591215216398,-2.8952209466336112e-05,-0.0035276169215373286,-0.0023368157718177307,0.05899037956920443,-0.14215910340536303,0.05407668964657023,0.07853861294529621,-0.06999066492424805,0.27531322352519444,-0.0044458095321874905,5.196497958918078e-05,3.8605301430634367e-05,-0.00048558506529613977,-0.0020360748183904593,0.46100910381486354,0.8756719132540818,-0.0020732244812089475,0.008586573509882905,0.00021192945375684346,6.9999999999975,6.9999999999975,7.002869077112672,7.002869077112672,7.013880662973361,7.013880662973361,6.9999999999975,6.9999999999975,1.202017515427219,1.202017515427219,1.2020910113530499,1.2020910113530499,1.2021455995275043,1.2021455995275043,1.2020721069392508,1.2020721069392508,-0.0067696296492253,0.01255978804311307,0.0006566413510792469,-0.00017256158466800837,0.0032339591215216398,-2.8952209466336112e-05
19.0,0.36000000000000004,0.11695842918764683,0.012654806944427308,0.2489632900204535,0.11697979080426164,0.012230177098617215,0.24889940708002445,2.1361616614812284e-05,-0.0004246298458100931,-6.388294042905529e-05,0.00042993936164878406,6.150442734796999e-05,4.393943291148853e-05,-0.0005250380484669345,min_task,none,false,false,7.0000000000000036,7.0000000000000036,7.003078673746609,7.003078673746609,7.015028884358792,7.015028884358792,7.0000000000000036,7.0000000000000036,-0.007117007735274587,0.013602524600657698,0.0004949573759611308,-0.00017339210867059108,0.0033770533340422033,-2.9862477527263974e-05,-0.003831045940690484,-0.0025430913791050056,0.06467454217020403,-0.14908754266723329,0.057593369654377134,0.08142298234515466,-0.07260203676081836,0.2872837020281857,-0.005175183195072308,6.150442734796999e-05,4.393943291148853e-05,-0.0005250380484669345,-0.002707759949683683,0.4612226450526556,0.875983401113109,-0.002397390772387019,0.009857731879958552,0.00025808859629809327,7.0000000000000036,7.0000000000000036,7.003078673746609,7.003078673746609,7.015028884358792,7.015028884358792,7.0000000000000036,7.0000000000000036,1.2020070035623078,1.2020070035623078,1.2020939919627047,1.2020939919627047,1.2021561213973275,1.2021561213973275,1.2020691374929617,1.2020691374929617,-0.007117007735274587,0.013602524600657698,0.0004949573759611308,-0.00017339210867059108,0.0033770533340422033,-2.9862477527263974e-05
20.0,0.38000000000000006,0.11693916578049311,0.013077290834774772,0.24902120038048414,0.11696453352420128,0.012608613247122183,0.24895298842560468,2.536774370816286e-05,-0.0004686775876525887,-6.821195487946574e-05,0.00047429429089666607,7.186917650899184e-05,4.961572590533991e-05,-0.0005608460966956795,min_task,none,false,false,6.999999999995769,6.999999999995769,7.003309627367935,7.003309627367935,7.016213859834254,7.016213859834254,6.999999999995769,6.999999999995769,-0.007465830099430479,0.014746121840651107,0.0002968928621029075,-0.00017253837856093243,0.0035155711201162515,-3.065111221624242e-05,-0.004148833577357042,-0.002753632869245515,0.06993272359314416,-0.1558929795775922,0.06138531791340973,0.08427861602837873,-0.0750436985798739,0.2988645634644759,-0.005953322272032799,7.186917650899184e-05,4.961572590533991e-05,-0.0005608460966956795,-0.003439525895971853,0.46146260041394105,0.8763295471170589,-0.002757804808776015,0.011258417268155288,0.0003102804764307548,6.999999999995769,6.999999999995769,7.003309627367935,7.003309627367935,7.016213859834254,7.016213859834254,6.999999999995769,6.999999999995769,1.2019956661302034,1.2019956661302034,1.2020973144046097,1.2020973144046097,1.202167468611178,1.202167468611178,1.2020658262691044,1.2020658262691044,-0.007465830099430479,0.014746121840651107,0.0002968928621029075,-0.00017253837856093243,0.0035155711201162515,-3.065111221624242e-05
21.0,0.4000000000000001,0.11691459603671014,0.01354022704331517,0.24908509005072932,0.11694493213141097,0.013025955268226828,0.24901209544822198,3.0336094700822436e-05,-0.0005142717750883409,-7.299460250734247e-05,0.0005203113964631327,8.310285199116489e-05,5.562919439306561e-05,-0.0005927937314646599,min_task,none,false,false,6.999999999994835,6.999999999994835,7.003579813664359,7.003579813664359,7.017451975868082,7.017451975868082,6.999999999994835,6.999999999994835,-0.00781575111163902,0.015998827818949696,5.9462886453435295e-05,-0.00016985423077637752,0.003649269050966248,-3.1305278253527423e-05,-0.004488032693973428,-0.002968125398635381,0.07470616345948691,-0.16254339923204422,0.0654776741969409,0.08710629224738076,-0.07731175882912322,0.31004730789960777,-0.006777394907070031,8.310285199116489e-05,5.562919439306561e-05,-0.0005927937314646599,-0.004233811371010362,0.461730711094582,0.8767115954199137,-0.003156018783427147,0.012793688536548343,0.0003687010310162256,6.999999999994835,6.999999999994835,7.003579813664359,7.003579813664359,7.017451975868082,7.017451975868082,6.999999999994835,6.999999999994835,1.2019834756857966,1.2019834756857966,1.2021010129407679,1.2021010129407679,1.2021796683617276,1.2021796683617276,1.2020621387976584,1.2020621387976584,-0.00781575111163902,0.015998827818949696,5.9462886453435295e-05,-0.00016985423077637752,0.003649269050966248,-3.1305278253527423e-05
22.0,0.4200000000000001,0.11688369046973876,0.014045066884733682,0.2491551533345986,0.11692007992748149,0.013483738542283253,0.24907695405602442,3.638945774273039e-05,-0.000561328342450429,-7.819927857416475e-05,0.0005679162155128834,9.525256135803138e-05,6.197416303425057e-05,-0.0006208807771245507,min_task,none,false,false,6.999999999993903,6.999999999993903,7.003906172397785,7.003906172397785,7.018758442989018,7.018758442989018,6.999999999993903,6.999999999993903,-0.008166382063512116,0.01736900363911207,-0.00022035123649158958,-0.00016518901028494436,0.0037778610351506675,-3.18115526609082e-05,-0.0048552853726293475,-0.0031862034631823413,0.07896621804837607,-0.1690049895232414,0.06989612529990419,0.08990703837689545,-0.07940132242839705,0.3208201407593116,-0.007644477927614732,9.525256135803138e-05,6.197416303425057e-05,-0.0006208807771245507,-0.005093195050198614,0.46202885679038636,0.877130789521735,-0.003593506321094317,0.014468426231433703,0.000433509247791753,6.999999999993903,6.999999999993903,7.003906172397785,7.003906172397785,7.018758442989018,7.018758442989018,6.999999999993903,6.999999999993903,1.201970402846818,1.201970402846818,1.2021051248233299,1.2021051248233299,1.2021927498549094,1.2021927498549094,1.2020580376990695,1.2020580376990695,-0.008166382063512116,0.01736900363911207,-0.00022035123649158958,-0.00016518901028494436,0.0037778610351506675,-3.18115526609082e-05
23.0,0.4400000000000001,0.11684528515459264,0.014593196652053997,0.24923158131906972,0.11688894478471942,0.013983435374282623,0.24914778399419726,4.365963012678553e-05,-0.0006097612777713739,-8.379732487245883e-05,0.0006170388730282451,0.00010836787737960052,6.864431821376136e-05,-0.0006453015652193528,min_task,none,false,false,6.999999999993005,6.999999999993005,7.004303612453582,7.004303612453582,7.020146279118653,7.020146279118653,6.999999999993005,6.999999999993005,-0.008517305008088588,0.018865065886541285,-0.0005455667544329074,-0.00015838924764582726,0.003901012839826013,-3.21560583720537e-05,-0.005256392176504901,-0.0034074667477529243,0.08271291792448145,-0.17524279301690157,0.07466676079644383,0.0926822797024842,-0.0813063461633637,0.33116719863830013,-0.008551523930168132,0.00010836787737960052,6.864431821376136e-05,-0.0006453015652193528,-0.0060203605850317485,0.4623590628163384,0.8775883706405095,-0.004071658877370718,0.01628732594138646,0.0005048271245079814,6.999999999993005,6.999999999993005,7.004303612453582,7.004303612453582,7.020146279118653,7.020146279118653,6.999999999993005,6.999999999993005,1.201956416982914,1.201956416982914,1.2021096895461758,1.2021096895461758,1.202206743631615,1.202206743631615,1.2020534834436167,1.2020534834436167,-0.008517305008088588,0.018865065886541285,-0.0005455667544329074,-0.00015838924764582726,0.003901012839826013,-3.21560583720537e-05
24.0,0.46000000000000013,0.1167980732466477,0.015185932102990908,0.2493145616038856,0.11685036049588074,0.014526450653813038,0.24922479889237012,5.228724923303507e-05,-0.0006594814491778702,-8.976271151547865e-05,0.0006676129736761505,0.0001225001139747224,7.563278087829652e-05,-0.0006664161880435672,min_task,none,false,false,6.999999999999864,6.999999999999864,7.0047842687760795,7.0047842687760795,7.021625675404504,7.021625675404504,6.999999999999864,6.999999999999864,-0.008868078656038473,0.020495409503856473,-0.000919167149770634,-0.00014930018966668126,0.004018336411638616,-3.232457585703958e-05,-0.005696030472157998,-0.003631502232112492,0.08597219499541016,-0.1812211760760769,0.07981582748640899,0.09543380910372046,-0.08301952273805137,0.34106781686416265,-0.009495312595011865,0.0001225001139747224,7.563278087829652e-05,-0.0006664161880435672,-0.0070180537395205115,0.4627235081916368,0.8780855767191141,-0.004591780701546452,0.018254889560770548,0.0005827391032322028,6.999999999999864,6.999999999999864,7.0047842687760795,7.0047842687760795,7.021625675404504,7.021625675404504,6.999999999999864,6.999999999999864,1.2019414866769706,1.2019414866769706,1.2021147482835508,1.2021147482835508,1.2022216811072142,1.2022216811072142,1.202048434913784,1.202048434913784,-0.008868078656038473,0.020495409503856473,-0.000919167149770634,-0.00014930018966668126,0.004018336411638616,-3.232457585703958e-05
25.0,0.48000000000000015,0.11674059671042591,0.015824512120740333,0.24940427807103677,0.11680301832054088,0.015114116739150566,0.24930820631202444,6.24216101149655e-05,-0.0007103953815897675,-9.607175901232834e-05,0.0007195747622541658,0.00013770194068986704,8.293219991896411e-05,-0.000684715963790305,min_task,none,false,false,6.9999999999914015,6.9999999999914015,7.005357188622176,7.005357188622176,7.023203773970395,7.023203773970395,6.9999999999914015,6.9999999999914015,-0.009218238434381725,0.02226832882294723,-0.001344073362193344,-0.00013776705156554658,0.0041293843972279335,-3.230263257099837e-05,-0.006177643807479871,-0.0038579028666817904,0.08879202885604716,-0.18690412190116446,0.08536946493201712,0.09816368119971011,-0.08453219397048096,0.3504958856284739,-0.010472393501091271,0.00013770194068986704,8.293219991896411e-05,-0.000684715963790305,-0.008089033963376895,0.463124534735032,0.8786236421383662,-0.005155082303459905,0.02037541416324326,0.0006672909453950496,6.9999999999914015,6.9999999999914015,7.005357188622176,7.005357188622176,7.023203773970395,7.023203773970395,6.9999999999914015,6.9999999999914015,1.20192557992844,1.20192557992844,1.2021203435492755,1.2021203435492755,1.2022375943607784,1.2022375943607784,1.202042849737762,1.202042849737762,-0.009218238434381725,0.02226832882294723,-0.001344073362193344,-0.00013776705156554658,0.0041293843972279335,-3.230263257099837e-05
26.0,0.5000000000000001,0.1166712383664556,0.016510091477247735,0.24950091069355912,0.11674545879995049,0.01574768749519359,0.24939820779390098,7.42204334948926e-05,-0.0007624039820541446,-0.00010270289965813584,0.0007728624652539256,0.00015402733645464,9.053486053727085e-05,-0.0007007853496423443,min_task,none,false,false,6.99999999999072,6.99999999999072,7.0060283127078815,7.0060283127078815,7.024884833136968,7.024884833136968,6.999999999990721,6.999999999990721,-0.009567291290187633,0.024191949864109726,-0.0018231193398081252,-0.00012363585287887753,0.004233644513429476,-3.207556463270212e-05,-0.006703469950998231,-0.004086305066716142,0.09123789688519782,-0.19225532935112288,0.09135348334745116,0.1008741054328762,-0.08583428044312977,0.35941927347152014,-0.011479025271545895,0.00015402733645464,9.053486053727085e-05,-0.0007007853496423443,-0.00923602265112235,0.46356465708771166,0.8792037981121369,-0.00576267250313256,0.022652978239336246,0.0007584880995870903,6.99999999999072,6.99999999999072,7.0060283127078815,7.0060283127078815,7.024884833136968,7.024884833136968,6.999999999990721,6.999999999990721,1.20190866410326,1.20190866410326,1.2021265190820896,1.2021265190820896,1.2022545161718177,1.2022545161718177,1.2020366843909522,1.2020366843909522,-0.009567291290187633,0.024191949864109726,-0.0018231193398081252,-0.00012363585287887753,0.004233644513429476,-3.207556463270212e-05
27.0,0.5200000000000001,0.11658821437064519,0.017243732630186435,0.24960463537742011,0.11667606391794959,0.016428331415968805,0.24949499890540716,8.78495473043972e-05,-0.0008154012142176301,-0.00010963647201295279,0.0008274157595215479,0.00017153184373276914,9.843280145607831e-05,-0.000715262498714243,min_task,none,false,false,6.999999999990125,6.999999999990125,7.0068008688966685,7.0068008688966685,7.0266706858823,7.0266706858823,6.999999999990126,6.999999999990126,-0.009914706743011549,0.02627417896115987,-0.0023590315320778164,-0.00010675381437873311,0.004330534230464463,-3.162855512946824e-05,-0.007274713105330806,-0.004316402154719231,0.09338766085504448,-0.19723814541649004,0.09779320911266898,0.10356737751337508,-0.08691421966952871,0.36779935504730277,-0.012511122694378431,0.00017153184373276914,9.843280145607831e-05,-0.000715262498714243,-0.010461650190216212,0.46404657348164147,0.8798272736733739,-0.006415549198918354,0.025091425097815395,0.000856293649899168,6.999999999990125,6.999999999990125,7.0068008688966685,7.0068008688966685,7.0266706858823,7.0266706858823,6.999999999990126,6.999999999990126,1.2018907056634882,1.2018907056634882,1.202133319935217,1.202133319935217,1.2022724802740659,1.2022724802740659,1.2020298940900616,1.2020298940900616,-0.009914706743011549,0.02627417896115987,-0.0023590315320778164,-0.00010675381437873311,0.004330534230464463,-3.162855512946824e-05
28.0,0.5400000000000001,0.11648956724304257,0.018026396488736975,0.24971562382838958,0.11659304969202527,0.01715712376445011,0.24959876928802444,0.0001034824489827002,-0.0008692727242868639,-0.00011685454036514109,0.0008831753336911712,0.0001902730573251035,0.00010661793372387198,-0.0007288005130282069,min_task,none,false,false,6.999999999989603,6.999999999989603,7.007675886488418,7.007675886488418,7.028561395348964,7.028561395348964,6.999999999989604,6.999999999989604,-0.01025990421008167,0.028522673118776456,-0.002954412505240316,-8.69692737962092e-05,0.004419395300258018,-3.094664594209617e-05,-0.007891780981535937,-0.004547973312959227,0.09532634541132858,-0.20181532193617055,0.10471342455557806,0.10624588385738867,-0.08775890627122519,0.37559060281225853,-0.013564209672897677,0.0001902730573251035,0.00010661793372387198,-0.0007288005130282069,-0.01176840366260596,0.46457317702179096,0.8804952971316552,-0.007114589041495855,0.027694343272277693,0.0009606259673602129,6.999999999989603,6.999999999989603,7.007675886488418,7.007675886488418,7.028561395348964,7.028561395348964,6.999999999989604,6.999999999989604,1.2018716697294265,1.2018716697294265,1.2021407927299292,1.2021407927299292,1.202291521775954,1.202291521775954,1.2020224325224533,1.2020224325224533,-0.01025990421008167,0.028522673118776456,-0.002954412505240316,-8.69692737962092e-05,0.004419395300258018,-3.094664594209617e-05
29.0,0.5600000000000002,0.11637315956283964,0.018858932087893084,0.2498340434361845,0.11649445928588432,0.017935037665534878,0.2497097027047158,0.00012129972304468495,-0.0009238944223582055,-0.0001243407314687195,0.0009400825197702038,0.00021031126919568693,0.00011508215219450898,-0.0007420312135919297,min_task,none,false,false,6.999999999989143,6.999999999989143,7.008652843473575,7.008652843473575,7.030555985414404,7.030555985414404,6.999999999989144,6.999999999989144,-0.010602237422651808,0.0309448280744994,-0.0036117274297677556,-6.413118630000892e-05,0.004499488472325478,-3.001473023973004e-05,-0.008554564835362944,-0.004780900841358884,0.09714098127312619,-0.20594863269583802,0.11213838751066516,0.10891217482491015,-0.08835362592686691,0.3827402593698294,-0.014633386850158282,0.00021031126919568693,0.00011508215219450898,-0.0007420312135919297,-0.013158576752503943,0.4651475672459913,0.8812090978864393,-0.007860536246486532,0.030465043810814416,0.0010713562198101274,6.999999999989143,6.999999999989143,7.008652843473575,7.008652843473575,7.030555985414404,7.030555985414404,6.999999999989144,6.999999999989144,1.2018515195370325,1.2018515195370325,1.2021489860246957,1.2021489860246957,1.2023116776868499,1.2023116776868499,1.2020142514610372,1.2020142514610372,-0.010602237422651808,0.0309448280744994,-0.0036117274297677556,-6.413118630000892e-05,0.004499488472325478,-3.001473023973004e-05
30.0,0.5800000000000002,0.11623666844735221,0.01974206511800353,0.24996005716931965,0.11637815674294313,0.018762934092317246,0.2498279770873331,0.0001414882955909219,-0.000979131025686284,-0.00013208008198656307,0.000998078980496171,0.0002317101878816829,0.00012381743159266823,-0.0007555329492697705,min_task,none,false,false,6.999999999988723,6.999999999988723,7.00973031386193,7.00973031386193,7.032653148285653,7.032653148285653,6.999999999988725,6.999999999988725,-0.010940975980884721,0.03354778041225344,-0.004333292503783005,-3.808826966624524e-05,0.004569988227778705,-2.881752902654064e-05,-0.009262715394187106,-0.005015182729177188,0.09891578687608912,-0.20959836769684667,0.12009191762003207,0.11156910064056824,-0.08868197806729788,0.389188064503203,-0.015713313666182192,0.0002317101878816829,0.00012381743159266823,-0.0007555329492697705,-0.014634223069400517,0.4657730617446415,0.8819699084982403,-0.008653990763166038,0.033406534353218637,0.0011883058908257508,6.999999999988723,6.999999999988723,7.00973031386193,7.00973031386193,7.032653148285653,7.032653148285653,6.999999999988725,6.999999999988725,1.2018302158544607,1.2018302158544607,1.2021579507486284,1.2021579507486284,1.2023329874863957,1.2023329874863957,1.2020053003171822,1.2020053003171822,-0.010940975980884721,0.03354778041225344,-0.004333292503783005,-3.808826966624524e-05,0.004569988227778705,-2.881752902654064e-05
31.0,0.6000000000000002,0.11607758093404588,0.020676385263534366,0.2500938234760154,0.1162418214488613,0.019641550691392888,0.24995376458402443,0.00016424051481542246,-0.0010348345721414784,-0.00014005889199095178,0.0010571064429052567,0.00025453765830981507,0.0001328158996038751,-0.0007698036187405343,min_task,none,false,false,6.9999999999883284,6.9999999999883284,7.010906552375239,7.010906552375239,7.034851854451048,7.034851854451048,6.999999999988329,6.999999999988329,-0.011275284349194989,0.03633841825465368,-0.005121263952582948,-8.687883836990174e-06,0.004629977519798008,-2.733955804150747e-05,-0.010015886669069916,-0.005250938087821029,0.10072788521108503,-0.2127227336864871,0.12859752889143852,0.11421999848324746,-0.08872578363599946,0.3948660210214968,-0.016798205559368232,0.00025453765830981507,0.0001328158996038751,-0.0007698036187405343,-0.0161971137193489,0.46645320766502363,0.8827789669530528,-0.009495395995261046,0.036521489916849566,0.0013112444515954523,6.9999999999883284,6.9999999999883284,7.010906552375239,7.010906552375239,7.034851854451048,7.034851854451048,6.999999999988329,6.999999999988329,1.2018077164157437,1.2018077164157437,1.2021677406523683,1.2021677406523683,1.2023554936794236,1.2023554936794236,1.2019955256789832,1.2019955256789832,-0.011275284349194989,0.03633841825465368,-0.005121263952582948,-8.687883836990174e-06,0.004629977519798008,-2.733955804150747e-05
32.0,0.6200000000000002,0.11589319038785502,0.02166233231436194,0.2502354961881325,0.11608294344059332,0.020571489399938137,0.2500872316066417,0.00018975305273830068,-0.0010908429144238022,-0.000148264581490809,0.0011171064725874447,0.00027886632076169,0.00014206988055689098,-0.0007852397066107691,min_task,none,false,false,6.999999999987932,6.999999999987932,7.012179977614428,7.012179977614428,7.037151822593263,7.037151822593263,6.999999999987934,6.999999999987934,-0.011604198756294657,0.03932339482108214,-0.005977626634130381,2.4225253654341047e-05,0.004678442626763043,-2.5565092127242416e-05,-0.010813930979979727,-0.005488404706638091,0.10264371165356495,-0.21527719782910515,0.13767858340951075,0.11686890815947078,-0.08846497891114452,0.39969819157239217,-0.01788184560012488,0.00027886632076169,0.00014206988055689098,-0.0007852397066107691,-0.01784869957813953,0.4671917929749272,0.8836375190909846,-0.010385026230510618,0.03981222032193002,0.001439887312631674,6.999999999987932,6.999999999987932,7.012179977614428,7.012179977614428,7.037151822593263,7.037151822593263,6.999999999987934,6.999999999987934,1.2017839754194206,1.2017839754194206,1.2021784127376522,1.2021784127376522,1.2023792422885817,1.2023792422885817,1.2019848708735685,1.2019848708735685,-0.011604198756294657,0.03932339482108214,-0.005977626634130381,2.4225253654341047e-05,0.004678442626763043,-2.5565092127242416e-05
33.0,0.6400000000000002,0.11568059406194581,0.022700181022982817,0.2503852244263486,0.1158988196893122,0.02155320281584628,0.2502285388781479,0.0002182256273663974,-0.001146978207136537,-0.0001566855482006968,0.0011780202855216694,0.00030477416290579395,0.0001515719046274783,-0.0008021217558525762,min_task,none,false,false,6.999999999987518,6.999999999987518,7.013549542889465,7.013549542889465,7.03955383761485,7.03955383761485,6.99999999998752,6.99999999998752,-0.011926602033311307,0.042509139174445196,-0.006904180770781749,6.081042667363302e-05,0.004714267890844814,-2.3478132956283266e-05,-0.011657040408698048,-0.005727928500564458,0.10471621946272484,-0.2172137993248196,0.14735844536547676,0.11952080528613954,-0.0878774906410761,0.4036004909556667,-0.018957609095219118,0.00030477416290579395,0.0001515719046274783,-0.0008021217558525762,-0.01959007835083983,0.46799285740756663,0.8845468212026572,-0.01132297388752785,0.04328063418599388,0.0015738941610260746,6.999999999987518,6.999999999987518,7.013549542889465,7.013549542889465,7.03955383761485,7.03955383761485,6.99999999998752,6.99999999998752,1.2017589431280813,1.2017589431280813,1.2021900276364363,1.2021900276364363,1.202404283248321,1.202404283248321,1.201973275582172,1.201973275582172,-0.011926602033311307,0.042509139174445196,-0.006904180770781749,6.081042667363302e-05,0.004714267890844814,-2.3478132956283266e-05
34.0,0.6600000000000003,0.11543669194835271,0.023790024692444074,0.2505431525055362,0.11568655149485195,0.02258697929239748,0.25037784148002445,0.0002498595464992398,-0.0012030454000465929,-0.0001653110255117607,0.0012397885959734517,0.0003323449334297032,0.00016131467892814807,-0.0008206063342289449,min_task,none,false,false,6.999999999987065,6.999999999987065,7.0150150055950125,7.0150150055950125,7.042059928773548,7.042059928773548,6.999999999987067,6.999999999987067,-0.012241197167247066,0.04590186166219121,-0.007902526218400114,0.00010123227016121039,0.004736230448751958,-2.1062387256689236e-05,-0.012545839145697884,-0.005969945061165711,0.10698293962383808,-0.21848046924061407,0.1576606227245939,0.122181841115528,-0.0869390955824724,0.40648046667592713,-0.020018499373141468,0.0003323449334297032,0.00016131467892814807,-0.0008206063342289449,-0.02142196616133661,0.4688607030485312,0.8855081428235975,-0.01230913663759915,0.04692819940761377,0.0017128677669826298,6.999999999987065,6.999999999987065,7.0150150055950125,7.0150150055950125,7.042059928773548,7.042059928773548,6.999999999987067,6.999999999987067,1.2017325655933901,1.2017325655933901,1.2022026499197096,1.2022026499197096,1.2024306706751622,1.2024306706751622,1.2019606755272902,1.2019606755272902,-0.012241197167247066,0.04590186166219121,-0.007902526218400114,0.00010123227016121039,0.004736230448751958,-2.1062387256689236e-05
35.0,0.6800000000000003,0.11515818706524608,0.024931757493975165,0.25070941983950473,0.1154430431398799,0.023672926740908984,0.25053528889967874,0.000284856074633813,-0.0012588307530661813,-0.00017413093982598937,0.0013023515010647608,0.0003616683978755255,0.0001712910182344243,-0.0008407242198503736,min_task,none,false,false,6.9999999999865565,6.9999999999865565,7.0165771188192725,7.0165771188192725,7.044673434766954,7.044673434766954,6.999999999986559,6.999999999986559,-0.01254648014975211,0.04950755065216612,-0.008974043300104645,0.00014566201646203805,0.004742995000586613,-1.830126300421243e-05,-0.013481436832390354,-0.006214953941518323,0.109464903443081,-0.21902039514658467,0.16860888203341207,0.1248595800468956,-0.085623266637071,0.4082370556614052,-0.02105719290131441,0.0003616683978755255,0.0001712910182344243,-0.0008407242198503736,-0.023344673120163018,0.46979990455090204,0.8865227697746852,-0.013343204410805633,0.05075590004647946,0.0018563533230864177,6.9999999999865565,6.9999999999865565,7.0165771188192725,7.0165771188192725,7.044673434766954,7.044673434766954,6.999999999986559,6.999999999986559,1.2017047845217055,1.2017047845217055,1.2022163483237616,1.2022163483237616,1.2024584629987145,1.2024584629987145,1.201947002243722,1.201947002243722,-0.01254648014975211,0.04950755065216612,-0.008974043300104645,0.00014566201646203805,0.004742995000586613,-1.830126300421243e-05
36.0,0.7000000000000003,0.11484158733917499,0.026125055528562847,0.2508841608441446,0.11516500196267287,0.02481095513868283,0.2507010250778516,0.0003234146234978863,-0.0013141003898800158,-0.00018313576629302997,0.00136564840360571,0.00039284042601590814,0.00018149373425437414,-0.0008623842434362883,min_task,none,false,false,6.999999999985979,6.999999999985979,7.018237772005913,7.018237772005913,7.047398987251683,7.047398987251683,6.999999999985983,6.999999999985983,-0.012840712489617658,0.05333196088496787,-0.010119869949533193,0.00019427859376445816,0.0047331084003435974,-1.5177887328514773e-05,-0.014465454612820996,-0.006463486616607758,0.11216639211868039,-0.21877145501829365,0.1802273362027034,0.12756323686001428,-0.08390100236577581,0.4087602855214313,-0.022066092061937347,0.00039284042601590814,0.00018149373425437414,-0.0008623842434362883,-0.02535808207675674,0.47081531897739426,0.8875920075074921,-0.014424646252079962,0.054764189485118034,0.0020038383625054896,6.999999999985979,6.999999999985979,7.018237772005913,7.018237772005913,7.047398987251683,7.047398987251683,6.999999999985983,6.999999999985983,1.201675537288505,1.201675537288505,1.2022311958870928,1.2022311958870928,1.2024877229450024,1.2024877229450024,1.2019321829400214,1.2019321829400214,-0.012840712489617658,0.05333196088496787,-0.010119869949533193,0.00019427859376445816,0.0047331084003435974,-1.5177887328514773e-05
37.0,0.7200000000000003,0.11448320925298822,0.027369356663917665,0.25106750483790213,0.11484894001793104,0.026000757755457026,0.2508751884560244,0.00036573076494282597,-0.0013685989084606387,-0.00019231638187772182,0.0014296179753360175,0.00042596290562144556,0.00019191548320482757,-0.0008853819928586415,min_task,none,false,false,6.999999999985318,6.999999999985318,7.020000103158143,7.020000103158143,7.050242440812644,7.050242440812644,6.999999999985321,6.999999999985321,-0.01312189406493248,0.05738059155542007,-0.011340874231782106,0.0002472694787227528,0.004704994197179191,-1.1675153799619385e-05,-0.015500034063009743,-0.006716069238484698,0.11507543917102828,-0.21766575636591745,0.192540497677947,0.13030391351493123,-0.0817406436322123,0.4079309176799948,-0.02303738417072971,0.00042596290562144556,0.00019191548320482757,-0.0008853819928586415,-0.02746162958377483,0.47191209526997424,0.8887171848192573,-0.01555269695549158,0.05895293973036237,0.0021547532883810154,6.999999999985318,6.999999999985318,7.020000103158143,7.020000103158143,7.050242440812644,7.050242440812644,6.999999999985321,6.999999999985321,1.2016447571054691,1.2016447571054691,1.2022472699945894,1.2022472699945894,1.202518517368265,1.202518517368265,1.2019161404537295,1.2019161404537295,-0.01312189406493248,0.05738059155542007,-0.011340874231782106,0.0002472694787227528,0.004704994197179191,-1.1675153799619385e-05
38.0,0.7400000000000003,0.11407918344172926,0.028663839198247148,0.25125957593841985,0.11449117750528706,0.027241791129586208,0.25105791202382693,0.0004119940635577968,-0.0014220480686609402,-0.00020166391459292,0.001494198163711265,0.00046114348069015013,0.00020254857198295402,-0.0009094124159908515,min_task,none,false,false,6.999999999984578,6.999999999984578,7.021868595434702,7.021868595434702,7.053210768266872,7.053210768266872,6.999999999984581,6.999999999984581,-0.01338773685119489,0.06165865603751721,-0.012637622486931987,0.0003048312497758017,0.0046569471029745705,-7.775802612814446e-06,-0.01658783539256396,-0.006973181409677881,0.11816498056326802,-0.21562930724389062,0.20557330111543748,0.1330948378000933,-0.07910767783688968,0.40562001924169055,-0.023963105596467138,0.00046114348069015013,0.00020254857198295402,-0.0009094124159908515,-0.029654287993195434,0.47309568334215285,0.8898996580056138,-0.01672634337500443,0.063321386683295,0.002308472535487232,6.999999999984578,6.999999999984578,7.021868595434702,7.021868595434702,7.053210768266872,7.053210768266872,6.999999999984581,6.999999999984581,1.2016123733415187,1.2016123733415187,1.2022646523275542,1.2022646523275542,1.2025509169301571,1.2025509169301571,1.2018987933019587,1.2018987933019587,-0.01338773685119489,0.06165865603751721,-0.012637622486931987,0.0003048312497758017,0.0046569471029745705,-7.775802612814446e-06
39.0,0.7600000000000003,0.11362546242945369,0.030007399424183456,0.2514604929543396,0.1140878481547895,0.028533253845430755,0.2512493233664442,0.0004623857253358149,-0.0014741455787527016,-0.00021116958789541007,0.001559326245915967,0.0004984951142104971,0.0002133847233654379,-0.0009340852526305236,min_task,none,false,false,6.999999999983746,6.999999999983746,7.023849160159554,7.023849160159554,7.0563119293132255,7.0563119293132255,6.999999999983751,6.999999999983751,-0.013635639625504386,0.06617104020241915,-0.014010341876405558,0.0003671697255085494,0.0045871273796981495,-3.4625397265110605e-06,-0.017732026939316938,-0.007235212189068992,0.12139452454931111,-0.21258184180176673,0.21935108547178586,0.13595160446608537,-0.07596453118727906,0.4016884519419386,-0.024835210027737878,0.0004984951142104971,0.0002133847233654379,-0.0009340852526305236,-0.03193454756602227,0.4743718427795455,0.8911408155224577,-0.017944310286837406,0.0678680711731307,0.002464316376211042,6.999999999983746,6.999999999983746,7.023849160159554,7.023849160159554,7.0563119293132255,7.0563119293132255,6.999999999983751,6.999999999983751,1.2015783119976582,1.2015783119976582,1.20228342871955,1.20228342871955,1.202584995626843,1.202584995626843,1.2018800558276679,1.2018800558276679,-0.013635639625504386,0.06617104020241915,-0.014010341876405558,0.0003671697255085494,0.0045871273796981495,-3.4625397265110605e-06
40.0,0.7800000000000004,0.11311783070878337,0.03139862819064089,0.25167036927174513,0.11363490676735719,0.029874064186003135,0.25144954471202446,0.0005170760585738177,-0.0015245640046377545,-0.00022082455972066706,0.001624938934472052,0.0005381354774854787,0.0002244148004514049,-0.0009589421846802831,min_task,none,false,false,6.999999999982832,6.999999999982832,7.025949198364166,7.025949198364166,7.059554710136856,7.059554710136856,6.999999999982836,6.999999999982836,-0.01386266398718358,0.07092224972796965,-0.015458877285436599,0.00043449959047629544,0.00449355524065581,1.2818012647165387e-06,-0.018936263881047972,-0.00750241444177219,0.12471219902436852,-0.20843682425918567,0.23389953479561829,0.13889241911652964,-0.07227035148140964,0.39598627686245147,-0.025645640098760438,0.0005381354774854787,0.0002244148004514049,-0.0009589421846802831,-0.03430039750888704,0.4757466511235394,0.8924420832335843,-0.019205045662375863,0.07259077551610028,0.002621553375124452,6.999999999982832,6.999999999982832,7.025949198364166,7.025949198364166,7.059554710136856,7.059554710136856,6.999999999982836,6.999999999982836,1.2015424963342396,1.2015424963342396,1.2023036889195233,1.2023036889195233,1.2026208301657257,1.2026208301657257,1.201859838440457,1.201859838440457,-0.01386266398718358,0.07092224972796965,-0.015458877285436599,0.00043449959047629544,0.00449355524065581,1.2818012647165387e-06
41.0,0.8000000000000004,0.11255191737154724,0.032835786587289355,0.2518893127354738,0.11312813911568184,0.03126283675987357,0.25165869297908616,0.0005762217441346029,-0.0015729498274157858,-0.0002306197563876622,0.001690972539699323,0.0005801861707400831,0.00023562849001846926,-0.0009834746116978569,min_task,none,false,false,6.999999999981839,6.999999999981839,7.028177627205086,7.028177627205086,7.062948525043364,7.062948525043364,6.999999999981845,6.999999999981845,-0.014065511536906989,0.07591634199963922,-0.016982641341626678,0.0005070433503900843,0.004374105341184844,6.474049226487723e-06,-0.020204651606336034,-0.007774858488648578,0.1280570283857737,-0.2031016498484927,0.24924456222062363,0.14193834003432024,-0.06798078331863781,0.3883520716960475,-0.026386401622388932,0.0005801861707400831,0.00023562849001846926,-0.0009834746116978569,-0.03674930494686152,0.4772265117018908,0.8938049303282548,-0.020506705201334994,0.07748645532646942,0.002779403489295268,6.999999999981839,6.999999999981839,7.028177627205086,7.028177627205086,7.062948525043364,7.062948525043364,6.999999999981845,6.999999999981845,1.2015048476476906,1.2015048476476906,1.202325526265881,1.202325526265881,1.2026584991950109,1.2026584991950109,1.2018380479483783,1.2018380479483783,-0.014065511536906989,0.07591634199963922,-0.016982641341626678,0.0005070433503900843,0.004374105341184844,6.474049226487723e-06
42.0,0.8200000000000004,0.11192321150279551,0.03431678090516325,0.25211742552641614,0.11256317441692976,0.03269785822871038,0.2518768798239257,0.0006399629141342483,-0.0016189226764528677,-0.0002405457024904356,0.0017573631948994302,0.0006247717834530042,0.0002470139436147114,-0.0010071410293920004,min_task,none,false,false,6.999999999980788,6.999999999980788,7.030544856092884,7.030544856092884,7.066503168610785,7.066503168610785,6.999999999980794,6.999999999980794,-0.014240502045674444,0.08115683979776611,-0.01858055694807668,0.0005850294582930145,0.004226501432317106,1.213043437018537e-05,-0.021541688366818038,-0.008052385789370795,0.13136129411044217,-0.1964780587018059,0.2654121260348064,0.14511351269239325,-0.06304773758735138,0.3786121583779613,-0.02704963971428587,0.0006247717834530042,0.0002470139436147114,-0.0010071410293920004,-0.0392781909938524,0.4788181609579464,0.8952308760021024,-0.021847135972338054,0.08255116627331305,0.0029370418046920834,6.999999999980788,6.999999999980788,7.030544856092884,7.030544856092884,7.066503168610785,7.066503168610785,6.999999999980794,6.999999999980794,1.2014652861916193,1.2014652861916193,1.2023490372783057,1.2023490372783057,1.2026980823912585,1.2026980823912585,1.2018145879739734,1.2018145879739734,-0.014240502045674444,0.08115683979776611,-0.01858055694807668,0.0005850294582930145,0.004226501432317106,1.213043437018537e-05
43.0,0.8400000000000004,0.11122708055159956,0.035839137059683855,0.25235480403683763,0.11193550059245594,0.03417706229162907,0.25210421168802444,0.0007084200408563751,-0.001662074768054786,-0.0002505923488131945,0.0018240471523990362,0.0006720188072846098,0.0002585573741806109,-0.0010293831040604415,min_task,none,false,false,6.999999999979688,6.999999999979688,7.033062700777198,7.033062700777198,7.070228508999997,7.070228508999997,6.9999999999796945,6.9999999999796945,-0.014383552755084664,0.08664661915544043,-0.020250990659991853,0.0006686893533872838,0.00404831169760868,1.8266267779233545e-05,-0.022952182967485718,-0.008334563135399844,0.13455284252287095,-0.18846279414247688,0.2824279496145865,0.1484453825055295,-0.05741916655656896,0.3665797747794728,-0.02762771607923788,0.0006720188072846098,0.0002585573741806109,-0.0010293831040604415,-0.041883403285728954,0.48052867521286746,0.8967214970028233,-0.023223859013779862,0.08777998545247818,0.003093602892530876,6.999999999979688,6.999999999979688,7.033062700777198,7.033062700777198,7.070228508999997,7.070228508999997,6.9999999999796945,6.9999999999796945,1.2014237322346677,1.2014237322346677,1.2023743211778104,1.2023743211778104,1.2027396594123754,1.2027396594123754,1.2017893594437732,1.2017893594437732,-0.014383552755084664,0.08664661915544043,-0.020250990659991853,0.0006686893533872838,0.00404831169760868,1.8266267779233545e-05
44.0,0.8600000000000004,0.11045879189027835,0.037399974695909194,0.252601538746518,0.1112404825311621,0.035698004114713064,0.25234078984545655,0.0007816906408837504,-0.00170197058119613,-0.000260748901061425,0.0018909611594919347,0.0007220544189605697,0.00027024260477256327,-0.0010496396848269777,min_task,none,false,false,6.999999999978565,6.999999999978565,7.035744230088631,7.035744230088631,7.074134118325361,7.074134118325361,6.999999999978572,6.999999999978572,-0.014490157838744345,0.09238776598186815,-0.021991675830192067,0.0007582532062704959,0.0038369445340892634,2.4895561586073375e-05,-0.024441145632229787,-0.008620637584351675,0.1375572185600546,-0.17894850425368844,0.3003171273190895,0.15196488001340985,-0.05103883993402403,0.35205416273544016,-0.028113286733402378,0.0007220544189605697,0.00027024260477256327,-0.0010496396848269777,-0.04456068458038325,0.4823654767697801,0.8982784361476154,-0.02463405076005094,0.093166927020649,0.003248185763285973,6.999999999978565,6.999999999978565,7.035744230088631,7.035744230088631,7.074134118325361,7.074134118325361,6.999999999978572,6.999999999978572,1.2013801072450725,1.2013801072450725,1.2024014793494264,1.2024014793494264,1.2027833087256976,1.2027833087256976,1.2017622611363818,1.2017622611363818,-0.014490157838744345,0.09238776598186815,-0.021991675830192067,0.0007582532062704959,0.0038369445340892634,2.4895561586073375e-05
45.0,0.8800000000000004,0.10961353776857155,0.03899598123147713,0.2528577141031927,0.11047338357163602,0.03725783442856459,0.25258671045029607,0.000859845803064474,-0.001738146802912538,-0.00027100365289661754,0.0019580429243011956,0.0007750051540701597,0.00028205056468261436,-0.0010673581684152971,min_task,none,false,false,6.999999999977446,6.999999999977446,7.03860354873528,7.03860354873528,7.078228843040371,7.078228843040371,6.999999999977453,6.999999999977453,-0.014555368453781579,0.09838139224715028,-0.023799623579715254,0.000853944027365868,0.003589645541001483,3.203058073625787e-05,-0.02601365337829714,-0.008909492031767406,0.14029952420836564,-0.16782492656697806,0.31910358310287973,0.155706563817388,-0.043846138455758195,0.3348196264596519,-0.028499379464513464,0.0007750051540701597,0.00028205056468261436,-0.0010673581684152971,-0.047305137297456556,0.48433633923053404,0.8999034119197818,-0.026074523177361916,0.09870485172506682,0.0033998593903066926,6.999999999977446,6.999999999977446,7.03860354873528,7.03860354873528,7.078228843040371,7.078228843040371,6.999999999977453,6.999999999977453,1.2013343351901251,1.2013343351901251,1.2024306147652624,1.2024306147652624,1.2028291063223948,1.2028291063223948,1.201733190270729,1.201733190270729,-0.014555368453781579,0.09838139224715028,-0.023799623579715254,0.000853944027365868,0.003589645541001483,3.203058073625787e-05
46.0,0.9000000000000005,0.10868646386018443,0.040623386133364955,0.2531234084108378,0.10962939041331235,0.038853273553409215,0.2528420645840244,0.0009429265531279152,-0.0017701125799557405,-0.000281343826813385,0.0020252316853133765,0.0008309954942766257,0.0002939587271097642,-0.0010820028189496968,min_task,none,false,false,6.999999999976362,6.999999999976362,7.041655527767726,7.041655527767726,7.082520324364543,7.082520324364543,6.99999999997637,6.99999999997637,-0.014573773546431659,0.10462740158900846,-0.02567102008741033,0.0009559697683428703,0.0033034963714987714,3.968132000234533e-05,-0.027674694333549386,-0.009199601082239639,0.1427059234115562,-0.15498039039561587,0.3388093427078039,0.15970869597385695,-0.03577588032087034,0.3146446056345802,-0.028779470329478276,0.0008309954942766257,0.0002939587271097642,-0.0010820028189496968,-0.05011118416646787,0.4864493918367888,0.9015982292407364,-0.02754170252100246,0.1043853699717582,0.0035476687693827723,6.999999999976362,6.999999999976362,7.041655527767726,7.041655527767726,7.082520324364543,7.082520324364543,6.99999999997637,6.99999999997637,1.2012863439383992,1.2012863439383992,1.2024618313874886,1.2024618313874886,1.2028771243296612,1.2028771243296612,1.2017020431141523,1.2017020431141523,-0.014573773546431659,0.10462740158900846,-0.02567102008741033,0.0009559697683428703,0.0033034963714987714,3.968132000234533e-05
47.0,0.9200000000000005,0.10767270158689479,0.04227793576413387,0.25339869372940016,0.10870364165808083,0.040480585649910264,0.253106938302938,0.0010309400711860373,-0.001797350114223606,-0.000291755426462148,0.002092468898776465,0.0008901463890293698,0.0003059404814949106,-0.0010930598347552764,min_task,none,false,false,6.999999999975346,6.999999999975346,7.044915500634423,7.044915500634423,7.087014483900443,7.087014483900443,6.999999999975355,6.999999999975355,-0.014539480599151422,0.11112419273193938,-0.027601107301394572,0.0010645130478219818,0.0029754154019956324,4.785490342737873e-05,-0.02942899774531365,-0.009488986640229643,0.1447047403817089,-0.1403036432322411,0.3594535854236058,0.1640132498665899,-0.026758180716459298,0.2912807509705072,-0.028947558473997666,0.0008901463890293698,0.0003059404814949106,-0.0010930598347552764,-0.052972525455121135,0.4887131225646807,0.9033647914926233,-0.029031606657059495,0.11019873809114282,0.003690641474943471,6.999999999975346,6.999999999975346,7.044915500634423,7.044915500634423,7.087014483900443,7.087014483900443,6.999999999975355,6.999999999975355,1.2012360667543214,1.2012360667543214,1.202495233570538,1.202495233570538,1.2029274295304608,1.2029274295304608,1.201668715590238,1.201668715590238,-0.014539480599151422,0.11112419273193938,-0.027601107301394572,0.0010645130478219818,0.0029754154019956324,4.785490342737873e-05
48.0,0.9400000000000005,0.1065674043879346,0.04395486917420736,0.2536836357892598,0.10769126017050704,0.042135553534175856,0.2533814126855553,0.0011238557825724305,-0.001819315640031502,-0.0003022231037044798,0.002159699058317499,0.00095257372804832,0.0003179644329422356,-0.0011000391385299632,min_task,none,false,false,6.999999999974428,6.999999999974428,7.048398946018124,7.048398946018124,7.091714991444683,7.091714991444683,6.9999999999744364,6.9999999999744364,-0.014446097717150016,0.11786829030256941,-0.029584046062448577,0.0011797180308683575,0.002602161479843057,5.655489787037784e-05,-0.0312808574605081,-0.009775172353497279,0.14622712359803636,-0.12368606213675373,0.38105143188150997,0.16866581856698745,-0.016718374321390915,0.264462096784209,-0.028998238540499932,0.00095257372804832,0.0003179644329422356,-0.0011000391385299632,-0.055882093561871245,0.4911363795935246,0.9052051138322353,-0.03053982092616541,0.11613374749639123,0.0038277946667933387,6.999999999974428,6.999999999974428,7.048398946018124,7.048398946018124,7.091714991444683,7.091714991444683,6.9999999999744364,6.9999999999744364,1.2011834438786013,1.2011834438786013,1.202530925478917,1.202530925478917,1.2029800817967478,1.2029800817967478,1.2016331038693078,1.2016331038693078,-0.014446097717150016,0.11786829030256941,-0.029584046062448577,0.0011797180308683575,0.002602161479843057,5.655489787037784e-05
49.0,0.9600000000000005,0.1053657880794375,0.04564889526194123,0.25397829392315274,0.10658738942658302,0.04381345443711217,0.2536655638800244,0.0012216013471455234,-0.00183544082482906,-0.00031273004312831754,0.0022268706636605494,0.001018386772176605,0.0003299936210897287,-0.0011024730404503456,min_task,none,false,false,6.999999999973643,6.999999999973643,7.052121178226672,7.052121178226672,7.09662273107048,7.09662273107048,6.999999999973653,6.999999999973653,-0.01428671803844396,0.12485388548703785,-0.03161275808829661,0.0013016739139307958,0.0021803418495186435,6.578052960669155e-05,-0.03323395636951928,-0.010055135938266797,0.14720727242187598,-0.10502430205482312,0.4036124082099697,0.17371540283642817,-0.005577028573694389,0.23390441197479483,-0.028926769713378854,0.001018386772176605,0.0003299936210897287,-0.0011024730404503456,-0.05883200608239237,0.49372837062710423,0.9071213377846293,-0.03206147256549391,0.1221776065037103,0.003958142492452586,6.999999999973643,6.999999999973643,7.052121178226672,7.052121178226672,7.09662273107048,7.09662273107048,6.999999999973653,6.999999999973653,1.2011284241942857,1.2011284241942857,1.2025690105310318,1.2025690105310318,1.2030351324360302,1.2030351324360302,1.2015951049306248,1.2015951049306248,-0.01428671803844396,0.12485388548703785,-0.03161275808829661,0.0013016739139307958,0.0021803418495186435,6.578052960669155e-05
50.0,0.9800000000000005,0.10406317542103427,0.04735417176625529,0.25428272101798044,0.10538723399715604,0.045509037130848154,0.2539594631515306,0.0013240585761217644,-0.001845134635407135,-0.000323257866449822,0.0022939373539838234,0.0010876865378459787,0.0003419846514014115,-0.00109991207657808,min_task,none,false,false,6.999999999973029,6.999999999973029,7.056097061051155,7.056097061051155,7.101735276341931,7.101735276341931,6.999999999973039,6.999999999973039,-0.014053907028421683,0.13207227124768073,-0.03367874452598894,0.0014303945242662782,0.0017064248679072567,7.552580072217446e-05,-0.03529119724083836,-0.01032525834349884,0.14758224634784492,-0.08422341148838326,0.4271385329758446,0.17921405489443737,0.00674993237664591,0.19930477200798213,-0.0287291402129707,0.0010876865378459787,0.0003419846514014115,-0.00109991207657808,-0.06181351878402209,0.4964986593701135,0.9091157470365735,-0.033591203743003964,0.1283158146816797,0.004080703818504164,6.999999999973029,6.999999999973029,7.056097061051155,7.056097061051155,7.101735276341931,7.101735276341931,6.999999999973039,6.999999999973039,1.201070966986623,1.201070966986623,1.202609590870374,1.202609590870374,1.2030926224429703,1.2030926224429703,1.2015546170946525,1.2015546170946525,-0.014053907028421683,0.13207227124768073,-0.03367874452598894,0.0014303945242662782,0.0017064248679072567,7.552580072217446e-05
51.0,1.0000000000000004,0.10265504497218113,0.04906428659953177,0.2545969634884184,0.1040861042823659,0.047216500887898104,0.25426317692970346,0.0014310593101847652,-0.0018477857116336663,-0.00033378655871496576,0.002360859219047762,0.0011605641149689976,0.00035388673347564603,-0.0010919184551877468,min_task,none,false,false,6.999999999972609,6.999999999972609,7.060340753265621,7.060340753265621,7.1070463776877,7.1070463776877,6.99999999997262,6.99999999997262,-0.013739695381468783,0.13951115212957665,-0.035771878535774564,0.001565793423789608,0.0011767594653054505,8.577849270684579e-05,-0.03745454218475517,-0.010581268694893273,0.1472913972469019,-0.061200494937904956,0.45162195003047995,0.18521632980215028,0.020350940747124874,0.16034150607058392,-0.028402125697691086,0.0011605641149689976,0.00035388673347564603,-0.0010919184551877468,-0.06481698025333368,0.49945715825004344,0.9111907842611097,-0.03512314329598908,0.13453202973645448,0.004194510208801654,6.999999999972609,6.999999999972609,7.060340753265621,7.060340753265621,7.1070463776877,7.1070463776877,6.99999999997262,6.99999999997262,1.2010110438148112,1.2010110438148112,1.202652766853501,1.202652766853501,1.2031525806380936,1.2031525806380936,1.201511540535864,1.201511540535864,-0.013739695381468783,0.13951115212957665,-0.035771878535774564,0.001565793423789608,0.0011767594653054505,8.577849270684579e-05
52.0,1.0200000000000005,0.10113708427870544,0.05077224207296012,0.2549210612742875,0.10267946557705157,0.04892947678140337,0.25457676685602443,0.001542381298346135,-0.0018427652915567472,-0.00034429441826305807,0.002427604299654544,0.001237098880414071,0.0003656406239588351,-0.0010780576508755751,min_task,none,false,false,6.999999999972414,6.999999999972414,7.064865483378426,7.064865483378426,7.1125454555368535,7.1125454555368535,6.9999999999724265,6.9999999999724265,-0.013335580547332401,0.14715380827902652,-0.03788016905661897,0.0017076539686449186,0.0005876031911267424,9.65190473767786e-05,-0.03972485889106174,-0.010818184194297963,0.14627548226898293,-0.03588898696004624,0.4770420336088546,0.19177850877249916,0.035318282112458826,0.11667466931504852,-0.02794333955713708,0.001237098880414071,0.0003656406239588351,-0.0010780576508755751,-0.06783179032777373,0.5026141162255581,0.9133490686953433,-0.03665087730648917,0.14080792714021714,0.00429861404731058,6.999999999972414,6.999999999972414,7.064865483378426,7.064865483378426,7.1125454555368535,7.1125454555368535,6.9999999999724265,6.9999999999724265,1.2009486405242056,1.2009486405242056,1.2026986365297971,1.2026986365297971,1.2032150216654485,1.2032150216654485,1.2014657778013031,1.2014657778013031,-0.013335580547332401,0.14715380827902652,-0.03788016905661897,0.0017076539686449186,0.0005876031911267424,9.65190473767786e-05
53.0,1.0400000000000005,0.09950524738161762,0.052470442605769274,0.25525504786396025,0.10116299150370595,0.05064101187646047,0.2549002898312343,0.0016577441220883282,-0.0018294307293088008,-0.00035475803272594364,0.00249415028204824,0.001317356550211751,0.00037717747605656876,-0.001057888766536907,min_task,none,false,false,6.999999999999856,6.999999999999856,7.069683336725934,7.069683336725934,7.1182170828708795,7.1182170828708795,6.999999999999856,6.999999999999856,-0.01283253931208925,0.15497808624079687,-0.03998949289240731,0.0018555938367572564,-6.48395388261236e-05,0.00010771931953700644,-0.0421017666924475,-0.011030245118744992,0.14447553936395324,-0.008243577002375588,0.5033618617923376,0.19895752354076202,0.05174732132032064,0.06794717291010023,-0.027351272556644723,0.001317356550211751,0.00037717747605656876,-0.001057888766536907,-0.07084636477110356,0.5059801002331167,0.9155934140608569,-0.03816741869012914,0.14712305296502895,0.004392096680201632,6.999999999999856,6.999999999999856,7.069683336725934,7.069683336725934,7.1182170828708795,7.1182170828708795,6.999999999999856,6.999999999999856,1.200883759438016,1.200883759438016,1.2027472950715932,1.2027472950715932,1.2032799438108315,1.2032799438108315,1.201417234376695,1.201417234376695,-0.01283253931208925,0.15497808624079687,-0.03998949289240731,0.0018555938367572564,-6.48395388261236e-05,0.00010771931953700644
54.0,1.0600000000000005,0.09775581658410712,0.054150686550016175,0.2555989503467019,0.09953262179875355,0.05234355690234981,0.2552337980627405,0.001776805214646432,-0.0018071296476663626,-0.00036515228396138966,0.002560486384410533,0.0014013869936843628,0.00038841760457283207,-0.0010309543424224228,min_task,none,false,false,6.999999999972805,6.999999999972805,7.0748050475778035,7.0748050475778035,7.124040431138319,7.124040431138319,6.999999999972817,6.999999999972817,-0.012221058101828913,0.1629551899270693,-0.04208329297988554,0.0020090235630170323,-0.0007843652184061434,0.00011934118462749729,-0.044583476092695175,-0.011210840896050435,0.14183153801646714,0.02175411309619796,0.5305239515948065,0.20680950487722757,0.06973535131291723,0.013786893817026061,-0.026625319069486817,0.0014013869936843628,0.00038841760457283207,-0.0010309543424224228,-0.07384810902643066,0.5095659684893739,0.9179268462530623,-0.03966517602203752,0.15345467073194977,0.004474076421384438,6.999999999972805,6.999999999972805,7.0748050475778035,7.0748050475778035,7.124040431138319,7.124040431138319,6.999999999972817,6.999999999972817,1.2008164217768202,1.2008164217768202,1.2027988340943412,1.2027988340943412,1.2033473265930559,1.2033473265930559,1.2013658193609615,1.2013658193609615,-0.012221058101828913,0.1629551899270693,-0.04208329297988554,0.0020090235630170323,-0.0007843652184061434,0.00011934118462749729
55.0,1.0800000000000005,0.09588546834684208,0.05580416279733335,0.2559527894981476,0.09778462437936442,0.05402895803246282,0.25557733911202446,0.0018991560325223311,-0.0017752047648705305,-0.00037545038612313286,0.002626615423986733,0.0014892217150935577,0.0003992691833090834,-0.0009967703305138534,min_task,none,false,false,6.999999999973432,6.999999999973432,7.0802396974712805,7.0802396974712805,7.129988644631184,7.129988644631184,6.999999999973444,6.999999999973444,-0.011491185349154819,0.17104824507449096,-0.04414224199954217,0.0021670990041690198,-0.001574702976566033,0.00013133500483342473,-0.04716659266015822,-0.011352440943365908,0.1382811062682341,0.054089099965691924,0.558445150517199,0.21538787118770825,0.08937998607739575,-0.04619004346625483,-0.02576578588547283,0.0014892217150935577,0.0003992691833090834,-0.0009967703305138534,-0.076823404258762,0.5133828334993012,0.9203526200379207,-0.04113592190794021,0.15977760353339301,0.004543716245337167,6.999999999973432,6.999999999973432,7.0802396974712805,7.0802396974712805,7.129988644631184,7.129988644631184,6.999999999973444,6.999999999973444,1.2007466703611627,1.2007466703611627,1.2028533407886384,1.2028533407886384,1.2034171280738788,1.2034171280738788,1.2013114463279757,1.2013114463279757,-0.011491185349154819,0.17104824507449096,-0.04414224199954217,0.0021670990041690198,-0.001574702976566033,0.00013133500483342473
56.0,1.1000000000000005,0.09389134311045583,0.05742145286197341,0.2563165799044288,0.09591566155145813,0.05568845343180989,0.2559309559420491,0.0020243184410023013,-0.0017329994301635149,-0.00038562396237967755,0.0026925560376509267,0.0015808708906805322,0.0004096269035917554,-0.0009548169743579185,min_task,none,false,false,6.999999999974361,6.999999999974361,7.085994371488684,7.085994371488684,7.136028106319747,7.136028106319747,6.999999999974373,6.999999999974373,-0.010632613790533183,0.17921060311519216,-0.04614387018936771,0.002328667819815962,-0.0024394260720469953,0.0001436379460454585,-0.049845890891969724,-0.011446511158671551,0.13375807995245026,0.08870582281487034,0.5870105449861988,0.22474083804215111,0.11077697118891083,-0.11237443380360856,-0.024773882198317068,0.0015808708906805322,0.0004096269035917554,-0.0009548169743579185,-0.07975760929242977,0.5174420122028018,0.9228742337669072,-0.04257076129259312,0.16606407324691333,0.004600230959592971,6.999999999974361,6.999999999974361,7.085994371488684,7.085994371488684,7.136028106319747,7.136028106319747,6.999999999974373,6.999999999974373,1.2006745726566228,1.2006745726566228,1.202910896765029,1.202910896765029,1.2034892818280576,1.2034892818280576,1.2012540344752776,1.2012540344752776,-0.010632613790533183,0.17921060311519216,-0.04614387018936771,0.002328667819815962,-0.0024394260720469953,0.0001436379460454585
57.0,1.1200000000000006,0.0917711187632877,0.058992539160635724,0.2566903301324036,0.09392286014486365,0.05731267525999385,0.2562946869646664,0.00215174138157595,-0.0016798639006418703,-0.0003956431677372141,0.002758345013598414,0.001676319834800559,0.00041937063705791105,-0.0009045313491347802,min_task,none,false,false,6.999999999975606,6.999999999975606,7.092073609605098,7.092073609605098,7.142117551125896,7.142117551125896,6.999999999975618,6.999999999975618,-0.009634802550033749,0.18738386163157986,-0.04806216045209037,0.0024922106204708482,-0.0033818385631218385,0.00015617215078007692,-0.05261401281266232,-0.011483441425231016,0.1281913245538223,0.1255001562250773,0.6160662803451001,0.23490823303498123,0.13401726092361646,-0.18515716457673095,-0.023651685328207907,0.001676319834800559,0.00041937063705791105,-0.0009045313491347802,-0.08263508245042972,0.5217549602402723,0.925495440857464,-0.04396010023427688,0.1722835393848855,0.00464289362910001,6.999999999975606,6.999999999975606,7.092073609605098,7.092073609605098,7.142117551125896,7.142117551125896,6.999999999975618,6.999999999975618,1.2006002242206082,1.2006002242206082,1.2029715764924191,1.2029715764924191,1.2035636935149747,1.2035636935149747,1.2011935101794908,1.2011935101794908,-0.009634802550033749,0.18738386163157986,-0.04806216045209037,0.0024922106204708482,-0.0033818385631218385,0.00015617215078007692
58.0,1.1400000000000006,0.08952308738388087,0.060506820225980695,0.2570740429550494,0.09180388527879499,0.05889165783916609,0.25666856608802446,0.002280797894914116,-0.0016151623868146045,-0.00040547686702491204,0.002824039670917824,0.0017755247592306299,0.0004283641625592166,-0.0008453023248512632,min_task,none,false,false,6.999999999977165,6.999999999977165,7.098478649266907,7.098478649266907,7.1482069883541595,7.1482069883541595,6.9999999999771765,6.9999999999771765,-0.008487147864238456,0.19549557461446107,-0.04986711518787304,0.0026557781112277294,-0.004404833192612542,0.00016884278750274194,-0.05546108409381701,-0.01145247657790779,0.12150372230899777,0.16431077349082435,0.6454111685816619,0.2459174669647641,0.15918322384722403,-0.264919982425303,-0.02240208178868373,0.0017755247592306299,0.0004283641625592166,-0.0008453023248512632,-0.0854392276786215,0.5263331868357283,0.9282202564823405,-0.04529361587311384,0.17840254102029623,0.0046710410199237795,6.999999999977165,6.999999999977165,7.098478649266907,7.098478649266907,7.1482069883541595,7.1482069883541595,6.9999999999771765,6.9999999999771765,1.2005237526050527,1.2005237526050527,1.2030354451923735,1.2030354451923735,1.20364023699805,1.20364023699805,1.2011298090965967,1.2011298090965967,-0.008487147864238456,0.19549557461446107,-0.04986711518787304,0.0026557781112277294,-0.004404833192612542,0.00016884278750274194
59.0,1.1600000000000006,0.08714623479237464,0.061953133596902646,0.2574677156430253,0.08955701737004741,0.06041485271036561,0.25705262276397506,0.002410782577672771,-0.0015382808865370343,-0.0004150928790502273,0.002889720197689378,0.001878407684718929,0.00043645403772864835,-0.0007764687226854851,min_task,none,false,false,6.999999999979035,6.999999999979035,7.105206365107487,7.105206365107487,7.1542363972907195,7.1542363972907195,6.999999999979046,6.999999999979046,-0.007179215040392592,0.20345664921757892,-0.05152430524395755,0.002816926511139123,-0.005510715507134488,0.00018153601063897458,-0.05837422026155596,-0.011341663035405868,0.11361149987438178,0.20491004409668404,0.6747870416119034,0.25777855695637536,0.1863438103007533,-0.35202330662546366,-0.021028682039081387,0.001878407684718929,0.00043645403772864835,-0.0007764687226854851,-0.08815256966877952,0.5311881462990231,0.931052957570476,-0.04656022857046406,0.184384546316115,0.004684077831725669,6.999999999979035,6.999999999979035,7.105206365107487,7.105206365107487,7.1542363972907195,7.1542363972907195,6.999999999979046,6.999999999979046,1.2004453217580062,1.2004453217580062,1.2031025560334423,1.2031025560334423,1.2037187499688702,1.2037187499688702,1.2010628789630877,1.2010628789630877,-0.007179215040392592,0.20345664921757892,-0.05152430524395755,0.002816926511139123,-0.005510715507134488,0.00018153601063897458
60.0,1.1800000000000006,0.08464032234232996,0.06331978712729384,0.25787134033482173,0.08718123189796535,0.061871151306316624,0.2574468820354812,0.0025409095556353928,-0.0014486358209772204,-0.00042445829934051327,0.002955491830409388,0.0019848503662744156,0.00044346871897187187,-0.0006973214448413068,min_task,none,false,false,6.999999999981202,6.999999999981202,7.112247834829981,7.112247834829981,7.160134171313271,7.160134171313271,6.9999999999812115,6.9999999999812115,-0.005701043770315483,0.21115842773563848,-0.05299441587320549,0.0029726545098301724,-0.00670098916872904,0.00019411688353646747,-0.06133690317402005,-0.011137820713249782,0.10442399441416723,0.24699477597180775,0.7038677978670571,0.2704780356473982,0.21554850655046323,-0.44679049773677026,-0.01953570968074958,0.0019848503662744156,0.00044346871897187187,-0.0006973214448413068,-0.09075686293431834,0.5363311016583928,0.9339980738450187,-0.04774807753614169,0.1901898155034841,0.0046814795126706886,6.999999999981202,6.999999999981202,7.112247834829981,7.112247834829981,7.160134171313271,7.160134171313271,6.9999999999812115,6.9999999999812115,1.2003651369488015,1.2003651369488015,1.2031729464549665,1.2031729464549665,1.2037990290505944,1.2037990290505944,1.2009926832683633,1.2009926832683633,-0.005701043770315483,0.21115842773563848,-0.05299441587320549,0.0029726545098301724,-0.00670098916872904,0.00019411688353646747
61.0,1.2000000000000006,0.08200597027562484,0.06459459943981216,0.2582849044987731,0.08467628133484648,0.06324891596270754,0.25785136458402447,0.002670311059221636,-0.00134568347710462,-0.0004335399147486485,0.0030214867253115676,0.0020946871057754024,0.00044921805908426047,-0.000607110368981555,min_task,none,false,false,7.000000000000039,7.000000000000039,7.119586456196625,7.119586456196625,7.165815299790356,7.165815299790356,7.000000000000039,7.000000000000039,-0.004043538663508381,0.21846949991036874,-0.054232814603805045,0.0031193466564310222,-0.007976099211678918,0.00020642736009951262,-0.06432820979485093,-0.010826553650920393,0.09384397864809037,0.2901773150500846,0.7322472627261767,0.2839716912849323,0.2468199473692808,-0.5494880662201901,-0.01792786803684683,0.0020946871057754024,0.00044921805908426047,-0.000607110368981555,-0.09323323986761621,0.54177295549354,0.9370603672269894,-0.04884450168747481,0.19577528469275993,0.004662793495310383,7.000000000000039,7.000000000000039,7.119586456196625,7.119586456196625,7.165815299790356,7.165815299790356,7.000000000000039,7.000000000000039,1.2002834502146993,1.2002834502146993,1.2032466334403407,1.2032466334403407,1.2038808243810357,1.2038808243810357,1.2009192059777174,1.2009192059777174,-0.004043538663508381,0.21846949991036874,-0.054232814603805045,0.0031193466564310222,-0.007976099211678918,0.00020642736009951262
62.0,1.2200000000000006,0.07924474184838866,0.06576495022386111,0.2587083915007987,0.08204277853881593,0.06453601997163405,0.2582660867770121,0.0027980366904272747,-0.0012289302522270618,-0.0004423047237865907,0.003087865339437589,0.002207696350139352,0.00045349333855975924,-0.0005050568061191984,min_task,none,false,false,6.9999999999998614,6.9999999999998614,7.127195559954531,7.127195559954531,7.1711792962561836,7.1711792962561836,6.9999999999998614,6.9999999999998614,-0.0021989561496220653,0.22523231553253223,-0.05518917418952615,0.0032527294285206025,-0.009335130029275116,0.00021828444549357168,-0.06732188363454715,-0.010392312373382269,0.0817686037712761,0.3339776716631623,0.7594260564988268,0.29817607749959596,0.28014506421377583,-0.6603012448869131,-0.01621018941699565,0.002207696350139352,0.00045349333855975924,-0.0005050568061191984,-0.09556240263850095,0.5475240427029879,0.9402447965376121,-0.049836028000205486,0.2010944796632943,0.004627638756250012,6.9999999999998614,6.9999999999998614,7.127195559954531,7.127195559954531,7.1711792962561836,7.1711792962561836,6.9999999999998614,6.9999999999998614,1.200200566290119,1.200200566290119,1.20332360755803,1.20332360755803,1.203963833711406,1.203963833711406,1.2008424574862917,1.2008424574862917,-0.0021989561496220653,0.22523231553253223,-0.05518917418952615,0.0032527294285206025,-0.009335130029275116,0.00021828444549357168
63.0,1.2400000000000007,0.07635922731519607,0.06681784103267693,0.2591417812910594,0.07928228078937907,0.06571989734869461,0.25869106071518494,0.002923053474183007,-0.0010979436839823192,-0.0004507205758744748,0.0031548171077966838,0.0023235910150635787,0.0004560680118439639,-0.00039037231249395324,min_task,none,false,false,6.99999999999964,6.99999999999964,7.135035443510314,7.135035443510314,7.176107919839491,7.176107919839491,6.99999999999964,6.99999999999964,-0.0001614933599941525,0.2312597372225183,-0.05580719907295695,0.003367848173374813,-0.01077545920275481,0.00022947872350454363,-0.07028524181753915,-0.009818534049573802,0.06809122030878882,0.37781763999469414,0.7847979156643716,0.3129588677216011,0.3154647619469881,-0.7793046255993407,-0.014387874427977829,0.0023235910150635787,0.0004560680118439639,-0.00039037231249395324,-0.09772486325408272,0.5535938797888817,0.943556464072457,-0.05070837022242559,0.20609747071663218,0.004575703690979552,6.99999999999964,6.99999999999964,7.135035443510314,7.135035443510314,7.176107919839491,7.176107919839491,6.99999999999964,6.99999999999964,1.2001168489317586,1.2001168489317586,1.203403825600172,1.203403825600172,1.2040476961029842,1.2040476961029842,1.2007624819720462,1.2007624819720462,-0.0001614933599941525,0.2312597372225183,-0.05580719907295695,0.003367848173374813,-0.01077545920275481,0.00022947872350454363
64.0,1.2600000000000007,0.07335312673664063,0.06773996717411815,0.2595850512213416,0.0763973735251593,0.06678760293762905,0.2591262942800244,0.0030442467885186675,-0.0009523642364891033,-0.00045875694131719547,0.003222560174699055,0.002442007536559899,0.0004566993715535029,-0.00026228460226630096,min_task,none,false,false,6.999999999999421,6.999999999999421,7.143049839656605,7.143049839656605,7.18046275803891,7.18046275803891,6.999999999999421,6.999999999999421,0.0020720210442194565,0.23633172446919726,-0.056024513014792436,0.0034590744622549894,-0.01229237052941749,0.00023977347113332122,-0.07317793537009315,-0.009087870937681077,0.052704007228771874,0.4210180757606556,0.8076361000004905,0.3281282367988813,0.35266220069274334,-0.9064276763972896,-0.012466131929255162,0.002442007536559899,0.0004566993715535029,-0.00026228460226630096,-0.09970123506755832,0.5599908653713259,0.9470005403435122,-0.051446441488776216,0.21073088171928533,0.004506742392635567,6.999999999999421,6.999999999999421,7.143049839656605,7.143049839656605,7.18046275803891,7.18046275803891,6.999999999999421,6.999999999999421,1.2000327274929257,1.2000327274929257,1.2034872016768352,1.2034872016768352,1.2041319853620973,1.2041319853620973,1.2006793662865358,1.2006793662865358,0.0020720210442194565,0.23633172446919726,-0.056024513014792436,0.0034590744622549894,-0.01229237052941749,0.00023977347113332122
65.0,1.2800000000000007,0.07023133044773927,0.06851780120917539,0.2600381770028508,0.07339175272036016,0.06772588341190446,0.25957179118116025,0.003160422272620894,-0.0007919177972709329,-0.00046638582169056253,0.0032913399206989614,0.0025624937410160874,0.00045513134706664366,-0.00012007120126018294,min_task,none,false,false,6.999999999999114,6.999999999999114,7.15116181166586,7.15116181166586,7.1840828125593195,7.1840828125593195,6.9999999999991145,6.9999999999991145,0.004501345733878843,0.24019245946323278,-0.055772788784709385,0.0035201550554229237,-0.013878637205931821,0.0002489046729370226,-0.07595058868946002,-0.00818253905810276,0.0355016683177801,0.4628008008144117,0.8270809467603976,0.3434216919095231,0.39154997740406905,-1.041415513382151,-0.01045002985239895,0.0025624937410160874,0.00045513134706664366,-0.00012007120126018294,-0.10147257734324917,0.5667219271950555,0.9505821631649456,-0.052034385058168896,0.2149379684662224,0.004420569522169722,6.999999999999114,6.999999999999114,7.15116181166586,7.15116181166586,7.1840828125593195,7.1840828125593195,6.9999999999991145,6.9999999999991145,1.1999487035276288,1.1999487035276288,1.203573596676612,1.203573596676612,1.2042162034244723,1.2042162034244723,1.200593250468539,1.200593250468539,0.004501345733878843,0.24019245946323278,-0.055772788784709385,0.0035201550554229237,-0.013878637205931821,0.0002489046729370226
66.0,1.3000000000000007,0.06699999589573521,0.06913768847132307,0.26050113381010004,0.07027030471316964,0.06852125964989647,0.26002755100377756,0.0032703088174344253,-0.0006164288214265956,-0.0004735828063224812,0.003361426025918019,0.0026844957427798154,0.00045109865273688113,3.6898726395445e-05,min_task,none,false,false,6.999999999999473,6.999999999999473,7.159269174716709,7.159269174716709,7.1867822809531985,7.1867822809531985,6.999999999999473,6.999999999999473,0.007121982456686109,0.242548286046736,-0.05497820632363335,0.003544313722046866,-0.015524091781131528,0.00025658227389009825,-0.07854337813861807,-0.00708480635467657,0.016386242961517167,0.5022967366767056,0.8421298696440691,0.358494944460313,0.431856694448713,-1.1837857564694172,-0.008344368041309629,0.0026844957427798154,0.00045109865273688113,3.6898726395445e-05,-0.10302079200696301,0.573792111998468,0.9543063073689186,-0.05245562804560591,0.2186587832691013,0.004317054043765022,6.999999999999473,6.999999999999473,7.159269174716709,7.159269174716709,7.1867822809531985,7.1867822809531985,6.999999999999473,6.999999999999473,1.1998653571213609,1.1998653571213609,1.203662806087959,1.203662806087959,1.2042997739814258,1.2042997739814258,1.200504339880596,1.200504339880596,0.007121982456686109,0.242548286046736,-0.05497820632363335,0.003544313722046866,-0.015524091781131528,0.00025658227389009825
67.0,1.3200000000000007,0.06366686568224392,0.06958613126532837,0.2609738756830525,0.06703918217786889,0.06916012085805565,0.26049356925602446,0.003372316495624972,-0.00042601040727272,-0.0004803064270280655,0.0034328847457515124,0.0028070016233171036,0.0004447252185155384,0.00017256084631805133,min_task,none,false,false,117.32240079559661,117.32240079559617,117.15293966271877,117.15293966271821,117.09930995788177,117.09930995788243,117.26815416404348,117.26815416404472,0.009924316398274414,0.2430669730179731,-0.053562343498326254,0.0035244169021173637,-0.017215210546727252,0.0002624930927687247,-0.0812272473737521,-0.0033399684327722317,-0.08191118837957671,0.5385619900340094,0.8516316331435053,0.37291179767075244,0.4732137780388008,-1.3327832247371585,-0.006153554007830394,0.0028070016233171036,0.0004447252185155384,0.00017256084631805133,-0.10436816861055172,0.581202931479805,0.958176838827473,-0.05268767177359838,0.22182970610812447,0.0041939747262714445,117.32240079559661,117.32240079559617,117.15293966271877,117.15293966271821,117.09930995788177,117.09930995788243,117.26815416404348,117.26815416404472,1.1997833254530768,1.1997833254530768,1.2037540394674906,1.2037540394674906,1.204382058944906,1.204382058944906,1.200413422288052,1.200413422288052,0.009924316398274414,0.2430669730179731,-0.053562343498326254,0.0035244169021173637,-0.017215210546727252,0.0002624930927687247
68.0,1.3400000000000007,0.06024097934101705,0.0698493479080874,0.26145638177570674,0.06370587481535542,0.06962883069366486,0.2609698374164195,0.0034648954743383698,-0.0002205172144225387,-0.00048654435928724427,0.003505831414016,0.0029290702236065324,0.00043596997148470065,0.00027699012500584846,min_task,none,false,false,15.463112086549481,15.463112086550137,15.61611976956833,15.616119769564193,15.613928733779996,15.613928733779785,15.460967793417927,15.460967793419398,0.013000135558078519,0.24186753654359083,-0.05161154671397657,0.003498597723506153,-0.018961101015533482,0.0002676368357673952,-0.08254868594170499,-0.0024072167273017394,-0.050632270609305495,0.5787532217856849,0.8565755331328034,0.387247130443092,0.5141325664633055,-1.486209846381696,-0.0035266286324795748,0.0029290702236065324,0.00043596997148470065,0.00027699012500584846,-0.10551059320752185,0.5889540250446424,0.9621975484902074,-0.05270723368582982,0.22438448834225624,0.004048782378926057,15.463112086549481,15.463112086550137,15.61611976956833,15.616119769564193,15.613928733779996,15.613928733779785,15.460967793417927,15.460967793419398,1.1997033037378972,1.1997033037378972,1.2038466610709524,1.2038466610709524,1.2044623564391184,1.2044623564391184,1.2003211244108047,1.2003211244108047,0.013000135558078519,0.24186753654359083,-0.05161154671397657,0.003498597723506153,-0.018961101015533482,0.0002676368357673952
69.0,1.3600000000000008,0.056732412077724434,0.0699136753385812,0.2619487064185603,0.06027927322697116,0.0699138454947204,0.261456342981259,0.0035468611492467245,1.7015613920645656e-07,-0.0004923634373012464,0.003580872211540089,0.003050383938565436,0.0004243807844001918,0.0003993386926445907,min_task,none,false,false,11.232881815860164,11.232881815860239,11.401601573411778,11.401601573411353,11.398901370279063,11.398901370279072,11.230240494491591,11.230240494491753,0.01611889467249583,0.2375824807130189,-0.04873646268051037,0.0033684356509543966,-0.020673436220955903,0.0002689960030315231,-0.08391693883376893,-0.0012627102447714193,-0.05921237322198421,0.6061571950792036,0.8508770040040013,0.39815248328512926,0.5543682894104726,-1.6432123772335094,-0.0005898638277544923,0.003050383938565436,0.0004243807844001918,0.0003993386926445907,-0.10638418628330254,0.597043943054842,0.9663727892548472,-0.052496908411601,0.2262561135246098,0.0038810013678597477,11.232881815860164,11.232881815860239,11.401601573411778,11.401601573411353,11.398901370279063,11.398901370279072,11.230240494491591,11.230240494491753,1.199625824193147,1.199625824193147,1.2039407468497554,1.2039407468497554,1.204540139428401,1.204540139428401,1.200227371642612,1.200227371642612,0.01611889467249583,0.2375824807130189,-0.04873646268051037,0.0033684356509543966,-0.020673436220955903,0.0002689960030315231
70.0,1.3800000000000008,0.05315288361900668,0.06976623607144858,0.26245081973740714,0.05676972433706642,0.07000184455866595,0.26195306951202446,0.0036168407180597398,0.00023560848721737582,-0.000497750225382676,0.0036585247608745606,0.003169892102642986,0.0004095420403993921,0.0005458072406930922,min_task,none,false,false,9.435616817490999,9.435616817490999,9.61160922181015,9.611609221810143,9.606626593049624,9.606626593049624,9.430688625774518,9.430688625774517,0.019342080850312592,0.23015512741308328,-0.044955601078863094,0.003168391356800059,-0.02236825078094669,0.0002674029528791634,-0.08490636301485639,8.651406443200466e-05,-0.07186947181992753,0.6263983731779169,0.8349715395293676,0.4064708241459656,0.5941835155919825,-1.8030224671141015,0.002349337671802098,0.003169892102642986,0.0004095420403993921,0.0005458072406930922,-0.1069712443353457,0.6054650778199757,0.9707049241932809,-0.052041500685549594,0.22737679907218508,0.003691857275503106,9.435616817490999,9.435616817490999,9.61160922181015,9.611609221810143,9.606626593049624,9.606626593049624,9.430688625774518,9.430688625774517,1.1995519226458984,1.1995519226458984,1.204035844332367,1.204035844332367,1.204614376263666,1.204614376263666,1.2001326160834962,1.2001326160834962,0.019342080850312592,0.23015512741308328,-0.044955601078863094,0.003168391356800059,-0.02236825078094669,0.0002674029528791634
