LordTarzan10086/HCDR_ML/results/tracking/routeb_trajectory_suite_20260416_105416/helix/helix_cooperative_detailed.csv
step,time_s,tip_x,tip_y,tip_z,des_x,des_y,des_z,err_x,err_y,err_z,err_norm,q_platform_x,q_platform_y,q_platform_psi,solver_status,fail_reason,fallback_applied,hold_active,u_a_1,u_a_2,u_a_3,u_a_4,u_a_5,u_a_6,u_a_7,u_a_8,u_a_9,u_a_10,u_a_11,u_a_12,u_a_13,u_a_14,qdd_1,qdd_2,qdd_3,qdd_4,qdd_5,qdd_6,qdd_7,qdd_8,qdd_9,q_1,q_2,q_3,q_4,q_5,q_6,q_7,q_8,q_9,cable_force_1,cable_force_2,cable_force_3,cable_force_4,cable_force_5,cable_force_6,cable_force_7,cable_force_8,cable_length_1,cable_length_2,cable_length_3,cable_length_4,cable_length_5,cable_length_6,cable_length_7,cable_length_8,arm_torque_1,arm_torque_2,arm_torque_3,arm_torque_4,arm_torque_5,arm_torque_6
1.0,0.0,0.11706196759227896,0.010002014418055372,0.24860598390943056,0.11702116438719139,0.010002371411802463,0.24858416458402444,-4.080320508757784e-05,3.569937470915274e-07,-2.1819325406124968e-05,4.627215092399283e-05,0.047263502830037496,6.14537275942337e-05,-0.000443219197474016,min_task,none,false,false,6.999999999999999,6.999999999999999,6.999999999999999,6.999999999999999,6.999999999999999,6.999999999999999,6.999999999999999,6.999999999999999,0.0064818608014515925,-0.09847798121540623,0.02587021606322179,-0.0010692688579757156,0.00018364059336500895,-5.312620616544791e-05,-0.1575556938271777,-0.00020610886442704024,0.06243906961124943,0.010796703373205868,-0.3122625259520404,-0.11219619149965007,0.0034532639663372167,-0.01355028243388768,3.1858228976742543e-06,0.047263502830037496,6.14537275942337e-05,-0.000443219197474016,0.0005217250755178652,0.5561319538987696,0.913031748288301,-3.090521775657674e-05,1.6877369125421338e-05,2.2335960201051552e-05,6.999999999999999,6.999999999999999,6.999999999999999,6.999999999999999,6.999999999999999,6.999999999999999,6.999999999999999,6.999999999999999,1.1690969806320257,1.1690969806320257,1.2359141065919217,1.2359141065919217,1.2359935488082796,1.2359935488082796,1.1691809628734535,1.1691809628734535,0.0064818608014515925,-0.09847798121540623,0.02587021606322179,-0.0010692688579757156,0.00018364059336500895,-5.312620616544791e-05
2.0,0.02,0.11716534321831709,0.010002994858520789,0.24859572475376782,0.1170211643857438,0.010002788199220363,0.24858422354738247,-0.00014417883257329678,-2.0665930042587655e-07,-1.1501206385350349e-05,0.00014463698081259723,0.04718165159540239,5.9851639418070046e-05,-0.00038364339952351765,min_task,none,false,false,7.0,7.0,7.0,7.0,7.0,7.0,7.0,7.0,0.0016759784085736,-0.04078160107216658,0.012913264747472607,-0.00047177972030208146,0.0003321562064707501,-2.9027976722237698e-05,-0.15745444067548087,-0.00020398563256381966,0.05897113268601094,-0.011502326454614568,-0.11664609323628738,-0.004610085866967722,0.0006826574747363207,0.015993589170268267,-0.003992027430249552,0.04718165159540239,5.9851639418070046e-05,-0.00038364339952351765,0.0006471204213512607,0.5557413209476022,0.9128591907803508,-0.00010392588652269837,3.1128278364501735e-05,8.12401097151085e-05,7.0,7.0,7.0,7.0,7.0,7.0,7.0,7.0,1.1691539773837016,1.1691539773837016,1.2358554341494798,1.2358554341494798,1.2359333675956006,1.2359333675956006,1.169236356709597,1.169236356709597,0.0016759784085736,-0.04078160107216658,0.012913264747472607,-0.00047177972030208146,0.0003321562064707501,-2.9027976722237698e-05
3.0,0.04,0.11729994045721873,0.010008672999654026,0.24858360355197642,0.11702116429547019,0.010005689023003821,0.24858463392999974,-0.0002787761617485396,-2.9839766502049586e-06,1.0303780233200666e-06,0.00027879403536440266,0.0470535610130104,5.759919836795154e-05,-0.0003106557687649618,min_task,none,false,false,7.0,7.0,7.0,7.0,7.0,7.0,7.0,7.0,-0.0015794769891929608,-0.0034997287081911877,0.004439372999432756,-8.06862895869544e-05,0.0005290816363802571,-1.3977539391434164e-05,-0.1571811316837382,-0.00019866426429441346,0.051044577494609736,-0.029184712581270828,0.008813481874932366,0.0623027784170951,-0.0022078785684532527,0.043703318468709285,-0.007577234720889299,0.0470535610130104,5.759919836795154e-05,-0.0003106557687649618,0.0008120336199608726,0.5551959554194114,0.9126279598627892,-0.00021681404345800641,6.769497781024928e-05,0.00017049141824455066,7.0,7.0,7.0,7.0,7.0,7.0,7.0,7.0,1.1692431212978638,1.1692431212978638,1.2357635681007189,1.2357635681007189,1.2358392545332009,1.2358392545332009,1.1693231133876252,1.1693231133876252,-0.0015794769891929608,-0.0034997287081911877,0.004439372999432756,-8.06862895869544e-05,0.0005290816363802571,-1.3977539391434164e-05
4.0,0.06,0.11744727656656367,0.010022125674451538,0.24857194943537086,0.11702116335288582,0.010013512177872089,0.24858574068002443,-0.0004261132136778589,-8.613496579448765e-06,1.3791244653560408e-05,0.0004264233361617199,0.04688274236882862,5.493336743849904e-05,-0.00023862815844297153,min_task,none,false,false,7.0,7.0,7.0,7.0,7.0,7.0,7.0,7.0,-0.0037646738812935673,0.020140051896667007,-0.0009771559697978561,0.00016923638395009908,0.0007423819405850442,-4.956654347370384e-06,-0.15675343127431987,-0.00019118407163643252,0.04133356564657835,-0.04291596697646894,0.08787445936643132,0.10349532612191856,-0.005103136883068064,0.06903046616664145,-0.010748808020105024,0.04688274236882862,5.493336743849904e-05,-0.00023862815844297153,0.000992090674755852,0.5545460576122936,0.9123645415523338,-0.00036589829659940413,0.00013706301210401957,0.00028558399939739774,7.0,7.0,7.0,7.0,7.0,7.0,7.0,7.0,1.169361926355677,1.169361926355677,1.2356409865047229,1.2356409865047229,1.2357138457001982,1.2357138457001982,1.1694389149224802,1.1694389149224802,-0.0037646738812935673,0.020140051896667007,-0.0009771559697978561,0.00016923638395009908,0.0007423819405850442,-4.956654347370384e-06
5.0,0.08,0.11759568038347426,0.01004612567327086,0.24856218491556784,0.11702115863408241,0.010028646362674537,0.24858788172930837,-0.0005745217493918486,-1.7479310596323766e-05,2.5696813740538893e-05,0.0005753617062853669,0.046671536272370945,5.203257882848237e-05,-0.00017745173929458873,min_task,none,false,false,7.0,7.0,7.0,7.0,7.0,7.0,7.0,7.0,-0.00522515363342368,0.03470395963670607,-0.004320416365752931,0.00032376611378414906,0.0009564768713565099,4.287272519354327e-08,-0.15618307184074057,-0.00018233278512425492,0.031750263187034444,-0.053698971960125796,0.13634889377073042,0.12844401097868793,-0.007819158411927842,0.09194168148231209,-0.013636269799692926,0.046671536272370945,5.203257882848237e-05,-0.00017745173929458873,0.0011699166231158619,0.5538233081371748,0.9120853717439371,-0.0005490779859392558,0.0002490050928377438,0.0004232929999463155,7.0,7.0,7.0,7.0,7.0,7.0,7.0,7.0,1.1695087254903267,1.1695087254903267,1.2354893315221003,1.2354893315221003,1.235558913976298,1.235558913976298,1.1695822333634223,1.1695822333634223,-0.00522515363342368,0.03470395963670607,-0.004320416365752931,0.00032376611378414906,0.0009564768713565099,4.287272519354327e-08
6.0,0.1,0.11773804603064694,0.010083171493942437,0.24855518435991308,0.11702114266149691,0.010053431012906748,0.24859138804081457,-0.0007169033691500348,-2.9740481035689034e-05,3.620368090148651e-05,0.0007184327688947115,0.04642152021689827,4.9032940290953255e-05,-0.00013347002221653328,min_task,none,false,false,7.0,7.0,7.0,7.0,7.0,7.0,7.0,7.0,-0.006200131044087805,0.0432727315477878,-0.006269646294226925,0.00041448157043295957,0.0011644262823959637,2.3788368616711294e-06,-0.15547787882631806,-0.00017270340269816414,0.023610693421736627,-0.062364039072457925,0.16479093574097192,0.14318704402532495,-0.010285637735088718,0.11269011124090289,-0.016336338182808136,0.04642152021689827,4.9032940290953255e-05,-0.00013347002221653328,0.0013334737082550505,0.5530472368928635,0.9118005119243054,-0.0007653065779703774,0.0004125348882087363,0.0005812872323369331,7.0,7.0,7.0,7.0,7.0,7.0,7.0,7.0,1.1696823849222575,1.1696823849222575,1.2353096998362882,1.2353096998362882,1.2353756711940227,1.2353756711940227,1.1697520575172682,1.1697520575172682,-0.006200131044087805,0.0432727315477878,-0.006269646294226925,0.00041448157043295957,0.0011644262823959637,2.3788368616711294e-06
7.0,0.12000000000000001,0.11787029541674858,0.010135532117006261,0.2485514968825528,0.11702110016845615,0.010090156627542358,0.24859658365602444,-0.0008491952482924253,-4.537548946390371e-05,4.508677347164758e-05,0.0008516010344689622,0.04613378255950737,4.6041009924444426e-05,-0.00011018966435250588,min_task,none,false,false,7.0,7.0,7.0,7.0,7.0,7.0,7.0,7.0,-0.006855037034372097,0.04792464733992558,-0.007292929020430166,0.0004630397251978807,0.0013640162278263262,2.966783850579699e-06,-0.15464313134952792,-0.00016274807335407997,0.017758877396626876,-0.0695782387292749,0.18024711634767293,0.151575885653777,-0.012500929827721182,0.13163767263687204,-0.01891503238063015,0.04613378255950737,4.6041009924444426e-05,-0.00011018966435250588,0.001474788841365931,0.5522294776622164,0.9115160142423204,-0.001014214906630628,0.0006359683577873398,0.0007578383634977374,7.0,7.0,7.0,7.0,7.0,7.0,7.0,7.0,1.1698821115912663,1.1698821115912663,1.2351028373927229,1.2351028373927229,1.2351649720947653,1.2351649720947653,1.1699477101031257,1.1699477101031257,-0.006855037034372097,0.04792464733992558,-0.007292929020430166,0.0004630397251978807,0.0013640162278263262,2.966783850579699e-06
8.0,0.14,0.11799032756020367,0.010205295418887152,0.24855148375930172,0.11702100408752211,0.010141065083669474,0.24860378574234543,-0.0009693234726815547,-6.423033521767846e-05,5.230198304370659e-05,0.0009728561189014069,0.04580910662344788,4.3143559700834e-05,-0.00010885035834505402,min_task,none,false,false,7.0,7.0,7.0,7.0,7.0,7.0,7.0,7.0,-0.007304227321745085,0.0500594553381497,-0.007712018553174051,0.00048421182569578845,0.0015554673829362236,2.4211676410574234e-06,-0.1536824768841545,-0.00015282057595274298,0.014661405137263493,-0.07587155403788934,0.18741440479333585,0.15606080009054474,-0.014498053360845661,0.1491583880901984,-0.021415458166124998,0.04580910662344788,4.3143559700834e-05,-0.00010885035834505402,0.0015889569955917782,0.5513766090670514,0.9112354430562616,-0.0012958463780034406,0.000927029895177813,0.0009516101301365666,7.0,7.0,7.0,7.0,7.0,7.0,7.0,7.0,1.1701073236097286,1.1701073236097286,1.2348692701113706,1.2348692701113706,1.234927451539534,1.234927451539534,1.170168725041676,1.170168725041676,-0.007304227321745085,0.0500594553381497,-0.007712018553174051,0.00048421182569578845,0.0015554673829362236,2.4211676410574234e-06
9.0,0.16,0.11809730247025332,0.010294413827164615,0.24855540206977017,0.11702081082657054,0.010208349928877166,0.24861330464051826,-0.0010764916436827865,-8.60638982874487e-05,5.7902570748086246e-05,0.0010814776748535018,0.04544809411340977,4.0414899505205255e-05,-0.00012890501251927385,min_task,none,false,false,7.0,7.0,7.0,7.0,7.0,7.0,7.0,7.0,-0.007626543798727524,0.05061691573360014,-0.007747310513604972,0.00048800948123895415,0.001740096167564474,1.1521914604630027e-06,-0.15259854587128718,-0.00014320879547631145,0.01448325601529873,-0.08165906980054037,0.18941283992405497,0.15819090221955395,-0.01632435765274765,0.16559062419454468,-0.0238641198114797,0.04544809411340977,4.0414899505205255e-05,-0.00012890501251927385,0.001673339582200127,0.5504920471639477,0.9109608505604728,-0.0016104742885297814,0.0012929679601548269,0.0011615081073970087,7.0,7.0,7.0,7.0,7.0,7.0,7.0,7.0,1.170357563492779,1.170357563492779,1.2346093915739964,1.2346093915739964,1.2346636162651583,1.2346636162651583,1.1704147649406165,1.1704147649406165,-0.007626543798727524,0.05061691573360014,-0.007747310513604972,0.00048800948123895415,0.001740096167564474,1.1521914604630027e-06
10.0,0.18,0.11819115485074541,0.010404744000456888,0.24856345468323748,0.1170204548945149,0.010294156637266126,0.24862544391202443,-0.0011706999562305087,-0.00011058736319076272,6.198922878694613e-05,0.0011775443163215562,0.045051247474337676,3.792226768042133e-05,-0.00016844026452345415,min_task,none,false,false,7.0,7.0,7.0,7.0,7.0,7.0,7.0,7.0,-0.007876000250308468,0.050224878873538326,-0.007549081710169616,0.0004811652199062164,0.0019195498905732987,-5.676888211376571e-07,-0.15139336370711848,-0.00013415909815333923,0.017151682290959366,-0.0872589233710577,0.1883037788359438,0.15893543653757858,-0.018030021363459246,0.18121688670867847,-0.026275613049210843,0.045051247474337676,3.792226768042133e-05,-0.00016844026452345415,0.0017269045876039753,0.5495773009016456,0.9106933982607103,-0.0019584772746427765,0.0017406618392584354,0.0013865736497275009,7.0,7.0,7.0,7.0,7.0,7.0,7.0,7.0,1.170632440483484,1.170632440483484,1.2343235217482926,1.2343235217482926,1.234373905664382,1.234373905664382,1.1706855655368569,1.1706855655368569,-0.007876000250308468,0.050224878873538326,-0.007549081710169616,0.0004811652199062164,0.0019195498905732987,-5.676888211376571e-07
11.0,0.19999999999999998,0.1182722654713578,0.010538079244693554,0.2485758193496086,0.11701984293665578,0.010400582810485812,0.24864050038649357,-0.0012524225347020218,-0.00013749643420774178,6.468103688497817e-05,0.001261606559661845,0.04461902445899654,3.572969631781073e-05,-0.00022455329508083547,min_task,none,false,false,7.0,7.0,7.0,7.0,7.0,7.0,7.0,7.0,-0.008089142584599706,0.0492998882771579,-0.007219203645934021,0.00046815909822462565,0.0020953866661790536,-2.5581273748598194e-06,-0.15006862563880408,-0.00012589428611026917,0.0224121536239593,-0.0929068450894798,0.18543866116968394,0.15889134983542472,-0.019661930132704425,0.19625850852462812,-0.028656017968273932,0.04461902445899654,3.572969631781073e-05,-0.00022455329508083547,0.0017496749370933943,0.548632799596089,0.9104337487746685,-0.002340255265837854,0.002276711091655523,0.0016259095625807318,7.0,7.0,7.0,7.0,7.0,7.0,7.0,7.0,1.1709315926831294,1.1709315926831294,1.2340119462115975,1.2340119462115975,1.2340587314838896,1.2340587314838896,1.1709808982652716,1.1709808982652716,-0.008089142584599706,0.0492998882771579,-0.007219203645934021,0.00046815909822462565,0.0020953866661790536,-2.5581273748598194e-06
12.0,0.21999999999999997,0.11834124045853131,0.010696174488176443,0.24859266496772695,0.1170188472378248,0.010529678300445695,0.24865876420911084,-0.0013223932207065137,-0.00016649618773074797,6.6099241383899e-05,0.0013344714011214124,0.0441518738953403,3.390066870270807e-05,-0.00029369186135627,min_task,none,false,false,7.0,7.0,7.0,7.0,7.0,7.0,7.0,7.0,-0.008290139763645538,0.04811563062259436,-0.006826233559174035,0.00045192811874854554,0.002268861059993261,-4.699641529286352e-06,-0.1486258788517245,-0.00011862648616747628,0.029878487458542075,-0.09876816257285388,0.1816941246538203,0.1584177541733567,-0.02126071412657672,0.21087792591594243,-0.03100533496992929,0.0441518738953403,3.390066870270807e-05,-0.00029369186135627,0.0017422649319168162,0.54765843338539,0.9101823090922727,-0.0027561736474891736,0.00290750483464139,0.0018786285908014328,7.0,7.0,7.0,7.0,7.0,7.0,7.0,7.0,1.1712546626547473,1.1712546626547473,1.2336749422562443,1.2336749422562443,1.2337185032242608,1.2337185032242608,1.1713005450512897,1.1713005450512897,-0.008290139763645538,0.04811563062259436,-0.006826233559174035,0.00045192811874854554,0.002268861059993261,-4.699641529286352e-06
13.0,0.23999999999999996,0.11839876420566656,0.010880764235737117,0.24861416011001553,0.11701729874983516,0.010683445225419,0.24868051888802445,-0.0013814654558313988,-0.0001973190103181175,6.635877800892365e-05,0.001397063021093613,0.04365025875843261,3.249981373686901e-05,-0.0003719590047005367,min_task,none,false,false,7.0,7.0,7.0,7.0,7.0,7.0,7.0,7.0,-0.008494328483688801,0.04684953783764365,-0.006415896106577515,0.00043435527794539027,0.0024408314964434645,-6.9123115094035706e-06,-0.14706664176329753,-0.0001125660250511222,0.03907808639246889,-0.10494802616156447,0.17763059595542563,0.15772305875441928,-0.02285956769867353,0.22518445184158506,-0.033319252742514065,0.04365025875843261,3.249981373686901e-05,-0.0003719590047005367,0.001705493248233482,0.5466539018028294,0.9099393782729785,-0.0032065273541700343,0.003639271038146113,0.002143818573775936,7.0,7.0,7.0,7.0,7.0,7.0,7.0,7.0,1.1716012821681603,1.1716012821681603,1.2333127961801325,1.2333127961801325,1.2333536439018025,1.2333536439018025,1.1716442813765084,1.1716442813765084,-0.008494328483688801,0.04684953783764365,-0.006415896106577515,0.00043435527794539027,0.0024408314964434645,-6.9123115094035706e-06
14.0,0.25999999999999995,0.11844550226770464,0.011093574212452308,0.24864047697372732,0.11701497969829086,0.010863837846253468,0.24870604134175284,-0.0014305225694137835,-0.00022973636619883983,6.55643680255169e-05,0.001450335239146814,0.04311467069556818,3.1593828750663345e-05,-0.0004553809744622556,min_task,none,false,false,7.0,7.0,7.0,7.0,7.0,7.0,7.0,7.0,-0.008710706854018034,0.04561451166450722,-0.0060183540543406605,0.00041660629188405585,0.002611739022155193,-9.141369822404094e-06,-0.14539248090380538,-0.00010792710206470605,0.049492476457235327,-0.11150044441642111,0.17359921810047474,0.15692134585774867,-0.024484024835312687,0.23924134863647228,-0.0355904667165321,0.04311467069556818,3.1593828750663345e-05,-0.0004553809744622556,0.0016400661393861057,0.5456189346988872,0.9097052341676704,-0.0036915194256250928,0.004478107508059651,0.002420520113787086,7.0,7.0,7.0,7.0,7.0,7.0,7.0,7.0,1.1719710631109115,1.1719710631109115,1.2329258146574835,1.2329258146574835,1.2329645993735958,1.2329645993735958,1.172011864969375,1.172011864969375,-0.008710706854018034,0.04561451166450722,-0.0060183540543406605,0.00041660629188405585,0.002611739022155193,-9.141369822404094e-06
15.0,0.27999999999999997,0.11848203797624135,0.011336327519939106,0.2486717927161008,0.11701161582258765,0.011072762264417313,0.24873560194659233,-0.0014704221536536999,-0.0002635652555217933,6.380923049154053e-05,0.0014952189042978876,0.042545638824855715,3.12517848691925e-05,-0.0005401357904172966,min_task,none,false,false,7.0,7.0,7.0,7.0,7.0,7.0,7.0,7.0,-0.00894371528534719,0.04448050823099214,-0.005653241907471936,0.0003993615707399248,0.0027816271285712266,-1.1347566984591376e-05,-0.14360505923600012,-0.00010493089295096462,0.06059295252991034,-0.11843653902213938,0.16981386141380464,0.15606874457868097,-0.026152211912593187,0.2530730752404964,-0.03780970100533648,0.042545638824855715,3.12517848691925e-05,-0.0005401357904172966,0.0015463271340493555,0.5445534288519005,0.9094801817113808,-0.004211250407620055,0.00542999689599959,0.0027077139521470093,7.0,7.0,7.0,7.0,7.0,7.0,7.0,7.0,1.1723635925113787,1.1723635925113787,1.232514332128671,1.232514332128671,1.2325518434212783,1.2325518434212783,1.172403028341702,1.172403028341702,-0.00894371528534719,0.04448050823099214,-0.005653241907471936,0.0003993615707399248,0.0027816271285712266,-1.1347566984591376e-05
16.0,0.3,0.1185088316079276,0.01161074614314302,0.24870828936409517,0.11700686830201543,0.011312075898724934,0.24876946458402444,-0.0015019633059121795,-0.0002986702444180856,6.117521992926589e-05,0.001532592605600326,0.041943734724552574,3.154494395614525e-05,-0.0006227399701383721,min_task,none,false,false,7.0,7.0,7.0,7.0,7.0,7.0,7.0,7.0,-0.009194533999502597,0.043489208088015874,-0.005333140915727626,0.0003829764627149845,0.0029501845151912805,-1.3500848680720104e-05,-0.14170616533217104,-0.00010380659542727095,0.07187098805554112,-0.12573227097072906,0.16639952776862055,0.15518681076280366,-0.027875317985070074,0.26667219013740456,-0.03996653341350654,0.041943734724552574,3.154494395614525e-05,-0.0006227399701383721,0.0014240704473267468,0.5434575294709771,0.9092645774448149,-0.004765716119318489,0.0065008082655034684,0.003004316096815273,7.0,7.0,7.0,7.0,7.0,7.0,7.0,7.0,1.1727784302498419,1.1727784302498419,1.232078715500409,1.232078715500409,1.2321158800937537,1.2321158800937537,1.1728174739699915,1.1728174739699915,-0.009194533999502597,0.043489208088015874,-0.005333140915727626,0.0003829764627149845,0.0029501845151912805,-1.3500848680720104e-05
17.0,0.32,0.11852619446347927,0.011918548610089707,0.2487501530084281,0.11700032542029412,0.011583586692885868,0.2488078866881232,-0.001525869043185149,-0.00033496191720383886,5.773367969511001e-05,0.0015632686911400647,0.0413095749163966,3.2546199278083004e-05,-0.0007001918363987974,min_task,none,false,false,7.0,7.0,7.0,7.0,7.0,7.0,7.0,7.0,-0.009462051114899783,0.042663971532851404,-0.005065968884388476,0.00036759254803140387,0.0031167998198515746,-1.5576322563857187e-05,-0.13969772981443165,-0.00010479084380875528,0.08286307993296771,-0.13333575829839525,0.16342480160675646,0.15427748670318048,-0.029658152446794626,0.2800057053852069,-0.042050082808068164,0.0413095749163966,3.2546199278083004e-05,-0.0007001918363987974,0.001272415125356559,0.5423316762264973,0.9090588397596631,-0.005354811955294561,0.007696287696456786,0.003309179235793964,7.0,7.0,7.0,7.0,7.0,7.0,7.0,7.0,1.1732151084662605,1.1732151084662605,1.2316193670116724,1.2316193670116724,1.2316572443280274,1.2316572443280274,1.1732548713050275,1.1732548713050275,-0.009462051114899783,0.042663971532851404,-0.005065968884388476,0.00036759254803140387,0.0031167998198515746,-1.5576322563857187e-05
18.0,0.34,0.1185342726511486,0.012261444547057191,0.24879757269333067,0.11699149402070408,0.011889052001576372,0.24885111929296272,-0.0015427786304445246,-0.0003723925454808194,5.354659963205388e-05,0.0015879890896407702,0.04064382172874794,3.4329240196534764e-05,-0.0007700711552893545,min_task,none,false,false,7.0,7.0,7.0,7.0,7.0,7.0,7.0,7.0,-0.009743603266212682,0.04201658246993161,-0.00485661510725012,0.0003532155902769215,0.003280621394497456,-1.7551797516806364e-05,-0.13758183341501187,-0.00010812586469614007,0.09316981755008898,-0.14117420329338537,0.16092354289433183,0.15333264231237803,-0.03149973118420631,0.29302082953406366,-0.04404958970151855,0.04064382172874794,3.4329240196534764e-05,-0.0007700711552893545,0.0010897360960100471,0.5411766269720477,0.9088634509940278,-0.005978342216635585,0.009022040243272607,0.0036210992205731544,7.0,7.0,7.0,7.0,7.0,7.0,7.0,7.0,1.17367313197466,1.17367313197466,1.2311367258307162,1.2311367258307162,1.2311765015354033,1.2311765015354033,1.1737148550491243,1.1737148550491243,-0.009743603266212682,0.04201658246993161,-0.00485661510725012,0.0003532155902769215,0.003280621394497456,-1.7551797516806364e-05
19.0,0.36000000000000004,0.1185330370520622,0.012641126801295605,0.24885073923095613,0.11697979080426164,0.012230177098617215,0.24889940708002445,-0.001553246247800552,-0.00041094970267839016,4.866784906831789e-05,0.0016074271753242473,0.03994718314150036,3.6967531980149196e-05,-0.000830596377316835,min_task,none,false,false,7.0,7.0,7.0,7.0,7.0,7.0,7.0,7.0,-0.010035554841844948,0.04155180293417497,-0.004708050862514808,0.00033977070956084707,0.0034406177895077634,-1.9406390517553672e-05,-0.1353607096201333,-0.00011405670693482975,0.10246914256438909,-0.1491603823484299,0.1589093238513946,0.1523401327145522,-0.033393874045748215,0.3056501118639814,-0.0459549022449261,0.03994718314150036,3.6967531980149196e-05,-0.000830596377316835,0.0008736471561546858,0.5399934679475565,0.9086789553128596,-0.006636033103752777,0.010483505345531803,0.003938825506807338,7.0,7.0,7.0,7.0,7.0,7.0,7.0,7.0,1.1741519792067032,1.1741519792067032,1.2306312687588141,1.2306312687588141,1.2306742466120921,1.2306742466120921,1.1741970243116486,1.1741970243116486,-0.010035554841844948,0.04155180293417497,-0.004708050862514808,0.00033977070956084707,0.0034406177895077634,-1.9406390517553672e-05
20.0,0.38000000000000006,0.1185222771065613,0.013059261729151766,0.2489098440600463,0.11696453352420128,0.012608613247122183,0.24895298842560468,-0.0015577435823600216,-0.0004506484820295826,4.314436555838408e-05,0.0016221931324656863,0.039220412021678606,4.053319352007113e-05,-0.0008806422640319046,min_task,none,false,false,7.0,7.0,7.0,7.0,7.0,7.0,7.0,7.0,-0.010333757990549973,0.04127043906501264,-0.0046220765744726415,0.00032714190694688975,0.0035956358012978066,-2.1119840977527002e-05,-0.13303674391315157,-0.00012282784894104476,0.11052396840995,-0.15719860635800614,0.15738499589667823,0.151287646092489,-0.03532980897892016,0.3178159999168156,-0.04775686895660124,0.039220412021678606,4.053319352007113e-05,-0.0008806422640319046,0.0006210297550452483,0.538783616302392,0.9085059548899319,-0.0073275480485433,0.012085927553992263,0.004261074465596842,7.0,7.0,7.0,7.0,7.0,7.0,7.0,7.0,1.1746511033596685,1.1746511033596685,1.2301035102949376,1.2301035102949376,1.230151102677448,1.230151102677448,1.1747009423690358,1.1747009423690358,-0.010333757990549973,0.04127043906501264,-0.0046220765744726415,0.00032714190694688975,0.0035956358012978066,-2.1119840977527002e-05
21.0,0.4000000000000001,0.11850159686099353,0.013517478172350817,0.24897507820494813,0.11694493213141097,0.013025955268226828,0.24901209544822198,-0.0015566647295825603,-0.0004915229041239887,3.701724327384581e-05,0.0016328411196146488,0.03846430502712939,4.50958472561778e-05,-0.0009197220372646177,min_task,none,false,false,7.0,7.0,7.0,7.0,7.0,7.0,7.0,7.0,-0.010633919472828175,0.041171391646643664,-0.004599817770598157,0.0003152006503512847,0.0037444540085798117,-2.2672277619296518e-05,-0.13061247098731246,-0.00013467945935759367,0.11718452942296119,-0.16519004831377104,0.15634897933900893,0.15016513995465172,-0.03729278687497347,0.32943483498663667,-0.04944763443428064,0.03846430502712939,4.50958472561778e-05,-0.0009197220372646177,0.00032810042131269367,0.5375488187893841,0.9083451059937288,-0.008052504081602057,0.013834324195775207,0.00458654447905385,7.0,7.0,7.0,7.0,7.0,7.0,7.0,7.0,1.1751699335352643,1.1751699335352643,1.2295540022397777,1.2295540022397777,1.2296077197373043,1.2296077197373043,1.1752261368345225,1.1752261368345225,-0.010633919472828175,0.041171391646643664,-0.004599817770598157,0.0003152006503512847,0.0037444540085798117,-2.2672277619296518e-05
22.0,0.4200000000000001,0.11847041226422675,0.014017355569611919,0.2490466313556305,0.11692007992748149,0.013483738542283253,0.24907695405602442,-0.0015503323367452582,-0.0005336170273286655,3.0322700393936586e-05,0.0016398771150218162,0.03767970136581337,5.072150639325071e-05,-0.0009479392872778043,min_task,none,false,false,7.0,7.0,7.0,7.0,7.0,7.0,7.0,7.0,-0.010931890216279579,0.041253015874289166,-0.004642048442047847,0.00030382665950234687,0.003885829992427386,-2.4044253221881613e-05,-0.12809057085829556,-0.0001498435591032909,0.12238600969151962,-0.17303732968360266,0.15579935999483682,0.14896638444136767,-0.03926470257145814,0.3404202760358456,-0.0510208334882941,0.03767970136581337,5.072150639325071e-05,-0.0009479392872778043,-9.49104779543003e-06,0.5362911491441092,0.9081971159920472,-0.008810487963191995,0.015733451363466818,0.004913931742669854,7.0,7.0,7.0,7.0,7.0,7.0,7.0,7.0,1.1757078757373645,1.1757078757373645,1.2289833329710942,1.2289833329710942,1.2290447733983516,1.2290447733983516,1.1757721000976045,1.1757721000976045,-0.010931890216279579,0.041253015874289166,-0.004642048442047847,0.00030382665950234687,0.003885829992427386,-2.4044253221881613e-05
23.0,0.4400000000000001,0.1184279490798364,0.014560411575516163,0.24912469107130317,0.11688894478471942,0.013983435374282623,0.24914778399419726,-0.001539004295116983,-0.0005769762012335401,2.3092922894096812e-05,0.0016437667231898208,0.036867481536358326,5.7471554348936024e-05,-0.0009659156601119429,min_task,none,false,false,7.0,7.0,7.0,7.0,7.0,7.0,7.0,7.0,-0.011223887530579802,0.04151400744337374,-0.004749395872703115,0.00029292291882677214,0.004018540190314327,-2.5216919253970806e-05,-0.1254738645053344,-0.0001685403024600718,0.12614214800864545,-0.18064828359332824,0.15573650798338864,0.1476899300513546,-0.04122471914504255,0.3506861613669844,-0.05247168114919199,0.036867481536358326,5.7471554348936024e-05,-0.0009659156601119429,-0.000396540893681812,0.5350130057665182,0.9080627419135431,-0.009601070879003375,0.01778776937750071,0.005241945735637346,7.0,7.0,7.0,7.0,7.0,7.0,7.0,7.0,1.1762643136564876,1.1762643136564876,1.2283921264938635,1.2283921264938635,1.2284629637110156,1.2284629637110156,1.1763382899316437,1.1763382899316437,-0.011223887530579802,0.04151400744337374,-0.004749395872703115,0.00029292291882677214,0.004018540190314327,-2.5216919253970806e-05
24.0,0.46000000000000013,0.11837324103661681,0.015148089483398982,0.2492094421017936,0.11685036049588074,0.014526450653813038,0.24922479889237012,-0.0015228805407360713,-0.0006216388295859441,1.5356790576515067e-05,0.001644942493468505,0.036028566132475286,6.540186043214854e-05,-0.0009747007853070654,min_task,none,false,false,7.0,7.0,7.0,7.0,7.0,7.0,7.0,7.0,-0.011506656149380283,0.041953963320909636,-0.004922465557103883,0.00028242629779547546,0.004141411378787447,-2.6172246501463138e-05,-0.12276530946208745,-0.00019097456121390703,0.12853561965330085,-0.18793882983258978,0.15616469686604942,0.14633968400160713,-0.04314987962318005,0.36014878487144397,-0.053796959800779406,0.036028566132475286,6.540186043214854e-05,-0.0009747007853070654,-0.0008381564588602179,0.5337171107183016,0.9079427909585329,-0.010423820623058067,0.020001408638682768,0.005569323399483402,7.0,7.0,7.0,7.0,7.0,7.0,7.0,7.0,1.1768386092117915,1.1768386092117915,1.2277810413501629,1.2277810413501629,1.2278630141849354,1.2278630141849354,1.1769241301953017,1.1769241301953017,-0.011506656149380283,0.041953963320909636,-0.004922465557103883,0.00028242629779547546,0.004141411378787447,-2.6172246501463138e-05
25.0,0.48000000000000015,0.11830512801448717,0.01578174567424436,0.24930106581813954,0.11680301832054088,0.015114116739150566,0.24930820631202444,-0.0015021096939462908,-0.0006676289350937958,7.140493884894017e-06,0.00164381048611901,0.03516391476339615,7.456206431034365e-05,-0.0009756710036693916,min_task,none,false,false,7.0,7.0,7.0,7.0,7.0,7.0,7.0,7.0,-0.011777573195278338,0.04257371577370202,-0.005161911608903037,0.0002723146885284803,0.004253343371593757,-2.6893231763595662e-05,-0.11996799563382377,-0.00021733295948957453,0.12970605444845132,-0.19483493737163393,0.1570930411185852,0.1449252210614084,-0.04501569064394205,0.36872858740835435,-0.054994909318209786,0.03516391476339615,7.456206431034365e-05,-0.0009756710036693916,-0.0013396148965278277,0.5324065106425616,0.9078381231887139,-0.011278310359684449,0.022378136558498525,0.005894841187632149,7.0,7.0,7.0,7.0,7.0,7.0,7.0,7.0,1.177430102851075,1.177430102851075,1.2271507694600428,1.2271507694600428,1.227245670997614,1.227245670997614,1.1775290115729213,1.1775290115729213,-0.011777573195278338,0.04257371577370202,-0.005161911608903037,0.0002723146885284803,0.004253343371593757,-2.6893231763595662e-05
26.0,0.5000000000000001,0.11822225418077198,0.016462637240628963,0.24939973974352836,0.11674545879995049,0.01574768749519359,0.24939820779390098,-0.0014767953808214884,-0.0007149497454353726,-1.5319496273757949e-06,0.0016407559483919143,0.03427452512043287,8.499505032837953e-05,-0.0009704232336492989,min_task,none,false,false,7.0,7.0,7.0,7.0,7.0,7.0,7.0,7.0,-0.01203470152887802,0.0433755060616435,-0.005468471543524309,0.00026261134719729966,0.004353322821047483,-2.7364049142992682e-05,-0.11708514151531259,-0.00024778146879586533,0.1298365637206569,-0.20127368295004958,0.15853595350782898,0.14346187636617447,-0.04679665838035355,0.37635126567517097,-0.056065030851488486,0.03427452512043287,8.499505032837953e-05,-0.0009704232336492989,-0.0019062227247241279,0.531084579934288,0.9077496565102806,-0.012164123266969688,0.024921326033465016,0.0062173243102021354,7.0,7.0,7.0,7.0,7.0,7.0,7.0,7.0,1.1780381136285967,1.1780381136285967,1.226502034952614,1.226502034952614,1.2266117023996896,1.2266117023996896,1.1781522923130878,1.1781522923130878,-0.01203470152887802,0.0433755060616435,-0.005468471543524309,0.00026261134719729966,0.004353322821047483,-2.7364049142992682e-05
27.0,0.5200000000000001,0.11812306607109153,0.01719190986359963,0.24950563717641838,0.11667606391794959,0.016428331415968805,0.24949499890540716,-0.0014470021531419464,-0.0007635784476308256,-1.0638271011220723e-05,0.0016361480524982569,0.03336143220345191,9.673662162259172e-05,-0.0009606698138741397,min_task,none,false,false,7.0,7.0,7.0,7.0,7.0,7.0,7.0,7.0,-0.012276796415363183,0.04436304396320447,-0.005842977290897422,0.0002533869785355381,0.0044404281780158995,-2.757012309840058e-05,-0.11412009090994137,-0.00028246363439717254,0.12913961945023958,-0.20720344475296237,0.16051326922954826,0.14197067651634782,-0.048466752499874734,0.3829483002598935,-0.057007819222148884,0.03336143220345191,9.673662162259172e-05,-0.0009606698138741397,-0.0025431824562954504,0.5297550262986276,0.9076783739792715,-0.013080852601737195,0.027633925714741055,0.006535652691074828,7.0,7.0,7.0,7.0,7.0,7.0,7.0,7.0,1.178661939091708,1.178661939091708,1.2258355930347953,1.2258355930347953,1.2259618983074907,1.2259618983074907,1.1787932989350436,1.1787932989350436,-0.012276796415363183,0.04436304396320447,-0.005842977290897422,0.0002533869785355381,0.0044404281780158995,-2.757012309840058e-05
28.0,0.5400000000000001,0.11800581066295646,0.017970585953655586,0.24961892689848184,0.11659304969202527,0.01715712376445011,0.24959876928802444,-0.0014127609709311817,-0.0008134621892054751,-2.015761045739972e-05,0.001630343713304876,0.03242570770865292,0.00010981537371679834,-0.0009481394310120862,min_task,none,false,false,7.0,7.0,7.0,7.0,7.0,7.0,7.0,7.0,-0.012503271283986499,0.045541482360499104,-0.006286350814088494,0.00024476001619042954,0.004513826563554396,-2.7498115379340447e-05,-0.1110763101962293,-0.00032149946700206646,0.12784306232211767,-0.2125833125364916,0.16305012122599158,0.14047812251455827,-0.04999978324448974,0.38845694995209695,-0.057824442352396664,0.03242570770865292,0.00010981537371679834,-0.0009481394310120862,-0.0032554713702167863,0.5284218986983232,0.9076253333894253,-0.01402809697660407,0.03051843212378906,0.00684876336691825,7.0,7.0,7.0,7.0,7.0,7.0,7.0,7.0,1.1793008550124868,1.1793008550124868,1.22515222893307,1.22515222893307,1.225297070064012,1.225297070064012,1.1794513268808362,1.1794513268808362,-0.012503271283986499,0.045541482360499104,-0.006286350814088494,0.00024476001619042954,0.004513826563554396,-2.7498115379340447e-05
29.0,0.5600000000000002,0.1178685335273322,0.01879955300550007,0.24973977295996566,0.11649445928588432,0.017935037665534878,0.2497097027047158,-0.0013740742414478785,-0.0008645153399651911,-3.0070255249869948e-05,0.0016236905537375295,0.03146845956933374,0.00012425275825532242,-0.0009344883450087146,min_task,none,false,false,7.0,7.0,7.0,7.0,7.0,7.0,7.0,7.0,-0.012714128584175992,0.04691732811175514,-0.006799589727354434,0.0002368955344822658,0.0045727631593852885,-2.7135825649616205e-05,-0.10795738614668383,-0.0003649849994114411,0.12617691855385188,-0.2173818090807692,0.16617663071276498,0.13901584537681405,-0.051369670433097925,0.3928197383102306,-0.05851638848212804,0.03146845956933374,0.00012425275825532242,-0.0009344883450087146,-0.004047736198806797,0.5270895975912872,0.9075916790419479,-0.015005450886634845,0.03357686348019957,0.0071556492775718275,7.0,7.0,7.0,7.0,7.0,7.0,7.0,7.0,1.179954115001597,1.179954115001597,1.224452756931317,1.224452756931317,1.2246180503425013,1.2246180503425013,1.180125641098086,1.180125641098086,-0.012714128584175992,0.04691732811175514,-0.006799589727354434,0.0002368955344822658,0.0045727631593852885,-2.7135825649616205e-05
30.0,0.5800000000000002,0.11770907716967227,0.019679552061504357,0.24986833453466964,0.11637815674294313,0.018762934092317246,0.2498279770873331,-0.0013309204267291375,-0.0009166179691871106,-4.035744733654756e-05,0.0016165291235474522,0.030490831633823375,0.00014006332002714094,-0.0009212251207202386,min_task,none,false,false,7.0,7.0,7.0,7.0,7.0,7.0,7.0,7.0,-0.01290986302404023,0.0484983064289258,-0.007383746430088988,0.00023000321467073255,0.0046165442941341,-2.647201575117556e-05,-0.10476702427187148,-0.0004129924775195074,0.12436158607829349,-0.22157504984301227,0.16992746695160676,0.1376201631463081,-0.05255059507217664,0.39598350317321956,-0.0590851029577506,0.030490831633823375,0.00014006332002714094,-0.0009212251207202386,-0.0049242061662047015,0.5257628872856142,0.9075786555446969,-0.016012490751068004,0.0368107349426218,0.0074553546105313884,7.0,7.0,7.0,7.0,7.0,7.0,7.0,7.0,1.1806209500399445,1.1806209500399445,1.2237380195160172,1.2237380195160172,1.223925693162411,1.223925693162411,1.1808154765446315,1.1808154765446315,-0.01290986302404023,0.0484983064289258,-0.007383746430088988,0.00023000321467073255,0.0046165442941341,-2.647201575117556e-05
31.0,0.6000000000000002,0.11752507969193204,0.020611166133862775,0.25000476583599385,0.1162418214488613,0.019641550691392888,0.24995376458402443,-0.0012832582430707395,-0.0009696154424698872,-5.100125196941252e-05,0.001609194504212441,0.029494003458950882,0.0001572550846970313,-0.0009096510277763717,min_task,none,false,false,7.0,7.0,7.0,7.0,7.0,7.0,7.0,7.0,-0.013091344510944094,0.05029318898173002,-0.008039902378398647,0.00022433474130114706,0.004644515572866201,-2.549617436770295e-05,-0.1015090476377746,-0.00046557112994864615,0.12259781725098196,-0.225144480597749,0.1743413067567424,0.1363315584191375,-0.0535170294745125,0.3978980901160654,-0.05953163602972717,0.029494003458950882,0.0001572550846970313,-0.0009096510277763717,-0.005888625500448564,0.524446910183214,0.907587623443389,-0.017048756932516205,0.04022103482686082,0.007746967056700028,7.0,7.0,7.0,7.0,7.0,7.0,7.0,7.0,1.1813005679606101,1.1813005679606101,1.2230088866293682,1.2230088866293682,1.2232208739852741,1.2232208739852741,1.1815200386125286,1.1815200386125286,-0.013091344510944094,0.05029318898173002,-0.008039902378398647,0.00022433474130114706,0.004644515572866201,-2.549617436770295e-05
32.0,0.6200000000000002,0.11731397392404164,0.021594808399948734,0.2501492160841208,0.11608294344059332,0.020571489399938137,0.2500872316066417,-0.0012310304834483171,-0.0010233190000105974,-6.198447747907121e-05,0.0016020174475985085,0.02847919019289536,0.00017583007070634036,-0.0009008172347670787,min_task,none,false,false,7.0,7.0,7.0,7.0,7.0,7.0,7.0,7.0,-0.01325968775781557,0.05231159431306525,-0.008769138572176753,0.00022018099405545562,0.004656036247710476,-2.419824007036609e-05,-0.09818739608533743,-0.0005227484413257355,0.12105878595069136,-0.22807433112567468,0.17946021867167664,0.13519409409563135,-0.05424364217064613,0.39851475712909895,-0.05985632149315417,0.02847919019289536,0.00017583007070634036,-0.0009008172347670787,-0.006944205314305425,0.5231472026377638,0.9076200764470356,-0.018113732350805736,0.043808201253470555,0.008029607499216636,7.0,7.0,7.0,7.0,7.0,7.0,7.0,7.0,1.1819921529101027,1.1819921529101027,1.2222662550215326,1.2222662550215326,1.2225044898577817,1.2225044898577817,1.1822385034751375,1.1822385034751375,-0.01325968775781557,0.05231159431306525,-0.008769138572176753,0.00022018099405545562,0.004656036247710476,-2.419824007036609e-05
33.0,0.6400000000000002,0.11707298718826249,0.022630709961682025,0.2503018295131717,0.1158988196893122,0.02155320281584628,0.2502285388781479,-0.0011741674989502876,-0.0010775071458357446,-7.329063502381494e-05,0.0015953251963472714,0.027447642518078977,0.00019578489664363476,-0.0008954989510386908,min_task,none,false,false,7.0,7.0,7.0,7.0,7.0,7.0,7.0,7.0,-0.013416116180338594,0.05456377024241141,-0.009572502608745394,0.00021786936140214227,0.004650451478590394,-2.2568306124307454e-05,-0.09480612576605452,-0.0005845318409470635,0.1198843891404621,-0.23034893784057656,0.18532900413288067,0.1342548026878839,-0.054705088824640716,0.39778439974911295,-0.060058503272951286,0.027447642518078977,0.00019578489664363476,-0.0008954989510386908,-0.008093593664698888,0.521869712118854,0.9076776599782819,-0.01920681841482758,0.04757209859658996,0.008302417783148625,7.0,7.0,7.0,7.0,7.0,7.0,7.0,7.0,1.1826948648145992,1.1826948648145992,1.2215110476858608,1.2215110476858608,1.2217774595707762,1.2217774595707762,1.1829700183670901,1.1829700183670901,-0.013416116180338594,0.05456377024241141,-0.009572502608745394,0.00021786936140214227,0.004650451478590394,-2.2568306124307454e-05
34.0,0.6600000000000003,0.1167991418739889,0.02371890694777024,0.25046274540635116,0.11568655149485195,0.02258697929239748,0.25037784148002445,-0.0011125903791369546,-0.0011319276553727574,-8.490392632670707e-05,0.0015894421176788638,0.026400646622763774,0.0002171114548496133,-0.0008941858003350554,min_task,none,false,false,7.0,7.0,7.0,7.0,7.0,7.0,7.0,7.0,-0.01356182611801864,0.05706036419606275,-0.01045097224250782,0.00021776144033539254,0.004627063644798374,-2.059632775324984e-05,-0.09136940889681883,-0.0006509107113077789,0.11917780350892244,-0.23195006569739576,0.19199451253045288,0.1335630688121851,-0.05487569580987069,0.3956556646452977,-0.06013632335872829,0.026400646622763774,0.0002171114548496133,-0.0008941858003350554,-0.00933886169536246,0.5206208153500189,0.9077621907572414,-0.020327309049718214,0.05151199305413731,0.008564547295335172,7.0,7.0,7.0,7.0,7.0,7.0,7.0,7.0,1.183407838873928,1.183407838873928,1.2207442133555928,1.2207442133555928,1.2210407238055667,1.2210407238055667,1.1837137018125277,1.1837137018125277,-0.01356182611801864,0.05706036419606275,-0.01045097224250782,0.00021776144033539254,0.004627063644798374,-2.059632775324984e-05
35.0,0.6800000000000003,0.11648925701567382,0.02485922673957787,0.2506320981467549,0.1154430431398799,0.023672926740908984,0.25053528889967874,-0.0010462138757939277,-0.0011862999986688855,-9.680924707616834e-05,0.0015846902508266415,0.025339524168806214,0.00023979762292679338,-0.0008970869771093536,min_task,none,false,false,7.0,7.0,7.0,7.0,7.0,7.0,7.0,7.0,-0.013697857556931078,0.059812184102844015,-0.011405414186178395,0.0002202512612233949,0.004585104476896697,-1.8271858998767375e-05,-0.08788153363045005,-0.0007218586190985233,0.11900420215459899,-0.2328543718507512,0.19950493647347115,0.1331700240199053,-0.0547290629809135,0.39207307519396095,-0.060086580221808406,0.025339524168806214,0.00023979762292679338,-0.0008970869771093536,-0.010681503071418186,0.5194073370683311,0.9078756771124823,-0.021474363600323967,0.055626526642196084,0.008815139118357197,7.0,7.0,7.0,7.0,7.0,7.0,7.0,7.0,1.1841301851038968,1.1841301851038968,1.2199667260369917,1.2199667260369917,1.2202952452422358,1.2202952452422358,1.1844686438220224,1.1844686438220224,-0.013697857556931078,0.059812184102844015,-0.011405414186178395,0.0002202512612233949,0.004585104476896697,-1.8271858998767375e-05
36.0,0.7000000000000003,0.11613995108082628,0.026051273115465942,0.2508100172715708,0.11516500196267287,0.02481095513868283,0.2507010250778516,-0.0009749491181534065,-0.0012403179767831105,-0.0001089921937192373,0.0015813898206360078,0.024265632222690483,0.0002638279868349058,-0.0009041491592063998,min_task,none,false,false,7.0,7.0,7.0,7.0,7.0,7.0,7.0,7.0,-0.013824975497427868,0.06282995745865358,-0.012436539035679628,0.00022576418305392406,0.0045237087860582025,-1.5583833703967055e-05,-0.08434690393409736,-0.0007973356743168277,0.1193914386506806,-0.23303110989238118,0.2079091061640726,0.13312796526069573,-0.054237597816614046,0.3869752120177073,-0.05990466224982617,0.024265632222690483,0.0002638279868349058,-0.0009041491592063998,-0.012122443438561892,0.5182365690394372,0.9080203397047645,-0.022646979347720458,0.05991368892587146,0.009053316510795956,7.0,7.0,7.0,7.0,7.0,7.0,7.0,7.0,1.1848609879460337,1.1848609879460337,1.2191795845520594,1.2191795845520594,1.21954200860802,1.21954200860802,1.1852339060825092,1.1852339060825092,-0.013824975497427868,0.06282995745865358,-0.012436539035679628,0.00022576418305392406,0.0045237087860582025,-1.5583833703967055e-05
37.0,0.7200000000000003,0.11574764618941051,0.027294410134715983,0.2509966275183144,0.11484894001793104,0.026000757755457026,0.2508751884560244,-0.0008987061714794686,-0.0012936523792589569,-0.00012143906229000745,0.0015798597111349856,0.023180363117211382,0.0002891845520354655,-0.0009150847407392415,min_task,none,false,false,7.0,7.0,7.0,7.0,7.0,7.0,7.0,7.0,-0.013943565795671452,0.06612408771876657,-0.013544850304796047,0.0002347563961121352,0.004441891154604058,-1.2520414017080651e-05,-0.08077003936638863,-0.000877290929780337,0.12033242899070486,-0.23244018034763328,0.2172557782937269,0.13348981075987884,-0.053372012023952815,0.3802930449241731,-0.05958455612079006,0.023180363117211382,0.0002891845520354655,-0.0009150847407392415,-0.013662056384715548,0.517116288951496,0.9081986323479528,-0.02384396429082256,0.0643707858334878,0.009278170411488696,7.0,7.0,7.0,7.0,7.0,7.0,7.0,7.0,1.1855993059629728,1.1855993059629728,1.2183838120636017,1.2183838120636017,1.2187820206468563,1.2187820206468563,1.1860085221672239,1.1860085221672239,-0.013943565795671452,0.06612408771876657,-0.013544850304796047,0.0002347563961121352,0.004441891154604058,-1.2520414017080651e-05
38.0,0.7400000000000003,0.1153085739995881,0.028587744620033436,0.25119204885336105,0.11449117750528706,0.027241791129586208,0.25105791202382693,-0.0008173964943010426,-0.0013459534904472284,-0.000134136829534115,0.0015804178296830798,0.022085144211803097,0.0003158474223460079,-0.0009294077076258917,min_task,none,false,false,7.0,7.0,7.0,7.0,7.0,7.0,7.0,7.0,-0.014053547449759453,0.06970441180012764,-0.014730588192246291,0.0002477149536261085,0.004338526160633751,-9.068916927836271e-06,-0.07715557464481247,-0.0009616647426656609,0.12178890732639246,-0.23103059353410746,0.22759292339507375,0.13430858861451184,-0.05210080101014398,0.37194844916266745,-0.059118925783476335,0.022085144211803097,0.0003158474223460079,-0.0009294077076258917,-0.015300182338379218,0.5160547788023256,0.9084132626143352,-0.02506391072921221,0.06899440495777967,0.00948874857471811,7.0,7.0,7.0,7.0,7.0,7.0,7.0,7.0,1.1863441716375085,1.1863441716375085,1.217580455556077,1.217580455556077,1.2180163099933388,1.2180163099933388,1.1867914977939182,1.1867914977939182,-0.014053547449759453,0.06970441180012764,-0.014730588192246291,0.0002477149536261085,0.004338526160633751,-9.068916927836271e-06
39.0,0.7600000000000003,0.1148187835067381,0.029930107146027188,0.2513963964750347,0.1140878481547895,0.028533253845430755,0.2512493233664442,-0.0007309353519485973,-0.0013968533005964331,-0.00014707310859052303,0.001583381233748161,0.02098143752027687,0.0003437954294106861,-0.0009464743980478214,min_task,none,false,false,7.0,7.0,7.0,7.0,7.0,7.0,7.0,7.0,-0.014154302619114606,0.07357995606758114,-0.01599366687145053,0.00026515807205879837,0.00421233296934676,-5.21583314884631e-06,-0.07350825889668962,-0.0010503910302686558,0.12369619924348381,-0.22873940640114188,0.23896699708379043,0.1356369509380211,-0.050389737158001706,0.3618529639410632,-0.0584992540203321,0.02098143752027687,0.0003437954294106861,-0.0009464743980478214,-0.017036146985851642,0.5150608423836734,0.9086672119149823,-0.026305170047337262,0.07378037682234023,0.00968404682475075,7.0,7.0,7.0,7.0,7.0,7.0,7.0,7.0,1.1870945912937747,1.1870945912937747,1.2167705852471233,1.2167705852471233,1.2172459269353615,1.2172459269353615,1.1875818111595655,1.1875818111595655,-0.014154302619114606,0.07357995606758114,-0.01599366687145053,0.00026515807205879837,0.00421233296934676,-5.21583314884631e-06
40.0,0.7800000000000004,0.11427415101269092,0.031320031497969386,0.25160978078606133,0.11363490676735719,0.029874064186003135,0.25144954471202446,-0.0006392442453337366,-0.0014459673119662508,-0.00016023607403686801,0.001589065848821235,0.01987073917538399,0.00037300669862406805,-0.0009655264561497524,min_task,none,false,false,7.0,7.0,7.0,7.0,7.0,7.0,7.0,7.0,-0.014244623983044259,0.07775869011948712,-0.01733360525175381,0.0002876353883465179,0.00406186439361011,-9.469429322584032e-07,-0.0698329544894427,-0.0011433993631332546,0.12596864560194843,-0.2254911579408491,0.2514221863857253,0.13752670196468977,-0.04820139619172595,0.3499067926695411,-0.057716035720419966,0.01987073917538399,0.00037300669862406805,-0.0009655264561497524,-0.018868776100868238,0.514143821452665,0.9089637547485031,-0.027565828955679612,0.0787237316771119,0.009863002781829869,7.0,7.0,7.0,7.0,7.0,7.0,7.0,7.0,1.1878495451601672,1.1878495451601672,1.2159552939066,1.2159552939066,1.216471943049362,1.216471943049362,1.1883784133785078,1.1883784133785078,-0.014244623983044259,0.07775869011948712,-0.01733360525175381,0.0002876353883465179,0.00406186439361011,-9.469429322584032e-07
41.0,0.8000000000000004,0.1136703925285287,0.03275573262812396,0.25183230733270506,0.11312813911568184,0.03126283675987357,0.25165869297908616,-0.0005422534128468603,-0.0014928958682503893,-0.00017361435361890054,0.0015977855866685178,0.018754578700012837,0.0004034591396305819,-0.0009857334792262957,min_task,none,false,false,7.0,7.0,7.0,7.0,7.0,7.0,7.0,7.0,-0.014322678391553946,0.08224727493341885,-0.018749451099544952,0.00031572774198429873,0.003885500589639934,3.7524679734921726e-06,-0.06613463533791009,-0.0012406168483222815,0.12850531871593437,-0.2211978188040198,0.2649996113259398,0.14002831619383194,-0.0454947402206878,0.3359980518111122,-0.0567590101007701,0.018754578700012837,0.0004034591396305819,-0.0009857334792262957,-0.020796404121984188,0.5133136101617066,0.9093064768101011,-0.028843687302935912,0.08381865147559313,0.010024492268234514,7.0,7.0,7.0,7.0,7.0,7.0,7.0,7.0,1.1886079875955438,1.1886079875955438,1.2151356960623052,1.2151356960623052,1.2156954506903874,1.2156954506903874,1.1891802290487383,1.1891802290487383,-0.014322678391553946,0.08224727493341885,-0.018749451099544952,0.00031572774198429873,0.003885500589639934,3.7524679734921726e-06
42.0,0.8200000000000004,0.11300307887743305,0.034235083206254104,0.252064076710556,0.11256317441692976,0.03269785822871038,0.2518768798239257,-0.0004399044605032931,-0.0015372249775437233,-0.0001871968866302698,0.0016098506888277122,0.01763451805459678,0.00043513085096287974,-0.0010062331532464499,min_task,none,false,false,7.0,7.0,7.0,7.0,7.0,7.0,7.0,7.0,-0.01438598512588054,0.08705079853198286,-0.020239697345565792,0.000350045928810985,0.0036814474913222507,8.897289144929093e-06,-0.062418384587521386,-0.0013419697633690257,0.13119569815567095,-0.21575925975353863,0.27973645460674484,0.14319042718886701,-0.0422247809049709,0.32000227207070214,-0.055617418274933314,0.01763451805459678,0.00043513085096287974,-0.0010062331532464499,-0.022816874354798004,0.5125806672899607,0.9096992916453851,-0.030136237447551013,0.08905841678130602,0.010167328462953332,7.0,7.0,7.0,7.0,7.0,7.0,7.0,7.0,1.189368847503084,1.189368847503084,1.214312927073892,1.214312927073892,1.214917562316053,1.214917562316053,1.1899861569682362,1.1899861569682362,-0.01438598512588054,0.08705079853198286,-0.020239697345565792,0.000350045928810985,0.0036814474913222507,8.897289144929093e-06
43.0,0.8400000000000004,0.11226765376200364,0.035755588930663704,0.2523051844394719,0.11193550059245594,0.03417706229162907,0.25210421168802444,-0.000332153169547697,-0.0015785266390346345,-0.00020097275144748128,0.001625565170950378,0.01651215042953594,0.00046800042867826833,-0.0010261670409040214,min_task,none,false,false,7.0,7.0,7.0,7.0,7.0,7.0,7.0,7.0,-0.014431405581929261,0.09217249718391926,-0.021802191337294934,0.0003912278957004546,0.0034477391114779692,1.4502172927088743e-05,-0.058689391571241915,-0.0014473849061263562,0.13392501263262954,-0.2090642027677657,0.2956650080200329,0.14705926854638918,-0.03834232541939614,0.3017820759057938,-0.0542802727769557,0.01651215042953594,0.00046800042867826833,-0.0010261670409040214,-0.024927529275535792,0.5119560257845075,0.9101464555209932,-0.03144064507415951,0.09443534843382131,0.010290263746287187,7.0,7.0,7.0,7.0,7.0,7.0,7.0,7.0,1.1901310289599651,1.1901310289599651,1.2134881420590509,1.2134881420590509,1.2141394096191485,1.2141394096191485,1.190795071020078,1.190795071020078,-0.014431405581929261,0.09217249718391926,-0.021802191337294934,0.0003912278957004546,0.0034477391114779692,1.4502172927088743e-05
44.0,0.8600000000000004,0.11145945505383327,0.03731436283904865,0.2525557208120574,0.1112404825311621,0.035698004114713064,0.25234078984545655,-0.00021897252267116807,-0.0016163587243355829,-0.00021493096660085698,0.0016452233318989574,0.015389098749607023,0.0005020471680120923,-0.0010447106053097586,min_task,none,false,false,7.0,7.0,7.0,7.0,7.0,7.0,7.0,7.0,-0.0144551423950388,0.09761344781767138,-0.023434034979759502,0.00043993361068319004,0.003182244226912174,2.05810236858641e-05,-0.05495294793541506,-0.0015567906267713193,0.13657900356363603,-0.20099166173451427,0.31281158070620585,0.15167802607982178,-0.033793837016399056,0.28118707042223867,-0.0527366268097082,0.015389098749607023,0.0005020471680120923,-0.0010447106053097586,-0.027125190045132204,0.5114512990690674,0.9106525801607294,-0.03275373127234592,0.0999407438883684,0.010391994069778573,7.0,7.0,7.0,7.0,7.0,7.0,7.0,7.0,1.190893412095953,1.190893412095953,1.2126625146582786,1.2126625146582786,1.2133621424380756,1.2133621424380756,1.1916058212421246,1.1916058212421246,-0.0144551423950388,0.09761344781767138,-0.023434034979759502,0.00043993361068319004,0.003182244226912174,2.05810236858641e-05
45.0,0.8800000000000004,0.11057373955080146,0.038908098927566345,0.2528157707215881,0.11047338357163602,0.03725783442856459,0.25258671045029607,-0.00010035597916543959,-0.001650264499001755,-0.00022906027129204753,0.0016691054032337664,0.014267013854647894,0.0005372511449134224,-0.0010610964926331418,min_task,none,false,false,7.0,7.0,7.0,7.0,7.0,7.0,7.0,7.0,-0.014452743596655488,0.10337223032560763,-0.02513147632402616,0.0004968370244486046,0.0028826757604434117,2.714640706883458e-05,-0.05121444282328748,-0.0016701175053935582,0.13904792165356228,-0.19141280083475443,0.331195268096932,0.15708610400226897,-0.028521391490184914,0.2580538143393735,-0.05097583299559131,0.014267013854647894,0.0005372511449134224,-0.0010610964926331418,-0.029406124968893717,0.5110786835172072,0.9112226429672436,-0.03407195566312512,0.10556480820776196,0.010471165607857418,7.0,7.0,7.0,7.0,7.0,7.0,7.0,7.0,1.1916548542599854,1.1916548542599854,1.2118372356267106,1.2118372356267106,1.212586927407785,1.212586927407785,1.1924172350944326,1.1924172350944326,-0.014452743596655488,0.10337223032560763,-0.02513147632402616,0.0004968370244486046,0.0028826757604434117,2.714640706883458e-05
46.0,0.9000000000000005,0.10960571142913612,0.040533045454553225,0.2530854134764218,0.10962939041331235,0.038853273553409215,0.2528420645840244,2.3678984176225826e-05,-0.0016797719011440101,-0.0002433488923974103,0.0016974725380976348,0.013147572317112773,0.0005735931610410032,-0.0010746305368262473,min_task,none,false,false,7.0,7.0,7.0,7.0,7.0,7.0,7.0,7.0,-0.01441911046010234,0.10944454463735906,-0.026889790373371157,0.0005626142814076737,0.002546603686522419,3.4208874035542674e-05,-0.047479356995833895,-0.0017872986313953634,0.14122962641887968,-0.18019322654133338,0.35082652600638514,0.16331827142681993,-0.022462762355706576,0.23220592577621646,-0.04898778400399403,0.013147572317112773,0.0005735931610410032,-0.0010746305368262473,-0.031766007240092105,0.5108509564122926,0.911861994314482,-0.0353914003684335,0.11129657974559184,0.010526383399295626,7.0,7.0,7.0,7.0,7.0,7.0,7.0,7.0,1.192414191520823,1.192414191520823,1.2110135112432776,1.2110135112432776,1.2118149463065908,1.2118149463065908,1.1932281189355753,1.1932281189355753,-0.01441911046010234,0.10944454463735906,-0.026889790373371157,0.0005626142814076737,0.002546603686522419,3.4208874035542674e-05
47.0,0.9200000000000005,0.10855055459366372,0.04218497836657696,0.2533647226080155,0.10870364165808083,0.040480585649910264,0.253106938302938,0.00015308706441710673,-0.0017043927166666972,-0.00025778430507750194,0.001730561449317135,0.012032473852192345,0.0006110545313769243,-0.0010847003648427067,min_task,none,false,false,7.0,7.0,7.0,7.0,7.0,7.0,7.0,7.0,-0.014348504143932139,0.1158227748237409,-0.028703148545687507,0.000637927543089812,0.002171469595496586,4.177621855365948e-05,-0.0437532557569467,-0.0019082694299682559,0.14303171711482585,-0.16719563345520677,0.37170552776623483,0.17040368382857451,-0.015551605654567167,0.20345417248687725,-0.04676313038283063,0.012032473852192345,0.0006110545313769243,-0.0010847003648427067,-0.03419986285674905,0.5107814686247972,0.9125763614542428,-0.036707754668028066,0.11712385060175547,0.010556221670009537,7.0,7.0,7.0,7.0,7.0,7.0,7.0,7.0,1.1931702405558815,1.1931702405558815,1.2101925615286733,1.2101925615286733,1.2110473940461486,1.2110473940461486,1.1940372597179774,1.1940372597179774,-0.014348504143932139,0.1158227748237409,-0.028703148545687507,0.000637927543089812,0.002171469595496586,4.177621855365948e-05
48.0,0.9400000000000005,0.10740346909997887,0.043859175342549676,0.25365376567958614,0.10769126017050704,0.042135553534175856,0.2533814126855553,0.0002877910705281622,-0.0017236218083738208,-0.00027235299403083335,0.001768579088402649,0.01092343827027399,0.0006496166884355667,-0.001090776857709528,min_task,none,false,false,7.0,7.0,7.0,7.0,7.0,7.0,7.0,7.0,-0.014234551441475401,0.12249548772235497,-0.030564474248002734,0.0007234036150589273,0.0017546042325486434,4.9852660840416666e-05,-0.04004178053345416,-0.0020329669661699264,0.1443726788116346,-0.15228284273215215,0.3938202641612468,0.17836477697115674,-0.0077177784714312,0.17159665502563123,-0.0442934741061723,0.01092343827027399,0.0006496166884355667,-0.001090776857709528,-0.03670201009712848,0.5108841311312221,0.9133718485368986,-0.03801630027602293,0.12303308197457685,0.010559235542351527,7.0,7.0,7.0,7.0,7.0,7.0,7.0,7.0,1.1939218009911026,1.1939218009911026,1.2093756182641469,1.2093756182641469,1.2102854762433348,1.2102854762433348,1.1948434269123325,1.1948434269123325,-0.014234551441475401,0.12249548772235497,-0.030564474248002734,0.0007234036150589273,0.0017546042325486434,4.9852660840416666e-05
49.0,0.9600000000000005,0.10615971178707885,0.0455503910009925,0.2539526041016522,0.10658738942658302,0.04381345443711217,0.2536655638800244,0.00042767763950417315,-0.0017369365638803327,-0.00028704022162778786,0.001811697789121687,0.009822201914534487,0.0006892605712731618,-0.001092409045024434,min_task,none,false,false,7.0,7.0,7.0,7.0,7.0,7.0,7.0,7.0,-0.014070245319835422,0.12944685580336984,-0.0324652835592916,0.0008196068130144277,0.0012932462745149558,5.8437974236903346e-05,-0.03635063894047985,-0.002161328639861214,0.14518207754685897,-0.13532116108734937,0.41714435601677374,0.18721603017224467,0.001112243757567521,0.13641893404565097,-0.04157153920840279,0.009822201914534487,0.0006892605712731618,-0.001092409045024434,-0.0392659923631691,0.5111733943763802,0.9142549322019098,-0.039311897287378925,0.12900931456696996,0.010533973875851633,7.0,7.0,7.0,7.0,7.0,7.0,7.0,7.0,1.1946676582640325,1.1946676582640325,1.2085639228028047,1.2085639228028047,1.2095304063038452,1.2095304063038452,1.1956453746722349,1.1956453746722349,-0.014070245319835422,0.12944685580336984,-0.0324652835592916,0.0008196068130144277,0.0012932462745149558,5.8437974236903346e-05
50.0,0.9800000000000005,0.1048146412189527,0.04725283385840752,0.2542612929595134,0.10538723399715604,0.045509037130848154,0.2539594631515306,0.0005725927782033319,-0.0017437967275593658,-0.0003018298079827675,0.0018600512760900644,0.008730513518397359,0.0007299657616088045,-0.0010892132709369438,min_task,none,false,false,7.0,7.0,7.0,7.0,7.0,7.0,7.0,7.0,-0.01384794170046683,0.1366559900371086,-0.03439550784665089,0.0009270053852885917,0.0007845640127198952,6.752654461711225e-05,-0.03268559313913324,-0.00229329016551783,0.14539988138357887,-0.11618411577413491,0.441634535629656,0.19696260749147212,0.011014818718288282,0.09769424115802665,-0.03859132360322409,0.008730513518397359,0.0007299657616088045,-0.0010892132709369438,-0.041884506557085435,0.5116642193406388,0.915232452150417,-0.04058897098717864,0.13503607424346165,0.010478993045134555,7.0,7.0,7.0,7.0,7.0,7.0,7.0,7.0,1.1954065870918906,1.1954065870918906,1.207758723663589,1.207758723663589,1.2087834019381611,1.2087834019381611,1.1964418442525213,1.1964418442525213,-0.01384794170046683,0.1366559900371086,-0.03439550784665089,0.0009270053852885917,0.0007845640127198952,6.752654461711225e-05
51.0,1.0000000000000004,0.10336376698845136,0.048960145662676695,0.25457988085635375,0.1040861042823659,0.047216500887898104,0.25426317692970346,0.000722337293914535,-0.001743644774778591,-0.0003167039266502858,0.001913731863127164,0.007650129408616699,0.0007717093238282358,-0.0010808576638574297,min_task,none,false,false,7.0,7.0,7.0,7.0,7.0,7.0,7.0,7.0,-0.013559350810019345,0.14409617286145163,-0.03634329720978219,0.0010459311084543136,0.00022567936816880288,7.71063726861801e-05,-0.029052446266495967,-0.0024287827113370903,0.14497501889082867,-0.09475653759925869,0.4672277682744015,0.2075988857688004,0.022068476200859607,0.055183723724706694,-0.035348238161086766,0.007650129408616699,0.0007717093238282358,-0.0010808576638574297,-0.0445493294486579,0.5123720390170294,0.9163115960725244,-0.04184149987261888,0.14109527318903317,0.010392871534934787,7.0,7.0,7.0,7.0,7.0,7.0,7.0,7.0,1.1961373556359256,1.1961373556359256,1.2069612738952533,1.2069612738952533,1.2080456810214997,1.2080456810214997,1.1972315666985862,1.1972315666985862,-0.013559350810019345,0.14409617286145163,-0.03634329720978219,0.0010459311084543136,0.00022567936816880288,7.71063726861801e-05
52.0,1.0200000000000005,0.10180280338723499,0.05066538375379555,0.2549084097742206,0.10267946557705157,0.04892947678140337,0.25457676685602443,0.0008766621898165794,-0.001735906972392176,-0.0003316429181961511,0.00197278905031517,0.006582807969921506,0.0008144643009933197,-0.0010670430694046684,min_task,none,false,false,7.0,7.0,7.0,7.0,7.0,7.0,7.0,7.0,-0.013195525475273721,0.15173397701391503,-0.038294801979240005,0.0011765316912205833,-0.00038630394422278395,8.715800920732794e-05,-0.025457026687782155,-0.002567729053587423,0.1438633124236977,-0.07093904874591005,0.4938379697616333,0.21910688286575508,0.03435311627299008,0.008636876245940625,-0.03183924055647138,0.006582807969921506,0.0008144643009933197,-0.0010670430694046684,-0.047251244726672324,0.5133127088292907,0.91749987826714,-0.04306300539912758,0.14716710689822818,0.010274225312545456,7.0,7.0,7.0,7.0,7.0,7.0,7.0,7.0,1.1968587304624483,1.1968587304624483,1.2061728281931356,1.2061728281931356,1.2073184567006467,1.2073184567006467,1.1980132658292175,1.1980132658292175,-0.013195525475273721,0.15173397701391503,-0.038294801979240005,0.0011765316912205833,-0.00038630394422278395,8.715800920732794e-05
53.0,1.0400000000000005,0.10012772739216835,0.05236100712625699,0.25524691495388385,0.10116299150370595,0.05064101187646047,0.2549002898312343,0.0010352641115375927,-0.0017199952497965187,-0.0003466251226495465,0.002037229593249647,0.0055303032765535364,0.0008581978158961564,-0.0010474816702432852,min_task,none,false,false,7.0,7.0,7.0,7.0,7.0,7.0,7.0,7.0,-0.012746847599105752,0.15952825918484576,-0.040233931236012016,0.0013187159546840415,-0.0010542672838210092,9.76534253382509e-05,-0.021905169787733623,-0.0027100385867138777,0.14202494053489245,-0.04465296690664048,0.5213522852259597,0.2314545964465745,0.04794906139604702,-0.04220777126665045,-0.028062971984168857,0.0055303032765535364,0.0008581978158961564,-0.0010474816702432852,-0.04997997362176489,0.5145024443304039,0.9188051112629831,-0.04424654411820803,0.15322994744058863,0.010121724016779078,7.0,7.0,7.0,7.0,7.0,7.0,7.0,7.0,1.197569482409153,1.197569482409153,1.205394639745085,1.205394639745085,1.2066029316426206,1.2066029316426206,1.198785661542592,1.198785661542592,-0.012746847599105752,0.15952825918484576,-0.040233931236012016,0.0013187159546840415,-0.0010542672838210092,9.76534253382509e-05
54.0,1.0600000000000005,0.09833484086081815,0.054038866883516445,0.2555954247936788,0.09953262179875355,0.05234355690234981,0.2552337980627405,0.0011977809379354054,-0.001695309981166633,-0.00036162673093831366,0.0021070189842651538,0.004494357784916362,0.000902868725420285,-0.001021874524580444,min_task,none,false,false,7.0,7.0,7.0,7.0,7.0,7.0,7.0,7.0,-0.012203017275479448,0.16742901766045942,-0.04214208758843789,0.00147209198115064,-0.001781036466543794,0.0001085548100532309,-0.01840269698285947,-0.0028556010194544386,0.13942159239677682,-0.01584568603545844,0.5496268919938354,0.2445942631382839,0.0629359225014812,-0.09762149027890096,-0.024019904758075965,0.004494357784916362,0.000902868725420285,-0.001021874524580444,-0.05272411215468196,0.5159577443140153,0.9202353697258349,-0.04538470301622812,0.15926023362204345,0.009934108072680928,7.0,7.0,7.0,7.0,7.0,7.0,7.0,7.0,1.1982683934721257,1.1982683934721257,1.204627956774189,1.204627956774189,1.205900291313453,1.205900291313453,1.1995474734841398,1.1995474734841398,-0.012203017275479448,0.16742901766045942,-0.04214208758843789,0.00147209198115064,-0.001781036466543794,0.0001085548100532309
55.0,1.0800000000000005,0.09642083676773915,0.055690201784732184,0.255953960767072,0.09778462437936442,0.05402895803246282,0.25557733911202446,0.0013637876116252695,-0.0016612437522693646,-0.00037662165504753764,0.0021820841700372837,0.0034766939700554716,0.0009484247787905585,-0.0009898892157269754,min_task,none,false,false,7.0,7.0,7.0,7.0,7.0,7.0,7.0,7.0,-0.011553048400246062,0.17537610357424652,-0.043997878566995025,0.0016358988723918072,-0.0025693317533427777,0.00011981329562166983,-0.014955391599174401,-0.003004278584672,0.13601347820221824,0.015503452004458738,0.5784822898618086,0.25846054057342666,0.07939125128813533,-0.15788354495147797,-0.019712507942175297,0.0034766939700554716,0.0009484247787905585,-0.0009898892157269754,-0.05547107821618468,0.5176952972486392,0.921798945918357,-0.04646959898202331,0.1652323589056892,0.00971020689711241,7.0,7.0,7.0,7.0,7.0,7.0,7.0,7.0,1.1989542648337528,1.1989542648337528,1.2038740187347017,1.2038740187347017,1.2052116961705726,1.2052116961705726,1.2002974251263525,1.2002974251263525,-0.011553048400246062,0.17537610357424652,-0.043997878566995025,0.0016358988723918072,-0.0025693317533427777,0.00011981329562166983
56.0,1.1000000000000005,0.09438286924831198,0.05730563958976745,0.25632253735895366,0.09591566155145813,0.05568845343180989,0.2559309559420491,0.0015327923031461521,-0.0016171861579575564,-0.0003915814169045406,0.0022623172456882733,0.002479004777186033,0.0009947992366786417,-0.0009511387311500325,min_task,none,false,false,7.0,7.0,7.0,7.0,7.0,7.0,7.0,7.0,-0.010785278427707963,0.1832977798618762,-0.045776807205072566,0.0018089331962372406,-0.0034217047246079568,0.00013136760662925013,-0.011568971221725448,-0.0031558965983628146,0.13175635427770305,0.04937674542041962,0.6076980497820211,0.2729686049699228,0.09738891042422286,-0.22327840395092782,-0.015145436845520634,0.002479004777186033,0.0009947992366786417,-0.0009511387311500325,-0.05820707184098476,0.5197318687099461,0.9235042959626246,-0.047492883422374614,0.17111855829578096,0.009448958397903088,7.0,7.0,7.0,7.0,7.0,7.0,7.0,7.0,1.1996259261537474,1.1996259261537474,1.2031340521033531,1.2031340521033531,1.204538272650175,1.204538272650175,1.2010342483246137,1.2010342483246137,-0.010785278427707963,0.1832977798618762,-0.045776807205072566,0.0018089331962372406,-0.0034217047246079568,0.00013136760662925013
57.0,1.1200000000000006,0.09221862714803478,0.05887520490956797,0.2567011620218021,0.09392286014486365,0.05731267525999385,0.2562946869646664,0.0017042329968288694,-0.0015625296495741167,-0.0004064750571357023,0.002347579814479583,0.0015029427484995206,0.001041906919536071,-0.0009051625930639305,min_task,none,false,false,7.0,7.0,7.0,7.0,7.0,7.0,7.0,7.0,-0.009887399611091854,0.19110912543897973,-0.04745094636243912,0.00198947190188755,-0.004340459032980137,0.0001431426411126142,-0.008249056084073142,-0.003310232224533785,0.12659871179663093,0.08571120230121126,0.6370070036527666,0.2880121533070607,0.11699710487494137,-0.2940916859223786,-0.010325750376313466,0.0015029427484995206,0.001041906919536071,-0.0009051625930639305,-0.060917052206516935,0.5220841672458355,0.9253599761409409,-0.04844575310406525,0.17688879584296077,0.009149429986339434,7.0,7.0,7.0,7.0,7.0,7.0,7.0,7.0,1.200282246243772,1.200282246243772,1.2024092656909022,1.2024092656909022,1.2038811028325977,1.2038811028325977,1.2017566884299384,1.2017566884299384,-0.009887399611091854,0.19110912543897973,-0.04745094636243912,0.00198947190188755,-0.004340459032980137,0.0001431426411126142
58.0,1.1400000000000006,0.08992641070269652,0.06038833426515641,0.25708983515457107,0.09180388527879499,0.05889165783916609,0.25666856608802446,0.0018774745760984646,-0.0014966764259903217,-0.00042126906654660345,0.002437707680268559,0.0005501076756333041,0.001089639670958251,-0.0008514111569393557,min_task,none,false,false,7.0,7.0,7.0,7.0,7.0,7.0,7.0,7.0,-0.008846522451472882,0.19871028802327337,-0.048988604683907234,0.0021751942032325867,-0.005327550652209175,0.0001550479939669246,-0.0050011330293986325,-0.0034670013406809404,0.12047926515115585,0.12439112196464987,0.6660888684516052,0.303461277968829,0.13827598205313824,-0.37060441768692326,-0.00526315831245025,0.0005501076756333041,0.001089639670958251,-0.0008514111569393557,-0.06358473507205563,0.5247686858692232,0.9273745684538915,-0.04931896832890391,0.18251065501652314,0.008810841319626506,7.0,7.0,7.0,7.0,7.0,7.0,7.0,7.0,1.2009221452395598,1.2009221452395598,1.2017008453780533,1.2017008453780533,1.2032412126751215,1.2032412126751215,1.2024635100593928,1.2024635100593928,-0.008846522451472882,0.19871028802327337,-0.048988604683907234,0.0021751942032325867,-0.005327550652209175,0.0001550479939669246
59.0,1.1600000000000006,0.08750521089821792,0.06183389905139478,0.25748855010985994,0.08955701737004741,0.06041485271036561,0.25705262276397506,0.0020518064718294954,-0.0014190463410291704,-0.0004359273458848789,0.0025325155412593055,-0.0003779673794409407,0.0011378612464309284,-0.0007892338940197149,min_task,none,false,false,7.0,7.0,7.0,7.0,7.0,7.0,7.0,7.0,-0.007649283662196804,0.2059845997003064,-0.05035399571823598,0.0023631059180369202,-0.006384463355248,0.00016697644661989712,-0.001830514542415391,-0.0036258434565368224,0.1133248619726801,0.16524029499399187,0.6945633343018385,0.31916018846729227,0.16127470491649612,-0.4530851658074724,2.9701439391673662e-05,-0.0003779673794409407,0.0011378612464309284,-0.0007892338940197149,-0.06619261457648898,0.5278015161483701,0.9295565946359433,-0.05010287954694672,0.18794923493865456,0.008432588968242038,7.0,7.0,7.0,7.0,7.0,7.0,7.0,7.0,1.201544608371551,1.201544608371551,1.201009948155783,1.201009948155783,1.2026195587144057,1.2026195587144057,1.2031535036478178,1.2031535036478178,-0.007649283662196804,0.2059845997003064,-0.05035399571823598,0.0023631059180369202,-0.006384463355248,0.00016697644661989712
60.0,1.1800000000000006,0.08495479097710212,0.06320023708829467,0.25789729323791133,0.08718123189796535,0.061871151306316624,0.2574468820354812,0.002226440920863229,-0.0013290857819780455,-0.0004504112024301121,0.0026318013681174792,-0.001279831856144188,0.0011864016703596561,-0.000717872390191402,min_task,none,false,false,7.0,7.0,7.0,7.0,7.0,7.0,7.0,7.0,-0.006282013018163859,0.212796585186444,-0.05150692819648497,0.0025494708894170364,-0.007512055166759872,0.00017880246639507332,0.0012577076738947111,-0.0037863047204689014,0.10504892343681796,0.20801401749416287,0.7219826891251011,0.3349247341966234,0.1860278925392885,-0.5417795690131063,0.00553695732869904,-0.001279831856144188,0.0011864016703596561,-0.000717872390191402,-0.06872201351575348,0.5311981316756077,0.9319144178077255,-0.05078746348593866,0.1931670563954735,0.008014273165957193,7.0,7.0,7.0,7.0,7.0,7.0,7.0,7.0,1.202148701414073,1.202148701414073,1.2003376953231724,1.2003376953231724,1.202017013161591,1.202017013161591,1.2038254929298142,1.2038254929298142,-0.006282013018163859,0.212796585186444,-0.05150692819648497,0.0025494708894170364,-0.007512055166759872,0.00017880246639507332
61.0,1.2000000000000006,0.08227576947230625,0.0644751934241219,0.2583160439793001,0.08467628133484648,0.06324891596270754,0.25785136458402447,0.0024005118625402277,-0.0012262774614143629,-0.0004646793952756134,0.0027353501704467232,-0.0021541354187792814,0.0012350511456211103,-0.0006364587374232912,min_task,none,false,false,7.0,7.0,7.0,7.0,7.0,7.0,7.0,7.0,-0.004730976003053713,0.21898990659628023,-0.05240253920005884,0.0027297553250534433,-0.008710371359621214,0.00019038077137518004,0.004258715114876005,-0.003947819156165077,0.0955505123365249,0.25239121190739194,0.7478241021823832,0.3505396971925881,0.21255131113394723,-0.6368967386690867,0.01123917364794821,-0.0021541354187792814,0.0012350511456211103,-0.0006364587374232912,-0.07115316640046802,0.5349731375671158,0.9344561309225993,-0.051362369829326834,0.19812398265017206,0.007555726751868306,7.0,7.0,7.0,7.0,7.0,7.0,7.0,7.0,1.2027335878621188,1.2027335878621188,1.1996851646667472,1.1996851646667472,1.2014343473438782,1.2014343473438782,1.204478343527942,1.204478343527942,-0.004730976003053713,0.21898990659628023,-0.05240253920005884,0.0027297553250534433,-0.008710371359621214,0.00019038077137518004
62.0,1.2200000000000006,0.07946970405731794,0.06564617102677074,0.25874477502169396,0.08204277853881593,0.06453601997163405,0.2582660867770121,0.002573074481497989,-0.0011101510551366905,-0.00047868824468183524,0.0028429368772721333,-0.0029996477801769728,0.0012835536503319404,-0.0005440199718903387,min_task,none,false,false,7.0,7.0,7.0,7.0,7.0,7.0,7.0,7.0,-0.0029827101972155746,0.22438532595029106,-0.05299110256783974,0.002898592426985091,-0.009978421193947488,0.00020154505602849206,0.00716802141555467,-0.004109688409708121,0.08471411893021809,0.297967114105613,0.7714818108613821,0.36575584630245994,0.2408367253821703,-0.7385920716679308,0.017112999425617368,-0.0029996477801769728,0.0012835536503319404,-0.0005440199718903387,-0.07346533970326063,0.5391399826244555,0.9371894311547964,-0.05181697941426145,0.2027771613785617,0.007057046356785107,7.0,7.0,7.0,7.0,7.0,7.0,7.0,7.0,1.2032985478412717,1.2032985478412717,1.1990533814160456,1.1990533814160456,1.200872213489544,1.200872213489544,1.2051109728497778,1.2051109728497778,-0.0029827101972155746,0.22438532595029106,-0.05299110256783974,0.002898592426985091,-0.009978421193947488,0.00020154505602849206
63.0,1.2400000000000007,0.0765391754037903,0.06670019196264453,0.25918345253925673,0.07928228078937907,0.06571989734869461,0.25869106071518494,0.002743105385588779,-0.0009802946139499114,-0.0004923918240717917,0.0029543280784296985,-0.0038152807508396607,0.001331600415899845,-0.0004394892274193836,min_task,none,false,false,7.0,7.0,7.0,7.0,7.0,7.0,7.0,7.0,-0.0010244748093211273,0.22877878864325726,-0.05321794994180408,0.003049775929422612,-0.01131391607215204,0.00021210699042130998,0.009981538311813223,-0.004271060454974465,0.07241025162502322,0.3442471192256042,0.7922595311715221,0.38028676154202945,0.2708458225677048,-0.8469459972434197,0.023130802185610425,-0.0038152807508396607,0.001331600415899845,-0.0004394892274193836,-0.07563699368416352,0.5437106309213858,0.940121479387915,-0.05214047485081416,0.20708099552030726,0.006518625822534127,7.0,7.0,7.0,7.0,7.0,7.0,7.0,7.0,1.203842998697853,1.203842998697853,1.1984433077431398,1.1984433077431398,1.2003311249111135,1.2003311249111135,1.2057223615202213,1.2057223615202213,-0.0010244748093211273,0.22877878864325726,-0.05321794994180408,0.003049775929422612,-0.01131391607215204,0.00021210699042130998
64.0,1.2600000000000007,0.07348787013549057,0.067623969610926,0.2596320365352358,0.0763973735251593,0.06678760293762905,0.2591262942800244,0.0029095033896687217,-0.000836366673296951,-0.0005057422552113833,0.0030692823942090907,-0.004600112599001236,0.0013788235474850481,-0.0003217243179427879,min_task,none,false,false,7.0,7.0,7.0,7.0,7.0,7.0,7.0,7.0,0.0011551694381727478,0.23193978499591467,-0.05302355412781961,0.0031762926060655283,-0.012712970392312985,0.0002218556583133721,0.012695649039072218,-0.004430907902673155,0.05849692148511835,0.39064260440874793,0.8093635977791652,0.39380549984370566,0.3025031971842321,-0.9619384053496026,0.029260292984550722,-0.004600112599001236,0.0013788235474850481,-0.0003217243179427879,-0.0776459899432821,0.5486951899339948,0.9432587440155452,-0.05232192438309856,0.21098715244711513,0.0059411917698711895,7.0,7.0,7.0,7.0,7.0,7.0,7.0,7.0,1.20436651714049,1.20436651714049,1.1978558305532023,1.1978558305532023,1.1998114347160576,1.1998114347160576,1.2063115665922368,1.2063115665922368,0.0011551694381727478,0.23193978499591467,-0.05302355412781961,0.0031762926060655283,-0.012712970392312985,0.0002218556583133721
65.0,1.2800000000000007,0.07032066185641422,0.06840399239387548,0.260090481309973,0.07339175272036016,0.06772588341190446,0.25957179118116025,0.003071090863945941,-0.000678108981971029,-0.0005186901288127266,0.0031875492679752848,-0.00535341474409174,0.0014247901204652524,-0.00018953452732894824,min_task,none,false,false,7.0,7.0,7.0,7.0,7.0,7.0,7.0,7.0,0.00356563405206297,0.23361020204679447,-0.05234383284792502,0.0032704046944319436,-0.014169768760073509,0.00023055763109147497,0.015307289452530994,-0.004588006781409113,0.04282211554926431,0.43646969665211566,0.8218975425775653,0.4059412873885837,0.33568844280859467,-1.0834186210389913,0.03546415070651225,-0.00535341474409174,0.0014247901204652524,-0.00018953452732894824,-0.07946984829436199,0.55410149300237,0.946606828399136,-0.05235037971393049,0.21444462253113297,0.005325841139917072,7.0,7.0,7.0,7.0,7.0,7.0,7.0,7.0,1.204868862708092,1.204868862708092,1.19729174730474,1.19729174730474,1.1993133132685263,1.1993133132685263,1.2068777367830528,1.2068777367830528,0.00356563405206297,0.23361020204679447,-0.05234383284792502,0.0032704046944319436,-0.014169768760073509,0.00023055763109147497
66.0,1.3000000000000007,0.06704368911553849,0.06902661941605527,0.2605587360764756,0.07027030471316964,0.06852125964989647,0.26002755100377756,0.003226615597631155,-0.0005053597661588,-0.0005311850726980594,0.0033088660126372564,-0.006074680714798558,0.0014689971602101326,-4.171644164550439e-05,min_task,none,false,false,7.0,7.0,7.0,7.0,7.0,7.0,7.0,7.0,0.006213424478588319,0.23350392424230937,-0.051110738260744505,0.0033237933615859077,-0.01567620920024537,0.000237957921200628,0.0178140369428096,-0.004740916900133337,0.025227362551325877,0.4809521719532517,0.8288589849719301,0.41627647639491966,0.37022753295453037,-1.2110712347712072,0.04169965648727859,-0.006074680714798558,0.0014689971602101326,-4.171644164550439e-05,-0.08108605555422393,0.5599346349827335,0.9501702815720621,-0.05221498838186483,0.21739983984056951,0.004674080411379937,7.0,7.0,7.0,7.0,7.0,7.0,7.0,7.0,1.2053500022217218,1.2053500022217218,1.196751749608589,1.196751749608589,1.19883672473992,1.19883672473992,1.2074201299671232,1.2074201299671232,0.006213424478588319,0.23350392424230937,-0.051110738260744505,0.0033237933615859077,-0.01567620920024537,0.000237957921200628
67.0,1.3200000000000007,0.06366442904790026,0.06947818829255088,0.2610367457443311,0.06703918217786889,0.06916012085805565,0.26049356925602446,0.0033747531299686273,-0.00031806743449523667,-0.0005431764883066514,0.0034329529968481327,-0.00676365717636353,0.0015108679814782907,0.00012290032833842427,min_task,none,false,false,7.0,7.0,7.0,7.0,7.0,7.0,7.0,7.0,0.009101112792281724,0.2313075279287238,-0.04925320654896388,0.0033277736457140274,-0.017221537510269516,0.00024378209930571722,0.020214206916112688,-0.0048879651465420166,0.005552502185065101,0.5232297614053929,0.8291400353162702,0.42434422818693635,0.4058838254238821,-1.3443784970918815,0.04791835381635957,-0.00676365717636353,0.0015108679814782907,0.00012290032833842427,-0.08247242727350151,0.5661964615368841,0.9539523921885105,-0.051905121080688135,0.21979687913637375,0.003987866016381717,7.0,7.0,7.0,7.0,7.0,7.0,7.0,7.0,1.2058101347382875,1.2058101347382875,1.1962364043932034,1.1962364043932034,1.1983814032210451,1.1983814032210451,1.2079381331127965,1.2079381331127965,0.009101112792281724,0.2313075279287238,-0.04925320654896388,0.0033277736457140274,-0.017221537510269516,0.00024378209930571722
68.0,1.3400000000000007,0.060191765300533356,0.06974513530780217,0.2615244518897808,0.06370587481535542,0.06962883069366486,0.2609698374164195,0.0035141095148220614,-0.00011630461413730808,-0.0005546144733613034,0.003559506940503756,-0.0074203766647028884,0.0015497504199778352,0.0003053967672704518,min_task,none,false,false,7.0,7.0,7.0,7.0,7.0,7.0,7.0,7.0,0.012226183864625047,0.22668245487668104,-0.046698540828174255,0.003273588669166648,-0.018791995335384774,0.0002477398800926272,0.02250695618601206,-0.0050272333055741926,-0.016358229245659123,0.5623731659129285,0.821532567932301,0.4296274685384602,0.4423492138519901,-1.4825806215937838,0.0540657581004169,-0.0074203766647028884,0.0015497504199778352,0.0003053967672704518,-0.083607521178223,0.5728850147121409,0.9579549663398182,-0.051410514006492346,0.22157774439473815,0.0032696452090097087,7.0,7.0,7.0,7.0,7.0,7.0,7.0,7.0,1.206249716364261,1.206249716364261,1.1957461324997,1.1957461324997,1.1979468290220028,1.1979468290220028,1.208431284767463,1.208431284767463,0.012226183864625047,0.22668245487668104,-0.046698540828174255,0.003273588669166648,-0.018791995335384774,0.0002477398800926272
69.0,1.3600000000000008,0.056636048714539595,0.06981412787658699,0.26202179392458536,0.06027927322697116,0.0699138454947204,0.261456342981259,0.003643224512431563,9.971761813341862e-05,-0.0005654509433263288,0.0036881924055907167,-0.008045191454557005,0.0015849175217051922,0.00050669688995736,min_task,none,false,false,7.0,7.0,7.0,7.0,7.0,7.0,7.0,7.0,0.01557980077176532,0.21926910666919508,-0.04337429447703861,0.0031527865405800467,-0.020370513260198356,0.00024953049000780915,0.02469239206719304,-0.005156552169318398,-0.04064869468302455,0.597406950289594,0.8047399676818963,0.43155989775635084,0.47923619654422644,-1.6246361273982637,0.06008115145706325,-0.008045191454557005,0.0015849175217051922,0.00050669688995736,-0.08447109805247673,0.57999394037108,0.962178090748477,-0.05072142584887906,0.2226827644598029,0.002522396243675549,7.0,7.0,7.0,7.0,7.0,7.0,7.0,7.0,1.2066694841132224,1.2066694841132224,1.19528118469307,1.19528118469307,1.1975322059523712,1.1975322059523712,1.2088993000667811,1.2088993000667811,0.01557980077176532,0.21926910666919508,-0.04337429447703861,0.0031527865405800467,-0.020370513260198356,0.00024953049000780915
70.0,1.3800000000000008,0.05300914908867674,0.06967220907763441,0.2625287104700408,0.05676972433706642,0.07000184455866595,0.26195306951202446,0.003760575248389679,0.0003296354810315427,-0.0005756409580163213,0.0038186317263781723,-0.008638807735846722,0.001615571253889415,0.0007274889267228434,min_task,none,false,false,7.0,7.0,7.0,7.0,7.0,7.0,7.0,7.0,0.019145563003401863,0.20869331250651443,-0.03921070406810208,0.002957676245643806,-0.021936487373353384,0.0002488500918122926,0.026771685260612202,-0.005273503819929174,-0.06744186339829135,0.6273410885376897,0.7773970332488075,0.4295299697163029,0.5160718455067133,-1.769185114617132,0.06589751553802284,-0.008638807735846722,0.001615571253889415,0.0007274889267228434,-0.08504462195165885,0.5875118666851866,0.9666198840467101,-0.04982880834803692,0.2230511108438268,0.0017496661530601568,7.0,7.0,7.0,7.0,7.0,7.0,7.0,7.0,1.207070477810817,1.207070477810817,1.1948416152540462,1.1948416152540462,1.1971364405450122,1.1971364405450122,1.209342098060064,1.209342098060064,0.019145563003401863,0.20869331250651443,-0.03921070406810208,0.002957676245643806,-0.021936487373353384,0.0002488500918122926
71.0,1.4000000000000008,0.04932449619684101,0.06930695379832452,0.2630451409326481,0.05318907664402049,0.06987987222411626,0.2624599966827899,0.0038645804471794803,0.0005729184257917408,-0.0005851442498581716,0.003950393821946834,-0.009202318984923448,0.0016408497523305889,0.0009681359518958872,min_task,none,false,false,7.0,7.0,7.0,7.0,7.0,7.0,7.0,7.0,0.02289836450731841,0.19457557884896362,-0.03414368756656865,0.0026818491101684304,-0.023465684880944394,0.00024540145939733096,0.02874718377690372,-0.0053754339614601465,-0.09682932078012292,0.6512112979402318,0.7380996208746786,0.42288882385112175,0.5522948708325416,-1.9145192500163546,0.071441676984344,-0.009202318984923448,0.0016408497523305889,0.0009681359518958872,-0.08531178706988997,0.5954217672667054,0.9712762403540052,-0.04872448836308414,0.22262145081773593,0.0009556036457764687,7.0,7.0,7.0,7.0,7.0,7.0,7.0,7.0,1.20745405887976,1.20745405887976,1.1944272535527933,1.1944272535527933,1.1967581243477323,1.1967581243477323,1.2097598309035722,1.2097598309035722,0.02289836450731841,0.19457557884896362,-0.03414368756656865,0.0026818491101684304,-0.023465684880944394,0.00024540145939733096
72.0,1.4200000000000008,0.04559710807096665,0.06870663576829342,0.2635710272653248,0.04955071351109053,0.0695354913007161,0.2629771003276294,0.003953605440123881,0.0008288555324226787,-0.0005939269376953882,0.0040829825712492395,-0.009737237111261414,0.0016598385127042973,0.0012285777422438604,min_task,none,false,false,7.0,7.0,7.0,7.0,7.0,7.0,7.0,7.0,0.026803486710127066,0.17654343469244574,-0.02811837402657022,0.002320740524569609,-0.024930326990692118,0.00023890594892395938,0.030622524187790743,-0.00545947601395147,-0.12885937300596673,0.66812731315124,0.6854453614107188,0.41096322409222863,0.587257092759076,-2.0585628586526434,0.07663476531859201,-0.009737237111261414,0.0016598385127042973,0.0012285777422438604,-0.08525905351952236,0.6037003274481031,0.9761405711699916,-0.04740135810158263,0.2213327454838689,0.00014498366062877928,7.0,7.0,7.0,7.0,7.0,7.0,7.0,7.0,1.207821924695318,1.207821924695318,1.1940376742980539,1.1940376742980539,1.196395520539944,1.196395520539944,1.2101529141805347,1.2101529141805347,0.026803486710127066,0.17654343469244574,-0.02811837402657022,0.002320740524569609,-0.024930326990692118,0.00023890594892395938
73.0,1.4400000000000008,0.0418436043994565,0.06786040447691576,0.2641063158797763,0.0458695726612682,0.06895694716278486,0.26350435248802445,0.004025968261811695,0.0010965426858691035,-0.0006019633917518363,0.004215825688054178,-0.010245519663197105,0.001671585760735999,0.001508227093781851,min_task,none,false,false,7.0,7.0,7.0,7.0,7.0,7.0,7.0,7.0,0.03081608666111392,0.15424696094672455,-0.021093059374987594,0.0018721929809786513,-0.026299394995226107,0.00022911758675436887,0.03240273547642296,-0.005522588326871317,-0.16352398443877741,0.677327013998922,0.6180860530799923,0.39307430895927326,0.6202305946253397,-2.1988698781211684,0.08139310897553885,-0.010245519663197105,0.001671585760735999,0.001508227093781851,-0.08487616911237279,0.6123173374335062,0.981203553602188,-0.04585356856301116,0.2191251973007436,-0.0006767810480341855,7.0,7.0,7.0,7.0,7.0,7.0,7.0,7.0,1.2081761171140324,1.2081761171140324,1.1936721674899222,1.1936721674899222,1.196046556212855,1.196046556212855,1.210522057276645,1.210522057276645,0.03081608666111392,0.15424696094672455,-0.021093059374987594,0.0018721929809786513,-0.026299394995226107,0.00022911758675436887
74.0,1.4600000000000009,0.03808220273140253,0.06675847067197263,0.26465095965131435,0.0421621500182073,0.06813334157386258,0.2640417214602714,0.004079947286804768,0.0013748709018899519,-0.0006092381910429712,0.004348265290135204,-0.010729591125340889,0.001675121997724323,0.001805865555634913,min_task,none,false,false,7.0,7.0,7.0,7.0,7.0,7.0,7.0,7.0,0.03488124291305387,0.1273773366710992,-0.013043405770059644,0.0013369689439222236,-0.027539195553238686,0.00021583882547022003,0.03409432976969889,-0.005561605295225376,-0.2007449774891942,0.6782328849035739,0.5347915204479862,0.36856275112574866,0.6504216062924865,-2.3326411887654985,0.0856297153218793,-0.010729591125340889,0.001675121997724323,0.001805865555634913,-0.08415664955131694,0.6212351411218816,0.9864528950170677,-0.04407671943681097,0.21594134450803243,-0.0015036471644484458,7.0,7.0,7.0,7.0,7.0,7.0,7.0,7.0,1.2085190237724928,1.2085190237724928,1.1933297094560815,1.1933297094560815,1.1957088216570708,1.1957088216570708,1.2108682923993113,1.2108682923993113,0.03488124291305387,0.1273773366710992,-0.013043405770059644,0.0013369689439222236,-0.027539195553238686,0.00021583882547022003
75.0,1.4800000000000009,0.03433269503309966,0.06539229883677156,0.26520491992357526,0.03844648604220249,0.06705481504378198,0.26458917184288866,0.004113791009102835,0.0016625162070104255,-0.0006157480806865956,0.004479551573987834,-0.011192356182539411,0.0016694834228766654,0.00211954541880494,min_task,none,false,false,7.0,7.0,7.0,7.0,7.0,7.0,7.0,7.0,0.03893470619002729,0.09568781171299821,-0.003966607094068536,0.0007191518324483129,-0.02861420182584865,0.00019893717300780854,0.03570537340114874,-0.005573302368945404,-0.24036015500317395,0.6705058914750642,0.43452328017203357,0.3368202362847949,0.6769916399674968,-2.4567658623569355,0.0892564880331803,-0.011192356182539411,0.0016694834228766654,0.00211954541880494,-0.08309818599441725,0.6304081737419682,0.9918731261157593,-0.04206803686627297,0.21172729130256213,-0.002328973917322917,7.0,7.0,7.0,7.0,7.0,7.0,7.0,7.0,1.2088533708566966,1.2088533708566966,1.1930089366809404,1.1930089366809404,1.1953795779059866,1.1953795779059866,1.2111930005187879,1.2111930005187879,0.03893470619002729,0.09568781171299821,-0.003966607094068536,0.0007191518324483129,-0.02861420182584865,0.00019893717300780854
76.0,1.5000000000000009,0.030616402030293196,0.06375480475170038,0.26576816837758965,0.034742132750080965,0.06571273624019533,0.26514666458402447,0.004125730719787769,0.001957931488494949,-0.0006215037935651813,0.004608841139728778,-0.011637202809889186,0.0016537386032676924,0.00244650658518363,min_task,none,false,false,7.0,7.0,7.0,7.0,7.0,7.0,7.0,7.0,0.04290444762326892,0.059016137041380326,0.006114830165851498,2.6370424686091368e-05,-0.029488159856567345,0.00017836158819141385,0.03724553122906845,-0.0055544739650901665,-0.2821102553754119,0.6540907820791905,0.3165150680641115,0.29732662195154896,0.6990856666333601,-2.5678880731555296,0.09218731797632149,-0.011637202809889186,0.0016537386032676924,0.00244650658518363,-0.08170294757988032,0.6397826243763168,0.9974454359452499,-0.039826528948594245,0.20643405296155737,-0.0031455898083808395,7.0,7.0,7.0,7.0,7.0,7.0,7.0,7.0,1.2091822062764264,1.2091822062764264,1.1927081243954576,1.1927081243954576,1.1950557735689904,1.1950557735689904,1.211497932279364,1.211497932279364,0.04290444762326892,0.059016137041380326,0.006114830165851498,2.6370424686091368e-05,-0.029488159856567345,0.00017836158819141385
77.0,1.520000000000001,0.02695610271501281,0.06184055597500575,0.26634068857826876,0.031070099684501726,0.06409989668604041,0.265714157028864,0.004113996969488918,0.0022593407110346603,-0.0006265315494047852,0.004735201505311275,-0.01206799322045503,0.0016270174285403182,0.0027831183107172516,min_task,none,false,false,7.0,7.0,7.0,7.0,7.0,7.0,7.0,7.0,0.0467130173616334,0.017307022808153945,0.017150102867106384,-0.000730212508964799,-0.030125414648660413,0.000154157234553215,0.03872607708490519,-0.005502022192442734,-0.3256278885186296,0.6292464078784235,0.18035562063823743,0.24969117919855616,0.7158661165095795,-2.662498803596738,0.09434213256978269,-0.01206799322045503,0.0016270174285403182,0.0027831183107172516,-0.07997774799341165,0.6492962602906766,1.0031475631900277,-0.03735310800178706,0.20001898522857775,-0.003945900740881414,7.0,7.0,7.0,7.0,7.0,7.0,7.0,7.0,1.2095088725519016,1.2095088725519016,1.192425172027102,1.192425172027102,1.194734071647708,1.194734071647708,1.2117852218333987,1.2117852218333987,0.0467130173616334,0.017307022808153945,0.017150102867106384,-0.000730212508964799,-0.030125414648660413,0.000154157234553215
78.0,1.540000000000001,0.023375936429205192,0.059645972833634854,0.26692247695734705,0.027452777215088466,0.06221070867742144,0.2662916029670368,0.004076840785883273,0.0025647358437865878,-0.0006308739903102545,0.004857623156801588,-0.012489041089922851,0.0015885410927191875,0.003124856379927871,min_task,none,false,false,7.0,7.0,7.0,7.0,7.0,7.0,7.0,7.0,0.05028061204865942,-0.029367073824840374,0.029058335023055416,-0.0015361884847332283,-0.030492374177536506,0.00012647704515317005,0.04015986380145698,-0.005413053187784906,-0.3704297829661234,0.5965551910049439,0.02606808198506793,0.19369567002358198,0.7265504504741264,-2.737048353062631,0.0956518921410178,-0.012489041089922851,0.0015885410927191875,0.003124856379927871,-0.07793405011356482,0.658878448165649,1.0089537580217114,-0.03465066895553396,0.19244725825227668,-0.0047220461642460835,7.0,7.0,7.0,7.0,7.0,7.0,7.0,7.0,1.209836969220461,1.209836969220461,1.1921575975635117,1.1921575975635117,1.1944108865710399,1.1944108865710399,1.2120573916376913,1.2120573916376913,0.05028061204865942,-0.029367073824840374,0.029058335023055416,-0.0015361884847332283,-0.030492374177536506,0.00012647704515317005
79.0,1.560000000000001,0.019901275094634335,0.05716952729918518,0.2675135429453692,0.0239138357142318,0.06004140405773425,0.2668789526800245,0.004012560619597465,0.002871876758549066,-0.0006345902653447366,0.004975040064874753,-0.012905074080835615,0.0015376516353026912,0.003466325650024003,min_task,none,false,false,7.0,7.0,7.0,7.0,7.0,7.0,7.0,7.0,0.053528629759986936,-0.0807886944606676,0.04172836907484225,-0.0023744806792364193,-0.030558996917280735,9.558855331851772e-05,0.0415612475619923,-0.005284976881838806,-0.41591374932248126,0.5569075391590055,-0.14582035889442654,0.12933628628020263,0.7304490680826429,-2.7880724626523676,0.09606437818322223,-0.012905074080835615,0.0015376516353026912,0.003466325650024003,-0.07558779139406863,0.6684504025499395,1.0148348276766095,-0.0317241151496194,0.18369332839110722,-0.005466107132467148,7.0,7.0,7.0,7.0,7.0,7.0,7.0,7.0,1.2101703051645916,1.2101703051645916,1.1919025426246257,1.1919025426246257,1.1940824311402856,1.1940824311402856,1.2123173465495773,1.2123173465495773,0.053528629759986936,-0.0807886944606676,0.04172836907484225,-0.0023744806792364193,-0.030558996917280735,9.558855331851772e-05
80.0,1.580000000000001,0.01655856348445641,0.054411936927314275,0.26811390793907824,0.020478099356964104,0.05759023118923498,0.26747615298856764,0.003919535872507693,0.0031782942619207055,-0.000637754950510605,0.005086358938192773,-0.013321181473668856,0.0014738394890454751,0.0038013358245697205,min_task,none,false,false,7.0,7.0,7.0,7.0,7.0,7.0,7.0,7.0,0.056383379019497054,-0.13658338740770326,0.055020354214800414,-0.0032261841009075566,-0.030300168332334523,6.18746833593232e-05,0.042945963321216585,-0.00511560531270653,-0.4613616828122097,0.5114597279359435,-0.3342247757560595,0.05686119456936188,0.7269996963127051,-2.8123222904953935,0.09555043148145341,-0.013321181473668856,0.0014738394890454751,0.0038013358245697205,-0.0729590246085624,0.677925684184415,1.0207582767631085,-0.02858032663917908,0.1737423573563542,-0.0061703656381087305,7.0,7.0,7.0,7.0,7.0,7.0,7.0,7.0,1.2105128418919124,1.2105128418919124,1.1916567895579995,1.1916567895579995,1.1937447724929076,1.1937447724929076,1.2125683560689269,1.2125683560689269,0.056383379019497054,-0.13658338740770326,0.055020354214800414,-0.0032261841009075566,-0.030300168332334523,6.18746833593232e-05
81.0,1.600000000000001,0.01337512595710545,0.051376350841856044,0.2687236028066562,0.017171393549096005,0.054857647178999366,0.2680831473000739,0.0037962675919905545,0.003481296337143322,-0.0006404555065823159,0.00519049661139634,-0.01374274760203829,0.0013967675501509102,0.004123034684313459,min_task,none,false,false,7.0,7.0,7.0,7.0,7.0,7.0,7.0,7.0,0.05877953242717247,-0.19621428766014046,0.06876916774744077,-0.0040716003805284385,-0.029696829341017455,2.5827641722355934e-05,0.044330950661470504,-0.004903244321532261,-0.5059496509489745,0.46156717779112694,-0.537469780105613,-0.023199424799656157,0.7157942969305006,-2.806887064649264,0.09411008701570911,-0.01374274760203829,0.0013967675501509102,0.004123034684313459,-0.07007138299091799,0.6872109608420003,1.0266885502360568,-0.02522807181360851,0.16259152821442685,-0.00682760823065594,7.0,7.0,7.0,7.0,7.0,7.0,7.0,7.0,1.2108686293849624,1.2108686293849624,1.1914167912000158,1.1914167912000158,1.193393895638998,1.193393895638998,1.212814024252564,1.212814024252564,0.05877953242717247,-0.19621428766014046,0.06876916774744077,-0.0040716003805284385,-0.029696829341017455,2.5827641722355934e-05
82.0,1.620000000000001,0.01037893882467502,0.0480685245274346,0.26934266370640947,0.014020365292077196,0.051846502149357834,0.2686998756560245,0.0036414264674021757,0.003777977621923237,-0.0006427880503849792,0.0052864239431744,-0.01417537267959439,0.0013062905137943461,0.004424097991296956,min_task,none,false,false,7.0,7.0,7.0,7.0,7.0,7.0,7.0,7.0,0.06066290267803596,-0.2589839666015355,0.08278947385064708,-0.004891362188849333,-0.028736737527689453,-1.196435853073959e-05,0.04573413241055,-0.004646773691192697,-0.5487656287517241,0.4086985466763802,-0.7532810401736253,-0.11001366240178258,0.6965950086721305,-2.769298437628468,0.09177784954405876,-0.01417537267959439,0.0013062905137943461,0.004424097991296956,-0.0669513942188375,0.6962070319131389,1.0325873832558397,-0.021677870377386672,0.15025121194448054,-0.00743145911925572,7.0,7.0,7.0,7.0,7.0,7.0,7.0,7.0,1.2112417366010877,1.2112417366010877,1.1911787131476321,1.1911787131476321,1.1930257726693387,1.1930257726693387,1.2130582476046408,1.2130582476046408,0.06066290267803596,-0.2589839666015355,0.08278947385064708,-0.004891362188849333,-0.028736737527689453,-1.196435853073959e-05
83.0,1.640000000000001,0.007598368506415062,0.04449697992752259,0.2699711261396798,0.011052276147174682,0.04856221210100725,0.2693262747793825,0.00345390764075962,0.004065232173484659,-0.0006448513602972938,0.005373213553555242,-0.014624783372786518,0.0012024685842744209,0.004696969353666308,min_task,none,false,false,7.0,7.0,7.0,7.0,7.0,7.0,7.0,7.0,0.06199217261139738,-0.3240434230155503,0.09688198328605946,-0.005667517694311652,-0.02741478222631056,-5.083711582371191e-05,0.04717415131074378,-0.0043457115437269996,-0.588834776803443,0.35433892459105,-0.9788017617637224,-0.2024403882106261,0.6693368295865271,-2.697607734257902,0.08862620137859115,-0.014624783372786518,0.0012024685842744209,0.004696969353666308,-0.06362768233897236,0.7048101063749532,1.0384142581203344,-0.017941823713810718,0.13674594611258056,-0.007976719500829493,7.0,7.0,7.0,7.0,7.0,7.0,7.0,7.0,1.211636178964077,1.211636178964077,1.1909384875599116,1.1909384875599116,1.1926364354456287,1.1926364354456287,1.2133051620163966,1.2133051620163966,0.06199217261139738,-0.3240434230155503,0.09688198328605946,-0.005667517694311652,-0.02741478222631056,-5.083711582371191e-05
84.0,1.660000000000001,0.005061876798755464,0.04067314701950686,0.27060901737688475,0.008294767864862218,0.04501291670816635,0.2699622781219998,0.0032328910661067536,0.004339769688659491,-0.0006467392548849538,0.005450087821285975,-0.0150967360002999,0.0010855751305709066,0.004934137205487606,min_task,none,false,false,7.0,7.0,7.0,7.0,7.0,7.0,7.0,7.0,0.06273933524039774,-0.3904073627452968,0.11084028519432987,-0.006384441870832546,-0.025732824621188102,-9.007616584742596e-05,0.04867007257998414,-0.004000260030379667,-0.6251513683018536,0.29989194459926605,-1.210632656848501,-0.2990352512403974,0.634116249760031,-2.5904306168790274,0.08476638397739339,-0.0150967360002999,0.0010855751305709066,0.004934137205487606,-0.060130108804527835,0.7129133132626031,1.0441269644232458,-0.014033436176662705,0.12211519778069409,-0.008459681980514224,7.0,7.0,7.0,7.0,7.0,7.0,7.0,7.0,1.2120558451987324,1.2120558451987324,1.1906918767693204,1.1906918767693204,1.1922220495102336,1.1922220495102336,1.2135590804795409,1.2135590804795409,0.06273933524039774,-0.3904073627452968,0.11084028519432987,-0.006384441870832546,-0.025732824621188102,-9.007616584742596e-05
