LordTarzan10086/HCDR_ML/results/online_trajectories/routeb_traj_20260428_222221_530968/helix_cooperative.csv
step,time_s,tip_x,tip_y,tip_z,des_x,des_y,des_z,err_x,err_y,err_z,err_norm,q_platform_x,q_platform_y,q_platform_psi,fail_reason,fallback_applied,hold_active,q_1,q_2,q_3,q_4,q_5,q_6,q_7,q_8,q_9
1,0.0,0.11706196759227896,0.010002014418055372,0.24860598390943056,0.11702116438719139,0.010002371411802463,0.24858416458402444,-4.080320508757784e-05,3.569937470915274e-07,-2.1819325406124968e-05,4.627215092399283e-05,0.047263502830037496,6.14537275942337e-05,-0.000443219197474016,none,False,False,0.047263502830037496,6.14537275942337e-05,-0.000443219197474016,0.0005217250755178652,0.5561319538987696,0.913031748288301,-3.090521775657674e-05,1.6877369125421338e-05,2.2335960201051552e-05
2,0.02,0.11716524513620917,0.010001705934107062,0.24859744708391768,0.11702116438527413,0.010002498645031263,0.2485846442419967,-0.00014408075093504114,7.927109242009123e-07,-1.2802841920983576e-05,0.00014465062717412738,0.04718200030285805,5.982555429482874e-05,-0.0003841799779767642,none,False,False,0.04718200030285805,5.982555429482874e-05,-0.0003841799779767642,0.0006477281915675104,0.5557485520068165,0.9128694266739946,-0.00010253585435570219,2.6218968150200053e-05,8.085764010264422e-05
3,0.04,0.11729952143585395,0.010002625807792882,0.24859173496015977,0.11702116426595624,0.010003383163124064,0.2485879787966449,-0.00027835716989771386,7.573553311816805e-07,-3.7561635148619654e-06,0.0002783835418714849,0.04705519939919508,5.747623090409883e-05,-0.0003130970344221341,none,False,False,0.04705519939919508,5.747623090409883e-05,-0.0003130970344221341,0.0008149942895988505,0.5552299969627946,0.9126762644389926,-0.00021031727996838697,4.467436005557298e-05,0.00016872241699242478
4,0.06,0.11744626444660561,0.01000591159815197,0.2485938814166175,0.11702116302283493,0.010005765502400864,0.24859696000403492,-0.0004251014237706824,-1.4609575110617612e-07,3.0785874174099614e-06,0.00042511259630398677,0.04688714001216823,5.460177838623748e-05,-0.00024494020146220095,none,False,False,0.04688714001216823,5.460177838623748e-05,-0.00024494020146220095,0.0010003672752268518,0.5546376126414809,0.9124947756262191,-0.00034855598837381005,7.537859017259558e-05,0.00028092043949588667
5,0.08,0.11759379769867967,0.010012557235757091,0.2486078203111951,0.11702115681368161,0.010010368062093664,0.2486143112441258,-0.0005726408849980602,-2.189173663427052e-06,6.490932930702797e-06,0.0005726818557131011,0.0466806448304219,5.1341934914644855e-05,-0.00018997279979227484,none,False,False,0.0466806448304219,5.1341934914644855e-05,-0.00018997279979227484,0.0011878315038374027,0.5540133154235779,0.9123562652470015,-0.0005133419508409266,0.00012139015543495876,0.0004138114108789652
6,0.1,0.11773503388583159,0.010023391328397767,0.2486367894530187,0.11702113584552845,0.010017895251802463,0.24864268807278408,-0.0007138980403031403,-5.496076595303684e-06,5.898619765382085e-06,0.0007139435639612855,0.04643773828681133,4.779562584582247e-05,-0.0001547012123590615,none,False,False,0.04643773828681133,4.779562584582247e-05,-0.0001547012123590615,0.0013668681546129676,0.5533862099135224,0.912284781559302,-0.000701963933138494,0.00018544839174317499,0.0005647128484258368
7,0.12000000000000001,0.11786592427246649,0.010039089737566752,0.24868358468612667,0.11702108019462694,0.010029033638951263,0.24868467876533706,-0.0008448440778395516,-1.0056098615488646e-05,1.0940792103952823e-06,0.0008449046324818237,0.046159928140157916,4.4033445218362716e-05,-0.00014260896969694399,none,False,False,0.046159928140157916,4.4033445218362716e-05,-0.00014260896969694399,0.001531175285107692,0.5527769965527926,0.9122996678033841,-0.0009124837663236578,0.00026991128294354474,0.0007315901669232112
8,0.14,0.11798439927732393,0.010060204296501566,0.2487507186122045,0.11702095466406248,0.010044452096244064,0.24874280484210762,-0.0009634446132614494,-1.5752200257502375e-05,-7.91377009687344e-06,0.0009636058750301403,0.045848394646754616,4.010736840877863e-05,-0.0001547548436845989,none,False,False,0.045848394646754616,4.010736840877863e-05,-0.0001547548436845989,0.001677648644927465,0.552200915839063,0.9124172090648037,-0.0011434374224858369,0.0003767858259502229,0.000912831529707157
9,0.16,0.11808964631762281,0.010087196780467971,0.24884051869076756,0.11702070277785931,0.010064801949120863,0.24881952156132947,-0.0010689435397635005,-2.2394831347107708e-05,-2.0997129438093953e-05,0.001069384261674833,0.04550411733086377,3.6058142209251915e-05,-0.0001902843747522251,none,False,False,0.04550411733086377,3.6058142209251915e-05,-0.0001902843747522251,0.0018055495542827944,0.5516697104167931,0.9126516909729684,-0.0013936297650680761,0.0005077987575135098,0.0011070873876843823
10,0.18,0.11818161916416309,0.010120471944856194,0.24895518692055074,0.11702024000659458,0.010090717123213662,0.24891721835916833,-0.001161379157568504,-2.975482164253168e-05,-3.7968561382412114e-05,0.001162380535237474,0.04512795952677607,3.1920783454260844e-05,-0.00024688318906141186,none,False,False,0.04512795952677607,3.1920783454260844e-05,-0.00024688318906141186,0.0019158116893938848,0.5511929270096751,0.9130160749456924,-0.0016619964509609801,0.0006644780738067119,0.0013131577294178275
11,0.19999999999999998,0.11826070603438045,0.01016040640720295,0.2490968352962083,0.11701944631589495,0.010122814291802463,0.24903821921047803,-0.0012412597184855018,-3.7592115400487264e-05,-5.861608573026755e-05,0.001243211446770552,0.0447207243202696,2.7728553889318823e-05,-0.0003211865370793049,none,False,False,0.0447207243202696,2.7728553889318823e-05,-0.0003211865370793049,0.002010456722961329,0.5507787746079456,0.9135224232795863,-0.0019475133274590851,0.0008482295413460309,0.0015299140302574275
12,0.21999999999999997,0.11832750630633371,0.01020737195392763,0.24926750609045797,0.11701815812575647,0.010161693023271263,0.2491847828776037,-0.0013093481805772356,-4.567893065636659e-05,-8.272321285426876e-05,0.0013127537288584478,0.04428319112452178,2.3515711077845177e-05,-0.00040915062499361464,none,False,False,0.04428319112452178,2.3515711077845177e-05,-0.00040915062499361464,0.0020921009767979055,0.5504346847663646,0.9141821612440854,-0.0022491393424166443,0.0010604005920873021,0.001756246435383357
13,0.23999999999999996,0.11838268133791742,0.010261752916425759,0.2494691827007888,0.1170161597654625,0.010207935928564064,0.24935910300817707,-0.0013665215724549262,-5.3816987861695156e-05,-0.0001100796926117309,0.001372004014167846,0.04381613915957045,1.9319277434473597e-05,-0.0005063860583408379,none,False,False,0.04381613915957045,1.9319277434473597e-05,-0.0005063860583408379,0.0021635429961172786,0.5501676724284512,0.9150062332486602,-0.002565783226901152,0.0013023287545950223,0.001991029487613124
14,0.25999999999999995,0.11842685563484173,0.010323957863182569,0.24970379466851156,0.11701317450603387,0.010262108808640863,0.24956330803658985,-0.0014136811288078671,-6.184905454170546e-05,-0.00014048663192170463,0.0014219902015287914,0.043320362094121906,1.5180025099625503e-05,-0.0006084510326185666,none,False,False,0.043320362094121906,1.5180025099625503e-05,-0.0006084510326185666,0.002227426424073924,0.5499845636720562,0.9160051904170831,-0.0028962871824168247,0.001575374449753756,0.0022331017169478725
15,0.27999999999999997,0.11846055203644584,0.010394426175496947,0.24997321910850423,0.11700885524969667,0.010324760801933662,0.24979946083782464,-0.0014516967867491681,-6.966537356328448e-05,-0.00017375827067958594,0.0014637174459441044,0.04279667674289392,1.1142841847057018e-05,-0.0007111010219555613,none,False,False,0.04279667674289392,1.1142841847057018e-05,-0.0007111010219555613,0.0022859746804547035,0.549892135110433,0.9171892339159906,-0.0032394227905517,0.00188093941439155,0.002481255772903805
16,0.3,0.11848414971503035,0.01047363022827966,0.25027927991084414,0.11700277495386376,0.010396424531802463,0.25006955807669146,-0.0014813747611665956,-7.720569647719742e-05,-0.00020972183415268741,0.0014981372267954243,0.042245927783698414,7.25661959999145e-06,-0.0008104920540073739,none,False,False,0.042245927783698414,7.25661959999145e-06,-0.0008104920540073739,0.002340794476234638,0.5498971950107683,0.9185682298257154,-0.0035938956406222013,0.002220472724621975,0.002734236659262916
17,0.32,0.11849785732378192,0.01056207395376541,0.25062374551698163,0.11699441686566789,0.010477616253991262,0.2503755291903823,-0.0015034404581140276,-8.445769977414794e-05,-0.00024821632659932646,0.0015261315994814211,0.041668989826179496,3.5737894304375713e-06,-0.000903335772194502,none,False,False,0.041668989826179496,3.5737894304375713e-06,-0.000903335772194502,0.0023927447111227154,0.550006626252955,0.9201517057048918,-0.0039583559742755285,0.0025954666812272394,0.0029907461685579856
18,0.34,0.11850169607091318,0.010660288566311635,0.2510083257197121,0.11698316464222616,0.010568836004084063,0.2507192349377154,-0.00151853142868702,-9.145256222757234e-05,-0.0002890907819966815,0.0015485072654927011,0.04106676773354523,1.4961264480221594e-07,-0.0009870060302260685,none,False,False,0.04106676773354523,1.4961264480221594e-07,-0.0009870060302260685,0.002441866257889509,0.5502274045203157,0.9219488352931604,-0.004331413155363575,0.003007444873680191,0.003249451929690617
19,0.36000000000000004,0.1184954891821002,0.010768826194595635,0.25143466771496836,0.11696829243162435,0.010670567744960863,0.2511024654445966,-0.0015271967504758566,-9.82584496347725e-05,-0.0003322022703717842,0.001565995844831273,0.04044019580535026,-2.9586750959673134e-06,-0.0010595984733654832,none,False,False,0.04044019580535026,-2.9586750959673134e-06,-0.0010595984733654832,0.0024873668778234146,0.550566600561865,0.9239684153673297,-0.004711652118820687,0.0034579446615767505,0.003508999668065584
20,0.38000000000000006,0.11847885537543677,0.010888252116955294,0.2519043514973947,0.11694895499014732,0.010783279514253664,0.2515269376721619,-0.0015299003852894538,-0.00010497260270162997,-0.00037741382523281963,0.0015792579370399386,0.03979023622930431,-5.6927818834759965e-06,-0.0011199462347348784,none,False,False,0.03979023622930431,-5.6927818834759965e-06,-0.0011199462347348784,0.00252765428757861,0.551031372291026,0.9262188371841602,-0.005097650222290523,0.003948496160953282,0.0037680274000633576
21,0.4000000000000001,0.11845120477333065,0.011019136233351108,0.2524188846096315,0.11692417791260074,0.010907423571802464,0.2519942922318736,-0.0015270268607299187,-0.00011171266154864391,-0.00042459237775793746,0.0015888893729240849,0.03911787707342239,-7.994267553671787e-06,-0.0011675963662086495,none,False,False,0.03911787707342239,-7.994267553671787e-06,-0.0011675963662086495,0.002560409383261034,0.5516289504148968,0.9287080539193201,-0.00548799317353753,0.0044805996291066375,0.00402518038766805
22,0.4200000000000001,0.11841173622761085,0.011162044337439343,0.2529796962078711,0.11689284805471543,0.011043436547111265,0.25250608947059916,-0.0015188881728954162,-0.00011860779032807876,-0.0004736067372719255,0.001595428604255748,0.038424129996035214,-9.805382009626242e-06,-0.0012027528308088825,none,False,False,0.038424129996035214,-9.805382009626242e-06,-0.0012027528308088825,0.0025826909335379335,0.5523666198954573,0.9314435448572155,-0.0058812889650313805,0.005055702922370354,0.004279125792972251
23,0.4400000000000001,0.11835943541471124,0.011317529676768252,0.2535881303808799,0.11685370422962905,0.011191739586804065,0.25306380474849177,-0.001505731185082182,-0.00012579008996418777,-0.000524325632388134,0.0015993645354456898,0.037710027786467884,-1.1069787406454003e-05,-0.0012261927458087343,none,False,False,0.037710027786467884,-1.1069787406454003e-05,-0.0012261927458087343,0.002591062736877942,0.5532516986104278,0.9344322766745367,-0.006276179025318669,0.005675180466200939,0.004528566110955833
24,0.46000000000000013,0.11829307332072106,0.011486125209423353,0.2542454386479882,0.11680532826431778,0.011352738502080864,0.25366882283339537,-0.0014877450564032835,-0.00013338670734248936,-0.0005766158145928402,0.0016011443295926339,0.03697662180411217,-1.1733130831452413e-05,-0.0012391630549468192,none,False,False,0.03697662180411217,-1.1733130831452413e-05,-0.0012391630549468192,0.0025817343139655905,0.5542915139555847,0.9376806619057579,-0.006671346092695677,0.006340314931021565,0.004772250627286005
25,0.48000000000000015,0.11821120491854956,0.01166833688334045,0.25495277155851037,0.11674613650660624,0.011526823916173665,0.2543224313375937,-0.0014650684119433127,-0.00014151296716678578,-0.0006303402209166808,0.0016011808660035061,0.03622497935186484,-1.1743446831951369e-05,-0.0012432649252884147,none,False,False,0.03622497935186484,-1.1743446831951369e-05,-0.0012432649252884147,0.0025507066547009556,0.5554933777107427,0.9411945145271041,-0.007065518620007888,0.007052282556566046,0.005008984343374427
26,0.5000000000000001,0.11811216796646012,0.011864638181052886,0.25571116931732146,0.11667437187899637,0.011714371411802465,0.2550258131261029,-0.0014377960874637497,-0.00015026676925042164,-0.0006853561912185668,0.0015998596188130528,0.035456180997272206,-1.10513810780217e-05,-0.0012403329327714254,none,False,False,0.035456180997272206,-1.10513810780217e-05,-0.0012403329327714254,0.002493915316215201,0.5568645592093049,0.944979002509117,-0.007457471814801561,0.007812142815221031,0.005237634025851252
27,0.5200000000000001,0.11799408194688704,0.012075466089611134,0.2565215513666825,0.11658809658198971,0.011915741678631265,0.2557800376304518,-0.001405985364897333,-0.0001597244109798699,-0.000741513736230659,0.0015975447896028156,0.03467131783831752,-9.610237215522408e-06,-0.0012323155617230846,none,False,False,0.03467131783831752,-9.610237215522408e-06,-0.0012323155617230846,0.00240736421219465,0.5584122566581955,0.9490385971423236,-0.007846025690159531,0.008620832856224855,0.005457131261174138
28,0.5400000000000001,0.11785484722756695,0.012301218574970525,0.25738470486224624,0.11648518555677129,0.012131280660724065,0.2565860510080968,-0.0013696616707956633,-0.00016993791424646,-0.0007986538541494559,0.0015945845747068373,0.03387148869905764,-7.375858238911435e-06,-0.0012211627528903445,none,False,False,0.03387148869905764,-7.375858238911435e-06,-0.0012211627528903445,0.0022872446703705845,0.5601435663244261,0.9533770189239781,-0.008230040732654816,0.0094791669340255,0.005666472615512639
29,0.5600000000000002,0.11769214457342445,0.01254225356399613,0.25830127199068886,0.1163633208249921,0.012361319704000865,0.2574446650953719,-0.0013288237484323506,-0.00018093385999526541,-0.0008566068953169692,0.001591315490151204,0.033057797231814255,-4.306361292850191e-06,-0.001208725253377164,none,False,False,0.033057797231814255,-4.306361292850191e-06,-0.001208725253377164,0.002130035689221576,0.5620654492120681,0.957997179795411,-0.008608411972158107,0.010387840800088165,0.005864717202871937
30,0.5800000000000002,0.11750343517080723,0.01279888936743896,0.2592717360871686,0.11621998683182068,0.012606175703693665,0.2583565451112683,-0.0012834483389865536,-0.00019271366374529544,-0.0009151909759002597,0.001588065715709129,0.032231348896886065,-3.6175057804444276e-07,-0.0011966694170864798,none,False,False,0.032231348896886065,-3.6175057804444276e-07,-0.0011966694170864798,0.0019325827200068926,0.5641846947896949,0.9629011215342299,-0.0089800623545576,0.011347440833745028,0.006050982138668563
31,0.6000000000000002,0.11728596135069344,0.013071406416028955,0.2602964065236155,0.11605246692729565,0.012866151251802465,0.25932219608047113,-0.0012334944233977907,-0.00020525516422648972,-0.0009742104431443854,0.0015851574566984414,0.03139324778724035,4.496563023637483e-06,-0.0011864099418099985,none,False,False,0.03139324778724035,4.496563023637483e-06,-0.0011864099418099985,0.0016921536653396062,0.5665078812852249,0.9680899501344025,-0.009343936368728246,0.01235845751044681,0.0062244364919433
32,0.6200000000000002,0.11703674821701435,0.013360050130629608,0.26137540235312734,0.11585784113013134,0.013141534784551266,0.2603419479570412,-0.0011789070868830076,-0.00021851534607834205,-0.001033454396086153,0.0015829083564011253,0.030544593263898363,1.0306304772776538e-05,-0.001179061870413996,none,False,False,0.030544593263898363,1.0306304772776538e-05,-0.001179061870413996,0.00140647206028583,0.5690413320343958,0.9735637660447429,-0.00969899486397483,0.013421302658497183,0.00638429444029672
33,0.6400000000000002,0.11675260640018703,0.01366503470768603,0.2625086347124024,0.11563298532731442,0.013432600729844068,0.2614159394450074,-0.001119621072872612,-0.00023243397784196256,-0.001092695267394972,0.00158163202049757,0.029686476367900082,1.7104909858949763e-05,-0.0011754120853396087,none,False,False,0.029686476367900082,1.7104909858949763e-05,-0.0011754120853396087,0.001073728534190662,0.5717910673541016,0.9793215901872273,-0.010044211918463036,0.014536329841587226,0.0065298083733512195
34,0.6600000000000003,0.11643013616701778,0.013986547574113177,0.2636957880032219,0.11537457207185009,0.013739609654720868,0.26254410052900695,-0.0010555640951676881,-0.0002469379193923097,-0.0011516874742149574,0.001581637737696155,0.0288199759763582,2.4930097339381588e-05,-0.001175909534240159,none,False,False,0.0288199759763582,2.4930097339381588e-05,-0.001175909534240159,0.0006925726036761667,0.5747627514063114,0.9853612857386268,-0.01037857449260154,0.015703857126912357,0.006660262683166069
35,0.6800000000000003,0.11606573312624756,0.014324754251697682,0.2649362998957928,0.11507907314961649,0.014062808412813668,0.2637261337470469,-0.0009866599766310685,-0.0002619458388840139,-0.001210166148745917,0.0015832294968085945,0.027946154673122774,3.3820415148233185e-05,-0.0011806725771830273,none,False,False,0.027946154673122774,3.3820415148233185e-05,-0.0011806725771830273,0.00026208759422556886,0.5779616335225967,0.9916794757326276,-0.010701085436197964,0.016924191457458788,0.006774968926710521
36,0.7000000000000003,0.11565559577453566,0.014679803369759138,0.2662293402205522,0.11474276409417336,0.014402430291802468,0.2649614942585147,-0.0009128316803622971,-0.0002773730779566698,-0.0012678459620375504,0.0015867044099337258,0.02706605430864539,4.381572957568745e-05,-0.001189511167906943,none,False,False,0.02706605430864539,4.381572957568745e-05,-0.001189511167906943,-0.00021824798177028467,0.5813924834693315,0.9982714566200036,-0.011010770229191785,0.018197653840604466,0.006873262952801128
37,0.7200000000000003,0.11519573513000057,0.01505183157626754,0.2675737888422975,0.11436173083522583,0.01475869516087127,0.2662493687837654,-0.0008340042947747456,-0.0002931364153962706,-0.001324420058532061,0.001592350656474937,0.026180691228963562,5.4957635585683425e-05,-0.0012019610899124695,none,False,False,0.026180691228963562,5.4957635585683425e-05,-0.0012019610899124695,-0.0007486089520460193,0.585059520155771,1.0051311080193068,-0.011306687638105188,0.019524604592766472,0.006954504462337765
38,0.7400000000000003,0.1146819867001684,0.015440968119859195,0.2689682126398111,0.11393187867191559,0.015131809618164072,0.267588653516971,-0.0007501080282528022,-0.0003091585016951233,-0.0013795591228401016,0.0016004450651712575,0.025291051159791675,6.728976748834935e-05,-0.0012173271654733785,none,False,False,0.025291051159791675,6.728976748834935e-05,-0.0012173271654733785,-0.001328878173841753,0.5889663333143044,1.0122507989908809,-0.011587944279260796,0.02090546793471963,0.007018079327340776
39,0.7600000000000003,0.11411002502827437,0.015847338907121568,0.2704108417457072,0.11344894376582057,0.015521967138240871,0.2689779311414005,-0.0006610812624538026,-0.0003253717688806966,-0.0014329106043066697,0.0016112504533704784,0.024398083738408658,8.085799258069075e-05,-0.0012347322374949192,none,False,False,0.024398083738408658,8.085799258069075e-05,-0.0012347322374949192,-0.001958703727289187,0.5931157977152682,1.0196212912738318,-0.01185371290917306,0.022340755310637624,0.007063404842702615
40,0.7800000000000004,0.11347538105484176,0.016271069879610998,0.2718995452345553,0.11290850735008523,0.015929348219533672,0.2704154471058526,-0.0005668737047565264,-0.0003417216600773258,-0.0014840981287027044,0.001625012844789007,0.02350269669339902,9.571047323765057e-05,-0.0012531687775049745,none,False,False,0.02350269669339902,9.571047323765057e-05,-0.0012531687775049745,-0.0026375552030965055,0.5975099795202774,1.027231640037901,-0.01210325412372291,0.023831086901425397,0.007089937935924743
41,0.8000000000000004,0.11277346252078221,0.016712289599468896,0.2734318064823591,0.11230601285005079,0.01635412053180247,0.27189908535246526,-0.0004674496707314235,-0.0003581690676664265,-0.0015327211298938326,0.0016419586894081655,0.022605749680164634,0.00011189758536866595,-0.001271550176389735,none,False,False,0.022605749680164634,0.00011189758536866595,-0.001271550176389735,-0.0033647760534423676,0.602150034428561,1.0350690928202775,-0.012335941047842379,0.02537721090714268,0.0070971862248616555
42,0.8200000000000004,0.11199957762512351,0.017171130980537845,0.27500469845706554,0.11163678610666138,0.016796439063591274,0.2734263437194336,-0.00036279151846213553,-0.00037469191694657067,-0.0015783547376319595,0.0016622922114653638,0.021708047788228296,0.00012947168311145136,-0.0012887591029189353,none,False,False,0.021708047788228296,0.00012947168311145136,-0.0012887591029189353,-0.004139629453382072,0.6070360973292526,1.0431189874408575,-0.012551286542040468,0.026980020283588542,0.007084721700213281
43,0.8400000000000004,0.11114896212988201,0.01764773214941546,0.276614859235846,0.11089605888633292,0.017256446269684075,0.27499430927704666,-0.0002529032435490963,-0.0003912858797313831,-0.0016205499587993444,0.0016861930077068203,0.020810334745110612,0.00014848670102660547,-0.0013036907392241148,none,False,False,0.020810334745110612,0.00014848670102660547,-0.0013036907392241148,-0.0049613356615330305,0.6121671632471354,1.0513646498140987,-0.012748972439908144,0.02864056672175438,0.007052196723510409
44,0.8600000000000004,0.11021681008276345,0.018142236466209896,0.27825846808253335,0.11007899584942199,0.017734272218560873,0.27659963389163256,-0.00013781423334145726,-0.00040796424764902306,-0.001658834190900793,0.0017138140106711741,0.01991328585042704,0.0001689975859073518,-0.0013152891913041126,none,False,False,0.01991328585042704,0.0001689975859073518,-0.0013152891913041126,-0.005829099440430861,0.6175409594575879,1.0597872927099183,-0.012928880358931935,0.030360071752074457,0.00699936197601529
45,0.8800000000000004,0.10919830830003589,0.018654791775612328,0.27993122245520885,0.10918072513346319,0.018230034739853677,0.27823851034912234,-1.7583166572701647e-05,-0.0004247570357586508,-0.0016927121060865136,0.0017452799148746998,0.01901750068325123,0.00019105955069864585,-0.0013225758963019767,none,False,False,0.01901750068325123,0.00019105955069864585,-0.0013225758963019767,-0.006742126668901874,0.6231538087572638,1.068365916654231,-0.013091123687745829,0.03213993493257346,0.006926085968435966
46,0.9000000000000005,0.10808867471837924,0.01918554899241377,0.2816283163499359,0.10819637268650603,0.01874383957180248,0.27990664940757826,0.00010769796812679089,-0.0004417094206112908,-0.001721666942357647,0.0017806861388247315,0.018123495635682923,0.0002147271430007339,-0.0013246693770899386,none,False,False,0.018123495635682923,0.0002147271430007339,-0.0013246693770899386,-0.007699629822048785,0.6290004840158854,1.0770772143065224,-0.013236080435333131,0.03398173913313349,0.00683237572222235
47,0.9200000000000005,0.10688320068782636,0.019734660151380624,0.28334442042219443,0.107121100459753,0.019275780508711277,0.28159925818566733,0.00023789977192663347,-0.00045887964266934714,-0.001745162236527098,0.0018200983654020886,0.0172316963357312,0.00024005312039817602,-0.0013207962029845094,none,False,False,0.0172316963357312,0.00024005312039817602,-0.0013207962029845094,-0.008700822488981633,0.6350740543046561,1.0858954798099636,-0.013364426720091655,0.03588725295824182,0.006718398254605974
48,0.9400000000000005,0.10557729723552228,0.020302276067422936,0.2850736643604215,0.10595014853688624,0.01982593954840408,0.2833110203311103,0.00037285130136395506,-0.0004763365190188565,-0.0017626440293112,0.001863552667982909,0.016342430033134694,0.0002670871245489899,-0.0013102934800460627,none,False,False,0.016342430033134694,0.0002670871245489899,-0.0013102934800460627,-0.009744903525079701,0.641365723104588,1.0947925247729324,-0.013477170764837777,0.037858430352245925,0.006584502533239059
49,0.9600000000000005,0.10416654528128544,0.02088854375786443,0.28680962201718363,0.10467888123963266,0.02039438703968088,0.2850360784489031,0.0005123359583472237,-0.0004941567181835499,-0.0017735435682805223,0.0019110561961728683,0.015455918032868837,0.0002958741458236544,-0.0012926035992178798,none,False,False,0.015455918032868837,0.0002958741458236544,-0.0012926035992178798,-0.010831031785667068,0.6478646593573921,1.1037376027182282,-0.013575687333353884,0.03989740740473998,0.006431241602337202
50,0.9800000000000005,0.10264674973399873,0.021493603775357834,0.28854529983204097,0.1033028372049754,0.020981181829773682,0.2867680193028397,0.000656087470976674,-0.0005124219455841517,-0.001777280529201286,0.001962588367275935,0.014572268272111204,0.00032645277054881846,-0.001267262302139766,none,False,False,0.014572268272111204,0.00032645277054881846,-0.001267262302139766,-0.01195829265629749,0.6545578224299279,1.1126973440222518,-0.013661752583699975,0.04200649632411904,0.006259394611586522
51,1.0000000000000004,0.10101399734018966,0.022117587586727182,0.29027312910468694,0.10181778337877777,0.021586371411802474,0.28849986233469194,0.0008037860385881057,-0.0005312161749247077,-0.0017732667699950078,0.0020181024894438153,0.013691468147351508,0.00035885320379149796,-0.0012338813750411293,none,False,False,0.013691468147351508,0.00035885320379149796,-0.0012338813750411293,-0.01312565777951629,0.6614297824298792,1.121635703557479,-0.013737579311314738,0.04418817647262974,0.006069988492335478
52,1.0200000000000005,0.09926471809514978,0.02276061511246217,0.29198496269755525,0.10021977281333717,0.02220999207223128,0.29022405207239943,0.0009550547181873953,-0.0005506230402308881,-0.0017609106251558204,0.0020775277319332645,0.012813377708487929,0.00039309506242802216,-0.0011921274490278762,none,False,False,0.012813377708487929,0.00039309506242802216,-0.0011921274490278762,-0.014331939487251647,0.6684625377357357,1.1305139234450363,-0.013805852504440249,0.046445082266774,0.005864319015414051
53,1.0400000000000005,0.09739574995868003,0.02342279251447535,0.29367207676192675,0.09850520609254776,0.022852069038324083,0.29193245502076776,0.0011094561338677311,-0.0005707234761512664,-0.001739621741158992,0.0021407713566656203,0.011937723346039854,0.00042918493623139286,-0.0011416984729081187,none,False,False,0.011937723346039854,0.00042918493623139286,-0.0011416984729081187,-0.015575741491222247,0.6756353320957836,1.1392905135121425,-0.013869765030413454,0.04877998764621969,0.00564397092545389
54,1.0600000000000005,0.09540440654553191,0.02410421028809812,0.2953251780914623,0.09667089613805635,0.02351261662560088,0.29361636164439947,0.0012664895925244418,-0.000591593662497239,-0.001708816447062833,0.0022077211325781314,0.01106409210507627,0.0004671137191386752,-0.0010822994384465062,none,False,False,0.01106409210507627,0.0004671137191386752,-0.0010822994384465062,-0.01685540737376088,0.6829244742040765,1.1479212522283073,-0.013933053114001627,0.05119578671064628,0.00541083677582936
55,1.0800000000000005,0.09328854738590545,0.024804941681830797,0.29693441770993234,0.09471413607334506,0.02419163838529368,0.2952664940617489,0.0014255886874396106,-0.0006133032965371168,-0.001667923648183467,0.0022782478652395863,0.010191926763953281,0.0005068537190106926,-0.001013618887151217,none,False,False,0.010191926763953281,0.0005068537190106926,-0.001013618887151217,-0.018168968375617007,0.6903031632629829,1.1563592110461574,-0.01400003106409486,0.053695470031618404,0.005167133987966249
56,1.1000000000000005,0.0910466502700505,0.025525041435189216,0.2984894112937153,0.09263276974051561,0.024889127251802482,0.29687302007014144,0.0015861194704651083,-0.0006359141833867342,-0.0016163912235738764,0.0023522079863114967,0.009320521817020038,0.0005483555622177437,-0.0009353076234298112,none,False,False,0.009320521817020038,0.0005483555622177437,-0.0009353076234298112,-0.01951409190909117,0.69774132468644,1.164554805182276,-0.014075624459323156,0.056282096068190894,0.004915419532926508
57,1.1200000000000006,0.08867788510728539,0.026264544795555157,0.29997926701684696,0.09042526437732755,0.025605065690151287,0.29842557411313975,0.0017473792700421625,-0.0006594791054038707,-0.0015536929037072156,0.0024294461596972117,0.008449020497085282,0.0005915449195272867,-0.000846960916452598,none,False,False,0.008449020497085282,0.0005915449195272867,-0.000846960916452598,-0.020888032156472478,0.7052054607690562,1.172455873937739,-0.014165400729938209,0.058958757068913105,0.004658601490191001
58,1.1400000000000006,0.08618218864343011,0.02702346675067258,0.3013926213820309,0.08809078487058497,0.026339425843444085,0.29991328578259835,0.0019085962271548629,-0.0006840409072284941,-0.0014793355994325297,0.002509797867721654,0.007576412964175512,0.0006363190920570779,-0.0007481053027435729,none,False,False,0.007576412964175512,0.0006363190920570779,-0.0007481053027435729,-0.022287584055996165,0.7126585218051638,1.1800077936392537,-0.014275595790146367,0.06172853883825143,0.004399946591184503
59,1.1600000000000006,0.08356033928926149,0.02780180139587905,0.3027176835663104,0.08562926890731765,0.027092169680320893,0.30132481641698466,0.002068929618056159,-0.0007096317155581566,-0.0013928671493257383,0.002593091944352692,0.0067015357720134686,0.0006825435105085967,-0.0006381909182316518,none,False,False,0.0067015357720134686,0.0006825435105085967,-0.0006381909182316518,-0.023709041946340437,0.7200598037699557,1.187153626173601,-0.014413135099484256,0.06459447379247019,0.004143082716559674
60,1.1800000000000006,0.0808140312221888,0.0285995213467625,0.303942288763582,0.08304150224861659,0.027863249142413688,0.3026484043139724,0.0022274710264277853,-0.0007362722043488118,-0.0012938844496095947,0.002679153019409947,0.005823072701341329,0.0007300482173440209,-0.0005165901010371204,none,False,False,0.005823072701341329,0.0007300482173440209,-0.0005165901010371204,-0.025148164143209948,0.7273648792150847,1.193834305863072,-0.014585647288173716,0.06755948684296222,0.0038919952047088455
61,1.2000000000000006,0.07794594683256595,0.029416577108951927,0.3050539609467282,0.08032919325393648,0.028652606291802492,0.30387191901795835,0.0023832464213705273,-0.0007639708171494342,-0.0011820419287698614,0.0027678038289953594,0.004939557020005413,0.0007786244196772433,-0.00038260282302939437,none,False,False,0.004939557020005413,0.0007786244196772433,-0.00038260282302939437,-0.026600144761160616,0.7345255684394241,1.1999888670695806,-0.01480146829239851,0.07062633383118833,0.0036510157617481833
62,1.2200000000000006,0.07495982649408717,0.030252896327529116,0.30603998539727256,0.07749504568786797,0.029460173458471295,0.30498292507116465,0.002535219193780802,-0.0007927228690578214,-0.001057060326107917,0.0028588673352699,0.004049375194176538,0.0008280212198794326,-0.00023546933322807,none,False,False,0.004049375194176538,0.0008280212198794326,-0.00023546933322807,-0.028059594166981852,0.7414899582154829,1.2055547143958492,-0.015069633835964543,0.07379753250641978,0.003424802757930964
63,1.2400000000000007,0.07186053455148383,0.031108382859665697,0.30688749126134307,0.07454282874871576,0.03028587338776409,0.3059687555296963,0.002682294197231927,-0.0008225094719016071,-0.000918735731646747,0.002952168581987894,0.003150772033997803,0.0008779426504787104,-7.439022978676763e-05,none,False,False,0.003150772033997803,0.0008779426504787104,-7.439022978676763e-05,-0.02952052954726428,0.7482024753187015,1.2104679366668802,-0.015399858089966884,0.0770752863928293,0.0032183117691622393
64,1.2600000000000007,0.0686541203343598,0.031982915643439386,0.30758354428371415,0.071477443170813,0.031129619387840892,0.3068165954428698,0.0028233228364532015,-0.0008532962555984937,-0.0007669488408443281,0.0030475361955404267,0.0022418572128223785,0.0009280451588051203,0.00010144598469013344,none,False,False,0.0022418572128223785,0.0009280451588051203,0.00010144598469013344,-0.030976377171773786,0.7546040217662422,1.2146636650078393,-0.015802496463257095,0.08046140233257448,0.0030367553873848117
65,1.2800000000000007,0.0653478729313382,0.032876347373104756,0.30811524974684523,0.06830498217265282,0.03199131547713369,0.3075135753751099,0.0029571092413146205,-0.0008850318959710626,-0.0006016743717353057,0.003144803423356942,0.0013206130542504125,0.000977935703696879,0.000292827976022593,none,False,False,0.0013206130542504125,0.000977935703696879,0.000292827976022593,-0.032419988008666405,0.7606321779599364,1.2180764742875825,-0.01628849074455507,0.08395720301565789,0.0028855515896993133
66,1.3000000000000007,0.06195036839313866,0.0337885030336994,0.308469865498241,0.06503278595307958,0.032870856531802495,0.3080468749148275,0.003082417559940924,-0.0009176465018969071,-0.00042299058341349616,0.003243808587129068,0.00038490343955020214,0.0010271706399177921,0.0005004795724373445,none,False,False,0.00038490343955020214,0.0010271706399177921,0.0005004795724373445,-0.03384366836345823,0.7662214788101643,1.2206408259850376,-0.01686929524415584,0.08756343640183965,0.002770260324167933
67,1.3200000000000007,0.05847150798019297,0.03471917839223951,0.3086349247858998,0.061669488380541274,0.0337681284331913,0.3084038359643726,0.003197980400348306,-0.0009510499590482113,-0.00023108882152722554,0.0033443948195529126,-0.0005675163461174612,0.0010752555739788722,0.0007250111842437893,none,False,False,-0.0005675163461174612,0.0010752555739788722,0.0007250111842437893,-0.03523922712851247,0.7713037663666565,1.2222915491806785,-0.01755678317465469,0.09128018458114322,0.0026965084343309334
68,1.3400000000000007,0.05492254603251852,0.03566813858753466,0.30859836843818234,0.058225054478420746,0.0346830082152841,0.30857208544021214,0.0033025084459022275,-0.0009851303722505644,-2.6282997970195066e-05,0.00344640895448703,-0.0015389890322429298,0.0011216463761071862,0.0009668654080930164,none,False,False,-0.0015389890322429298,0.0011216463761071862,0.0009668654080930164,-0.0365980410065826,0.7758086205023358,1.22296435491923,-0.018363133262153795,0.09510677528450426,0.002669903588720674
69,1.3600000000000008,0.05131610602378218,0.03663511700176761,0.3083486857217297,0.05471080728544032,0.0356153642121609,0.3085396668341298,0.0033947012616581396,-0.0010197527896067121,0.00019098111240012372,0.0035496994510954903,-0.0025319442556482803,0.0011657515253796185,0.0012262578855091204,none,False,False,-0.0025319442556482803,0.0011657515253796185,0.0012262578855091204,-0.037911138669278616,0.7796638668138962,1.2225963776871216,-0.01930069747502717,0.099041699902065,0.002695938481444903
70,1.3800000000000008,0.047666183364217296,0.03761981462978853,0.30787506299169753,0.05113944266674902,0.036565056205453694,0.3082951798961365,0.0034732593025317213,-0.001054758424334834,0.00042011690443893857,0.003654113261753636,-0.0035488871212657432,0.0012069359471755174,0.0015031148559688336,none,False,False,-0.0035488871212657432,0.0012069359471755174,0.0015031148559688336,-0.039169304206083895,0.7827961582097878,1.2211267362799512,-0.020381851760790694,0.1030825424407842,0.0027798871875372964
71,1.4000000000000008,0.04398813354829001,0.038621900184489875,0.3071675390145865,0.047525030671140035,0.0375319355718025,0.3078279275000215,0.003536897122850026,-0.0010899646126873788,0.0006603884854350373,0.003759491596776181,-0.0045923865867707175,0.001244526473125307,0.0017970092740953122,none,False,False,-0.0045923865867707175,0.001244526473125307,0.0017970092740953122,-0.04036319940160802,0.7851316237453576,1.2184971049781255,-0.021618832748553078,0.10722592430207967,0.0029266961508105805
72,1.4200000000000008,0.04029864430251785,0.039641011183920674,0.3062171656009395,0.043883002075345554,0.038515845430311293,0.3071280685456462,0.003584357772827701,-0.0011251657536093806,0.0009109029447067485,0.0038656645989274792,-0.005665063764256524,0.0012778190134602832,0.002107097831044823,none,False,False,-0.005665063764256524,0.0012778190134602832,0.002107097831044823,-0.041483503368291784,0.7865965752975808,1.2146522848055719,-0.02302356443857524,0.11146747001590326,0.0031408728019023803
73,1.4400000000000008,0.0366156904777642,0.04067675625526356,0.30501617193795183,0.04023011882970183,0.03951662079000409,0.3061867755412225,0.0036144283519376277,-0.0011601354652594695,0.001170603603270648,0.003972445015986198,-0.006769580146516208,0.0013060874808557734,0.002432061700613702,none,False,False,-0.006769580146516208,0.0013060874808557734,0.002432061700613702,-0.042521066911835444,0.7871182598270186,1.2095407638094997,-0.024607479885705715,0.11580179906686394,0.0034263751996782828
74,1.4600000000000009,0.03295847055702732,0.04172871885875401,0.3035581307698173,0.03658442722255818,0.04053408869728091,0.30499639529744066,0.003625956665530866,-0.0011946301614731009,0.0014382645276233563,0.0040796210380902535,-0.007908625661148258,0.001328594445219509,0.0027700542756328907,none,False,False,-0.007908625661148258,0.001328594445219509,0.0027700542756328907,-0.04346707780322975,0.7866256424450367,1.2031152548687423,-0.02638134370368576,0.12022254862571648,0.003786506314938419
75,1.4800000000000009,0.029347323808354926,0.04279646258023399,0.30183812434245355,0.032965192715085086,0.04156806838337371,0.3035506109573422,0.0036178689067301595,-0.0012283941968602857,0.001712486614888653,0.00418694854701341,-0.009084906338305363,0.0013446034333582319,0.0031186595071932104,none,False,False,-0.009084906338305363,0.0013446034333582319,0.0031186595071932104,-0.04431323200334404,0.7850502034992912,1.1953331995861765,-0.02835508178532947,0.1247224313127873,0.0042238165943740205
76,1.5000000000000009,0.02580362731142013,0.0438795380611179,0.2998529078193001,0.029392815564616204,0.042618371411802504,0.30184460338561625,0.0035891882531960753,-0.0012611666493153942,0.001991695566316176,0.004294143088336674,-0.010301131256589517,0.0013533927196485223,0.0034748646430547785,none,False,False,-0.010301131256589517,0.0013533927196485223,0.0034748646430547785,-0.04505190497827596,0.7823267315856643,1.1861572274098084,-0.030537624866899305,0.1292933310302588,0.004740018236616364
77,1.520000000000001,0.022349672322329765,0.04497749153253438,0.29760106769271094,0.025888726553759647,0.04368480182583131,0.2998752097532107,0.003539054231429882,-0.0012926897067030707,0.002274142060499751,0.0044008719183988845,-0.011559998316186763,0.0013542703880643514,0.0038350511131967704,none,False,False,-0.011559998316186763,0.0013542703880643514,0.0038350511131967704,-0.0456763167224733,0.7783940939380465,1.175555560276609,-0.032936772401881184,0.13392643841775506,0.005335914183164103
78,1.540000000000001,0.019008519715363804,0.046089874796124086,0.2950831725680306,0.022475262374004892,0.044767156295924114,0.29764107698274067,0.003466742658641088,-0.0013227185001999722,0.002557904414710044,0.00450674648574848,-0.01286417828944386,0.0013465903862439064,0.004195006978071017,none,False,False,-0.01286417828944386,0.0013465903862439064,0.004195006978071017,-0.04618068411707557,0.7731959661299244,1.163502354774737,-0.03555908260887355,0.1386124256303343,0.006011344201306434
79,1.560000000000001,0.01580383455235708,0.04721625635315266,0.2923019135907828,0.01917552047549851,0.0458652242672009,0.29514280757229616,0.0033716859231414306,-0.0013510320859517547,0.0028408939815133816,0.004611315677307311,-0.014216296526688748,0.0013297692421123497,0.004549963710055756,none,False,False,-0.014216296526688748,0.0013297692421123497,0.004549963710055756,-0.04656035490518928,0.7666815044688288,1.149977976030613,-0.0384097935164286,0.14334165797711695,0.006765149665157323
80,1.580000000000001,0.012759700175893982,0.04835623323643239,0.2892622317211361,0.01601319348733813,0.0469787881068937,0.29238309519513395,0.003253493311444148,-0.0013774451295386902,0.0031208634739978702,0.0047140601009995325,-0.015618911657700423,0.001303303074809329,0.004894659130018265,none,False,False,-0.015618911657700423,0.001303303074809329,0.004894659130018265,-0.04681191891147875,0.7588059468189999,1.1349692001505736,-0.04149277838308083,0.14810443759845932,0.007595157796917171
81,1.600000000000001,0.009900412599001597,0.049509442953361155,0.28597142903777373,0.013012383632590482,0.04810762325180251,0.2893668473855944,0.003111971033588885,-0.001401819701558643,0.0033954183478206446,0.004814387598261207,-0.017074490631881753,0.0012667845039593584,0.0052234271213925975,none,False,False,-0.017074490631881753,0.0012667845039593584,0.0052234271213925975,-0.04693329412948578,0.7495311307416184,1.11846934499113,-0.04481053709109029,0.15289127190655857,0.00849818529687841
82,1.620000000000001,0.007250256365540202,0.050675574818639664,0.28243926127092384,0.01019739790586633,0.04925149835575132,0.28610129257248246,0.002947141540326128,-0.001424076462888342,0.0036620313015586214,0.004911630104605147,-0.0185853794852144,0.0012199190418258124,0.005530313388874841,none,False,False,-0.0185853794852144,0.0012199190418258124,0.005530313388874841,-0.046923787813550506,0.7388259216106813,1.1004783321589326,-0.04836422310834022,0.15769315710977008,0.00947006055565045
83,1.640000000000001,0.004833263472945496,0.05185437985598186,0.27867800881977695,0.007592525144397448,0.050410175437044125,0.28259606871486853,0.002759261671451952,-0.0014442044189377362,0.003918059895091586,0.0050050419295694405,-0.020153769307017854,0.0011625405362546617,0.00580921514223781,none,False,False,-0.020153769307017854,0.0011625405362546617,0.00580921514223781,-0.04678413552297785,0.7266665475444326,1.0810026863340054,-0.05215370351073396,0.16250186491263813,0.010505663080944912
84,1.660000000000001,0.002672957374998757,0.05304567839444806,0.27470252360315195,0.005221796501006938,0.05158341002592093,0.2788632908361428,0.002548839126008181,-0.001462268368527135,0.0041607672329908585,0.005093799528740364,-0.021781656997937028,0.0010946252111689663,0.006054041302247277,none,False,False,-0.021781656997937028,0.0010946252111689663,0.006054041302247277,-0.0465165238885321,0.7130368423810358,1.0600554811816674,-0.05617764749141827,0.16731021854611527,0.011598978437324999
85,1.680000000000001,0.0007920845054510553,0.054249364491711534,0.27053024921841784,0.00310873121315685,0.05277095131201373,0.27491759484396705,0.0023166467077057945,-0.0014784131796978031,0.0043873456255492105,0.0051770029105896835,-0.0234708005530258,0.001016303817253943,0.006258888764247568,none,False,False,-0.0234708005530258,0.001016303817253943,0.006258888764247568,-0.04612460538561474,0.6979284023201463,1.0376562441888348,-0.0604336368859355,0.17211234272989503,0.012743166912526468
86,1.700000000000001,-0.0007876638260741354,0.05546540639155987,0.26618121204542666,0.0012760699496307676,0.05397254229180252,0.2707761551695363,0.002063733775704903,-0.0014928640997573517,0.0045949431241096295,0.0052536789615594045,-0.02522266875677212,0.0009278713504251925,0.0064182294822227775,none,False,False,-0.02522266875677212,0.0009278713504251925,0.0064182294822227775,-0.045613515298938645,0.6813406661222949,1.0138308357429269,-0.06491829061803256,0.17690387105254113,0.013930644270203529
87,1.720000000000001,-0.00204593593098405,0.0566938423742078,0.2616779811336123,-0.00025450160209793127,0.055187919916071325,0.26645867396144135,0.0017914343288861186,-0.001505922458136473,0.004780692827829058,0.0053227871757837225,-0.027038385324077607,0.0008297937141549152,0.006527102637246138,none,False,False,-0.027038385324077607,0.0008297937141549152,0.006527102637246138,-0.044989902102221674,0.6632809328597006,0.9886113207522738,-0.06962739370485044,0.18168209362672466,0.015153173273466712
88,1.740000000000001,-0.002964007050819304,0.05793477158225913,0.2570455949548335,-0.0014626358771957018,0.05641681523736413,0.26198733982854305,0.001501371173623602,-0.0015179563448950023,0.004941744873709575,0.0053832285166830664,-0.02891866764476433,0.0007227105922759441,0.006581305821516827,none,False,False,-0.02891866764476433,0.0007227105922759441,0.006581305821516827,-0.044261982473798596,0.6437643351876461,0.9620358542583556,-0.07455602061833057,0.18644602776145108,0.016401965089795162
89,1.7600000000000011,-0.0035250655979951013,0.05918833969799908,0.25231145340015637,-0.002329609927736939,0.057658953557440926,0.25738675444260833,0.0011954556702581621,-0.001529386140558156,0.005075301042451963,0.005433858380377404,-0.030863760369319766,0.0006074336664749338,0.006577578790471321,none,False,False,-0.030863760369319766,0.0006074336664749338,0.006577578790471321,-0.04343963103330548,0.6228137901218429,0.9341486061223357,-0.07969864245791612,0.19119639486201614,0.017667790137578864
90,1.7800000000000011,-0.003714494209213475,0.060454719696754096,0.24750517375143238,-0.00283861158020985,0.05891405457473374,0.2526838256837414,0.0008758826290036249,-0.0015406651220203557,0.005178651932309042,0.005473504840046136,-0.03287336408754089,0.00048493917068926783,0.0065137726147454925,none,False,False,-0.03287336408754089,0.00048493917068926783,0.0065137726147454925,-0.0425345125778079,0.6004599536747661,0.9049997544328426,-0.08504920767097539,0.19593548794746016,0.018941098358563634
91,1.8000000000000012,-0.003520141324466905,0.06173408828706007,0.24265840977997083,-0.002975021292699588,0.060181832531802544,0.2479076264372471,0.0005451200317673167,-0.0015522557552575256,0.005249216657276262,0.005500993482434849,-0.03494655927286341,0.00035635364679331846,0.006388995660051736,none,False,False,-0.03494655927286341,0.00035635364679331846,0.006388995660051736,-0.04156026107356245,0.5767412109073806,0.8746455834686477,-0.09060118718781125,0.20066691628706942,0.020212149325815658
92,1.8200000000000012,-0.0029325789143348916,0.06302659905355601,0.2378046336113354,-0.0027266855231813797,0.06146199636279134,0.2430892186254577,0.00020589339115351189,-0.001564602690764673,0.005284585014122323,0.005515180182002668,-0.03708172546469691,0.00022293168828844991,0.006203725425113329,none,False,False,-0.03708172546469691,0.00022293168828844991,0.006203725425113329,-0.04053270476350099,0.5517037396021841,0.8431487307336494,-0.09634757725352136,0.20539521709694877,0.021471153192933155
93,1.8400000000000012,-0.001945341978089916,0.0643323537114196,0.2329788805448001,-0.002084177252641234,0.06275424984088412,0.23826144257678875,-0.0001388352745513178,-0.0015781038705354744,0.005282562031988652,0.005514993080817678,-0.03927645530129704,8.602448230587894e-05,0.005959871666838835,none,False,False,-0.03927645530129704,8.602448230587894e-05,0.005959871666838835,-0.039470130104925456,0.5254016947238903,0.8105786400124684,-0.10228085763108896,0.2101253295621118,0.02270842463270303
94,1.8600000000000012,-0.0005551455404524041,0.06565137322105347,0.22821745761927442,-0.001041039204193836,0.06405829172576094,0.23345867238996568,-0.00048589366374143187,-0.0015930814952925254,0.005241214770691255,0.0054994848463851345,-0.04152746244819144,-5.29618454435539e-05,0.005660771437475716,none,False,False,-0.04152746244819144,-5.29618454435539e-05,0.005660771437475716,-0.03839356814494235,0.4978975732469275,0.7770122952744406,-0.10839291023837969,0.21486193444792318,0.02391455428086647
95,1.8800000000000012,0.0012379249036535648,0.06698357073357714,0.22355761733469542,0.00040599473094665717,0.06537381591105376,0.2287165385357361,-0.0008319301727069076,-0.0016097548225233738,0.005158921201040667,0.005467895971893053,-0.04383048163481115,-0.0001926186212310202,0.005311090992245907,none,False,False,-0.04383048163481115,-0.0001926186212310202,0.005311090992245907,-0.03732707423577225,0.4692628361700855,0.7425353357203419,-0.11467491496916034,0.21960867425083633,0.025080606869574085
96,1.9000000000000012,0.003430253186113448,0.068328728337427,0.21903719851955306,0.002256804301845619,0.06670051157180254,0.22407161954189167,-0.0011734488842678288,-0.0016282167656244545,0.005034421022338614,0.005419729435130037,-0.04618015783813754,-0.0003315974469286513,0.004916603777365581,none,False,False,-0.04618015783813754,-0.0003315974469286513,0.004916603777365581,-0.03629795430494928,0.43957888840445514,0.7072436881287254,-0.12111725660180286,0.22436728544170673,0.026198363720022235
97,1.9200000000000013,0.006014565674131593,0.0696864791996396,0.21469423678714092,0.004507718250837546,0.06803806331191135,0.21956110521936986,-0.001506847423294047,-0.0016484158877282523,0.0048668684322289435,0.005354836359089738,-0.04856992004570328,-0.00046868177242045126,0.004483809247101647,none,False,False,-0.04856992004570328,-0.00046868177242045126,0.004483809247101647,-0.035336867172688476,0.4089385497648084,0.6712459021566237,-0.1277094991979917,0.22913669724039448,0.027260641404358774
98,1.9400000000000013,0.00897984040297983,0.07105629574241609,0.21056654720977194,0.0071513843041969005,0.06938615131160414,0.21522243449588654,-0.0018284560987829289,-0.001670144430811954,0.004655887286114602,0.005273511216063948,-0.050991832887472235,-0.000602863416619684,0.004019356177780764,none,False,False,-0.050991832887472235,-0.000602863416619684,0.004019356177780764,-0.03447770355442251,0.37744819360705756,0.6346664406175424,-0.13444050780187333,0.23391218179305323,0.028261739682443106
99,1.9600000000000013,0.012311254015157147,0.07243748278639013,0.20669128158655847,0.010176677588561736,0.07074445147488095,0.211092911516502,-0.002134576426595411,-0.0016930313115091772,0.004401629929943529,0.00517659324101305,-0.05343641664557442,-0.00073341718319734,0.003529239433169874,none,False,False,-0.05343641664557442,-0.00073341718319734,0.003529239433169874,-0.033757114638812424,0.3452307851091495,0.5976502617834393,-0.14129880609483234,0.23868467923462347,0.02919809938051357
100,1.9800000000000013,0.015990168307223336,0.0738291721928664,0.20310446185824632,0.013568650868659854,0.07211263557697375,0.20720930423475153,-0.002421517438563482,-0.001716536615892647,0.004104842376505213,0.005065567647847592,-0.05589242266243905,-0.0008599626122822629,0.0030177548416780277,none,False,False,-0.05589242266243905,-0.0008599626122822629,0.0030177548416780277,-0.033213553560159655,0.3124301179641896,0.560369131735001,-0.14827321341026697,0.2434404670603953,0.03006927626013959
101,2.0000000000000013,0.019994160036655634,0.07523031329891648,0.1998404900301915,0.01730852952411656,0.07349037141180255,0.20360743024023184,-0.002685630512539075,-0.0017399418871139327,0.0037669402100403426,0.004942655922318817,-0.0583465470178126,-0.000982496996649979,0.0024862282630870006,none,False,False,-0.0583465470178126,-0.000982496996649979,0.0024862282630870006,-0.03288573397059815,0.27921662056291385,0.523030208905215,-0.1553536223727665,0.24816139368830864,0.030879333478488095
102,2.0200000000000014,0.02429710418922744,0.07663965395142049,0.1969316346576484,0.02137375362441879,0.07487732293943135,0.200321735035667,-0.0029233505648086494,-0.0017623310119891378,0.0033901003780185957,0.004810880344970922,-0.06078306089736668,-0.001101379169684672,0.0019315885765346095,none,False,False,-0.06078306089736668,-0.001101379169684672,0.0019315885765346095,-0.03281053718481896,0.24579516645066768,0.4858875195994687,-0.1625313234547719,0.25282594956757454,0.03163866232532392
103,2.0400000000000014,0.028869335701961214,0.07805571525802177,0.1944074981558777,0.02573806882789432,0.07627315043352413,0.1973848683756986,-0.003131266874066896,-0.0017825648244976372,0.0029773702198208907,0.004674088469000267,-0.0631833325642517,-0.0012172416692424806,0.0013449378507041122,none,False,False,-0.0631833325642517,-0.0012172416692424806,0.0013449378507041122,-0.03302058633635526,0.2124153537678835,0.44925693778373454,-0.1697974258397855,0.25741152072699647,0.032365958865798426
104,2.0600000000000014,0.03367803658302582,0.0794766262605904,0.19228750265435596,0.03037166713131328,0.07767751062880095,0.19482726459891606,-0.0033063694517125354,-0.001799115631789458,0.0025397619445600983,0.004540846478664823,-0.06552818018716558,-0.0013309814424439835,0.0007175713660390806,none,False,False,-0.06552818018716558,-0.0013309814424439835,0.0007175713660390806,-0.03354090142687197,0.1793304225130986,0.413456360932506,-0.17715167631787213,0.2618916512250587,0.03308958241175748
105,2.0800000000000014,0.0386875171211805,0.08090007372214811,0.1905763192354205,0.03524137774189373,0.07909005686849375,0.1926767331130177,-0.0034461393792867695,-0.0018100168536543532,0.002100413877597185,0.004423095758536847,-0.06780003806652331,-0.00144374349434994,4.550045118542556e-05,none,False,False,-0.06780003806652331,-0.00144374349434994,4.550045118542556e-05,-0.034394567204506926,0.14675980096590913,0.3787496478461988,-0.18460116305897187,0.2662320886864151,0.033843794332456184
106,2.1000000000000014,0.04385965755475485,0.08232373095358403,0.18927187708589305,0.04031090754541801,0.08051043925180257,0.19095806532091306,-0.00354875000933684,-0.001813291701781461,0.0016861882350200086,0.004327225922971624,-0.06998010219479361,-0.00155668042029484,-0.0006781289544897786,none,False,False,-0.06998010219479361,-0.00155668042029484,-0.0006781289544897786,-0.03560886833531947,0.11494364020340801,0.3454243209784523,-0.19213169901037722,0.27039891361866975,0.034663571193199544
107,2.1200000000000014,0.04915461216905864,0.08374567637171289,0.18837080509666015,0.04554112981678704,0.08193830478135135,0.1896926642952534,-0.003613482352271602,-0.0018073715903615395,0.0013218591985932338,0.0042510185269803115,-0.07204550901817236,-0.0016706127914182674,-0.001467886154673432,none,False,False,-0.07204550901817236,-0.0016706127914182674,-0.001467886154673432,-0.03720753228859117,0.08419734669731699,0.3138696994394903,-0.1996822220977188,0.27437203627161555,0.03558108989537332
108,2.1400000000000015,0.05453143996052813,0.08516463380950631,0.18786836192182305,0.050890418978026195,0.08337329751064416,0.18889820341451657,-0.0036410209825019357,-0.0017913362988621478,0.0010298414926935284,0.0041864654579625675,-0.07396853764385546,-0.0017855704113490891,-0.0023432189362689285,none,False,False,-0.07396853764385546,-0.0017855704113490891,-0.0023432189362689285,-0.03918964874792599,0.05493055207756541,0.28460211416236125,-0.20712804136714522,0.27816126163338983,0.03661966441848513
109,2.1600000000000015,0.059948639178058455,0.08658011642562849,0.18775863157899736,0.05631502836994603,0.08481505869152096,0.18858831996187458,-0.0036336108081124266,-0.0017650577341075252,0.000829688382877225,0.004123947031939869,-0.07571605278745823,-0.0019000113274085758,-0.003321909626321467,none,False,False,-0.07571605278745823,-0.0019000113274085758,-0.003321909626321467,-0.04149228127224287,0.027664461679127575,0.2582873188429344,-0.21426990824557257,0.2818313932673792,0.03778683301956531
110,2.1800000000000015,0.06536434362740125,0.08799235931463718,0.188035164109129,0.06176950718453762,0.08626322692161376,0.18877234935760875,-0.003594836442863625,-0.0017291323930234276,0.0007371852484797659,0.004056622976580335,-0.07724965710055552,-0.0020097123063942063,-0.004408677412552032,none,False,False,-0.07724965710055552,-0.0020097123063942063,-0.004408677412552032,-0.043937378181836094,0.0030390947346810434,0.23574868824265618,-0.2208374267007502,0.2855357172548912,0.03906880648688465
111,2.2000000000000015,0.07073595023844273,0.08940196204944982,0.18869225473105,0.0672071519232755,0.08771743829180256,0.18945510524840894,-0.0035287983151672253,-0.0016845237576472577,0.0007628505173589428,0.003983965204546833,-0.07852720270086229,-0.0021066234674127137,-0.005579912857642537,none,False,False,-0.07852720270086229,-0.0021066234674127137,-0.005579912857642537,-0.04617593988664484,-0.01820341265527286,0.2179426851732631,-0.22651559696982637,0.28954997029261414,0.04042945810116872
112,2.2200000000000015,0.07601954847848198,0.09080995322166205,0.1897274427102908,0.07258048701926509,0.08917732653367139,0.19063671011680008,-0.003439061459216894,-0.0016326266879906626,0.0009092674065092898,0.0039139980632532925,-0.07950962508861839,-0.0021761897531025736,-0.006732439937108296,none,False,False,-0.07950962508861839,-0.0021761897531025736,-0.006732439937108296,-0.04748688019301592,-0.03532444493409669,0.20578350549015303,-0.2309173512673331,0.29439842652840836,0.0418095227295413
113,2.2400000000000015,0.08116973933557697,0.09221875291883999,0.19114564257045796,0.07784176860555844,0.09064252316696417,0.19231248040821436,-0.0033279707300185313,-0.001576229751875824,0.001166837837756396,0.0038628227955963264,-0.08017781428959174,-0.0021915791768974896,-0.007567974120176043,none,False,False,-0.08017781428959174,-0.0021915791768974896,-0.007567974120176043,-0.04632161455404625,-0.047864034685948194,0.19968452139245185,-0.23347852668751412,0.3011514987468002,0.04312871413654074
114,2.2600000000000016,0.08613772489985028,0.0936290440568654,0.1929586821251978,0.0829435048439681,0.09211265764704096,0.1944728694115472,-0.0031942200558821715,-0.0015163864098244328,0.0015141872863494166,0.0038464571552848923,-0.08052635352783916,-0.0021256689021745398,-0.007729240905547732,none,False,False,-0.08052635352783916,-0.0021256689021745398,-0.007729240905547732,-0.041088075874802864,-0.05560483916176805,0.19971113362132437,-0.23384438213275638,0.31093119168499017,0.044346479621592855
115,2.2800000000000016,0.09086928119596689,0.09503987582845104,0.1951804175864309,0.08783898576294087,0.09358735751233378,0.19710347028361316,-0.00303029543302602,-0.0014525183161172572,0.0019230526971822648,0.003871773695118873,-0.08054825624961022,-0.0019674302551504126,-0.007170896818786143,none,False,False,-0.08054825624961022,-0.0019674302551504126,-0.007170896818786143,-0.031226850163696866,-0.058393412583052695,0.2059296747108184,-0.23213792744702244,0.3243076115902021,0.04548971276299295
116,2.3000000000000016,0.09530458383047995,0.09645223392296093,0.1978226469393657,0.09248281520234579,0.0950662485318026,0.20018508069327234,-0.002821768628134158,-0.0013859853911583342,0.0023624337539066564,0.003932483558366639,-0.0802332129741901,-0.0017259916750576412,-0.006056084712368168,none,False,False,-0.0802332129741901,-0.0017259916750576412,-0.006056084712368168,-0.017155365618863442,-0.05613316772675892,0.2183845686418834,-0.2287199331554047,0.34122405947021933,0.04660943206063283
117,2.3200000000000016,0.09938249938694177,0.097870274124599,0.20089226909422642,0.09683143723799467,0.09654895485239141,0.2036938295936883,-0.0025510621489470975,-0.0013213192722075912,0.002801560499461897,0.004012797520314596,-0.07956949908194198,-0.0014290973945183594,-0.0047350378775154476,none,False,False,-0.07956949908194198,-0.0014290973945183594,-0.0047350378775154476,-0.00013901032022369322,-0.048790943122668816,0.2370770771609856,-0.22398752977781583,0.36104199309405033,0.047725716512672156
118,2.3400000000000016,0.10304902884529135,0.09930175668526503,0.20439263555934276,0.10084364936749059,0.09803509914648417,0.2076013656294453,-0.0022053794778007646,-0.0012666575387808576,0.0032087300701025556,0.004094394781214375,-0.07855706983724293,-0.0011110672825307907,-0.003555824166588764,none,False,False,-0.07855706983724293,-0.0011110672825307907,-0.003555824166588764,0.018426678124407077,-0.03654745459836911,0.2616982650961839,-0.21817660073730374,0.3829551166175775,0.048810916084519235
119,2.3600000000000017,0.1062641838069478,0.100755175871872,0.20832609994116014,0.10448109478691497,0.099524302759361,0.21187510566863693,-0.0017830890200328242,-0.001230873112510994,0.003549005727476795,0.004158112158916257,-0.07721465212712793,-0.0008011299143100786,-0.0027129063781824625,none,False,False,-0.07721465212712793,-0.0008011299143100786,-0.0027129063781824625,0.037613130392403805,-0.019862707284627093,0.29149219294233336,-0.21131733431821687,0.4063566244179991,0.04982911899374231
120,2.3800000000000017,0.10900067660949458,0.10223400151206892,0.21269360746054378,0.10770872627724225,0.1010161858566538,0.2164785409389017,-0.0012919503322523368,-0.001217815655415122,0.003784933478357927,0.00418066167815284,-0.07556863449528926,-0.0005228142591838994,-0.0022908605473742354,none,False,False,-0.07556863449528926,-0.0005228142591838994,-0.0022908605473742354,0.05683076985212421,0.000723301873937974,0.32557336700732237,-0.20336944665873016,0.4307593524241791,0.05075501339004879
121,2.4000000000000017,0.111239615935928,0.1037349308515983,0.21749469956491835,0.11049523454942423,0.10251036757180261,0.22137159726146924,-0.0007443813865037757,-0.0012245632797956846,0.0038768976965508906,0.00413327891925029,-0.07364426480234154,-0.0002952159696263135,-0.002312779099804988,none,False,False,-0.07364426480234154,-0.0002952159696263135,-0.002312779099804988,0.07566929898887528,0.024740357612682836,0.3631674235491863,-0.19430418926412396,0.45570816431435146,0.05156740304698458
122,2.4200000000000017,0.11296822784137597,0.1052495640937837,0.22272858737635537,0.11281343436380045,0.10400646615351139,0.22651104493914492,-0.0001547934775755211,-0.001243097940272317,0.003782457562789554,0.003984499808522155,-0.07146440065346173,-0.00013281301950114253,-0.0027443099930042295,none,False,False,-0.07146440065346173,-0.00013281301950114253,-0.0027443099930042295,0.09390353000005128,0.051807673254351705,0.4036375661087821,-0.18411781123088644,0.48080963103209856,0.05225112449417377
123,2.4400000000000017,0.11417847214603502,0.1067665951353837,0.22839458387601477,0.11464060233574278,0.10550409911320421,0.2318509529827497,0.00046213018970775455,-0.0012624960221794823,0.0034563691067349134,0.0037086315427998294,-0.069049518451959,-4.616220694219971e-05,-0.0035055305612657142,none,False,False,-0.069049518451959,-4.616220694219971e-05,-0.0035055305612657142,0.11146144799111798,0.08162648078000505,0.44647151582918115,-0.17282892313105735,0.5057375725639323,0.0527950103298484
124,2.4600000000000017,0.11486629856684133,0.1082702867258878,0.23444564415935448,0.1159587610550308,0.107002883372481,0.2373431815745593,0.0010924624881894773,-0.001267403353406804,0.0028975374152048206,0.003345969010741102,-0.06643224534538099,-4.2732339503320764e-05,-0.004483573871522855,none,False,False,-0.06643224534538099,-4.2732339503320764e-05,-0.004483573871522855,0.12823248264034592,0.11370711885057187,0.49090911490530487,-0.16058771543388126,0.5300647562273434,0.0531981094809351
125,2.4800000000000018,0.11503156706434364,0.10973981526514226,0.24073032765010613,0.11675490496837623,0.10850243541057378,0.2429379059838796,0.0017233379040325902,-0.0012373798545684822,0.002207578333773469,0.0030617649380240484,-0.06367033151049957,-0.00012426385383351707,-0.005536654238784583,none,False,False,-0.06367033151049957,-0.00012426385383351707,-0.005536654238784583,0.14395963748569537,0.14713138796762182,0.5356390112502467,-0.14782902373079518,0.5531491093585916,0.05348350430881055
126,2.5000000000000018,0.11467750652852594,0.11116263109654059,0.24707901968962157,0.11702116438719139,0.11000237141180261,0.2485841645840249,0.0023436578586654433,-0.0011602596847379854,0.001505144894403343,0.003017349142486005,-0.06081668895289865,-0.0002853087534518346,-0.006515282717159805,none,False,False,-0.06081668895289865,-0.0002853087534518346,-0.006515282717159805,0.15854295337197155,0.18108885036918174,0.5795435306279694,-0.13505881379561596,0.5745069534558169,0.05368485168412666
127,2.520000000000002,0.11381020982233148,0.1125409280021981,0.25337631181600917,0.11675490496837615,0.11150230741303144,0.2542304231841704,0.0029446951460446735,-0.0010386205891666639,0.0008541113681612145,0.003237200713672569,-0.05790249258434201,-0.0005172749450569692,-0.007291674220113035,none,False,False,-0.05790249258434201,-0.0005172749450569692,-0.007291674220113035,0.172114055228772,0.21516382763532982,0.6220671861810443,-0.12264154841891949,0.5939710458521548,0.05382568791766547
128,2.540000000000002,0.11243913109824213,0.11388423441300566,0.2595371533829831,0.11595876105503061,0.11300185945112422,0.25982514759349057,0.003519629956788478,-0.0008823749618814408,0.00028799421050745844,0.003639961712898084,-0.05494802389947117,-0.0008112016204791324,-0.007727118255046749,none,False,False,-0.05494802389947117,-0.0008112016204791324,-0.007727118255046749,0.18489934124425866,0.24912642291905476,0.662918334188616,-0.11083680107240322,0.6115095377861015,0.05392008761228688
129,2.560000000000002,0.11057561067124096,0.11520546056594562,0.2654932999249193,0.1146406023357425,0.114500643710401,0.26531737618530016,0.004064991664501541,-0.0007048168555446183,-0.00017592373961916596,0.004129391383059785,-0.05196816768095384,-0.0011586196678683627,-0.007695610344774842,none,False,False,-0.05196816768095384,-0.0011586196678683627,-0.007695610344774842,0.19713313028376944,0.28283176987953906,0.7019287573912893,-0.09984950548678366,0.6271442571344118,0.053979313062347115
130,2.580000000000002,0.10823482331416934,0.11651969702461676,0.27118842665643084,0.11281343436380013,0.1159982766700938,0.2706572842289048,0.004578611049630796,-0.0005214203545229612,-0.0005311424275260546,0.004638714327077098,-0.04897527651264729,-0.0015515064671926015,-0.00731127679056164,none,False,False,-0.04897527651264729,-0.0015515064671926015,-0.00731127679056164,0.20879897611817225,0.3161679930041779,0.7389855637262833,-0.08983518831059893,0.6409223025042515,0.05401300746603304
131,2.600000000000002,0.10543712740344383,0.11784189119182181,0.2765751856983166,0.11049523454942381,0.11749437525180259,0.27579673190658044,0.005058107145979984,-0.0003475159400192218,-0.0007784537917361334,0.005129444953857054,-0.045980613769049494,-0.0019821357689134944,-0.006585315112270433,none,False,False,-0.045980613769049494,-0.0019821357689134944,-0.006585315112270433,0.21996175433992168,0.34902991475841594,0.773998111781616,-0.08090259103697062,0.6529006486953642,0.05403096833190995
132,2.620000000000002,0.10220718600980908,0.11918470940709122,0.28161214821331393,0.10770872627724182,0.11898855696695136,0.28068978822914786,0.005501540267432742,-0.0001961524401398601,-0.0009223599841660657,0.005581771137761523,-0.04299501953635146,-0.0024428816015592677,-0.005552607267031251,none,False,False,-0.04299501953635146,-0.0024428816015592677,-0.005552607267031251,0.23064186123724792,0.38130702253345206,0.8068833520061314,-0.07313049792857595,0.6631347429291135,0.05404523991827535
133,2.640000000000002,0.09857381742125451,0.1205579065582596,0.28626285561493303,0.10448109478691442,0.12048044006424419,0.28529322349941266,0.005907277365659908,-7.746649401541017e-05,-0.0009696321155203691,0.005986828323242734,-0.04002922728904911,-0.002926032842673035,-0.004267884941168785,none,False,False,-0.04002922728904911,-0.002926032842673035,-0.004267884941168785,0.24081898180519568,0.4128770176785778,0.837559678543923,-0.06657310681657008,0.6716776707029292,0.054070707356711295
134,2.660000000000002,0.09456985027253917,0.12196788806961878,0.2904953914796019,0.10084364936749002,0.121969643677121,0.28956696353860417,0.006273799094950849,1.755607502221257e-06,-0.0009284279409977336,0.006342123982357101,-0.03709397223877026,-0.0034236515717247845,-0.002801305297575238,none,False,False,-0.03709397223877026,-0.0034236515717247845,-0.002801305297575238,0.2504380537487364,0.4436028379668243,0.8659448991024835,-0.06126328587044853,0.6785818988022312,0.05412500564560241
135,2.680000000000002,0.09023165614042253,0.12341782482890622,0.29429059356689546,0.09683143723799392,0.12345578797121379,0.2934744995743612,0.006599781097571394,3.7963142307570474e-05,-0.0008160939925342392,0.006650154971178117,-0.03419830559171881,-0.003927930240130376,-0.0012355777246271854,none,False,False,-0.03419830559171881,-0.003927930240130376,-0.0012355777246271854,0.2594200957471048,0.4733639850729909,0.8919965870540469,-0.05719394483044936,0.6839125775940649,0.05422488672515
136,2.700000000000002,0.08559880347052551,0.12490760059211083,0.29764509871607914,0.09248281520234512,0.12493849429180257,0.29698324847477703,0.006884011731819614,3.089369969173916e-05,-0.0006618502413021088,0.006915823717130331,-0.03134912031576019,-0.004431385638561664,0.000339076552052043,none,False,False,-0.03134912031576019,-0.004431385638561664,0.000339076552052043,0.26767097126941286,0.5020672719232211,0.9157240318279661,-0.05431392871200843,0.6877522490437249,0.05438369862306496
137,2.720000000000002,0.0807139599161205,0.12643350921705646,0.30056084837379127,0.08783898576293998,0.12641738531127145,0.30006485888443624,0.007125025846819483,-1.612390578500933e-05,-0.000495989489355031,0.007142286669669183,-0.028553231218972155,-0.004926456888870619,0.0018334820170569808,none,False,False,-0.028553231218972155,-0.004926456888870619,0.0018334820170569808,0.27508917456092263,0.5296094088684823,0.9371393323232206,-0.0525610453296019,0.6901906734161667,0.054614602847788955
138,2.740000000000002,0.07562251405969117,0.12798873950298972,0.30303911662625294,0.08294350484396736,0.1278920851765642,0.302695459756502,0.007320990784276185,-9.665432642552707e-05,-0.0003436568697509079,0.007329689499999341,-0.025818278412449127,-0.00540539701476168,0.0031665696475521457,none,False,False,-0.025818278412449127,-0.00540539701476168,0.0031665696475521457,0.2815776627345339,0.5558603366306467,0.9562347081617746,-0.051881672861807386,0.6913235452316737,0.054932140465499275
139,2.760000000000002,0.07037194470040965,0.12956436633908033,0.3050805425721157,0.07784176860555772,0.129362219656641,0.3048558487598348,0.007469823905148068,-0.00020214668243934142,-0.00022469381228090723,0.0074759360460359804,-0.023152409555689275,-0.005860560417779944,0.004270940604607672,none,False,False,-0.023152409555689275,-0.005860560417779944,0.004270940604607672,0.28705788008157795,0.5806700653403781,0.9729879534107397,-0.052233314212823574,0.6912578347807613,0.05535100459711987
140,2.780000000000002,0.06501113722121296,0.13115036648429068,0.30668514962600285,0.0725804870192643,0.13082741628993377,0.306531619051249,0.007569349798051336,-0.00032295019435690797,-0.00015353057475386844,0.007577791553657254,-0.020564006314145764,-0.0062847888231445225,0.005098463479730895,none,False,False,-0.020564006314145764,-0.0062847888231445225,0.005098463479730895,0.2914841244859047,0.6038758846197139,0.987367033980142,-0.05358716938469028,0.6901147330979733,0.05588497664806589
141,2.800000000000002,0.059589666431718445,0.13273662257965715,0.3078523783099218,0.06720715192327475,0.1322873045318026,0.30771322391964007,0.00761748549155631,-0.00044931804785455776,-0.00013915439028172605,0.007631994226054773,-0.01806145587921273,-0.006671848605016834,0.005625304353321586,none,False,False,-0.01806145587921273,-0.006671848605016834,0.005625304353321586,0.29485669861212616,0.6253097994695285,0.9993340838598541,-0.05593019180995071,0.6880298827209083,0.05654612384281317
142,2.820000000000002,0.05415706045623586,0.13431385478700592,0.3085811549163303,0.06176950718453686,0.1337415159019914,0.30839597981044015,0.007612446728300998,-0.0005723388850145117,-0.0001851751058901674,0.007636177499925054,-0.015652968111109115,-0.007016852733071998,0.005855546072523454,none,False,False,-0.015652968111109115,-0.007016852733071998,0.005855546072523454,0.2972318467520117,0.6448057986671206,1.0088488796231034,-0.059266149217939844,0.6851509017045465,0.057344328474127834
143,2.840000000000002,0.04876205774682571,0.13587440276514604,0.30887000979298307,0.0563150283699452,0.13518968413208418,0.3085800092061743,0.007552970623119493,-0.0006847186330618538,-0.0002900005868087807,0.007589486489909419,-0.01334643649421185,-0.007316592295109547,0.0058224781469946255,none,False,False,-0.01334643649421185,-0.007316592295109547,0.0058224781469946255,0.2987264852599619,0.6622064143591159,1.0158717265538482,-0.06361533049118497,0.6816326231208546,0.058287162889065214
144,2.860000000000002,0.04345187010340923,0.13741277625674864,0.3087172449663388,0.05089041897802527,0.13663144531296104,0.3082701257535322,0.0074385488746160425,-0.0007813309437876004,-0.0004471192128066015,0.007492823432740986,-0.011149338578323464,-0.0075697118786274015,0.0055868317746807054,none,False,False,-0.011149338578323464,-0.0075697118786274015,0.0055868317746807054,0.29951633502133285,0.6773680258669939,1.0203655879785567,-0.06901272481914265,0.6776308394610534,0.0593800505493667
145,2.880000000000002,0.03827146937959486,0.13892590645004155,0.30812113366872584,0.04554112981678633,0.13806643804225377,0.3074756648727953,0.007269660437191475,-0.0008594684077877779,-0.0006454687959305261,0.007348692317859838,-0.009068671051385861,-0.00777668958835096,0.005231697975689912,none,False,False,-0.009068671051385861,-0.00777668958835096,0.005231697975689912,0.2998271611150419,0.6901644884949214,1.0222972483169601,-0.07550473673217309,0.6732955360727809,0.06062659320470611
146,2.900000000000002,0.03326292336246813,0.14041306534815126,0.30708011951155273,0.04031090754541722,0.13949430357180262,0.30621026384713557,0.007047984182949087,-0.0009187617763486422,-0.0008698556644171629,0.0071606461385616904,-0.007110917050848793,-0.007939619044150577,0.004854493244298495,none,False,False,-0.007110917050848793,-0.007939619044150577,0.004854493244298495,0.2999201261280214,0.7004888740856363,1.0216373208030023,-0.08314476310669201,0.66876457377919,0.062028926385983174
147,2.920000000000002,0.028464813624372337,0.141875472167797,0.30559297683135705,0.03524137774189297,0.14091468595511142,0.30449159605503084,0.006776564117520631,-0.0009607862126855826,-0.0011013807763262107,0.0069323856643882555,-0.005282047778057862,-0.008061826839098295,0.00455694881089158,none,False,False,-0.005282047778057862,-0.008061826839098295,0.00455694881089158,0.3000734039491493,0.7082533250150961,1.0183589772376596,-0.09198819761539988,0.6641585774015418,0.06358799751209075
148,2.940000000000002,0.02391177026141319,0.14331566198019852,0.3036588997041976,0.030371667131312494,0.1423272321948042,0.3023410645691324,0.006459896869899305,-0.000988429785394318,-0.0013178351350652262,0.0066666296172505244,-0.0035875645816499636,-0.008147385099056673,0.004434520493382032,none,False,False,-0.0035875645816499636,-0.008147385099056673,0.004434520493382032,0.30056288388507163,0.7133871950360905,1.0124353635834176,-0.10208758403138674,0.6595774903138207,0.0653037232167808
149,2.960000000000002,0.01963415230058893,0.14473673616231775,0.30127750379505513,0.0257380688278937,0.143731592390081,0.2997834607923499,0.00610391652730477,-0.0010051437722367607,-0.0014940430027052254,0.006363982673538883,-0.002032589343127047,-0.008200589492672676,0.004566736477009306,none,False,False,-0.002032589343127047,-0.008200589492672676,0.004566736477009306,0.3016448855300808,0.7158337543389914,1.0038357429106854,-0.1134886645849097,0.6550989492488546,0.06717504200464726
150,2.980000000000002,0.015657888825927672,0.14614163303613045,0.2984487465516651,0.02137375362441813,0.14512741988417382,0.29684659413238135,0.005715864798490459,-0.0010142131519566278,-0.0016021524192837422,0.006022178267607238,-0.0006220097429963635,-0.008225467708864257,0.005009806198784097,none,False,False,-0.0006220097429963635,-0.008225467708864257,0.005009806198784097,0.3035433444711607,0.715545768390105,0.9925204504631884,-0.12622795324873695,0.6507783707989774,0.06919991004069946
151,3.000000000000002,0.012004478618904649,0.14753254471509974,0.2951727897285124,0.017308529524115795,0.14651437141180265,0.2935608989278164,0.005304050905211147,-0.001018173303297093,-0.0016118908006960142,0.005636295311105206,0.0006393169240629063,-0.008225365391811703,0.005792377289633043,none,False,False,0.0006393169240629063,-0.008225365391811703,0.005792377289633043,0.30644309218219984,0.7124802253992606,0.9784347346516542,-0.14033224244737777,0.6466504412596732,0.07137528733670913
152,3.0200000000000022,0.008691130398974865,0.14891056698577626,0.29144983836265315,0.013568650868659236,0.14789210724663143,0.28995902493329667,0.004877520469684371,-0.001018459739144828,-0.0014908134293564745,0.005200960570279169,0.0017463001134245591,-0.008202631262082483,0.006914773498518071,none,False,False,0.0017463001134245591,-0.008202631262082483,0.006914773498518071,0.31048987932125954,0.7065923926701023,0.9615014782856945,-0.155820193301619,0.6427315647272065,0.07369714174649289
153,3.0400000000000023,0.0057310444314934185,0.150275625891802,0.2872799833236062,0.010176677588561236,0.14926029134872418,0.28607541765154626,0.004445633157067818,-0.0010153345430778116,-0.001204565672059954,0.004716517450396325,0.0026932976726366737,-0.008158319647221081,0.00808080021146712,none,False,False,0.0026932976726366737,-0.008158319647221081,0.00808080021146712,0.31552577001186705,0.6978291436012172,0.9416125626854465,-0.17270539612508887,0.6390226407813282,0.0761604685049185
154,3.0600000000000023,0.0031355238603196518,0.15162546203843558,0.28267812422574584,0.007151384304196297,0.15061859151200108,0.2819458946721614,0.004015860443876645,-0.0010068705264345001,-0.0007322295535844292,0.0042044123823476295,0.0034765926857793085,-0.008092899536258366,0.00812994407301072,none,False,False,0.0034765926857793085,-0.008092899536258366,0.00812994407301072,0.32053608607209255,0.6861864915794407,0.9186991958058074,-0.1909608048815312,0.6355132167669507,0.07874008304382857
155,3.0800000000000023,0.0009191140068986184,0.15296065466589454,0.27773648473358853,0.004507718250837088,0.15196667951169385,0.27760722394867815,0.0035886042439384697,-0.000993975154200688,-0.00012926078491037885,0.003725959658570812,0.004105135508221416,-0.008006347895338554,0.007944150438447636,none,False,False,0.004105135508221416,-0.008006347895338554,0.007944150438447636,0.32644653754288594,0.6719217534064511,0.8930456157989856,-0.2103753917436098,0.6322541018063723,0.08137672288298746
156,3.1000000000000023,-0.0009034271518636814,0.15428516469636142,0.2725793099989492,0.0022568043018452513,0.15330423125180265,0.27309670962615634,0.0031602314537089327,-0.000980933444558768,0.000517399627207149,0.0033491783526559617,0.004593903160627901,-0.007896402188142273,0.007804621149798389,none,False,False,0.004593903160627901,-0.007896402188142273,0.007804621149798389,0.3334846789957218,0.655398250534034,0.865096711813039,-0.2306561586918383,0.6293396080938854,0.08401778732351171
157,3.1200000000000023,-0.002323465098870569,0.15560139246154198,0.2672996358451789,0.0004059947309463241,0.15463092691255145,0.26845179063231184,0.002729459829816893,-0.0009704655489905234,0.0011521547871329307,0.0031175655563074967,0.0049537528366722944,-0.007759491246522272,0.007722699022439128,none,False,False,0.0049537528366722944,-0.007759491246522272,0.007722699022439128,0.3416177197750086,0.6368781949240482,0.835156202715854,-0.2515775224051061,0.6268392142299636,0.08663178714562524
158,3.1400000000000023,-0.0033384258152097546,0.15690989940783792,0.26196875855368273,-0.001041039204194065,0.15594645109784422,0.26370965677808234,0.0022973866110156897,-0.000963448309993703,0.0017408982243996007,0.0030392341986463563,0.00519301253437675,-0.0075916313406853096,0.007676671136902729,none,False,False,0.00519301253437675,-0.0075916313406853096,0.007676671136902729,0.3508030169724984,0.6165587630158659,0.8034270448535964,-0.272960869051089,0.6247971788222839,0.08919521378884894
159,3.1600000000000024,-0.003950700298747437,0.15821033580954702,0.25664290389111183,-0.0020841772526413796,0.15725049298272104,0.25890688659125927,0.0018665230461060575,-0.0009598428268259851,0.0022639827001474377,0.003087203297552854,0.0053182654234453725,-0.007388623717016977,0.007650297458156557,none,False,False,0.0053182654234453725,-0.007388623717016977,0.007650297458156557,0.36102846119461807,0.5945894877130563,0.770035148421563,-0.2946637186375734,0.6232388495844156,0.09168901479246903
160,3.1800000000000024,-0.004166718736923067,0.15950206515083934,0.25136772054357226,-0.002726685523181449,0.15854274646081382,0.2540791105425904,0.0014400332137416176,-0.0009593186900255235,0.0027113899990181545,0.003216461368101126,0.005334826491135936,-0.007146039247158245,0.007633496874283047,none,False,False,0.005334826491135936,-0.007146039247158245,0.007633496874283047,0.3723126957500978,0.5710820823921071,0.735043219900563,-0.31657201456044043,0.6221746297203109,0.09409733030586885
161,3.2000000000000024,-0.003996270848020412,0.1607844798819717,0.24618126256315054,-0.002975021292699595,0.15982291029180262,0.24926070273080092,0.0010212495553208172,-0.0009615695901690757,0.0030794401676503824,0.003383861474280457,0.005247037208278942,-0.00685914459092912,0.007604239107234344,none,False,False,0.005247037208278942,-0.00685914459092912,0.007604239107234344,0.3846881255176771,0.5461160889109804,0.6984576851681434,-0.33859485253681004,0.6216009616778264,0.0964068120903772
162,3.2200000000000024,-0.0034519198247453696,0.16205723494375804,0.24111597386453262,-0.0028386115802098016,0.1610906882488714,0.24448450348430673,0.0006133082445355679,-0.000966546694886633,0.003368529619774102,0.0035577171494523044,0.0050584104949330504,-0.0065228610146858875,0.007537650425161965,none,False,False,0.0050584104949330504,-0.0065228610146858875,0.007537650425161965,0.39821630889895215,0.5197419688069604,0.6602304192486764,-0.3606629137396696,0.6214986931170556,0.0986060229519625
163,3.2400000000000024,-0.0025484278087981363,0.16332034654483152,0.23619999394957553,-0.0023296099277368212,0.16234578926616425,0.2397815747254398,0.0002188178810613151,-0.0009745572786672707,0.0035815807758642626,0.0037182474377744114,0.004771667318610965,-0.006131641224846018,0.00742416201316547,none,False,False,0.004771667318610965,-0.006131641224846018,0.00742416201316547,0.4130151214410938,0.4919813996762012,0.6202551801871088,-0.3827280425607056,0.6218290645014816,0.10068523134688775
164,3.2600000000000025,-0.0013023190454670738,0.16457411975345318,0.2314580074415007,-0.0014626358771955075,0.16358792758624105,0.235180989339505,-0.0001603168317284337,-0.0009861921672121299,0.003722981898004296,0.003854720572243035,0.004388724705278667,-0.00567920912891164,0.007269606589365511,none,False,False,0.004388724705278667,-0.00567920912891164,0.007269606589365511,0.42927011250219166,0.46282505063125573,0.5783581536954165,-0.4047619963022278,0.622526515838649,0.1026365006832465
165,3.2800000000000025,0.0002683945629963808,0.16581904648069867,0.22691183390488004,-0.0002545016020976676,0.16481682290753386,0.23070965520660663,-0.0005228961650940484,-0.0010022235731648177,0.003797821301726595,0.003962489006915427,0.003910681516045612,-0.005158222696584073,0.007095642704559389,none,False,False,0.003910681516045612,-0.005158222696584073,0.007095642704559389,0.4472534052117075,0.43222894691281405,0.5342820796250659,-0.42675510785357285,0.6234864369585367,0.10445359201091638
166,3.3000000000000025,0.0021444035684942677,0.1670557375184185,0.22258090235920458,0.0012760699496310243,0.16603220053180262,0.22639217399851191,-0.0008683336188632434,-0.0010235369866158917,0.0038112716393073343,0.00404072057252259,0.003337882770242415,-0.004559845314276739,0.006940850588296995,none,False,False,0.003337882770242415,-0.004559845314276739,0.006940850588296995,0.4673552717238038,0.4001102444381906,0.48766253782401464,-0.44871385263714064,0.6245446984626098,0.106131565099064
167,3.3200000000000025,0.004305285976093885,0.16828495583291198,0.21848274409950613,0.0031087312131570857,0.16723379151159137,0.22225073432408138,-0.0011965547629367995,-0.0010511643213206023,0.003767990224575246,0.004090774995476867,0.0026702712152587038,-0.0038732269873966423,0.006862799805800674,none,False,False,0.0026702712152587038,-0.0038732269873966423,0.006862799805800674,0.49013659368751333,0.3663449294296828,0.4379952274633543,-0.4706546081675177,0.6254427854587772,0.10766585547973753
168,3.3400000000000025,0.006729800652689568,0.1695078363324193,0.2146336353013839,0.005221796501007285,0.1684213327976842,0.21830503833190548,-0.0015080041516822833,-0.001086503534735106,0.003671403030521575,0.004115065815391765,0.0019085621731054331,-0.0030849870829201963,0.006941053356608345,none,False,False,0.0019085621731054331,-0.0030849870829201963,0.006941053356608345,0.5164146563465467,0.3307748529469599,0.38459635808176135,-0.4925862457464361,0.6257667384282283,0.10905024370642614
169,3.3600000000000025,0.009396787334713467,0.17072542300340837,0.21104780597285092,0.00759252514439776,0.16959456738656098,0.21457226045317987,-0.0018042621903157068,-0.0011308556168473927,0.0035244544803289535,0.004117763453802193,0.0010509892735991301,-0.0021724517522657334,0.00727040635160739,none,False,False,0.0010509892735991301,-0.0021724517522657334,0.00727040635160739,0.5471645618414137,0.2930741669032832,0.32641251668085436,-0.5144460595328559,0.6249327247869884,0.11027201325933735
170,3.3800000000000026,0.012229671338120316,0.171856046133248,0.20772898805132556,0.010197397905866781,0.17075324446785384,0.21106703659556586,-0.0020322734322535344,-0.0011028016653941708,0.003338048544240302,0.00406064956630642,0.00018592488033536883,-0.0010566121029692843,0.007711546416174106,none,False,False,0.00018592488033536883,-0.0010566121029692843,0.007711546416174106,0.5815811421144162,0.25320142035877735,0.2627006513564477,-0.5348062677692063,0.6217032770378416,0.11111443803344924
171,3.4000000000000026,0.015129018617754805,0.17278016508295468,0.20467035782491005,0.01301238363259101,0.17189711957180262,0.20780148178245395,-0.002116634985163795,-0.0008830455111520641,0.003131123957543891,0.0038812176275867948,-0.0005144217460232415,0.00037361526637499774,0.007778890964816106,none,False,False,-0.0005144217460232415,0.00037361526637499774,0.007778890964816106,0.6172040758674883,0.21149978234018066,0.19318442128586522,-0.5506427850825281,0.6144676269647447,0.11109221570737117
172,3.4200000000000026,0.018114654327250894,0.1733740705951753,0.20185607534610217,0.01601319348733863,0.17302595471671142,0.20478523397291443,-0.002101460839912264,-0.00034811587846386716,0.002929158626812256,0.0036217803063620644,-0.001016529178704307,0.00229419677923177,0.007724556469858534,none,False,False,-0.001016529178704307,0.00229419677923177,0.007724556469858534,0.6528544234359872,0.16694517098113296,0.11718826595225348,-0.5623452210050226,0.6023675358834394,0.10968020617822005
173,3.4400000000000026,0.021546721735488016,0.1730940657457961,0.1992263096727519,0.019175520475499065,0.17413951855640422,0.20202552159575227,-0.0023712012599889504,0.0010454528106081107,0.0027992119230003665,0.003814597538987435,-0.0015129776113358233,0.00529617495110905,0.007438520078490805,none,False,False,-0.0015129776113358233,0.00529617495110905,0.007438520078490805,0.6824292290080968,0.11538810859629167,0.032287787533335256,-0.568217673526934,0.5853668088405172,0.10561852791702567
174,3.4600000000000026,0.026616185638055585,0.17085196892993304,0.1967097620933513,0.02247526237400531,0.17523758652768098,0.19952725218530792,-0.004140923264050276,0.004385617597747943,0.002817490091956615,0.006657262020583456,-0.0027349050941132625,0.010376807930563173,0.006468840628236935,none,False,False,-0.0027349050941132625,0.010376807930563173,0.006468840628236935,0.701999643674688,0.05287426419313995,-0.06076233592581547,-0.5658201854077907,0.5637181434124477,0.09735147307896663
175,3.4800000000000026,0.03464243300012554,0.16565188378236462,0.1944762668180777,0.025888726553760257,0.17631994099777382,0.1972931194148378,-0.008753706446365282,0.010668057215409199,0.0028168525967600944,0.014084370055215654,-0.005742221170012399,0.018395588839787227,0.005018037811327674,none,False,False,-0.005742221170012399,0.018395588839787227,0.005018037811327674,0.7161937563182947,-0.023717799769328196,-0.1617304306157794,-0.5534715725562213,0.5374801902344639,0.08451688245329789
176,3.5000000000000027,0.04686545849972084,0.15648303548143694,0.19336798634845231,0.029392815564616984,0.17738637141180266,0.1953237257824322,-0.017472642935103855,0.020903335930365724,0.0019557394339798917,0.02731423842776835,-0.011524218574575211,0.03031667180084135,0.004071286689509576,min_task_infeasible,False,False,-0.011524218574575211,0.03031667180084135,0.004071286689509576,0.7323867929744869,-0.12013262573608183,-0.2743202689295078,-0.5318739190840939,0.5069519022404317,0.06928912077938289
177,3.5200000000000027,0.06363188840950004,0.14278646724234806,0.1950609583955128,0.03296519271508569,0.17843667444023142,0.1936177182107064,-0.030666695694414353,0.035650207197883366,-0.0014432401848064047,0.04704749132841056,-0.019966706352063514,0.046758931744469774,0.004125827595025624,min_task_infeasible,False,False,-0.019966706352063514,0.046758931744469774,0.004125827595025624,0.7576646986958813,-0.23761491708439553,-0.39740077348801345,-0.5064884041713409,0.47288497313274114,0.05378478512531702
178,3.5400000000000027,0.083755051349249,0.12444727404200767,0.20122303526522253,0.03658442722255851,0.17947065412632413,0.1921719338706081,-0.04717062412669049,0.05502338008431645,-0.00905110139461443,0.07303808987685986,-0.029637840528545498,0.06777550049431603,0.005137561508166759,min_task_infeasible,False,False,-0.029637840528545498,0.06777550049431603,0.005137561508166759,0.7975399087674825,-0.3710196004659628,-0.5245694096364837,-0.48264146193079505,0.43566665874208466,0.03875309059944293
179,3.5600000000000027,0.10311900473602933,0.10269622086556043,0.21160262895241166,0.040230118829702045,0.18048812203360093,0.19098155362682634,-0.0628888859063273,0.0777919011680405,-0.020621075325585325,0.10213628447060671,-0.037252362595536416,0.09197487695191747,0.007174574835765792,min_task_infeasible,False,False,-0.037252362595536416,0.09197487695191747,0.007174574835765792,0.857264399739297,-0.5045268078832589,-0.6452202297447525,-0.4601130775827402,0.393279558366805,0.021904700708314705
180,3.5800000000000027,0.1180489064948768,0.07843425609599276,0.22519012283127948,0.04388300207534607,0.1814888973932938,0.19004026062240253,-0.07416590441953073,0.10305464129730103,-0.03514986220887695,0.13174351325429798,-0.04116952811066238,0.1178936792027387,0.008948194890729764,min_task_infeasible,False,False,-0.04116952811066238,0.1178936792027387,0.008948194890729764,0.9327024641767806,-0.6304971108452393,-0.7558215536688354,-0.43443581185848973,0.34631902260512326,-0.00478265333162851
181,3.6000000000000028,0.12739165555160264,0.05200421805130262,0.24228576699916665,0.04752503067114042,0.18247280725180257,0.1893404016680273,-0.07986662488046223,0.13046858920049995,-0.05294536533113936,0.16187631774849925,-0.04186627858772255,0.14496484131306234,0.008789844167047485,min_task_infeasible,False,False,-0.04186627858772255,0.14496484131306234,0.008789844167047485,1.016512434213624,-0.7524146980798323,-0.8580418849489011,-0.4053413037133415,0.2997073306615822,-0.04416737050143583
182,3.6200000000000028,0.13026995813896572,0.02401646041593821,0.2630781913478306,0.05113944266674936,0.18343968661815133,0.18887314927191237,-0.07913051547221636,0.1594232262022131,-0.07420504207591824,0.19283099284375807,-0.039621060477981564,0.17270843355987692,0.008512606516300595,min_task_infeasible,False,False,-0.039621060477981564,0.17270843355987692,0.008512606516300595,1.1074589688952186,-0.8725797818874598,-0.9528887808836275,-0.37283958519474447,0.2556609493934645,-0.09502300047138568
183,3.640000000000003,0.12539510594966435,-0.0037999680939771133,0.2869919567033816,0.05471080728544054,0.18438937861144408,0.18862866233391906,-0.07068429866422382,0.1881893467054212,-0.09836329436946256,0.2238008891186091,-0.03452805137870099,0.19974179864388217,0.008343622448162483,min_task_infeasible,False,False,-0.03452805137870099,0.19974179864388217,0.008343622448162483,1.2022240449306603,-0.9900224817605591,-1.0416252835026003,-0.3377915661682471,0.21311236324886818,-0.15973503505830025
184,3.660000000000003,0.11239811952813361,-0.029273862245964427,0.3131249091591523,0.05822505447842127,0.185321734608321,0.18859624372783673,-0.05417306504971234,0.21459559685428542,-0.12452866543131558,0.25395546790772566,-0.026815785664085417,0.22447780933240985,0.008228217305757726,min_task_infeasible,False,False,-0.026815785664085417,0.22447780933240985,0.008228217305757726,1.2975349606313091,-1.103486707495697,-1.1267475877398345,-0.2977214515203961,0.17063269209847035,-0.2432920052740521
185,3.680000000000003,0.0918527968960677,-0.04976232993173116,0.34024513947378576,0.061669488380542,0.18623661439041383,0.1887644932036763,-0.030183308515525704,0.235998944322145,-0.15148064627010946,0.2820512719852905,-0.016959373412176834,0.24536085571219335,0.008074495317360621,min_task_infeasible,False,False,-0.016959373412176834,0.24536085571219335,0.008074495317360621,1.3903277483149195,-1.2115825732454903,-1.212102377300001,-0.24478831113519056,0.12746319283538055,-0.352413973248074
186,3.700000000000003,0.06559099374655808,-0.0627037450399209,0.3672548927501822,0.0650327859530801,0.18713388629180258,0.18912145425322144,-0.0005582077934779828,0.2498376313317235,-0.17813343849696076,0.30683982064936977,-0.005573703939196074,0.26136152401043466,0.005784209064124693,min_task_infeasible,False,False,-0.005573703939196074,0.26136152401043466,0.005784209064124693,1.476476791503842,-1.3140382130490251,-1.301637763117982,-0.1734091609158434,0.08390595602474644,-0.4920732687316092
187,3.720000000000003,0.03674042921885329,-0.06699049029957811,0.39395905278213816,0.06830498217265317,0.18801342734647133,0.189654753792939,0.03156455295379988,0.25500391764604946,-0.20430429898919916,0.3282736139312365,0.006772982202292726,0.2723943764916235,-0.0035978709615136486,min_task_infeasible,False,False,0.006772982202292726,0.2723943764916235,-0.0035978709615136486,1.5503444385377019,-1.4128420726491775,-1.397277875007814,-0.08464414458655589,0.04195542426402431,-0.6608655148058534
188,3.740000000000003,0.006363019038192369,-0.06263676280633779,0.4203525240945376,0.07147744317081324,0.18887512343576413,0.19035173372517908,0.06511442413262088,0.2515118862421019,-0.23000079036935853,0.3469848422074262,0.021306507275941165,0.27854449360487865,-0.011083878275214495,min_task_infeasible,False,False,0.021306507275941165,0.27854449360487865,-0.011083878275214495,1.6283527341611335,-1.50952174679335,-1.499034731080448,0.020843600170283094,-0.001550263351050101,-0.8527744157183577
189,3.760000000000003,-0.02428245654548648,-0.05277218906289972,0.44726404662082075,0.07454282874871583,0.18971886943584088,0.19119957363835258,0.09882528529420231,0.24249105849874059,-0.25606447298246815,0.36624768229861776,0.037193040470722166,0.28180254733650534,-0.009551055262870516,tracking_infeasible,True,False,0.037193040470722166,0.28180254733650534,-0.009551055262870516,1.7200127515207195,-1.6047933936398768,-1.5940256023510455,0.12810139060918596,-0.047340671705258144,-1.050106197579469
190,3.780000000000003,-0.054028553696233925,-0.04051893598809082,0.4750898719881499,0.07749504568786879,0.19054456936513386,0.19218540409688453,0.1315235993841027,0.23106350535322467,-0.28290446789126533,0.3882315528829536,0.05294557799444876,0.28394174600987315,-0.00767550827685781,tracking_infeasible,True,False,0.05294557799444876,0.28394174600987315,-0.00767550827685781,1.8147470541369306,-1.6988569466348376,-1.673190549478194,0.21652539567702464,-0.09397285621297975,-1.2343872191445628
191,3.800000000000003,-0.08303114731857117,-0.026564463983468636,0.5036167054120464,0.08032919325393675,0.19135213653180252,0.19329641015009066,0.16336034057250792,0.21791660051527117,-0.3103202952619557,0.41288367769090295,0.06847563071834886,0.2849912909112565,-0.005592089024217283,tracking_infeasible,True,False,0.06847563071834886,0.2849912909112565,-0.005592089024217283,1.9136140488190354,-1.7915865265244681,-1.7377001681789392,0.27504641191012585,-0.14182389731580797,-1.395711299983182
192,3.820000000000003,-0.11199638350384994,-0.011785699505779474,0.5328210093260948,0.08304150224861645,0.19214149368119124,0.19451992485407643,0.1950378857524664,0.20392719318697072,-0.33830108447201834,0.4405379674385079,0.08369297749506927,0.2849852832242426,-0.003430756120729153,tracking_infeasible,True,False,0.08369297749506927,0.2849852832242426,-0.003430756120729153,2.017515160584967,-1.8825634122078718,-1.7884818153587152,0.2940562390108869,-0.18970782569667038,-1.5261798049622388
193,3.840000000000003,-0.13855505053919875,0.007684989650176177,0.5619395288323599,0.08562926890731806,0.19291257314328417,0.19584351275106443,0.22418431944651682,0.185227583493108,-0.36609601608129544,0.46754054344301554,0.09758004868602363,0.2821046384956376,-0.002409704487918395,none,False,False,0.09758004868602363,0.2821046384956376,-0.002409704487918395,2.1228101989463797,-1.9737671013459335,-1.8411783304512053,0.3014177140831576,-0.2321683976397702,-1.6459096262857456
194,3.860000000000003,-0.1594828409090896,0.03475220003055076,0.590307272781679,0.08809078487058544,0.193665316980161,0.1972550433854508,0.24757362577967504,0.15891311694961024,-0.39305222939622825,0.49095430943589885,0.10884478521711995,0.27468899670909197,-0.0014138241972233975,min_task_infeasible,False,False,0.10884478521711995,0.27468899670909197,-0.0014138241972233975,2.230541018053797,-2.0695719051360095,-1.9098721099215643,0.32176328823104766,-0.2678869910826492,-1.7710134057066076
195,3.880000000000003,-0.17330974011329853,0.06875487627086838,0.6184604985685116,0.09042526437732815,0.19439967713345385,0.19874275505490954,0.2637350044906267,0.12564480086258548,-0.419717743513602,0.5113763318707852,0.11671560702232142,0.26264315491263085,-0.002481884571347253,min_task_infeasible,False,False,0.11671560702232142,0.26264315491263085,-0.002481884571347253,2.340603732719252,-2.1743529485713284,-1.9971446785191753,0.35569950207035483,-0.30174093591111256,-1.8965367643171094
196,3.900000000000003,-0.17823883129528384,0.10772575648554375,0.6472269664370365,0.09263276974051557,0.19511561557180246,0.20029530909790744,0.27087160103579944,0.08738985908625871,-0.44693165733912904,0.5298644336532827,0.12070899979582807,0.24658793930944148,-0.010625582624272089,min_task_infeasible,False,False,0.12070899979582807,0.24658793930944148,-0.010625582624272089,2.4484434023827446,-2.2925970519044747,-2.1021088004466826,0.40278165092619544,-0.33748968266617735,-2.018080045185404
197,3.920000000000003,-0.17171438774362158,0.14726390777655918,0.6742975125107338,0.09471413607334522,0.19581310443831132,0.20190183510630016,0.2664285238169668,0.04854919666175214,-0.4723956774044336,0.5445170877302045,0.12081807355268508,0.22825923728224792,-0.012053390256005856,min_task_infeasible,False,False,0.12081807355268508,0.22825923728224792,-0.012053390256005856,2.5601725288202988,-2.417394125084205,-2.2123850879476676,0.481210157965782,-0.37569404539521073,-2.1447623741991615
198,3.940000000000003,-0.13939451235706726,0.16513161265681625,0.6739529600045164,0.0966708961380563,0.19649212619800405,0.20355196752364935,0.23606540849512356,0.031360513541187796,-0.4704009924808671,0.5272451541972873,0.1205944051293962,0.21480947887566446,-0.011616009625512213,min_task_infeasible,False,False,0.1205944051293962,0.21480947887566446,-0.011616009625512213,2.58596831671887,-2.437061071666218,-2.197222493479968,0.9269410917903732,-0.4318999088458263,-2.441714710216246
199,3.960000000000003,-0.08907026573292812,0.14130448572796483,0.6650645841606342,0.09850520609254815,0.197152673785281,0.20523587414728148,0.18757547182547626,0.05584818805731617,-0.4598287100133527,0.4997459557539004,0.12246701625734165,0.20608349951443822,-0.010508402668194439,min_task_infeasible,False,False,0.12246701625734165,0.20608349951443822,-0.010508402668194439,2.5846389401373777,-2.415554905899784,-2.1038985371433383,1.5035514115780093,-0.5382915603274058,-2.7512938754539724
200,3.980000000000003,-0.04382427635460369,0.07142627105195157,0.6593731912758738,0.10021977281333702,0.19779475075137362,0.20694427709564933,0.14404404916794072,0.12636847969942205,-0.45242891418022446,0.49133451247448134,0.12779186125185105,0.202578324751782,-0.00974176960362968,min_task_infeasible,False,False,0.12779186125185105,0.202578324751782,-0.00974176960362968,2.5734725962132092,-2.371500837807021,-1.9925589058558875,2.03704964840074,-0.6501937776747113,-2.7747534955491866
