LordTarzan10086/HCDR_ML/results/tracking/routeb_trajectory_suite_20260416_105416/circle/circle_arm_only_detailed.csv
step,time_s,tip_x,tip_y,tip_z,des_x,des_y,des_z,err_x,err_y,err_z,err_norm,q_platform_x,q_platform_y,q_platform_psi,solver_status,fail_reason,fallback_applied,hold_active,u_a_1,u_a_2,u_a_3,u_a_4,u_a_5,u_a_6,u_a_7,u_a_8,u_a_9,u_a_10,u_a_11,u_a_12,u_a_13,u_a_14,qdd_1,qdd_2,qdd_3,qdd_4,qdd_5,qdd_6,qdd_7,qdd_8,qdd_9,q_1,q_2,q_3,q_4,q_5,q_6,q_7,q_8,q_9,cable_force_1,cable_force_2,cable_force_3,cable_force_4,cable_force_5,cable_force_6,cable_force_7,cable_force_8,cable_length_1,cable_length_2,cable_length_3,cable_length_4,cable_length_5,cable_length_6,cable_length_7,cable_length_8,arm_torque_1,arm_torque_2,arm_torque_3,arm_torque_4,arm_torque_5,arm_torque_6
1.0,0.0,0.17697440782913593,0.010000756153069794,0.24870913093193897,0.1770211643871914,0.010002371411802463,0.24858416458402444,4.675655805547185e-05,1.61525873266892e-06,-0.00012496634791453465,0.00013343677489007551,-9.272548502427893e-07,-3.909173868133953e-09,2.6516932777185237e-06,min_task,none,false,false,6.999999999999999,6.999999999999999,6.999999999999999,6.999999999999999,6.999999999999999,6.999999999999999,6.999999999999999,6.999999999999999,0.001328954250239638,-0.011506520076130294,-0.00037013343428560035,-6.578493821380166e-05,9.398157572739942e-05,5.519868853428938e-07,0.0,-6.428432399757374e-17,0.0,0.0013700307227435028,-0.05987387199002136,-0.08825218136822084,-0.00067821692542407,0.0017479240100190285,-2.0891512630246172e-07,-9.272548502427893e-07,-3.909173868133953e-09,2.6516932777185237e-06,0.004839946320074088,0.3197303903707825,0.7929956950478745,-0.0010308902398490354,0.003539390545942467,3.8222847279221347e-07,6.999999999999999,6.999999999999999,6.999999999999999,6.999999999999999,6.999999999999999,6.999999999999999,6.999999999999999,6.999999999999999,1.2020821864508868,1.2020821864508868,1.2020808751145076,1.2020808751145076,1.202080869585484,1.202080869585484,1.2020821809218696,1.2020821809218696,0.001328954250239638,-0.011506520076130294,-0.00037013343428560035,-6.578493821380166e-05,9.398157572739942e-05,5.519868853428938e-07
2.0,0.02,0.1769772361501401,0.010004961854263297,0.24870221843431223,0.17702116438354548,0.010003306835152227,0.24858416458402444,4.392823340537699e-05,-1.6550191110700774e-06,-0.00011805385028779147,0.00012597277621036843,-2.9604699216424147e-06,3.1112656341614275e-08,5.9052218489345165e-06,min_task,none,false,false,38.033155797582715,38.03315579758291,38.031501952376374,38.0315019523762,38.031494995882944,38.03149499588288,38.03314884307018,38.03314884307022,-0.0003285731617274237,-0.005926750423433166,-0.00015634571036735157,-0.00015634297218279625,0.0006264155629403164,-5.6902906242638985e-06,0.0006850188704169925,2.880809923785189e-06,-0.0019176272250543826,-0.03455369813489462,-0.034051556922368637,-0.050059909177074584,-0.011370863916361872,0.045133847273270286,-0.00017626197326942774,-2.9604699216424147e-06,3.1112656341614275e-08,5.9052218489345165e-06,0.004837261775986788,0.3196921190198503,0.7929440247492744,-0.001036816427249046,0.0035518675017254483,3.0801785774001217e-06,38.033155797582715,38.03315579758291,38.031501952376374,38.0315019523762,38.031494995882944,38.03149499588288,38.03314884307018,38.03314884307022,1.2020835993939347,1.2020835993939347,1.202079412657098,1.202079412657098,1.2020794566527522,1.2020794566527522,1.2020836433894357,1.2020836433894357,-0.0003285731617274237,-0.005926750423433166,-0.00015634571036735157,-0.00015634297218279625,0.0006264155629403164,-5.6902906242638985e-06
3.0,0.04,0.17698077831544148,0.010020206675815081,0.24869317446127054,0.1770211641573457,0.01000979858922015,0.24858416458402444,4.03858419042169e-05,-1.0408086594930824e-05,-0.00010900987724610234,0.00011671545668886482,-5.276089356598225e-06,1.7605420936887558e-07,4.2315567353703945e-06,min_task,none,false,false,10.976356317742573,10.976356317741681,10.974013557430697,10.974013557345407,10.974082830714742,10.97408283192887,10.976425581857633,10.976425581857054,-0.001622832605701091,-0.00232004774399939,3.06098915742932e-05,-0.0002417328907280676,0.001098338021718344,-1.1103318998811351e-05,0.0009620616177493574,-2.8152221362850685e-05,-0.001232358977444489,-0.06518013340866041,-0.017737665482067358,-0.025446748785857006,-0.020842482069939976,0.08316986368171296,-0.00037342379536767543,-5.276089356598225e-06,1.7605420936887558e-07,4.2315567353703945e-06,0.004808585716080709,0.31964280226448366,0.792876873336118,-0.001051024110295299,0.003594292668810478,7.762226181097522e-06,10.976356317742573,10.976356317741681,10.974013557430697,10.974013557345407,10.974082830714742,10.97408283192887,10.976425581857633,10.976425581857054,1.2020851342978631,1.2020851342978631,1.2020776727797802,1.2020776727797802,1.2020779217532316,1.2020779217532316,1.202085383269769,1.202085383269769,-0.001622832605701091,-0.00232004774399939,3.06098915742932e-05,-0.0002417328907280676,0.001098338021718344,-1.1103318998811351e-05
4.0,0.06,0.17698451288735745,0.010052547994654036,0.24868321347788158,0.17702116180842487,0.010027249192188784,0.24858416458402444,3.664892106741702e-05,-2.529880246525222e-05,-9.904889385714544e-05,0.00010859952207954544,-7.3859497625875475e-06,4.828281288268759e-07,-5.474637875908815e-06,min_task,none,false,false,7.0021950900502485,7.002195090050243,6.9999999999999964,6.9999999999999964,6.9999999999999964,6.9999999999999964,7.002612492942548,7.0026124929425455,-0.0026732440787640825,-2.691887544393361e-07,0.0001876412194914424,-0.00032302413098452383,0.0015275029594875047,-1.59237587659736e-05,0.000988837892274663,-8.491451409300015e-05,-0.0005633238590773861,-0.09219921043674269,-0.007697067136422199,-0.00992754812793603,-0.029440055931636414,0.1174326138166603,-0.0006096623393345111,-7.3859497625875475e-06,4.828281288268759e-07,-5.474637875908815e-06,0.004738707579908494,0.31958919469987784,0.7928033006960911,-0.0010774260919372235,0.003682830904335419,1.5036967656019196e-05,7.0021950900502485,7.002195090050243,6.9999999999999964,6.9999999999999964,6.9999999999999964,6.9999999999999964,7.002612492942548,7.0026124929425455,1.2020864092724908,1.2020864092724908,1.2020759639598588,1.2020759639598588,1.202076646795005,1.202076646795005,1.2020870921017037,1.2020870921017037,-0.0026732440787640825,-2.691887544393361e-07,0.0001876412194914424,-0.00032302413098452383,0.0015275029594875047,-1.59237587659736e-05
5.0,0.08,0.1769881339867404,0.010107465997254223,0.24867310426597275,0.17702115011635905,0.010060894907521925,0.24858416458402444,3.301612961864597e-05,-4.657108973229844e-05,-8.893968194831348e-05,0.00010568442760840494,-9.010655763752981e-06,9.888744717858395e-07,-2.306355015030804e-05,min_task,none,false,false,62.69418198963635,62.6941819896367,62.69258578835172,62.69258578835133,62.69294802679153,62.692948026791385,62.694546666167234,62.694546666166886,-0.003558904427281693,0.0014854127524391528,0.0003154527843956232,-0.00040081658150396924,0.0019256055918786918,-2.0309891770102304e-05,0.0008655743332658175,-0.00016124780473121685,0.006526299384014126,-0.11672091151134725,-0.001774585643638473,-0.0004800336663119649,-0.03734590797292682,0.14896264391802003,-0.0009302640591354298,-9.010655763752981e-06,9.888744717858395e-07,-2.306355015030804e-05,0.00461709750386425,0.3195353293373516,0.7927288655547693,-0.0011200228058402017,0.0038322525947420494,2.5745548726936676e-05,62.69418198963635,62.6941819896367,62.69258578835172,62.69258578835133,62.69294802679153,62.692948026791385,62.694546666167234,62.694546666166886,1.2020872003314726,1.2020872003314726,1.2020744573381648,1.2020744573381648,1.2020758558771316,1.2020758558771316,1.2020885988556138,1.2020885988556138,-0.003558904427281693,0.0014854127524391528,0.0003154527843956232,-0.00040081658150396924,0.0019256055918786918,-2.0309891770102304e-05
6.0,0.1,0.17699145562139607,0.010190023178459542,0.24866331627568977,0.17702111077163357,0.010115807433395392,0.24858416458402444,2.9655150237506422e-05,-7.421574506415e-05,-7.915169166533564e-05,0.00011248286555969468,-1.0005824587787276e-05,1.7221287558538668e-06,-4.744474897682806e-05,min_task,none,false,false,23.122889957622395,23.122889957622114,23.12151743454204,23.121517434536912,23.122115714199605,23.122115714274464,23.123486830351215,23.12348683035131,-0.004338171957902485,0.002440592839227996,0.00041692013689485373,-0.00047633095525773296,0.0022992790335389997,-2.4399911055891384e-05,0.0006533417740544787,-0.0002523243598323144,0.01014027732235572,-0.13974964020962183,0.0014617162779752939,0.004930000384394784,-0.044631769673915474,0.1782344499089086,-0.0013890649431464509,-1.0005824587787276e-05,1.7221287558538668e-06,-4.744474897682806e-05,0.004435091707436017,0.31948346306356423,0.7926568040830654,-0.0011827966897230684,0.004056251277945067,4.083570614386982e-05,23.122889957622395,23.122889957622114,23.12151743454204,23.121517434536912,23.122115714199605,23.122115714274464,23.123486830351215,23.12348683035131,1.2020873857146874,1.2020873857146874,1.2020732353479093,1.2020732353479093,1.2020756709385625,1.2020756709385625,1.2020898212766702,1.2020898212766702,-0.004338171957902485,0.002440592839227996,0.00041692013689485373,-0.00047633095525773296,0.0022992790335389997,-2.4399911055891384e-05
7.0,0.12000000000000001,0.1769943470482068,0.010304968106521038,0.24865411959349776,0.17702100672187596,0.010196895576993653,0.24858416458402444,2.6659673669160444e-05,-0.00010807252952738447,-6.995500947332145e-05,0.0001314690579148037,-1.0315761665825156e-05,2.7053377127998377e-06,-8.017826118438825e-05,min_task,none,false,false,16.199746023777358,16.199746023777806,16.198953507117356,16.19895350712398,16.199802979354956,16.19980297925648,16.20059770815343,16.200597708153257,-0.005038069512196164,0.003064243069227034,0.0004923463880885914,-0.000548781198680504,0.002654509356864771,-2.821333155080602e-05,0.0003977279552280684,-0.00035694464299383156,0.014614574156293515,-0.16136971347822435,0.0030065944091465413,0.0077036578144457244,-0.05149633454543986,0.20595399783221338,-0.0018972404714742233,-1.0315761665825156e-05,2.7053377127998377e-06,-8.017826118438825e-05,0.004182045740246692,0.3194347046926725,0.7925888211009846,-0.0012696461941599153,0.004367699716929718,6.128606202182006e-05,16.199746023777358,16.199746023777806,16.198953507117356,16.19895350712398,16.199802979354956,16.19980297925648,16.20059770815343,16.200597708153257,1.2020869101066798,1.2020869101066798,1.2020723214475437,1.2020723214475437,1.2020761476024617,1.2020761476024617,1.2020907362151632,1.2020907362151632,-0.005038069512196164,0.003064243069227034,0.0004923463880885914,-0.000548781198680504,0.002654509356864771,-2.821333155080602e-05
8.0,0.14,0.17699668458185225,0.010456801338562017,0.2486456540298736,0.17702077286987083,0.010308906896936254,0.24858416458402444,2.4088288018586645e-05,-0.00014789444162576285,-6.148944584916105e-05,0.00016196901998314205,-9.931651176754647e-06,3.9547196165790245e-06,-0.00012122846278336997,min_task,none,false,false,12.69540499246392,12.695404992462395,12.69525275137579,12.695252751351234,12.696384831489505,12.696384831855099,12.69652911224447,12.69652911224506,-0.005682963937767474,0.003490478961322464,0.0005432597541012628,-0.0006184247140289016,0.0029943209816544435,-3.1810886486491366e-05,0.00012217050547378116,-0.00047214765412678905,0.019355709759151813,-0.18195545245710343,0.003503420024604034,0.008763071258196552,-0.05793748316695922,0.23236667194318095,-0.0025773437115970653,-9.931651176754647e-06,3.9547196165790245e-06,-0.00012122846278336997,0.003849462012042649,0.31938947604928764,0.7925256531548126,-0.001384423160070793,0.004778844898013125,8.810137576685076e-05,12.69540499246392,12.695404992462395,12.69525275137579,12.695252751351234,12.696384831489505,12.696384831855099,12.69652911224447,12.69652911224506,1.2020857560098688,1.2020857560098688,1.2020717106210543,1.2020717106210543,1.2020773037723245,1.2020773037723245,1.2020913490957879,1.2020913490957879,-0.005682963937767474,0.003490478961322464,0.0005432597541012628,-0.0006184247140289016,0.0029943209816544435,-3.1810886486491366e-05
9.0,0.16,0.17699831947858352,0.010649818854835551,0.24863797520557254,0.1770203053484684,0.010456429288700211,0.24858416458402444,2.1985869884888487e-05,-0.0001933895661353404,-5.381062154810601e-05,0.00020193683605524757,-8.872083055278515e-06,5.482092603696954e-06,-0.00017030593834575582,min_task,none,false,false,10.46438649090334,10.464386490903294,10.464901368645238,10.464901368645071,10.46632797032947,10.466327970331843,10.46581311121192,10.465813111211896,-0.006289235440506931,0.003810918991890866,0.0005701600276363361,-0.0006855541402279217,0.003320405228734399,-3.5214922971644634e-05,-0.00015861721694778114,-0.0005961165737143596,0.02412393001708749,-0.20175229533490194,0.0033900591505361785,0.00873096946155761,-0.06400749834292677,0.2576091954486407,-0.0033505877046895375,-8.872083055278515e-06,5.482092603696954e-06,-0.00017030593834575582,0.0034295008289210744,0.3193477876143575,0.7924674207562945,-0.0015308836605835566,0.005301388045242484,0.0001222648346974714,10.46438649090334,10.464386490903294,10.464901368645238,10.464901368645071,10.46632797032947,10.466327970331843,10.46581311121192,10.465813111211896,1.202083928459408,1.202083928459408,1.202071381631772,1.202071381631772,1.2020791348990294,1.2020791348990294,1.2020916816457405,1.2020916816457405,-0.006289235440506931,0.003810918991890866,0.0005701600276363361,-0.0006855541402279217,0.003320405228734399,-3.5214922971644634e-05
10.0,0.18,0.1769990522368722,0.01088813936474769,0.24863108586273375,0.17701944958627513,0.010643892478765021,0.24858416458402444,2.039734940292859e-05,-0.0002442468859826692,-4.6921278709310954e-05,0.0002495479905160789,-7.169098378779297e-06,7.295779015128046e-06,-0.0002270345067336842,min_task,none,false,false,8.906800984278043,8.906800984278043,8.90797445385705,8.907974453857078,8.909717346567618,8.909717346567597,8.908543908210211,8.90854390821021,-0.006866281205286676,0.004087495937886454,0.0005723916676094008,-0.0007500710772395079,0.00363411955760549,-3.8439744966085296e-05,-0.00043655538303954776,-0.0007274704824101078,0.028847768081180412,-0.22085167100409975,0.0029647255796768084,0.008023694860426658,-0.06972074555979643,0.2818228808338021,-0.004264158289674499,-7.169098378779297e-06,7.295779015128046e-06,-0.0002270345067336842,0.0029147343329688985,0.3193094289592699,0.7924138677624232,-0.0017126709153828116,0.00594654432705798,0.00016472088221142835,8.906800984278043,8.906800984278043,8.90797445385705,8.907974453857078,8.909717346567618,8.909717346567597,8.908543908210211,8.90854390821021,1.2020814445060426,1.2020814445060426,1.2020713062397634,1.2020713062397634,1.2020816244791013,1.2020816244791013,1.2020917626583578,1.2020917626583578,-0.006866281205286676,0.004087495937886454,0.0005723916676094008,-0.0007500710772395079,0.00363411955760549,-3.8439744966085296e-05
11.0,0.19999999999999998,0.17699861127111088,0.011175721283037501,0.24862495687318228,0.177017987367226,0.010875569383765608,0.24858416458402444,1.937609611510349e-05,-0.0003001518992718933,-4.079228915784827e-05,0.0003035302399958265,-4.8592311621931084e-06,9.40121908240769e-06,-0.0002910089257720603,min_task,none,false,false,7.756945733731889,7.756945733731842,7.758763232692648,7.758763232692705,7.7608373169691385,7.760837316969168,7.759019886273349,7.759019886273416,-0.007420840368421057,0.004363743473180701,0.0005486397156240912,-0.0008119904006183159,0.003936162467182445,-4.1488794848048e-05,-0.0007078912356708717,-0.0008650089296952866,0.03349510149444121,-0.23933310490320514,0.002430108309608109,0.006916279604898778,-0.07509562956153802,0.3050755426770093,-0.00530351635331619,-4.8592311621931084e-06,9.40121908240769e-06,-0.0002910089257720603,0.0022980452734595535,0.3192740965809181,0.7923645198473669,-0.0019333019437229536,0.006725085597500659,0.00021635548105692858,7.756945733731889,7.756945733731842,7.758763232692648,7.758763232692705,7.7608373169691385,7.760837316969168,7.759019886273349,7.759019886273416,1.202078326438571,1.202078326438571,1.2020714550927427,1.2020714550927427,1.2020847508151622,1.2020847508151622,1.20209162208499,1.20209162208499,-0.007420840368421057,0.004363743473180701,0.0005486397156240912,-0.0008119904006183159,0.003936162467182445,-4.1488794848048e-05
12.0,0.21999999999999997,0.1769966340197749,0.011516372929746508,0.24861954125925317,0.17701562307684054,0.0111555772815788,0.24858416458402444,1.898905706565479e-05,-0.00036079564816770757,-3.5376675228737664e-05,0.0003630228548937911,-1.977063517106781e-06,1.1801411196742669e-05,-0.0003616692358323212,min_task,none,false,false,6.999999999999961,6.999999999999961,7.0000166964700465,7.0000166964700465,7.004849484600745,7.004849484600745,6.999999999999961,6.999999999999961,-0.007957241013285744,0.0046707491176467926,0.0004969071444831533,-0.0008712637175626498,0.004226972116070896,-4.436105954736679e-05,-0.0009668892965486202,-0.0010077124914316428,0.03874089712053378,-0.25723947830083527,0.0019258331859420916,0.005588341614813496,-0.08013762278543855,0.32741405105765425,-0.006476000183091294,-1.977063517106781e-06,1.1801411196742669e-05,-0.0003616692358323212,0.0015727221107369937,0.31924148239347316,0.7923187901600901,-0.002196157118979289,0.0076473640612446615,0.00027798593119761415,6.999999999999961,6.999999999999961,7.0000166964700465,7.0000166964700465,7.004849484600745,7.004849484600745,6.999999999999961,6.999999999999961,1.2020745968941984,1.2020745968941984,1.2020718019499659,1.2020718019499659,1.2020884918635548,1.2020884918635548,1.2020912867689821,1.2020912867689821,-0.007957241013285744,0.0046707491176467926,0.0004969071444831533,-0.0008712637175626498,0.004226972116070896,-4.436105954736679e-05
13.0,0.23999999999999996,0.17699264857674174,0.011913758219662856,0.24861478386932057,0.17701196931823887,0.0114878787323215,0.24858416458402444,1.932074149713081e-05,-0.0004258794873413553,-3.061928529612956e-05,0.0004274156869163559,1.4545062117703028e-06,1.4497078181049481e-05,-0.00043740992467591156,min_task,none,false,false,6.999999999999604,6.999999999999604,7.000174986329394,7.000174986329394,7.0056955760332205,7.0056955760332205,6.999999999999604,6.999999999999604,-0.008478667441752507,0.0050313539693084665,0.0004148251768144207,-0.0009279157410461969,0.004506689814203179,-4.705120437179566e-05,-0.001179373593643969,-0.0011546826908059868,0.04814934388163403,-0.2746102685721475,0.0015478756240946273,0.004153601774162724,-0.08486055727083681,0.3488516707107322,-0.007758080023064786,1.4545062117703028e-06,1.4497078181049481e-05,-0.00043740992467591156,0.0007333260533147353,0.31921135233801395,0.7922760618567569,-0.002504470297688021,0.008723323252739348,0.0003503536979403354,6.999999999999604,6.999999999999604,7.000174986329394,7.000174986329394,7.0056955760332205,7.0056955760332205,6.999999999999604,6.999999999999604,1.202070271741674,1.202070271741674,1.20207233032418,1.20207233032418,1.2020928321123636,1.2020928321123636,1.2020907735649666,1.2020907735649666,-0.008478667441752507,0.0050313539693084665,0.0004148251768144207,-0.0009279157410461969,0.004506689814203179,-4.705120437179566e-05
14.0,0.25999999999999995,0.17698605757407876,0.012371399399378466,0.24861062751386206,0.17700653207190797,0.011876282178987079,0.24858416458402444,2.0474497829214844e-05,-0.0004951172203913872,-2.6462929837628435e-05,0.0004962464646171731,5.4296375296371676e-06,1.7487120274789376e-05,-0.0005158302060569658,min_task,none,false,false,6.9999999999989555,6.9999999999989555,7.000231002746592,7.000231002746592,7.006453613353112,7.006453613353112,6.9999999999989555,6.9999999999989555,-0.008989007152893283,0.005462307467172654,0.0003002789976823703,-0.0009822032525374912,0.004775072203092599,-4.956384599993271e-05,-0.0013552297449684614,-0.0013055117835570182,0.05823443805639214,-0.29156142062410656,0.0013536727888995826,0.0026721277138223383,-0.0892467604771915,0.36932782815321624,-0.009153633363087742,5.4296375296371676e-06,1.7487120274789376e-05,-0.0005158302060569658,-0.00022459752736144248,0.3191835942367604,0.7922357367052365,-0.0028613110871888244,0.009962486577759846,0.00043411322267130427,6.9999999999989555,6.9999999999989555,7.000231002746592,7.000231002746592,7.006453613353112,7.006453613353112,6.9999999999989555,6.9999999999989555,1.2020653558789776,1.2020653558789776,1.2020730368761783,1.2020730368761783,1.202097766620746,1.202097766620746,1.2020900857815608,1.2020900857815608,-0.008989007152893283,0.005462307467172654,0.0003002789976823703,-0.0009822032525374912,0.004775072203092599,-4.956384599993271e-05
15.0,0.27999999999999997,0.17697612338728513,0.01289267765744141,0.24860701646791367,0.17699869556485065,0.012324442150130302,0.24858416458402444,2.2572177565516327e-05,-0.0005682355073111083,-2.2851883889229985e-05,0.0005691426038933026,9.960236799860471e-06,2.0769155918180592e-05,-0.0005945737181007706,min_task,none,false,false,7.0,7.0,7.000182693354476,7.000182693354476,7.007120361850627,7.007120361850627,7.0,7.0,-0.009489521614463025,0.005976852029955369,0.0001502497482857975,-0.0010340894305940125,0.005032111748626454,-5.188987764311586e-05,-0.0014933701124920163,-0.0014599551599504478,0.06867638242973556,-0.308101291733164,0.0013896871913165625,0.0011804813387486783,-0.09330105524671212,0.38884593766688585,-0.01065607444152245,9.960236799860471e-06,2.0769155918180592e-05,-0.0005945737181007706,-0.0013053842998285378,0.31915824075612287,0.7921972571056027,-0.003269569717007172,0.011373946996350274,0.0005298201651641726,7.0,7.0,7.000182693354476,7.000182693354476,7.007120361850627,7.007120361850627,7.0,7.0,1.2020598423908324,1.2020598423908324,1.2020739315466935,1.2020739315466935,1.2021033019184302,1.2021033019184302,1.2020892131068064,1.2020892131068064,-0.009489521614463025,0.005976852029955369,0.0001502497482857975,-0.0010340894305940125,0.005032111748626454,-5.188987764311586e-05
16.0,0.3,0.17696195307829915,0.013480832083772279,0.24860389847713385,0.17698770700719088,0.012835858980831664,0.24858416458402444,2.5753928891730782e-05,-0.0006449731029406144,-1.9733893109413758e-05,0.0006457886611790722,1.5076742375551543e-05,2.4339713497922483e-05,-0.0006714456237162908,min_task,none,false,false,6.999999999999997,6.999999999999997,7.000039505065615,7.000039505065615,7.007704500174765,7.007704500174765,6.999999999999997,6.999999999999997,-0.00998081777538125,0.0065859145171383365,-3.852493046274231e-05,-0.0010834993064176223,0.005277788675262476,-5.401758620263096e-05,-0.0015974963755561783,-0.001617847685934106,0.07916130116949072,-0.32422093055630163,0.001691085403205242,-0.00030313970660449097,-0.09703026766861221,0.407413554456966,-0.012257596215201973,1.5076742375551543e-05,2.4339713497922483e-05,-0.0006714456237162908,-0.002513368465314866,0.3191354883702198,0.7921601197984081,-0.00373195459132459,0.012966369229187171,0.0006379285097002999,6.999999999999997,6.999999999999997,7.000039505065615,7.000039505065615,7.007704500174765,7.007704500174765,6.999999999999997,6.999999999999997,1.2020537118731291,1.2020537118731291,1.2020750379904575,1.2020750379904575,1.2021094567114166,1.2021094567114166,1.2020881312047071,1.2020881312047071,-0.00998081777538125,0.0065859145171383365,-3.852493046274231e-05,-0.0010834993064176223,0.005277788675262476,-5.401758620263096e-05
17.0,0.32,0.17694248631393067,0.014138959061646044,0.24860122523652806,0.17697266134762585,0.013413877963295332,0.24858416458402444,3.0175033695178932e-05,-0.0007250810983507119,-1.7060652503619878e-05,0.0007259092213960567,2.0821429988207342e-05,2.8199372731729723e-05,-0.000744509262969633,min_task,none,false,false,6.999999999994798,6.999999999994798,6.999999999997326,6.999999999997326,7.008226934562243,7.008226934562243,6.999999999997472,6.999999999997472,-0.010463108559504062,0.007299160341383251,-0.00026948905076386304,-0.0011303327000060696,0.005512069639581186,-5.5933459394891426e-05,-0.0017120545595835158,-0.0017432896497520682,0.08939748550556394,-0.3399004984418211,0.00228673374762927,-0.0017711834941542708,-0.10044219572947025,0.42504052565719747,-0.013949794896372318,2.0821429988207342e-05,2.8199372731729723e-05,-0.000744509262969633,-0.0038529975168987026,0.31911568423667735,0.792123861835967,-0.004250884108211732,0.014747986656438497,0.000758708293351391,6.999999999994798,6.999999999994798,6.999999999997326,6.999999999997326,7.008226934562243,7.008226934562243,6.999999999997472,6.999999999997472,1.2020469335680526,1.2020469335680526,1.2020763852445466,1.2020763852445466,1.202116260822357,1.202116260822357,1.2020868101228328,1.2020868101228328,-0.010463108559504062,0.007299160341383251,-0.00026948905076386304,-0.0011303327000060696,0.005512069639581186,-5.5933459394891426e-05
18.0,0.34,0.1769164809179351,0.014870008711887327,0.24859895275481098,0.17695248619336668,0.014061687834997253,0.24858416458402444,3.600527543157206e-05,-0.000808320876890074,-1.4788170786539379e-05,0.0008092575052913957,2.7244728231811742e-05,3.235426184634477e-05,-0.00081216009468687,min_task,none,false,false,6.999999999992705,6.999999999992705,6.999999999996234,6.999999999996234,7.008717945846041,7.008717945846041,6.999999999996471,6.999999999996471,-0.01093639444984981,0.00812960625130928,-0.000546958966186416,-0.0011744408428583707,0.005734745690465811,-5.761983258989758e-05,-0.0018303365682323944,-0.0018553652087824094,0.09912699717450645,-0.35509963965558144,0.003218540817282318,-0.003208115571838933,-0.10356195771829717,0.44172968252983824,-0.015709315827214795,2.7244728231811742e-05,3.235426184634477e-05,-0.00081216009468687,-0.005328899161245664,0.319099327601543,0.7920880560070628,-0.0048284630590753035,0.016726601736999542,0.0008922278117283386,6.999999999992705,6.999999999992705,6.999999999996234,6.999999999996234,7.008717945846041,7.008717945846041,6.999999999996471,6.999999999996471,1.2020394669628411,1.2020394669628411,1.2020780041177832,1.2020780041177832,1.2021237536976905,1.2021237536976905,1.2020852180094155,1.2020852180094155,-0.01093639444984981,0.00812960625130928,-0.000546958966186416,-0.0011744408428583707,0.005734745690465811,-5.761983258989758e-05
19.0,0.36000000000000004,0.17688249600559153,0.01567677852779007,0.2485970417579239,0.17692592703544696,0.014782318510410487,0.24858416458402444,4.343102985543412e-05,-0.0008944600173795836,-1.2877173899472627e-05,0.0008956063860048264,3.440708044166898e-05,3.6811732523467947e-05,-0.000873175540027164,min_task,none,false,false,6.999999999990364,6.999999999990364,6.999999999995004,6.999999999995004,7.009216859812124,7.009216859812124,6.99999999999536,6.99999999999536,-0.011400435504578248,0.009086628599122848,-0.0008747339376469192,-0.0012156940837106556,0.0059457257110248655,-5.906019509019518e-05,-0.001952472903330546,-0.0019700201204124915,0.10813617232953718,-0.3697800997563216,0.0045137006237632215,-0.004612641544365151,-0.1064074181547873,0.45749318819084916,-0.017519946931217622,3.440708044166898e-05,3.6811732523467947e-05,-0.000873175540027164,-0.0069458914275739286,0.3190870931479988,0.7920523219070563,-0.005466589345863453,0.018909595141256064,0.0010384339626705128,6.999999999990364,6.999999999990364,6.999999999995004,6.999999999995004,7.009216859812124,7.009216859812124,6.99999999999536,6.99999999999536,1.2020312635907198,1.2020312635907198,1.2020799316254867,1.2020799316254867,1.2021319827247272,1.2021319827247272,1.2020833167973226,1.2020833167973226,-0.011400435504578248,0.009086628599122848,-0.0008747339376469192,-0.0012156940837106556,0.0059457257110248655,-5.906019509019518e-05
20.0,0.38000000000000006,0.1768388775290073,0.016561907424667562,0.2485954574217327,0.17689153291653337,0.015578637962079929,0.24858416458402444,5.2655387526079345e-05,-0.0009832694625876333,-1.129283770825995e-05,0.000984743090392819,4.23781189537199e-05,4.1577442410078785e-05,-0.0009267405980181055,min_task,none,false,false,6.999999999987877,6.999999999987877,6.999999999993686,6.999999999993686,7.009767322250107,7.009767322250107,6.99999999999419,6.99999999999419,-0.011854863329603824,0.010177648549223732,-0.0012562786493146248,-0.001253965124673033,0.006144977655399204,-6.0238506936272e-05,-0.0020874818950514093,-0.0020960972084792247,0.11626237426387544,-0.38390483239360496,0.0061918672303848035,-0.005989741057710979,-0.10898837570554934,0.4723479931136612,-0.01937235185640463,4.23781189537199e-05,4.1577442410078785e-05,-0.0009267405980181055,-0.008708975483351967,0.31907983990924427,0.7920163251166459,-0.006167028217256506,0.0213039360650839,0.0011972078985764197,6.999999999987877,6.999999999987877,6.999999999993686,6.999999999993686,7.009767322250107,7.009767322250107,6.99999999999419,6.99999999999419,1.2020222697340022,1.2020222697340022,1.2020822125257253,1.2020822125257253,1.2021410006407482,1.2021410006407482,1.2020810607805446,1.2020810607805446,-0.011854863329603824,0.010177648549223732,-0.0012562786493146248,-0.001253965124673033,0.006144977655399204,-6.0238506936272e-05
21.0,0.4000000000000001,0.17678374530335858,0.01752786945447908,0.2485941688206761,0.176847642675659,0.016453348158265116,0.24858416458402444,6.389737230041992e-05,-0.001074521296213965,-1.0004236651650622e-05,0.0010764659655350096,5.123454419632368e-05,4.6653318033813927e-05,-0.0009724504438298306,min_task,none,false,false,6.999999999985364,6.999999999985364,6.999999999992342,6.999999999992342,7.01041236782449,7.01041236782449,6.999999999993024,6.999999999993024,-0.012299250010366948,0.011409567543913281,-0.0016949101580118599,-0.0012891194947187194,0.0063324660846606085,-6.113850922722877e-05,-0.0022442887163817283,-0.0022423104620984628,0.12339726242582533,-0.39743598983271516,0.008271193056264597,-0.007344494440028093,-0.1113092181554046,0.4863113457731582,-0.02126115755195868,5.123454419632368e-05,4.6653318033813927e-05,-0.0009724504438298306,-0.010623309737447528,0.3190786133863931,0.7919797711149775,-0.00693146472664215,0.023916192259654245,0.001368404414761303,6.999999999985364,6.999999999985364,6.999999999992342,6.999999999992342,7.01041236782449,7.01041236782449,6.999999999993024,6.999999999993024,1.2020124294100607,1.2020124294100607,1.2020848993069908,1.2020848993069908,1.2021508626385542,1.2021508626385542,1.2020783967183664,1.2020783967183664,-0.012299250010366948,0.011409567543913281,-0.0016949101580118599,-0.0012891194947187194,0.0063324660846606085,-6.113850922722877e-05
22.0,0.4200000000000001,0.1767149808988348,0.01857696662738987,0.248593148336396,0.1767923719026108,0.017408979967568034,0.24858416458402444,7.739100377598951e-05,-0.0011679866598218354,-8.983752371571896e-06,0.0011705822964635578,6.105812063892825e-05,5.203571928579067e-05,-0.0010102921221712613,min_task,none,false,false,6.999999999982928,6.999999999982928,6.99999999999102,6.99999999999102,7.011190347990233,7.011190347990233,6.999999999991908,6.999999999991908,-0.012733132577203904,0.012788807305346591,-0.0021937560986670323,-0.001321019266478546,0.006508138752310664,-6.17438781862967e-05,-0.002430895903306606,-0.0024164153089940086,0.12948710656924992,-0.41033583837143733,0.010768664708157193,-0.008681224453031636,-0.11336886558615147,0.49939925200443575,-0.02318469716298661,6.105812063892825e-05,5.203571928579067e-05,-0.0010102921221712613,-0.012694164249084386,0.3190846472351434,0.7919423992254415,-0.007761548857958459,0.026752539310312167,0.0015518860910515948,6.999999999982928,6.999999999982928,6.99999999999102,6.99999999999102,7.011190347990233,7.011190347990233,6.999999999991908,6.999999999991908,1.2020016871170467,1.2020016871170467,1.2020880521009498,1.2020880521009498,1.2021616236818762,1.2021616236818762,1.2020752639838386,1.2020752639838386,-0.012733132577203904,0.012788807305346591,-0.0021937560986670323,-0.001321019266478546,0.006508138752310664,-6.17438781862967e-05
23.0,0.4400000000000001,0.17663021654581135,0.019711320761981992,0.2485923710939545,0.17672360073400306,0.0184478869459482,0.24858416458402444,9.338418819171412e-05,-0.001263433816033794,-8.20650993005323e-06,0.001266906847762365,7.193401216596227e-05,5.7713995145601545e-05,-0.0010406082069260674,min_task,none,false,false,6.999999999980678,6.999999999980678,6.999999999989778,6.999999999989778,7.012131764501202,7.012131764501202,6.9999999999909,6.9999999999909,-0.013156024439190879,0.01432131623264694,-0.002755724218818075,-0.0013495263081314858,0.006671912332486778,-6.203833836210714e-05,-0.0026537372220138892,-0.002624562516160465,0.13453031788323175,-0.4225672958684617,0.013700225690608128,-0.01000311592512775,-0.11516110153641791,0.5116249630479229,-0.025144454361278257,7.193401216596227e-05,5.7713995145601545e-05,-0.0010406082069260674,-0.014926859816818473,0.31909936520421217,0.7919039773008882,-0.008658928664437439,0.029818768170810712,0.0017475487683552592,6.999999999980678,6.999999999980678,6.999999999989778,6.999999999989778,7.012131764501202,7.012131764501202,6.9999999999909,6.9999999999909,1.2019899900459907,1.2019899900459907,1.2020917385416479,1.2020917385416479,1.2021733363202076,1.2021733363202076,1.2020715947313367,1.2020715947313367,-0.013156024439190879,0.01432131623264694,-0.002755724218818075,-0.0013495263081314858,0.006671912332486778,-6.203833836210714e-05
24.0,0.46000000000000013,0.17652682520491894,0.020932864265646625,0.24859181446865752,0.17663896262330653,0.019572237928324354,0.24858416458402444,0.00011213741838758673,-0.001360626337322271,-7.649884633087467e-06,0.0013652609095526579,8.394960805090641e-05,6.3669561250335e-05,-0.0010640458993126222,min_task,none,false,false,6.999999999978682,6.999999999978682,6.99999999998865,6.99999999998865,7.013257356474528,7.013257356474528,6.999999999990032,6.999999999990032,-0.013567417616461236,0.01601256419628819,-0.0033834835206601388,-0.0013745051121423755,0.006823658610692052,-6.200574428853635e-05,-0.0029172858611251147,-0.0028709067099065297,0.1385725873197004,-0.43409412031746436,0.017080794046010764,-0.011312166024822035,-0.11667536509134246,0.5229976242156692,-0.027144180886342916,8.394960805090641e-05,6.3669561250335e-05,-0.0010640458993126222,-0.017326696178768825,0.31912438376834124,0.7918642975659668,-0.009625268444152148,0.03312029011178009,0.001955336209449922,6.999999999978682,6.999999999978682,6.99999999998865,6.99999999998865,7.013257356474528,7.013257356474528,6.999999999990032,6.999999999990032,1.2019772895609164,1.2019772895609164,1.2020960335865385,1.2020960335865385,1.2021860492031313,1.2021860492031313,1.2020673140695377,1.2020673140695377,-0.013567417616461236,0.01601256419628819,-0.0033834835206601388,-0.0013745051121423755,0.006823658610692052,-6.200574428853635e-05
25.0,0.48000000000000015,0.17640191195261612,0.022243329738322076,0.2485914576866048,0.17653583421818958,0.020784008355582816,0.24858416458402444,0.00013392226557346065,-0.00145932138273926,-7.2931025803524285e-06,0.0014654716853906122,9.719390908293408e-05,6.98755597512207e-05,-0.0010814954206692863,min_task,none,false,false,6.999999999976999,6.999999999976999,6.99999999998767,6.99999999998767,7.014577551630342,7.014577551630342,6.999999999989332,6.999999999989332,-0.01396677911918044,0.01786754158642223,-0.004079456494936703,-0.0013958249052162272,0.006963192237658738,-6.163013747008751e-05,-0.0032239397622762355,-0.0031574923365758245,0.14170009833029282,-0.44488081898510673,0.020924251881225896,-0.012609344387592897,-0.11789786084554926,0.5335211669666761,-0.02918881471236481,9.719390908293408e-05,6.98755597512207e-05,-0.0010814954206692863,-0.019898873548396673,0.3191615156676071,0.7918231737767283,-0.010662250906290372,0.036662138461015,0.0021752432414490867,6.999999999976999,6.999999999976999,6.99999999998767,6.99999999998767,7.014577551630342,7.014577551630342,6.999999999989332,6.999999999989332,1.2019635418580668,1.2019635418580668,1.2021010193087038,1.2021010193087038,1.2021998063890418,1.2021998063890418,1.202062340236484,1.202062340236484,-0.01396677911918044,0.01786754158642223,-0.004079456494936703,-0.0013958249052162272,0.006963192237658738,-6.163013747008751e-05
26.0,0.5000000000000001,0.1762523068284792,0.02364423829861899,0.2485912815261902,0.17641132648035657,0.022084970278260944,0.24858416458402444,0.00015901965187736788,-0.0015592680203580442,-7.116942165763529e-06,0.0015673718958371954,0.00011175746441934534,7.629709272173775e-05,-0.0010940217239359693,min_task,none,false,false,6.999999999975636,6.999999999975636,6.99999999998684,6.99999999998684,7.0160931735878735,7.0160931735878735,6.999999999988799,6.999999999988799,-0.014353544946031761,0.01989077130340084,-0.004845820636742441,-0.0014133608824553425,0.007090261350555639,-6.089579046214965e-05,-0.00357416246915639,-0.0034843954297195667,0.1440313284133854,-0.45489238006768024,0.02524345355704836,-0.013894866427636645,-0.11881282438145473,0.5431935321073231,-0.031283341961480776,0.00011175746441934534,7.629709272173775e-05,-0.0010940217239359693,-0.022648411334225783,0.3192127743625255,0.7917804396460496,-0.011771564115899668,0.0404489667675587,0.002407308042642354,6.999999999975636,6.999999999975636,6.99999999998684,6.99999999998684,7.0160931735878735,7.0160931735878735,6.999999999988799,6.999999999988799,1.2019487078213538,1.2019487078213538,1.2021067846638969,1.2021067846638969,1.2022146474397075,1.2022146474397075,1.202056584781694,1.202056584781694,-0.014353544946031761,0.01989077130340084,-0.004845820636742441,-0.0014133608824553425,0.007090261350555639,-6.089579046214965e-05
27.0,0.5200000000000001,0.17607457283240566,0.02513689527707783,0.24859126716382315,0.17626227718549997,0.023476680990443182,0.24858416458402444,0.00018770435309431455,-0.0016602142866346467,-7.102579798717867e-06,0.0016708066460114832,0.00012770574998615278,8.291533105503055e-05,-0.0011027930654074955,min_task,none,false,false,6.999999999974619,6.999999999974619,7.000834589047669,7.000834589047669,7.017796726275493,7.017796726275493,6.999999999974621,6.999999999974621,-0.014727113031770414,0.022086336510225315,-0.005684516904345619,-0.001426994315478912,0.007204541275566402,-5.97872406690814e-05,-0.004135406013436378,-0.0036814226779362824,0.14571268403012227,-0.46409387538901514,0.03005027885678189,-0.015168502993238825,-0.11940377314546663,0.552006222256019,-0.03343173386400802,0.00012770574998615278,8.291533105503055e-05,-0.0011027930654074955,-0.025580185755467885,0.3192802725044996,0.7917358648562937,-0.012954359814254931,0.044485010924756416,0.002651217260121062,6.999999999974619,6.999999999974619,7.000834589047669,7.000834589047669,7.017796726275493,7.017796726275493,6.999999999974621,6.999999999974621,1.2019327547627658,1.2019327547627658,1.202113389589858,1.202113389589858,1.2022306056190981,1.2022306056190981,1.2020499884063296,1.2020499884063296,-0.014727113031770414,0.022086336510225315,-0.005684516904345619,-0.001426994315478912,0.007204541275566402,-5.97872406690814e-05
28.0,0.5400000000000001,0.17586499820226156,0.02672237295838124,0.2485913969773548,0.17608524494385314,0.024960470261481144,0.24858416458402444,0.0002202467415915732,-0.0017619026969000959,-7.232393330364184e-06,0.00177563004255921,0.00014507911912858278,8.973081789499195e-05,-0.0011090113926981433,min_task,none,false,false,6.999999999973865,6.999999999973865,7.001901967626304,7.001901967626304,7.019668891898685,7.019668891898685,6.999999999973869,6.999999999973869,-0.015086995769756393,0.024479227960742284,-0.0066019585085010215,-0.0014364361366354878,0.007304785774106763,-5.8273960648725115e-05,-0.004782374222619211,-0.00386615745315196,0.14689634125906445,-0.4723876026955099,0.035436713104643205,-0.01637397639334631,-0.11973151228265452,0.5598965746806963,-0.035568711354296394,0.00014507911912858278,8.973081789499195e-05,-0.0011090113926981433,-0.028698852411280305,0.31936624164411215,0.7916891638581346,-0.014211183080709199,0.048774064590782096,0.0029062633988218584,6.999999999973865,6.999999999973865,7.001901967626304,7.001901967626304,7.019668891898685,7.019668891898685,6.999999999973869,6.999999999973869,1.2019156540913007,1.2019156540913007,1.202120862607323,1.202120862607323,1.202247710163387,1.202247710163387,1.2020425233023384,1.2020425233023384,-0.015086995769756393,0.024479227960742284,-0.0066019585085010215,-0.0014364361366354878,0.007304785774106763,-5.8273960648725115e-05
29.0,0.5600000000000002,0.1756195805412213,0.028401485703025062,0.24859165568085784,0.17587650488494871,0.026537426149001335,0.24858416458402444,0.0002569243437274271,-0.0018640595540237274,-7.491096833400768e-06,0.0018816971743292473,0.00016391447603572888,9.674808663064797e-05,-0.0011138471118600434,min_task,none,false,false,6.999999999973353,6.999999999973353,7.003099892901836,7.003099892901836,7.021694650281616,7.021694650281616,6.9999999999733555,6.9999999999733555,-0.01543234226261358,0.027072526190599466,-0.007599898149169124,-0.0014416256710145631,0.007390499358854596,-5.6341231537526085e-05,-0.005491507841731159,-0.004056217071084837,0.14774166466073105,-0.4797297812130278,0.04141127258466061,-0.017517959578040043,-0.1198106068194577,0.5668446078370781,-0.03767267258394453,0.00016391447603572888,9.674808663064797e-05,-0.0011138471118600434,-0.032008678349753954,0.31947313373888564,0.7916400681189288,-0.015542320125037368,0.053319480387881105,0.003171607994458119,6.999999999973353,6.999999999973353,7.003099892901836,7.003099892901836,7.021694650281616,7.021694650281616,6.9999999999733555,6.9999999999733555,1.201897376843633,1.201897376843633,1.2021292269971098,1.2021292269971098,1.20226599069667,1.20226599069667,1.2020341669223813,1.2020341669223813,-0.01543234226261358,0.027072526190599466,-0.007599898149169124,-0.0014416256710145631,0.007390499358854596,-5.6341231537526085e-05
30.0,0.5800000000000002,0.175334026344507,0.03017477252188121,0.2485920301273235,0.17563204615333816,0.02820837939425577,0.24858416458402444,0.0002980198088311514,-0.0019663931276254418,-7.86554329906819e-06,0.001988863898209154,0.00018424950030694875,0.00010397414696501991,-0.0011183803597000078,min_task,none,false,false,6.99999999997302,6.99999999997302,7.00440901020584,7.00440901020584,7.02385885840061,7.02385885840061,6.999999999973023,6.999999999973023,-0.015762247698520675,0.02986685660174135,-0.008679381042844344,-0.0014425086319615884,0.007461206161853285,-5.397636958550597e-05,-0.006255961993391413,-0.004252466422557656,0.14840431671846308,-0.4860829916539753,0.04797375403783123,-0.01861253332288654,-0.11964456104173211,0.5728289652882751,-0.039729997528698976,0.00018424950030694875,0.00010397414696501991,-0.0011183803597000078,-0.0355134608771221,0.3196036375552421,0.79158833287718,-0.01694783196877695,0.05812416062491496,0.003446311705740844,6.99999999997302,6.99999999997302,7.00440901020584,7.00440901020584,7.02385885840061,7.02385885840061,6.999999999973023,6.999999999973023,1.2018778917468784,1.2018778917468784,1.2021385048361413,1.2021385048361413,1.2022854791237318,1.2022854791237318,1.202024897900218,1.202024897900218,-0.015762247698520675,0.02986685660174135,-0.008679381042844344,-0.0014425086319615884,0.007461206161853285,-5.397636958550597e-05
31.0,0.6000000000000002,0.17500375410210123,0.032042479145324064,0.24859250906006877,0.17534757136497184,0.029973886420150482,0.24858416458402444,0.00034381726287061043,-0.002068592725173582,-8.344476044336302e-06,0.002096987315929536,0.0002061245455422795,0.00011141890001731366,-0.0011235518594078105,min_task,none,false,false,6.999999999972812,6.999999999972812,7.005809557840932,7.005809557840932,7.026147447673597,7.026147447673597,6.9999999999728155,6.9999999999728155,-0.016075773211865155,0.03286325900590623,-0.009841351245951709,-0.001439007183778285,0.007516341661376203,-5.116668311248283e-05,-0.007069029083628059,-0.004456078153032688,0.14902799203244552,-0.4914075630349295,0.05512625858881152,-0.01966727055258807,-0.11923520850025393,0.5778210375804058,-0.04172675130674962,0.0002061245455422795,0.00011141890001731366,-0.0011235518594078105,-0.03921646613593899,0.3197606849475406,0.7915337365066318,-0.018427543815013464,0.06319054338676244,0.003729332133968704,6.999999999972812,6.999999999972812,7.005809557840932,7.005809557840932,7.026147447673597,7.026147447673597,6.9999999999728155,6.9999999999728155,1.2018571635666688,1.2018571635666688,1.2021487180296602,1.2021487180296602,1.2023062112488936,1.2023062112488936,1.202014694986643,1.202014694986643,-0.016075773211865155,0.03286325900590623,-0.009841351245951709,-0.001439007183778285,0.007516341661376203,-5.116668311248283e-05
32.0,0.6200000000000002,0.1746238994084665,0.034004538561902053,0.24859308292312793,0.1750184981764173,0.03183421097318622,0.24858416458402444,0.0003945987679507823,-0.0021703275887158327,-8.918339103491935e-06,0.002205926011175742,0.0002295844264207855,0.00011909552383013697,-0.0011301249875488519,min_task,none,false,false,6.999999999972663,6.999999999972663,7.007282960066785,7.007282960066785,7.028549105438239,7.028549105438239,6.999999999972666,6.999999999972666,-0.016371931905845988,0.036063031413709326,-0.011086617390851913,-0.0014310178580277237,0.007555264873648863,-4.789962018177584e-05,-0.007924806734244356,-0.004668552046856143,0.14973789145683564,-0.4956612030219756,0.06287264305212592,-0.02068980674001296,-0.1185833334566161,0.5817861260876821,-0.043648418426007037,0.0002295844264207855,0.00011909552383013697,-0.0011301249875488519,-0.043120377434805755,0.31994745767409366,0.7914760806922764,-0.0199810352902493,0.06852058583206068,0.00401952268437765,6.999999999972663,6.999999999972663,7.007282960066785,7.007282960066785,7.028549105438239,7.028549105438239,6.999999999972666,6.999999999972666,1.2018351515599406,1.2018351515599406,1.202159889290348,1.202159889290348,1.2023282283011618,1.2023282283011618,1.2020035360498464,1.2020035360498464,-0.016371931905845988,0.036063031413709326,-0.011086617390851913,-0.0014310178580277237,0.007555264873648863,-4.789962018177584e-05
33.0,0.6400000000000002,0.1741893223182447,0.03606055022493504,0.24859374369833587,0.1746399631208255,0.03378930447297854,0.24858416458402444,0.0004506408025808095,-0.002271245751956502,-9.579114311430992e-06,0.002315540143932323,0.00025467992157840095,0.00012702082248282337,-0.0011386598933856773,min_task,none,false,false,6.999999999972514,6.999999999972514,7.008812874423566,7.008812874423566,7.031056341280936,7.031056341280936,6.999999999972518,6.999999999972518,-0.016649676978110317,0.03946766686322463,-0.01241583443771633,-0.0014184066007846088,0.007577267661132145,-4.4162840977194264e-05,-0.008818630852470437,-0.004891720168727078,0.1506356746111699,-0.4987984907140959,0.0712183408394684,-0.021686038600061686,-0.11768873218870896,0.5846843820343545,-0.045480008988994035,0.00025467992157840095,0.00012702082248282337,-0.0011386598933856773,-0.04722725385734473,0.32016739404427824,0.7914151908451643,-0.02160763207346709,0.0741157452159331,0.004315632804653864,6.999999999972514,6.999999999972514,7.008812874423566,7.008812874423566,7.031056341280936,7.031056341280936,6.999999999972518,6.999999999972518,1.2018118081583975,1.2018118081583975,1.2021720429462148,1.2021720429462148,1.2023515782378604,1.2023515782378604,1.2019913972564675,1.2019913972564675,-0.016649676978110317,0.03946766686322463,-0.01241583443771633,-0.0014184066007846088,0.007577267661132145,-4.4162840977194264e-05
34.0,0.6600000000000003,0.17369461714238593,0.038209758112636445,0.24859448474973528,0.17420682786525066,0.03583878515688403,0.24858416458402444,0.0005122107228647255,-0.0023709729557524137,-1.0320165710842044e-05,0.0024256914658190233,0.00028146889337383313,0.0001352155349052635,-0.0011494998385828347,min_task,none,false,false,6.999999999972323,6.999999999972323,7.01038576652293,7.01038576652293,7.033666009758752,7.033666009758752,6.999999999972326,6.999999999972326,-0.016907888413782466,0.04307883981747347,-0.013829494467416084,-0.0014010023026941002,0.007581580846310667,-3.994423709484549e-05,-0.00974730248217298,-0.005127737437629634,0.15179600549224123,-0.5007701706449109,0.08017039377626083,-0.022660103016576845,-0.11655016301327632,0.5864715138419796,-0.04720620529208689,0.00028146889337383313,0.0001352155349052635,-0.0011494998385828347,-0.05153849901284144,0.3204241950404571,0.7913509164655745,-0.023306399126828567,0.0799769580270939,0.004616309751825992,6.999999999972323,6.999999999972323,7.01038576652293,7.01038576652293,7.033666009758752,7.033666009758752,6.999999999972326,6.999999999972326,1.201787077954198,1.201787077954198,1.2021852055090583,1.2021852055090583,1.2023763167528327,1.2023763167528327,1.201978252499163,1.201978252499163,-0.016907888413782466,0.04307883981747347,-0.013829494467416084,-0.0014010023026941002,0.007581580846310667,-3.994423709484549e-05
35.0,0.6800000000000003,0.17313412485082783,0.04045102782856902,0.24859530066356533,0.17371368804328235,0.03798191613241301,0.24858416458402444,0.0005795631924545297,-0.002469111696156011,-1.113607954089657e-05,0.002536243299529846,0.000310016983524129,0.0001437046020174628,-0.001162769300238266,min_task,none,false,false,6.999999999972039,6.999999999972039,7.011991128265599,7.011991128265599,7.036379408486646,7.036379408486646,6.999999999972043,6.999999999972043,-0.01714535960619815,0.046898416336987846,-0.01532792173400101,-0.0013785895311994266,0.007567378561896181,-3.523192871047663e-05,-0.01070915556307651,-0.0053790582572111915,0.15326471738121203,-0.5015223728670019,0.08973758598801991,-0.023614237666397125,-0.11516524108206959,0.5870993477734245,-0.04881152565609164,0.000310016983524129,0.0001437046020174628,-0.001162769300238266,-0.056054839174373504,0.32072182980377506,0.7912831313577621,-0.025076135573952673,0.08610461752622445,0.004920101947716907,6.999999999972039,6.999999999972039,7.011991128265599,7.011991128265599,7.036379408486646,7.036379408486646,6.999999999972043,6.999999999972043,1.2017608970168148,1.2017608970168148,1.2021994059745433,1.2021994059745433,1.2024025079580474,1.2024025079580474,1.2019640730974104,1.2019640730974104,-0.01714535960619815,0.046898416336987846,-0.01532792173400101,-0.0013785895311994266,0.007567378561896181,-3.523192871047663e-05
36.0,0.7000000000000003,0.17250194823081721,0.04278282293837414,0.24859618707624276,0.17315488481464483,0.04021758247639842,0.24858416458402444,0.000652936583827618,-0.002565240461975718,-1.2022492218322078e-05,0.002647060511317604,0.0003403978840781243,0.00015251739302446922,-0.0011783828331191268,min_task,none,false,false,6.999999999971636,6.999999999971636,7.013621466796954,7.013621466796954,7.039202087263963,7.039202087263963,6.999999999971641,6.999999999971641,-0.017360783095508092,0.05092847355681702,-0.016911269410413387,-0.001350900655342201,0.007533780513717183,-3.001424866792869e-05,-0.01170401858785224,-0.00564840091749614,0.15505854008693246,-0.5009957816148198,0.09993062096757717,-0.024548580725164117,-0.11353027970223567,0.5865161944078021,-0.05028049744211803,0.0003403978840781243,0.00015251739302446922,-0.0011783828331191268,-0.060776309523839875,0.3210645405290588,0.7912117337203066,-0.026915371145765993,0.0924985498802437,0.005225463919530353,6.999999999971636,6.999999999971636,7.013621466796954,7.013621466796954,7.039202087263963,7.039202087263963,6.999999999971641,6.999999999971641,1.2017331925401922,1.2017331925401922,1.2022146758523669,1.2022146758523669,1.2024302247379144,1.2024302247379144,1.2019488277715082,1.2019488277715082,-0.017360783095508092,0.05092847355681702,-0.016911269410413387,-0.001350900655342201,0.007533780513717183,-3.001424866792869e-05
37.0,0.7200000000000003,0.17179196993877005,0.04520318075360448,0.24859714048494957,0.1725245192991495,0.04254426754712687,0.24858416458402444,0.0007325493603794475,-0.0026589132064776116,-1.297590092513845e-05,0.0027580094958100146,0.00037269320791164765,0.00016168789333722989,-0.0011960632406872078,min_task,none,false,false,6.999999999971098,6.999999999971098,7.015272175505443,7.015272175505443,7.042143491212077,7.042143491212077,6.999999999971102,6.999999999971102,-0.017552737456488287,0.05517132505116959,-0.018579516677724343,-0.0013176076888501544,0.0074798529213014175,-2.4279730739539722e-05,-0.01273311748486516,-0.005938702154045836,0.1571662591172119,-0.4991248391279184,0.11076232298891946,-0.02546092657034458,-0.11164009737662842,0.5846670630844899,-0.05159783379274756,0.00037269320791164765,0.00016168789333722989,-0.0011960632406872078,-0.06570224680627745,0.32145684690453674,0.7911366462061975,-0.02882236402227929,0.09915798900027747,0.005530762779573482,6.999999999971098,6.999999999971098,7.015272175505443,7.015272175505443,7.042143491212077,7.042143491212077,6.999999999971102,6.999999999971102,1.2017038828010969,1.2017038828010969,1.2022310489416834,1.2022310489416834,1.2024595487946506,1.2024595487946506,1.201932482873829,1.201932482873829,-0.017552737456488287,0.05517132505116959,-0.018579516677724343,-0.0013176076888501544,0.0074798529213014175,-2.4279730739539722e-05
38.0,0.7400000000000003,0.17099787357500104,0.04770968779168018,0.24859815803694119,0.1718164700258344,0.0449600287035968,0.24858416458402444,0.0008185964508333476,-0.0027496590880833824,-1.3993452916749582e-05,0.0028689581849028443,0.00040699199551426076,0.00017125485751359157,-0.0012153672725194605,min_task,none,false,false,6.999999999970405,6.999999999970405,7.016941365158922,7.016941365158922,7.04521652964098,7.04521652964098,6.99999999997041,6.99999999997041,-0.01771967508882657,0.05962954986674869,-0.020332465183149347,-0.0012783138771453708,0.007404607650491005,-1.8017105472186622e-05,-0.013798954115064823,-0.006253064644197689,0.15955111599583094,-0.495836988996519,0.12224785488214256,-0.026346443699394498,-0.10948778289881282,0.5814936728691944,-0.05274861040742018,0.00040699199551426076,0.00017125485751359157,-0.0012153672725194605,-0.07083128639736597,0.32190355027874556,0.7910578160860405,-0.030795099833773557,0.10608155010430614,0.005834286170833812,6.999999999970405,6.999999999970405,7.016941365158922,7.016941365158922,7.04521652964098,7.04521652964098,6.99999999997041,6.99999999997041,1.201672877400422,1.201672877400422,1.2022485608755826,1.2022485608755826,1.202490570412952,1.202490570412952,1.2019150028535575,1.2019150028535575,-0.01771967508882657,0.05962954986674869,-0.020332465183149347,-0.0012783138771453708,0.007404607650491005,-1.8017105472186622e-05
39.0,0.7600000000000003,0.17011316790145903,0.05029945516322826,0.24859923729508082,0.1710244135289909,0.04746247265449523,0.24858416458402444,0.0009112456275318648,-0.0028369825087330297,-1.5072711056385302e-05,0.002979776088093145,0.00044338990014347856,0.00018126193081010098,-0.0012357168557590938,min_task,none,false,false,6.999999999969563,6.999999999969563,7.018629692584761,7.018629692584761,7.048437121890715,7.048437121890715,6.999999999969569,6.999999999969569,-0.017859912958321452,0.06430602833575408,-0.022169734738914534,-0.0012325452541414414,0.007307000214182997,-1.1215315866451864e-05,-0.014905178416587176,-0.006594700258783556,0.1621542136879158,-0.49105202667920106,0.13440495880677486,-0.027197350784289163,-0.1070644313886164,0.5769343022567497,-0.05371843981751875,0.00044338990014347856,0.00018126193081010098,-0.0012357168557590938,-0.07616136161799891,0.32240973776112236,0.7909752156731571,-0.03283129154135872,0.11326720194231028,0.006134251587990736,6.999999999969563,6.999999999969563,7.018629692584761,7.018629692584761,7.048437121890715,7.048437121890715,6.999999999969569,6.999999999969569,1.20164007775554,1.20164007775554,1.2022672484622394,1.2022672484622394,1.2025233879763895,1.2025233879763895,1.201896350927812,1.201896350927812,-0.017859912958321452,0.06430602833575408,-0.022169734738914534,-0.0012325452541414414,0.007307000214182997,-1.1215315866451864e-05
40.0,0.7800000000000004,0.1691312143102191,0.05296909416194556,0.2486003759789907,0.1701418482107756,0.0500487306880799,0.24858416458402444,0.0010106339005565013,-0.002920363473865664,-1.621139496627011e-05,0.0030903343686031017,0.0004819880963961938,0.00019175774246085506,-0.0012564337792261091,min_task,none,false,false,6.999999999968582,6.999999999968582,7.020340187872068,7.020340187872068,7.051823734432931,7.051823734432931,6.999999999968589,6.999999999968589,-0.01797162603146077,0.06920398870955616,-0.02409075843871271,-0.0011797421005449132,0.0071859260779729445,-3.863551071634949e-06,-0.016056457420019665,-0.006966871772731265,0.16489866219202665,-0.48468154184971207,0.14725423713591979,-0.028002534664413326,-0.10435883785250295,0.5709234281401939,-0.0544936413969731,0.0004819880963961938,0.00019175774246085506,-0.0012564337792261091,-0.08168970308301816,0.32298078648574324,0.7908888431981838,-0.03492837988820367,0.12071223753802698,0.006428816971889462,6.999999999968582,6.999999999968582,7.020340187872068,7.020340187872068,7.051823734432931,7.051823734432931,6.999999999968589,6.999999999968589,1.2016053778101148,1.2016053778101148,1.2022871488528455,1.2022871488528455,1.2025581072697926,1.2025581072697926,1.2018764899297223,1.2018764899297223,-0.01797162603146077,0.06920398870955616,-0.02409075843871271,-0.0011797421005449132,0.0071859260779729445,-3.863551071634949e-06
41.0,0.8000000000000004,0.16804525763444386,0.05571469235631591,0.24860157168346625,0.1691621215749663,0.05271543406258453,0.24858416458402444,0.0011168639405224334,-0.002999258293731377,-1.7407099441812957e-05,0.0032005059570740886,0.0005228919613221867,0.00020279597274479582,-0.0012767757731273642,min_task,none,false,false,6.999999999967481,6.999999999967481,7.022078055846008,7.022078055846008,7.055396896806819,7.055396896806819,6.999999999967489,6.999999999967489,-0.01805284420171918,0.07432706479219382,-0.026094776863880682,-0.001119250470667642,0.007040215640634458,4.048694725530307e-06,-0.01725833387053234,-0.007372835430484499,0.16769418676975226,-0.4766284842552851,0.16081947067985722,-0.02874711544326421,-0.10135715262250733,0.5633911765136647,-0.05506140568994229,0.0005228919613221867,0.00020279597274479582,-0.0012767757731273642,-0.0874128359370092,0.3236223682982574,0.7907987243590181,-0.03708353409659528,0.12841324321627248,0.006716092467802301,6.999999999967481,6.999999999967481,7.022078055846008,7.022078055846008,7.055396896806819,7.055396896806819,6.999999999967489,6.999999999967489,1.2015686649255222,1.2015686649255222,1.202308298569907,1.202308298569907,1.2025948406039373,1.2025948406039373,1.2018553833003565,1.2018553833003565,-0.01805284420171918,0.07432706479219382,-0.026094776863880682,-0.001119250470667642,0.007040215640634458,4.048694725530307e-06
42.0,0.8200000000000004,0.16684846037279136,0.058531790506403975,0.24860282157826896,0.168078460917913,0.05545868986465751,0.24858416458402444,0.0012300005451216511,-0.0030731006417464637,-1.8656994244525826e-05,0.0033101657026101167,0.000566209584458978,0.00021443539440613846,-0.0012959720530036029,min_task,none,false,false,6.999999999966292,6.999999999966292,7.023850417390169,7.023850417390169,7.0591786720396925,7.0591786720396925,6.9999999999663,6.9999999999663,-0.01810145229123713,0.07967936797731225,-0.028180831771232994,-0.0010503137606412655,0.006868627514979049,1.2531541084754597e-05,-0.018517062738427036,-0.007815786400952936,0.17044192406956715,-0.4667868340550535,0.17512798772622964,-0.02941194769055964,-0.0980424864941861,0.5542625542624728,-0.055409951995373054,0.000566209584458978,0.00021443539440613846,-0.0012959720530036029,-0.09332657299454009,0.3243404551709778,0.7907049148240652,-0.03929365248180579,0.13636606559973052,0.006994153233407113,6.999999999966292,6.999999999966292,7.023850417390169,7.023850417390169,7.0591786720396925,7.0591786720396925,6.9999999999663,6.9999999999663,1.2015298209137,1.2015298209137,1.2023307324354147,1.2023307324354147,1.202633705802707,1.202633705802707,1.2018329961849856,1.2018329961849856,-0.01810145229123713,0.07967936797731225,-0.028180831771232994,-0.0010503137606412655,0.006868627514979049,1.2531541084754597e-05
43.0,0.8400000000000004,0.16553394037242408,0.06141536065319344,0.24860412209569815,0.16688400754065735,0.05827405767028052,0.24858416458402444,0.001350067168233271,-0.0031413029829129163,-1.9957511673718287e-05,0.0034191905608595722,0.000612050173664622,0.00022673988718432126,-0.0013132566080444681,min_task,none,false,false,6.9999999999650475,6.9999999999650475,7.025665961763354,7.025665961763354,7.063192060716543,7.063192060716543,6.999999999965056,6.999999999965056,-0.01811519352973371,0.08526557182294375,-0.030347758854949176,-0.0009720645368418679,0.006669840565907726,2.1594612048277938e-05,-0.01983941575591053,-0.008298808734919302,0.17303914801595255,-0.4550414010964782,0.1902110731635505,-0.029973069791848134,-0.09439446939805662,0.5434564943412522,-0.05552867844268021,0.000612050173664622,0.00022673988718432126,-0.0013132566080444681,-0.09942600204996965,0.32514132570785775,0.7906075040298838,-0.04155536266346256,0.1445657761793822,0.0072610531823559255,6.9999999999650475,6.9999999999650475,7.025665961763354,7.025665961763354,7.063192060716543,7.063192060716543,6.999999999965056,6.999999999965056,1.2014887231647653,1.2014887231647653,1.2023544824467407,1.2023544824467407,1.2026748250987411,1.2026748250987411,1.201809296585201,1.201809296585201,-0.01811519352973371,0.08526557182294375,-0.030347758854949176,-0.0009720645368418679,0.006669840565907726,2.1594612048277938e-05
44.0,0.8600000000000004,0.16409481198555964,0.06435978575010114,0.24860546861421168,0.16557185452039114,0.06115652736814731,0.24858416458402444,0.0014770425348314964,-0.0032032583819538232,-2.1304030187241363e-05,0.003527459818759258,0.0006605224358736579,0.00023977842215665217,-0.0013278977911403485,min_task,none,false,false,6.999999999963794,6.999999999963794,7.02753449820176,7.02753449820176,7.067460332896059,7.067460332896059,6.999999999963805,6.999999999963805,-0.018091675391080073,0.0910910094017779,-0.032594179444335125,-0.0008835166423011536,0.00644244423476229,3.1246903688162555e-05,-0.021232450652053297,-0.008824831006700742,0.1753836956807769,-0.4412677200613496,0.20610442148610722,-0.030401094087548996,-0.09038874583525706,0.5308846786799046,-0.0554083042992337,0.0006605224358736579,0.00023977842215665217,-0.0013278977911403485,-0.10570546592710715,0.3260315731631882,0.7905066206837745,-0.04386502107756168,0.15300663298475173,0.0075148395539477554,6.999999999963794,6.999999999963794,7.02753449820176,7.02753449820176,7.067460332896059,7.067460332896059,6.999999999963805,6.999999999963805,1.2014452458152023,1.2014452458152023,1.2023795766578957,1.2023795766578957,1.2027183239905257,1.2027183239905257,1.20178425650801,1.20178425650801,-0.018091675391080073,0.0910910094017779,-0.032594179444335125,-0.0008835166423011536,0.00644244423476229,3.1246903688162555e-05
45.0,0.8800000000000004,0.1625242306798852,0.06735884122674193,0.24860685514735348,0.16413508804979887,0.06410049852911673,0.24858416458402444,0.0016108573699136763,-0.003258342697625205,-2.2690563329041957e-05,0.0036348553565495414,0.0007117330234252846,0.00025362501035818935,-0.0013392230911097272,min_task,none,false,false,6.999999999962588,6.999999999962588,7.029466419082673,7.029466419082673,7.072006303669898,7.072006303669898,6.999999999962599,6.999999999962599,-0.018028377870180325,0.0971617807528952,-0.034918490702482805,-0.0007835578754044447,0.006184927577510244,4.149662471157634e-05,-0.022703251008900176,-0.009396588336610992,0.17737790070049028,-0.42533206160842363,0.2228486206744763,-0.03066054861645602,-0.08599640738547946,0.5164501712567884,-0.0550410047197559,0.0007117330234252846,0.00025362501035818935,-0.0013392230911097272,-0.112158534182233,0.3270181154555274,0.7904024404495327,-0.04621871152677986,0.16168203880738635,0.007753568208802715,6.999999999962588,6.999999999962588,7.029466419082673,7.029466419082673,7.072006303669898,7.072006303669898,6.999999999962599,6.999999999962599,1.2013992608955868,1.2013992608955868,1.2024060381332429,1.2024060381332429,1.2027643301202255,1.2027643301202255,1.2017578530430895,1.2017578530430895,-0.018028377870180325,0.0971617807528952,-0.034918490702482805,-0.0007835578754044447,0.006184927577510244,4.149662471157634e-05
46.0,0.9000000000000005,0.1608154410459198,0.07040567889154117,0.24860827404717983,0.16256683231933522,0.06709976172657628,0.24858416458402444,0.0017513912734154202,-0.0033059171649648944,-2.4109463155397304e-05,0.0037412619475811707,0.0007657851444484424,0.0002683586076901439,-0.001346638314274828,min_task,none,false,false,6.999999999961474,6.999999999961474,7.031472111262587,7.031472111262587,7.0768515900160605,7.0768515900160605,6.999999999961486,6.999999999961486,-0.017922662478488928,0.10348486671689916,-0.03731885322795495,-0.0006709433834878541,0.005895666428695696,5.23510151171825e-05,-0.024258652035374563,-0.010016590986807171,0.1789318853759757,-0.40709152240626784,0.2404896591713236,-0.030709164426640064,-0.08118334050968665,0.500045817194222,-0.05442053864741251,0.0007657851444484424,0.0002683586076901439,-0.001346638314274828,-0.11877796572953374,0.32810820769935795,0.7902951963521391,-0.048612242548171085,0.1705844953585323,0.007975319562775165,6.999999999961474,6.999999999961474,7.031472111262587,7.031472111262587,7.0768515900160605,7.0768515900160605,6.999999999961486,6.999999999961486,1.2013506393928723,1.2013506393928723,1.2024338840479016,1.2024338840479016,1.2028129722352854,1.2028129722352854,1.2017300692920279,1.2017300692920279,-0.017922662478488928,0.10348486671689916,-0.03731885322795495,-0.0006709433834878541,0.005895666428695696,5.23510151171825e-05
47.0,0.9200000000000005,0.15896182810200504,0.07349281359647844,0.24860971573012697,0.16086029788015546,0.07014748223080741,0.24858416458402444,0.001898469778150419,-0.003345331365671028,-2.5551146102531508e-05,0.003846567600570675,0.000822777437831341,0.0002840629655324126,-0.0013496407561531256,min_task,none,false,false,6.999999999960508,6.999999999960508,7.03356137142463,7.03356137142463,7.082015902829251,7.082015902829251,6.9999999999605205,6.9999999999605205,-0.017771783104741663,0.11006825067119798,-0.039793176587726714,-0.0005442903013796241,0.005572909562573828,6.381613755106032e-05,-0.02590497475036439,-0.010687099115730875,0.17996610927966605,-0.38639425083414863,0.2590794549285479,-0.030497109553250253,-0.07590949585679233,0.48155247738195245,-0.0535423708149491,0.000822777437831341,0.0002840629655324126,-0.0013496407561531256,-0.12555566202039917,0.3293094577962031,0.7901851924794357,-0.051041143421920676,0.17970555268233826,0.008178215083781831,6.999999999960508,6.999999999960508,7.03356137142463,7.03356137142463,7.082015902829251,7.082015902829251,6.9999999999605205,6.9999999999605205,1.201299252162651,1.201299252162651,1.2024631250123596,1.2024631250123596,1.2028643792964995,1.2028643792964995,1.2017008950701538,1.2017008950701538,-0.017771783104741663,0.11006825067119798,-0.039793176587726714,-0.0005442903013796241,0.005572909562573828,6.381613755106032e-05
48.0,0.9400000000000005,0.15695697175361634,0.07661211309785805,0.2486111684315831,0.15900883338434807,0.07323618651516628,0.24858416458402444,0.0020518616307317328,-0.003375926582691771,-2.700384755865981e-05,0.003950663950676771,0.0008828032078037498,0.0003008264136274333,-0.0013478262823566204,min_task,none,false,false,6.999999999959736,6.999999999959736,7.035742892621436,7.035742892621436,7.0875164363918906,7.0875164363918906,6.9999999999597495,6.9999999999597495,-0.017572895770490607,0.11692104164316941,-0.04233910013314443,-0.00040207385695366295,0.005214762569998838,7.589664948451773e-05,-0.027647795067442055,-0.011410102671442848,0.18041311962897247,-0.36307974543701665,0.278676398985029,-0.029966142265070654,-0.07012804081204112,0.4608370025783276,-0.05240378868721125,0.0008828032078037498,0.0003008264136274333,-0.0013478262823566204,-0.13248261074649545,0.3306298456179043,0.7900728215852477,-0.05350065867971727,0.18903575308070514,0.008360434284130162,6.999999999959736,6.999999999959736,7.035742892621436,7.035742892621436,7.0875164363918906,7.0875164363918906,6.9999999999597495,6.9999999999597495,1.2012449706328459,1.2012449706328459,1.2024937646970704,1.2024937646970704,1.2029186797895404,1.2029186797895404,1.2016703273036178,1.2016703273036178,-0.017572895770490607,0.11692104164316941,-0.04233910013314443,-0.00040207385695366295,0.005214762569998838,7.589664948451773e-05
49.0,0.9600000000000005,0.15479470421749644,0.07975479155197471,0.2486126179931474,0.15700598055449455,0.0763577520225004,0.24858416458402444,0.002211276336998108,-0.003397039529474302,-2.8453409122969342e-05,0.0040534467061834525,0.000945950099931451,0.00031874155871350807,-0.0013408905459319797,min_task,none,false,false,6.999999999959207,6.999999999959207,7.038023888861307,7.038023888861307,7.093367413389718,7.093367413389718,6.999999999959221,6.999999999959221,-0.017323067924281555,0.12405360090037305,-0.044953969581097854,-0.00024262565320983377,0.004819169944302896,8.859555327011314e-05,-0.029491773355167825,-0.012187304624009163,0.18021849377098842,-0.3369792827465336,0.29934591668955,-0.02904867604143185,-0.06378439327892757,0.43774998745047994,-0.0510040145967881,0.000945950099931451,0.00031874155871350807,-0.0013408905459319797,-0.1395488203431759,0.33207774627765196,0.7899585872082486,-0.05598574098774722,0.1985645687346633,0.008520232140324319,6.999999999959207,6.999999999959207,7.038023888861307,7.038023888861307,7.093367413389718,7.093367413389718,6.999999999959221,6.999999999959221,1.2011876672520714,1.2011876672520714,1.2025257998259042,1.2025257998259042,1.2029760012857218,1.2029760012857218,1.2016383700518751,1.2016383700518751,-0.017323067924281555,0.12405360090037305,-0.044953969581097854,-0.00024262565320983377,0.004819169944302896,8.859555327011314e-05
50.0,0.9800000000000005,0.15246917017057998,0.08291140709004091,0.24861404768406634,0.1548455321866798,0.07950340064612689,0.24858416458402444,0.002376362016099809,-0.0034080064439140217,-2.9883100041899757e-05,0.004154816163561218,0.0010123002801897545,0.00033790487914588303,-0.00132862483663182,min_task,none,false,false,6.9999999999589555,6.9999999999589555,7.040409915622739,7.040409915622739,7.099579831061914,7.099579831061914,6.9999999999589715,6.9999999999589715,-0.017019286522078337,0.13147766590956897,-0.04763480717594601,-6.41349626028477e-05,0.004383895328059392,0.00010191391984642762,-0.031440565672283725,-0.01302010500837373,0.17934100488252425,-0.30791651270430787,0.32116102974520033,-0.027666744957017625,-0.056815125408416045,0.41212330051604873,-0.04934431230435832,0.0010123002801897545,0.00033790487914588303,-0.00132862483663182,-0.14674324585538986,0.3336619579192918,0.7898431309129845,-0.05849104227366553,0.20828033214572317,0.008655956859793127,6.9999999999589555,6.9999999999589555,7.040409915622739,7.040409915622739,7.099579831061914,7.099579831061914,6.9999999999589715,6.9999999999589715,1.20112721565276,1.20112721565276,1.2025592205956817,1.2025592205956817,1.2030364702815937,1.2030364702815937,1.2016050340979991,1.2016050340979991,-0.017019286522078337,0.13147766590956897,-0.04763480717594601,-6.41349626028477e-05,0.004383895328059392,0.00010191391984642762
51.0,1.0000000000000004,0.14997488933278064,0.08607186391144242,0.2486154380566137,0.15252159294025736,0.08266369638032159,0.24858416458402444,0.002546703607476719,-0.0034081675311208315,-3.12734725892716e-05,0.004254677803854128,0.001081931153779958,0.00035841619228772135,-0.001310907270924584,min_task,none,false,false,6.999999999959007,6.999999999959007,7.042904926341371,7.042904926341371,7.106161432425515,7.106161432425515,6.999999999959024,6.999999999959024,-0.016658462544020897,0.13920647244851,-0.050378274123910625,0.00013534631589749095,0.003906498543567571,0.00011585059480980633,-0.033496829838507394,-0.013909582465568572,0.17775207714217814,-0.2757082019206543,0.3442029361199046,-0.025730821182193702,-0.04914669821691711,0.3837672866578376,-0.04742808585506478,0.001081931153779958,0.00035841619228772135,-0.001310907270924584,-0.1540537069636165,0.33539173437296527,0.7897272652474187,-0.06101090292419451,0.21817015843438173,0.008766067886440803,6.999999999959007,6.999999999959007,7.042904926341371,7.042904926341371,7.106161432425515,7.106161432425515,6.999999999959024,6.999999999959024,1.2010634905195923,1.2010634905195923,1.2025940115641252,1.2025940115641252,1.2031002123272385,1.2031002123272385,1.2015703360648755,1.2015703360648755,-0.016658462544020897,0.13920647244851,-0.050378274123910625,0.00013534631589749095,0.003906498543567571,0.00011585059480980633
52.0,1.0200000000000005,0.14730682113845855,0.08922541932699292,0.24861676683416017,0.1500286426144012,0.08582854759005305,0.24858416458402444,0.002721821475942632,-0.003396871736939866,-3.260225013573814e-05,0.00435294298731758,0.001154916632878739,0.00038037796794997375,-0.0012876901886373269,min_task,none,false,false,6.999999999959382,6.999999999959382,7.045511583296292,7.045511583296292,7.113116901451084,7.113116901451084,6.9999999999594,6.9999999999594,-0.016237432965464135,0.14725486637377846,-0.05318062309752402,0.0003578934948447362,0.0033843104753702004,0.00013040186926816666,-0.035662329992159,-0.014856469257868158,0.1754346243122639,-0.24016526860648119,0.3685615709422382,-0.023138500565068793,-0.040694044243472,0.35246771617023165,-0.045260966931415396,0.001154916632878739,0.00038037796794997375,-0.0012876901886373269,-0.16146679917958923,0.3372768229276889,0.7896120129937971,-0.06353933880473694,0.2282198584448667,0.008849153995290439,6.999999999959382,6.999999999959382,7.045511583296292,7.045511583296292,7.113116901451084,7.113116901451084,6.9999999999594,6.9999999999594,1.2009963671760062,1.2009963671760062,1.2026301530319132,1.2026301530319132,1.2031673524315585,1.2031673524315585,1.2015342970325762,1.2015342970325762,-0.016237432965464135,0.14725486637377846,-0.05318062309752402,0.0003578934948447362,0.0033843104753702004,0.00013040186926816666
53.0,1.0400000000000005,0.14446043109689133,0.09236069616693544,0.24861800883017712,0.1473616015563051,0.08898721433810965,0.24858416458402444,0.0029011704594137655,-0.0033734818288257973,-3.384424615268666e-05,0.004449529763580705,0.0012313289350742,0.0004038944575778483,-0.0012589847159217651,min_task,none,false,false,6.999999999960089,6.999999999960089,7.048231818160251,7.048231818160251,7.120448255222495,7.120448255222495,6.999999999960107,6.999999999960107,-0.015752956257349557,0.15563939787332198,-0.056037637859470996,0.0006056926808427164,0.0028144038186307526,0.00014556112302220679,-0.03793813329517943,-0.01586111517545045,0.1723813858498984,-0.20109410031515262,0.39433613768488596,-0.01977302871771291,-0.03135895515242641,0.3179823183156485,-0.04285088539288676,0.0012313289350742,0.0004038944575778483,-0.0012589847159217651,-0.16896779940052065,0.33932750736375045,0.7894986532713728,-0.0660700257406056,0.23841384149209793,0.008903951271788174,6.999999999960089,6.999999999960089,7.048231818160251,7.048231818160251,7.120448255222495,7.120448255222495,6.999999999960107,6.999999999960107,1.2009257209237394,1.2009257209237394,1.2026676229279047,1.2026676229279047,1.2032380157111637,1.2032380157111637,1.2014969406493239,1.2014969406493239,-0.015752956257349557,0.15563939787332198,-0.056037637859470996,0.0006056926808427164,0.0028144038186307526,0.00014556112302220679
54.0,1.0600000000000005,0.14143175838553784,0.09546570094644274,0.2486191358977281,0.14451589778948398,0.09212832118933469,0.24858416458402444,0.00308413940394614,-0.0033373797571080582,-3.4971313703668905e-05,0.004544363816741575,0.0013112408695444388,0.0004290706054116283,-0.0012248434891502713,min_task,none,false,false,6.999999999961122,6.999999999961122,7.051067616527869,7.051067616527869,7.128155383154531,7.128155383154531,6.9999999999611395,6.9999999999611395,-0.015201703003624473,0.16437838776874958,-0.05894455606215329,0.000881015990558021,0.002193561057533379,0.00016131841340286845,-0.04032488348199008,-0.016923435330639364,0.1685928865585428,-0.1582983674325916,0.4216355712400593,-0.01550166588837148,-0.021028301441950482,0.28003698912018565,-0.04020811628052315,0.0013112408695444388,0.0004290706054116283,-0.0012248434891502713,-0.17654056718329578,0.34155465627788784,0.7893887750401224,-0.06859628095878177,0.24873500646264698,0.00892936070782517,6.999999999961122,6.999999999961122,7.051067616527869,7.051067616527869,7.128155383154531,7.128155383154531,6.9999999999611395,6.9999999999611395,1.2008514261904466,1.2008514261904466,1.2027063991917386,1.2027063991917386,1.2033123282297102,1.2033123282297102,1.2014582907435774,1.2014582907435774,-0.015201703003624473,0.16437838776874958,-0.05894455606215329,0.000881015990558021,0.002193561057533379,0.00016131841340286845
55.0,1.0800000000000005,0.13821748416315024,0.09852784815162335,0.2486201169108831,0.141487535393733,0.09523987588597901,0.24858416458402444,0.0032700512305827434,-0.00328797226564434,-3.595232685865701e-05,0.004637379566100735,0.001394728547281988,0.0004560107044461346,-0.0011853425112677352,min_task,none,false,false,6.999999999962471,6.999999999962471,7.054021985247293,7.054021985247293,7.136236667489995,7.136236667489995,6.99999999996249,6.99999999996249,-0.014580237437968649,0.17349194386374645,-0.06189596987484786,0.0011861865306408157,0.001518238250646495,0.00017766000390646017,-0.04282312953047208,-0.018042836749370204,0.16407515011511317,-0.11158141513469975,0.4505788594753659,-0.010173924149526605,-0.009572066090032492,0.2383215328156756,-0.03734529558885858,0.001394728547281988,0.0004560107044461346,-0.0011853425112677352,-0.18416744327843554,0.3439697766140111,0.789284338545797,-0.0711110408274802,0.25916461983993233,0.008924465078641105,6.999999999962471,6.999999999962471,7.054021985247293,7.054021985247293,7.136236667489995,7.136236667489995,6.99999999996249,6.99999999996249,1.2007733555576068,1.2007733555576068,1.2027464626358186,1.2027464626358186,1.203390417957495,1.203390417957495,1.2014183684570559,1.2014183684570559,-0.014580237437968649,0.17349194386374645,-0.06189596987484786,0.0011861865306408157,0.001518238250646495,0.00017766000390646017
56.0,1.1000000000000005,0.13481500003581381,0.10153399096766426,0.24862091778229595,0.13827316361176206,0.09830929425486369,0.24858416458402444,0.0034581635759482476,-0.0032246967128005677,-3.67531982715108e-05,0.004728521439641058,0.0014818744356810802,0.0004848167566447988,-0.0011405630356689338,min_task,none,false,false,6.99999999996412,6.99999999996412,7.057100050215797,7.057100050215797,7.1446896084386715,7.1446896084386715,6.999999999964139,6.999999999964139,-0.013884989394198763,0.18300190332731553,-0.06488569648911381,0.0015235305230408603,0.0007845253139157782,0.00019456780145746434,-0.04543368320782499,-0.019218118720332123,0.1588372936892128,-0.06074947198985962,0.48129514649659205,-0.003619684195837735,0.0031587846006266907,0.1924849567837927,-0.0342773966339337,0.0014818744356810802,0.0004848167566447988,-0.0011405630356689338,-0.19182914716228391,0.3465850721779795,0.7891877452408896,-0.07360683405573984,0.2696821790575965,0.008888544697824866,6.99999999996412,6.99999999996412,7.057100050215797,7.057100050215797,7.1446896084386715,7.1446896084386715,6.999999999964139,6.999999999964139,1.20069137875461,1.20069137875461,1.202787800259737,1.202787800259737,1.2034724157673715,1.2034724157673715,1.2013771889273337,1.2013771889273337,-0.013884989394198763,0.18300190332731553,-0.06488569648911381,0.0015235305230408603,0.0007845253139157782,0.00019456780145746434
57.0,1.1200000000000006,0.13122247605449944,0.10447045872517799,0.24862150152465906,0.13487014610226483,0.10132343166586523,0.24858416458402444,0.0036476700477653945,-0.0031470270593127597,-3.733694063462467e-05,0.004817745337452725,0.0015727706662060953,0.0005155864936243288,-0.001090574255391751,min_task,none,false,false,6.999999999966037,6.999999999966037,7.060310228525664,7.060310228525664,7.1535113754683755,7.1535113754683755,6.999999999966056,6.999999999966056,-0.013112215236301518,0.19293166325516747,-0.06790660968583519,0.0018953134328061419,-1.189624940762656e-05,0.00021201866689800903,-0.04815797804617258,-0.020447342242164473,0.15288912095159082,-0.005615963536569213,0.5139234764575756,0.004352721053040309,0.017334548817887645,0.1421303397541428,-0.031021658848054676,0.0015727706662060953,0.0005155864936243288,-0.001090574255391751,-0.1995046755764287,0.34941350675135546,0.7891019167011234,-0.07607574934508489,0.28026525942584335,0.008821091586246018,6.999999999966037,6.999999999966037,7.060310228525664,7.060310228525664,7.1535113754683755,7.1535113754683755,6.999999999966056,6.999999999966056,1.2006053617153436,1.2006053617153436,1.202830408984181,1.202830408984181,1.2035584563724455,1.2035584563724455,1.2013347575543643,1.2013347575543643,-0.013112215236301518,0.19293166325516747,-0.06790660968583519,0.0018953134328061419,-1.189624940762656e-05,0.00021201866689800903
58.0,1.1400000000000006,0.1274389275730163,0.10732310128574199,0.24862182836692537,0.13127662970621506,0.10426862131204656,0.24858416458402444,0.003837702133198756,-0.0030544799736954287,-3.7663782900931864e-05,0.004905020298980129,0.001667522494600966,0.000548411010694799,-0.0010354174229044509,min_task,none,false,false,6.999999999968198,6.999999999968198,7.063665419133826,7.063665419133826,7.162699209222403,7.162699209222403,6.999999999968217,6.999999999968217,-0.012257945171760924,0.20330584326433557,-0.07095041774676993,0.0023036565611783905,-0.0008757972087493026,0.0002299835516546401,-0.05099840291198313,-0.021727664443257896,0.14623881561710808,0.05399274601031775,0.5486119876820923,0.01395836850604236,0.03314910319257738,0.0868092829135588,-0.027597461303758345,0.001667522494600966,0.000548411010694799,-0.0010354174229044509,-0.20717120444724532,0.35246887119754866,0.7890303830146167,-0.07850939633067328,0.29088934271967287,0.008721821538583712,6.999999999968198,6.999999999968198,7.063665419133826,7.063665419133826,7.162699209222403,7.162699209222403,6.999999999968217,6.999999999968217,1.20051516580237,1.20051516580237,1.2028742997670137,1.2028742997670137,1.2036486791019247,1.2036486791019247,1.2012910658892442,1.2012910658892442,-0.012257945171760924,0.20330584326433557,-0.07095041774676993,0.0023036565611783905,-0.0008757972087493026,0.0002299835516546401
59.0,1.1600000000000006,0.12346428025059938,0.11007734052342945,0.24862185594013356,0.1274916120435643,0.10713071952454659,0.24858416458402444,0.004027331792964911,-0.0029466209988828623,-3.769135610912078e-05,0.004990330381849357,0.0017662518042221354,0.0005833719638103188,-0.0009750918509245203,min_task,none,false,false,6.999999999970565,6.999999999970565,7.067184159249693,7.067184159249693,7.172250604668559,7.172250604668559,6.9999999999705835,6.9999999999705835,-0.011317916431258405,0.21414971738313243,-0.07400737170673638,0.0027504299522037394,-0.0018124435508608027,0.000248426400678714,-0.053958585141792165,-0.02305513447052326,0.1388908179255293,0.11822974171660823,0.5855163381553437,0.025437442571161577,0.05082218825335146,0.02601606650387866,-0.02402613411952438,0.0017662518042221354,0.0005833719638103188,-0.0009750918509245203,-0.21480399706230272,0.3557658536534436,0.7889773810426509,-0.08089885852235564,0.3015276253888051,0.008590683529802608,6.999999999970565,6.999999999970565,7.067184159249693,7.067184159249693,7.172250604668559,7.172250604668559,6.9999999999705835,6.9999999999705835,1.2004206473122787,1.2004206473122787,1.2029195020600871,1.2029195020600871,1.2037432284027039,1.2037432284027039,1.2012460871871782,1.2012460871871782,-0.011317916431258405,0.21414971738313243,-0.07400737170673638,0.0027504299522037394,-0.0018124435508608027,0.000248426400678714
60.0,1.1800000000000006,0.11929943244488042,0.11271822898839734,0.2486215395502861,0.12351500721237119,0.10989515827021523,0.24858416458402444,0.004215574767490765,-0.002823070718182108,-3.73749662616607e-05,0.00507367675244148,0.0018691005305262623,0.0006205382756478808,-0.00090954305954607,min_task,none,false,false,6.999999999973108,6.999999999973108,7.070891698872927,7.070891698872927,7.18216321522909,7.18216321522909,6.999999999973126,6.999999999973126,-0.010287490888123911,0.22548831303073344,-0.0770658813354537,0.003237116638378456,-0.0028276346783178597,0.00026730274052959145,-0.05704360108261285,-0.02442444812605664,0.13084394377106487,0.18721753735731086,0.6247969916249786,0.03905652500481897,0.07060150941024684,-0.04081828998097752,-0.020330701823664178,0.0018691005305262623,0.0006205382756478808,-0.00090954305954607,-0.22237632208112637,0.35932011146934345,0.7889479627953586,-0.0832346368768753,0.31215080428409253,0.008427865874945659,6.999999999973108,6.999999999973108,7.070891698872927,7.070891698872927,7.18216321522909,7.18216321522909,6.999999999973126,6.999999999973126,1.200321657386868,1.200321657386868,1.2029660685586039,1.2029660685586039,1.2038422539428675,1.2038422539428675,1.2011997716728295,1.2011997716728295,-0.010287490888123911,0.22548831303073344,-0.0770658813354537,0.003237116638378456,-0.0028276346783178597,0.00026730274052959145
61.0,1.2000000000000006,0.11494631421060418,0.11523051576197581,0.248620832558158,0.11934770882285681,0.11254700490721763,0.24858416458402444,0.0044013946122526265,-0.002683510854758181,-3.666797413356959e-05,0.005155079978108826,0.0019762338646450842,0.0006599622939750128,-0.0008386531533002719,min_task,none,false,false,7.000000000000123,7.000000000000123,7.07482094603096,7.07482094603096,7.192434422392373,7.192434422392373,7.000000000000123,7.000000000000123,-0.009161558330094025,0.23734506152307175,-0.080112011381219,0.0037646428940007596,-0.003927731098696433,0.000286557854982922,-0.06026009271932168,-0.025828659515646224,0.12208979257409769,0.2610350017870625,0.6666149617020207,0.055109251660420515,0.09276444220480484,-0.11433170482055768,-0.016535553987566357,0.0019762338646450842,0.0006599622939750128,-0.0008386531533002719,-0.22985938591498342,0.36314834295387216,0.7889481139052762,-0.08550658261868364,0.3227268378425977,0.008233798539012535,7.000000000000123,7.000000000000123,7.07482094603096,7.07482094603096,7.192434422392373,7.192434422392373,7.000000000000123,7.000000000000123,1.20021804247104,1.20021804247104,1.2030140801825364,1.2030140801825364,1.2039459101768075,1.2039459101768075,1.201152041578019,1.201152041578019,-0.009161558330094025,0.23734506152307175,-0.080112011381219,0.0037646428940007596,-0.003927731098696433,0.000286557854982922
62.0,1.2200000000000006,0.11040794210092794,0.11759871943013478,0.248619686886563,0.11499164956612165,0.11507102919384242,0.24858416458402444,0.004583707465193709,-0.0025276902362923598,-3.5522302538559813e-05,0.005234582494440021,0.0020878430608259973,0.0007016753434378022,-0.0007622333457859688,min_task,none,false,false,6.999999999978566,6.999999999978566,7.079013246320138,7.079013246320138,7.203060519704536,7.203060519704536,6.999999999978582,6.999999999978582,-0.00793442628117144,0.24973982976512318,-0.08312882341198785,0.004333168481268637,-0.005119663509612785,0.00030612442769637805,-0.06361627279563518,-0.027258846160796622,0.11261138169941633,0.33970049086785953,0.7111253923576373,0.07391589452420086,0.11761901954687931,-0.19523593063172578,-0.012666039604501744,0.0020878430608259973,0.0007016753434378022,-0.0007622333457859688,-0.23722228528603723,0.36726835612777614,0.7889848817613399,-0.08770381799916734,0.3332206808941711,0.008009150988224878,6.999999999978566,6.999999999978566,7.079013246320138,7.079013246320138,7.203060519704536,7.203060519704536,6.999999999978582,6.999999999978582,1.2001096454830364,1.2001096454830364,1.203063651207331,1.203063651207331,1.2040543552067058,1.2040543552067058,1.2011027860334607,1.2011027860334607,-0.00793442628117144,0.24973982976512318,-0.08312882341198785,0.004333168481268637,-0.005119663509612785,0.00030612442769637805
63.0,1.2400000000000007,0.10568846895719314,0.11980720801972591,0.24861805367431383,0.11044985649241254,0.11745177745913936,0.24858416458402444,0.004761387535219402,-0.002355430560586555,-3.388909028939624e-05,0.005312251204219209,0.0022041476224383917,0.0007456826113576252,-0.0006800184185934802,min_task,none,false,false,6.9999999999814095,6.9999999999814095,7.083518910605655,7.083518910605655,7.214035452067059,7.214035452067059,6.9999999999814255,6.9999999999814255,-0.0065997038135070145,0.26268613763372173,-0.08609552428984434,0.004941830654630036,-0.0064109104464180645,0.00032591950574619593,-0.06712178664248938,-0.02870373406095678,0.10238221906841487,0.4231502838063489,0.7584682611374561,0.09582136372895668,0.14550373339283074,-0.2843197506107581,-0.008747982846255106,0.0022041476224383917,0.0007456826113576252,-0.0006800184185934802,-0.24443198744876443,0.37169913052152764,0.7890665122277577,-0.08981464389799623,0.34359399176403205,0.007754824989523875,6.9999999999814095,6.9999999999814095,7.083518910605655,7.083518910605655,7.214035452067059,7.214035452067059,6.9999999999814255,6.9999999999814255,1.1999963078983376,1.1999963078983376,1.203114934425814,1.203114934425814,1.2041677487393416,1.2041677487393416,1.2010518559309524,1.2010518559309524,-0.0065997038135070145,0.26268613763372173,-0.08609552428984434,0.004941830654630036,-0.0064109104464180645,0.00032591950574619593
64.0,1.2600000000000007,0.10079322787830053,0.12184028565244949,0.24861588409305574,0.1057265011580155,0.1196736537515317,0.24858416458402444,0.004933273279714975,-0.002166631900917787,-3.171950903130272e-05,0.00538818013560029,0.002325396567642492,0.0007919573121198372,-0.000591662816973472,min_task,none,false,false,6.999999999984279,6.999999999984279,7.088397472450627,7.088397472450627,7.225349047497404,7.225349047497404,6.9999999999842935,6.9999999999842935,-0.00515018576284876,0.2761873054975921,-0.08898637381822508,0.005588436710070952,-0.0078094300395564805,0.0003458406357303815,-0.07078741644331964,-0.030149271538133803,0.09136541703953853,0.511211521164186,0.8087552785266252,0.12119093704162853,0.1767855665323627,-0.3824494015375215,-0.004807120877234267,0.002325396567642492,0.0007919573121198372,-0.000591662816973472,-0.2514533476687095,0.37646086648410904,0.7892025929518265,-0.09182643353892611,0.35380481124397983,0.007471941795161502,6.999999999984279,6.999999999984279,7.088397472450627,7.088397472450627,7.225349047497404,7.225349047497404,6.9999999999842935,6.9999999999842935,1.1998778729976807,1.1998778729976807,1.2031681261680076,1.2031681261680076,1.2042862488879673,1.2042862488879673,1.2009990589269646,1.2009990589269646,-0.00515018576284876,0.2761873054975921,-0.08898637381822508,0.005588436710070952,-0.0078094300395564805,0.0003458406357303815
65.0,1.2800000000000007,0.0957287695817125,0.12368228558674932,0.2486131303356625,0.10082694379411315,0.12172100768414561,0.24858416458402444,0.00509817421240065,-0.0019612779026037114,-2.896575163807702e-05,0.005462493050430047,0.0024518683732007423,0.0008404340849156423,-0.0004967380689652302,min_task,none,false,false,6.999999999987137,6.999999999987137,7.093717525988289,7.093717525988289,7.236984653372418,7.236984653372418,6.999999999987149,6.999999999987149,-0.0035777555436655,0.29023120743740044,-0.09176929950455888,0.006269100032098222,-0.009323521494509799,0.00036576097524033784,-0.07462457585959065,-0.03157816606845628,0.07951317896523338,0.6035686487529999,0.8620517549027864,0.15040268436887583,0.21185533586236172,-0.4905643177971491,-0.0008684652665290197,0.0024518683732007423,0.0008404340849156423,-0.0004967380689652302,-0.25824917616411175,0.3815750143865526,0.7894041999489501,-0.09372551222051213,0.3638072144990451,0.007161823218335734,6.999999999987137,6.999999999987137,7.093717525988289,7.093717525988289,7.236984653372418,7.236984653372418,6.999999999987149,6.999999999987149,1.199754190594951,1.199754190594951,1.2032234709254466,1.2032234709254466,1.2044100075036814,1.2044100075036814,1.200944154837886,1.200944154837886,-0.0035777555436655,0.29023120743740044,-0.09176929950455888,0.006269100032098222,-0.009323521494509799,0.00036576097524033784
66.0,1.3000000000000007,0.09050289239927575,0.1253176692374835,0.24860974677270353,0.09575777065624967,0.1235782285943743,0.24858416458402444,0.005254878256973919,-0.0017394406431091997,-2.558218867909634e-05,0.005535345851425637,0.00258386906029073,0.000891001600367592,-0.0003947312915018443,min_task,none,false,false,6.999999999986968,6.999999999986968,7.099556042198855,7.099556042198855,7.248916068560865,7.248916068560865,6.99999999998698,6.99999999998698,-0.0018733302000282302,0.3047832858583742,-0.09440417198215692,0.00697781883690656,-0.010961588634910535,0.00038552323059779756,-0.07864455271686602,-0.032969381396724035,0.06676639466550147,0.6997227467545933,0.9183521274195703,0.18383540909357796,0.25111925025934134,-0.6096658857192632,0.0030444044206234355,0.00258386906029073,0.000891001600367592,-0.0003947312915018443,-0.2647803698235929,0.3870642734288213,0.7896840423523817,-0.09549702394145561,0.3735509392979985,0.006825966231814629,6.999999999986968,6.999999999986968,7.099556042198855,7.099556042198855,7.248916068560865,7.248916068560865,6.99999999998698,6.99999999998698,1.199625123641131,1.199625123641131,1.203281265216279,1.203281265216279,1.2045391636401952,1.2045391636401952,1.200886851786433,1.200886851786433,-0.0018733302000282302,0.3047832858583742,-0.09440417198215692,0.00697781883690656,-0.010961588634910535,0.00038552323059779756
67.0,1.3200000000000007,0.08512466420238865,0.12673113068303168,0.2486056912552821,0.09052682373024507,0.12522984553142047,0.24858416458402444,0.005402159527856415,-0.0015012851516112147,-2.1526671257654506e-05,0.005606928577076186,0.002721727716006378,0.0009434943888174933,-0.00028504473539022796,min_task,none,false,false,6.999999999998969,6.999999999998969,7.105996966919205,7.105996966919205,7.261103634857894,7.261103634857894,6.99999999999897,6.99999999999897,-2.6882820184130022e-05,0.3197774124955178,-0.09684069607120145,0.007706001589879856,-0.012731768456750933,0.0004049322757022189,-0.08285742958170171,-0.03429760753469268,0.053054413444569064,0.798943481288865,0.9775475373857224,0.22185053212868036,0.294985212682383,-0.740795982429436,0.006910100136513106,0.002721727716006378,0.0009434943888174933,-0.00028504473539022796,-0.2710061275166651,0.39295254640833266,0.7900565978211946,-0.09712478724158534,0.38298099736601743,0.006466010932692584,6.999999999998969,6.999999999998969,7.105996966919205,7.105996966919205,7.261103634857894,7.261103634857894,6.99999999999897,6.99999999999897,1.1994905571943923,1.1994905571943923,1.2033418601802819,1.2033418601802819,1.2046738346617438,1.2046738346617438,1.2008268036045011,1.2008268036045011,-2.6882820184130022e-05,0.3197774124955178,-0.09684069607120145,0.007706001589879856,-0.012731768456750933,0.0004049322757022189
68.0,1.3400000000000007,0.07960443561709962,0.12790770610289706,0.248600926515142,0.0851432220001883,0.12666063248066667,0.24858416458402444,0.005538786383088676,-0.0012470736222303935,-1.6761931117575957e-05,0.005677466704357337,0.002865788539360939,0.0009976839639011306,-0.00016699665155096055,min_task,none,false,false,6.999999999998259,6.999999999998259,7.113128876828191,7.113128876828191,7.273489317920046,7.273489317920046,6.999999999998261,6.999999999998261,0.0019724063209249623,0.33510418963005423,-0.09901590150968881,0.008441951767963515,-0.014641378580152372,0.0004237463996006083,-0.08727060049836224,-0.03553271384508683,0.03829489379491808,0.9002141971975632,1.0393837856355426,0.2647659783967056,0.3438420208911844,-0.8850010584738782,0.010710210638019852,0.002865788539360939,0.0009976839639011306,-0.00016699665155096055,-0.27688427152815903,0.3992648327279447,0.7905382279817602,-0.09859114465924612,0.3920372805382832,0.006083702059440648,6.999999999998259,6.999999999998259,7.113128876828191,7.113128876828191,7.273489317920046,7.273489317920046,6.999999999998261,6.999999999998261,1.1993504103480617,1.1993504103480617,1.2034056622044769,1.2034056622044769,1.2048141044016514,1.2048141044016514,1.200763609184348,1.200763609184348,0.0019724063209249623,0.33510418963005423,-0.09901590150968881,0.008441951767963515,-0.014641378580152372,0.0004237463996006083
69.0,1.3600000000000008,0.07395384396823394,0.12883288752823957,0.24859542157714926,0.07961737352706096,0.12785571812926855,0.24858416458402444,0.005663529558827013,-0.0009771693989710228,-1.1256993124819648e-05,0.005747221399762402,0.003016398272720135,0.0010532694075851934,-3.982425731511005e-05,min_task,none,false,false,6.999999999998407,6.999999999998407,7.12104134784409,7.12104134784409,7.285990596787808,7.285990596787808,6.999999999998408,6.999999999998408,0.004135804263158129,0.35059637242693703,-0.10085126228612176,0.009170339398674631,-0.01669613313723281,0.00044166731544827874,-0.09188677275941395,-0.03663922003451548,0.022393964582457373,1.0021722005052,1.1034082636050626,0.31282004861778123,0.3980293953951201,-1.0432767126566496,0.014430068357025596,0.003016398272720135,0.0010532694075851934,-3.982425731511005e-05,-0.2823717011233769,0.4060270372084254,0.7911472594028242,-0.09987681310887532,0.40065418009708414,0.005680844782799141,6.999999999998407,6.999999999998407,7.12104134784409,7.12104134784409,7.285990596787808,7.285990596787808,6.999999999998408,6.999999999998408,1.199204651803575,1.199204651803575,1.20347313065287,1.20347313065287,1.2049600076825033,1.2049600076825033,1.2006968146947554,1.2006968146947554,0.004135804263158129,0.35059637242693703,-0.10085126228612176,0.009170339398674631,-0.01669613313723281,0.00044166731544827874
70.0,1.3800000000000008,0.06818580748091921,0.12949274023842444,0.24858915305415497,0.0739609776429363,0.12880069937503807,0.24858416458402444,0.00577517016201709,-0.0006920408633863673,-4.988470130529166e-06,0.005816488274008923,0.0031738876489213726,0.0011098677177832073,9.730974061649738e-05,min_task,none,false,false,6.999999999999072,6.999999999999072,7.129819706085417,7.129819706085417,7.298492967212537,7.298492967212537,6.999999999999073,6.999999999999073,0.00647440258852292,0.36601126385415644,-0.10224955474843564,0.00987170569061487,-0.018899071874361687,0.0004583293331020597,-0.09670134437300794,-0.037575811142322176,0.005246583164618154,1.103048339587318,1.1689049167500332,0.36612303972802596,0.45779652662483084,-1.2164867645248783,0.018059427839383694,0.0031738876489213726,0.0011098677177832073,9.730974061649738e-05,-0.2874250067776204,0.4132656671510777,0.7919040109788238,-0.10096074636857753,0.4087602465494061,0.005259256275223847,6.999999999999072,6.999999999999072,7.129819706085417,7.129819706085417,7.298492967212537,7.298492967212537,6.999999999999073,6.999999999999073,1.1990533198426412,1.1990533198426412,1.2035447715147303,1.2035447715147303,1.2051115104396648,1.2051115104396648,1.2006259198348939,1.2006259198348939,0.00647440258852292,0.36601126385415644,-0.10224955474843564,0.00987170569061487,-0.018899071874361687,0.0004583293331020597
