LordTarzan10086/HCDR_ML/results/tracking/routeb_trajectory_suite_20260416_105416/circle/circle_platform_only_detailed.csv
step,time_s,tip_x,tip_y,tip_z,des_x,des_y,des_z,err_x,err_y,err_z,err_norm,q_platform_x,q_platform_y,q_platform_psi,solver_status,fail_reason,fallback_applied,hold_active,u_a_1,u_a_2,u_a_3,u_a_4,u_a_5,u_a_6,u_a_7,u_a_8,u_a_9,u_a_10,u_a_11,u_a_12,u_a_13,u_a_14,qdd_1,qdd_2,qdd_3,qdd_4,qdd_5,qdd_6,qdd_7,qdd_8,qdd_9,q_1,q_2,q_3,q_4,q_5,q_6,q_7,q_8,q_9,cable_force_1,cable_force_2,cable_force_3,cable_force_4,cable_force_5,cable_force_6,cable_force_7,cable_force_8,cable_length_1,cable_length_2,cable_length_3,cable_length_4,cable_length_5,cable_length_6,cable_length_7,cable_length_8,arm_torque_1,arm_torque_2,arm_torque_3,arm_torque_4,arm_torque_5,arm_torque_6
1.0,0.0,0.17692286938072582,0.01000283167127025,0.24858416458402469,0.1770211643871914,0.010002371411802463,0.24858416458402444,9.829500646557632e-05,-4.6025946778653626e-07,-2.498001805406602e-16,9.829608402599453e-05,0.11989013749229153,6.662941524193758e-05,-0.0011603136852103276,min_task,none,false,false,8.089944138576163,8.089944138576163,6.999999999999999,6.999999999999999,6.999999999999999,6.999999999999999,8.13088826564038,8.13088826564038,0.0,0.0,0.0,0.0,0.0,0.0,0.011545984889142854,-0.009021720798881031,0.15828465450206047,0.0,0.0,0.0,0.0,0.0,0.0,0.11989013749229153,6.662941524193758e-05,-0.0011603136852103276,0.0,0.58,0.92,0.0,0.0,0.0,8.089944138576163,8.089944138576163,6.999999999999999,6.999999999999999,6.999999999999999,6.999999999999999,8.13088826564038,8.13088826564038,1.120486160238155,1.120486160238155,1.2896184697688935,1.2896184697688935,1.2896739400042838,1.2896739400042838,1.1205500030085023,1.1205500030085023,0.0,0.0,0.0,0.0,0.0,0.0
2.0,0.02,0.17692656864406475,0.010006538193832865,0.24858416458402466,0.17702116438354548,0.010003306835152227,0.24858416458402444,9.459573948072952e-05,-3.2313586806383826e-06,-2.220446049250313e-16,9.465091445321058e-05,0.11989475333421733,6.507630967369153e-05,-0.0010680917239401086,min_task,none,false,false,8.117465067211374,8.117465067211374,6.999999999999999,6.999999999999999,6.999999999999999,6.999999999999999,8.08940139660376,8.08940139660376,0.0,0.0,0.0,0.0,0.0,0.0,0.008936650798923643,0.00593660186326604,0.17455619847953688,0.0,0.0,0.0,0.0,0.0,0.0,0.11989475333421733,6.507630967369153e-05,-0.0010680917239401086,0.0,0.58,0.92,0.0,0.0,0.0,8.117465067211374,8.117465067211374,6.999999999999999,6.999999999999999,6.999999999999999,6.999999999999999,8.08940139660376,8.08940139660376,1.1204828263539075,1.1204828263539075,1.289621653132556,1.289621653132556,1.2896776467636593,1.2896776467636593,1.1205472718665397,1.1205472718665397,0.0,0.0,0.0,0.0,0.0,0.0
3.0,0.04,0.17693193792353545,0.01001775010690786,0.24858416458402469,0.1770211641573457,0.01000979858922015,0.24858416458402444,8.922623381024675e-05,-7.951517687709506e-06,-2.498001805406602e-16,8.957983832034292e-05,0.1199016069772181,6.777653487018644e-05,-0.0009188452273211178,min_task,none,false,false,8.149482558997446,8.149482558997446,7.0,7.0,7.0,7.0,8.045482839676025,8.045482839676025,0.0,0.0,0.0,0.0,0.0,0.0,0.006701281219539922,0.022392871331678273,0.18450130809971235,0.0,0.0,0.0,0.0,0.0,0.0,0.1199016069772181,6.777653487018644e-05,-0.0009188452273211178,0.0,0.58,0.92,0.0,0.0,0.0,8.149482558997446,8.149482558997446,7.0,7.0,7.0,7.0,8.045482839676025,8.045482839676025,1.120473881305129,1.120473881305129,1.2896229100571361,1.2896229100571361,1.289686623865531,1.289686623865531,1.1205472128921723,1.1205472128921723,0.0,0.0,0.0,0.0,0.0,0.0
4.0,0.06,0.17693851024087318,0.010041013965472485,0.24858416458402455,0.17702116180842487,0.010027249192188784,0.24858416458402444,8.265156755168923e-05,-1.3764773283700404e-05,-1.1102230246251565e-16,8.37899194551655e-05,0.11991019083064332,7.951773370454182e-05,-0.0007167972519139052,min_task,none,false,false,8.185031785511537,8.185031785511537,7.000000000000001,7.000000000000001,7.000000000000001,7.000000000000001,7.999576219007154,7.999576219007154,0.0,0.0,0.0,0.0,0.0,0.0,0.004745871766015429,0.040026553399939574,0.1879656054188414,0.0,0.0,0.0,0.0,0.0,0.0,0.11991019083064332,7.951773370454182e-05,-0.0007167972519139052,0.0,0.58,0.92,0.0,0.0,0.0,8.185031785511537,8.185031785511537,7.000000000000001,7.000000000000001,7.000000000000001,7.000000000000001,7.999576219007154,7.999576219007154,1.1204560985632468,1.1204560985632468,1.2896187693708197,1.2896187693708197,1.289703593794953,1.289703593794953,1.1205537284493243,1.1205537284493243,0.0,0.0,0.0,0.0,0.0,0.0
5.0,0.08,0.17694591114753871,0.010081032732104622,0.24858416458402455,0.17702115011635905,0.010060894907521925,0.24858416458402444,7.523896882033476e-05,-2.0137824582697195e-05,-1.1102230246251565e-16,7.788731866016952e-05,0.11992007095493844,0.00010535369462825613,-0.00046809425528728443,min_task,none,false,false,8.223234257515385,8.223234257515385,6.999999999999998,6.999999999999998,6.999999999999998,6.999999999999998,7.952099082226015,7.952099082226015,0.0,0.0,0.0,0.0,0.0,0.0,0.002987459011570422,0.058540388783831124,0.1851390512187573,0.0,0.0,0.0,0.0,0.0,0.0,0.11992007095493844,0.00010535369462825613,-0.00046809425528728443,0.0,0.58,0.92,0.0,0.0,0.0,8.223234257515385,8.223234257515385,6.999999999999998,6.999999999999998,6.999999999999998,6.999999999999998,7.952099082226015,7.952099082226015,1.1204260349418107,1.1204260349418107,1.2896056678280687,1.2896056678280687,1.2897314839633813,1.2897314839633813,1.1205708464918827,1.1205708464918827,0.0,0.0,0.0,0.0,0.0,0.0
6.0,0.1,0.1769538315855954,0.010142603788393288,0.24858416458402463,0.17702111077163357,0.010115807433395392,0.24858416458402444,6.727918603816052e-05,-2.6796354997896468e-05,-1.942890293094024e-16,7.241915157698759e-05,0.11993086318627366,0.00015052208032637938,-0.00018045125962911355,min_task,none,false,false,8.263284997988897,8.263284997988897,7.000000000000002,7.000000000000002,7.000000000000002,7.000000000000002,7.903445838812233,7.903445838812233,0.0,0.0,0.0,0.0,0.0,0.0,0.0013523498865793443,0.07765726877888166,0.1765143186431074,0.0,0.0,0.0,0.0,0.0,0.0,0.11993086318627366,0.00015052208032637938,-0.00018045125962911355,0.0,0.58,0.92,0.0,0.0,0.0,8.263284997988897,8.263284997988897,7.000000000000002,7.000000000000002,7.000000000000002,7.000000000000002,7.903445838812233,7.903445838812233,1.1203801021013124,1.1203801021013124,1.289579980259696,1.289579980259696,1.289773358213004,1.289773358213004,1.1206026785859473,1.1206026785859473,0.0,0.0,0.0,0.0,0.0,0.0
7.0,0.12000000000000001,0.17696200270265125,0.0102305663738507,0.24858416458402482,0.17702100672187596,0.010196895576993653,0.24858416458402444,5.900401922470655e-05,-3.3670796857046895e-05,-3.885780586188048e-16,6.79352400868508e-05,0.1199422118321353,0.00022036802350070106,0.00013726539764252017,min_task,none,false,false,8.304444276466871,8.304444276466871,7.0,7.0,7.0,7.0,7.853986427743625,7.853986427743625,0.0,0.0,0.0,0.0,0.0,0.0,-0.00022561449629144748,0.09711899842678699,0.16283484704070172,0.0,0.0,0.0,0.0,0.0,0.0,0.1199422118321353,0.00022036802350070106,0.00013726539764252017,0.0,0.58,0.92,0.0,0.0,0.0,8.304444276466871,8.304444276466871,7.0,7.0,7.0,7.0,7.853986427743625,7.853986427743625,1.120314630896009,1.120314630896009,1.2895380471151505,1.2895380471151505,1.2898323552260247,1.2898323552260247,1.1206533816617958,1.1206533816617958,0.0,0.0,0.0,0.0,0.0,0.0
8.0,0.14,0.17697017235548995,0.010349756686177094,0.2485841645840246,0.17702077286987083,0.010308906896936254,0.24858416458402444,5.060051438088298e-05,-4.084978924084014e-05,-1.6653345369377348e-16,6.503166410780985e-05,0.11995377043831186,0.00032027343181444866,0.00047548966411954256,min_task,none,false,false,8.346032847516668,8.346032847516668,7.0,7.0,7.0,7.0,7.804061866839197,7.804061866839197,0.0,0.0,0.0,0.0,0.0,0.0,-0.001806735020639633,0.11668647171523643,0.1450358705750499,0.0,0.0,0.0,0.0,0.0,0.0,0.11995377043831186,0.00032027343181444866,0.00047548966411954256,0.0,0.58,0.92,0.0,0.0,0.0,8.346032847516668,8.346032847516668,7.0,7.0,7.0,7.0,7.804061866839197,7.804061866839197,1.120225929640837,1.120225929640837,1.2894761997392727,1.2894761997392727,1.2899116331940916,1.2899116331940916,1.1207271234315204,1.1207271234315204,0.0,0.0,0.0,0.0,0.0,0.0
9.0,0.16,0.1769780830638205,0.010504969276433568,0.24858416458402477,0.1770203053484684,0.010456429288700211,0.24858416458402444,4.222228464789701e-05,-4.853998773335713e-05,-3.3306690738754696e-16,6.43339080893e-05,0.11996518415720811,0.0004555921716014418,0.0008244148986692696,min_task,none,false,false,8.387429658401098,8.387429658401098,6.999999999999999,6.999999999999999,6.999999999999999,6.999999999999999,7.753977804806871,7.753977804806871,0.0,0.0,0.0,0.0,0.0,0.0,-0.003447047896578229,0.13614079376778673,0.12418176341469307,0.0,0.0,0.0,0.0,0.0,0.0,0.11996518415720811,0.0004555921716014418,0.0008244148986692696,0.0,0.58,0.92,0.0,0.0,0.0,8.387429658401098,8.387429658401098,6.999999999999999,6.999999999999999,6.999999999999999,6.999999999999999,7.753977804806871,7.753977804806871,1.120110337062029,1.120110337062029,1.2893907834439557,1.2893907834439557,1.2900143202890886,1.2900143202890886,1.1208280516269717,1.1208280516269717,0.0,0.0,0.0,0.0,0.0,0.0
10.0,0.18,0.1769854512012864,0.01070092370781013,0.2485841645840246,0.17701944958627513,0.010643892478765021,0.24858416458402444,3.3998384988742636e-05,-5.703122904510832e-05,-1.6653345369377348e-16,6.639616907803016e-05,0.11997607328143739,0.000631591499437769,0.001174436032992124,min_task,none,false,false,8.42807107102251,8.42807107102251,7.0,7.0,7.0,7.0,7.703997130591329,7.703997130591329,0.0,0.0,0.0,0.0,0.0,0.0,-0.005199811071084633,0.15528491582931514,0.10140293367811025,0.0,0.0,0.0,0.0,0.0,0.0,0.11997607328143739,0.000631591499437769,0.001174436032992124,0.0,0.58,0.92,0.0,0.0,0.0,8.42807107102251,8.42807107102251,7.0,7.0,7.0,7.0,7.703997130591329,7.703997130591329,1.1199642704340802,1.1199642704340802,1.28927817820381,1.28927817820381,1.2901434705747539,1.2901434705747539,1.1209602673257766,1.1209602673257766,0.0,0.0,0.0,0.0,0.0,0.0
11.0,0.19999999999999998,0.17699194723491174,0.010942235717351086,0.24858416458402469,0.177017987367226,0.010875569383765608,0.24858416458402444,2.6040132314247844e-05,-6.666633358547863e-05,-2.498001805406602e-16,7.157156226235286e-05,0.11998601754586548,0.0008534001939498022,0.0015165535126158596,min_task,none,false,false,8.467450766840257,8.467450766840257,7.0,7.0,7.0,7.0,7.654332597157279,7.654332597157279,0.0,0.0,0.0,0.0,0.0,0.0,-0.007116856276861602,0.17394539613850013,0.07783524744598881,0.0,0.0,0.0,0.0,0.0,0.0,0.11998601754586548,0.0008534001939498022,0.0015165535126158596,0.0,0.58,0.92,0.0,0.0,0.0,8.467450766840257,8.467450766840257,7.0,7.0,7.0,7.0,7.654332597157279,7.654332597157279,1.11978426920391,1.11978426920391,1.2891348166365373,1.2891348166365373,1.2903020250316397,1.2903020250316397,1.121127802658005,1.121127802658005,0.0,0.0,0.0,0.0,0.0,0.0
12.0,0.21999999999999997,0.17699717684658645,0.011233392328845392,0.2485841645840247,0.17701562307684054,0.0111555772815788,0.24858416458402444,1.844623025409886e-05,-7.781504726659186e-05,-2.7755575615628914e-16,7.997152613079957e-05,0.11999454084673039,0.0011259638231051919,0.0018427216748336723,min_task,none,false,false,8.505119654981604,8.505119654981604,7.0,7.0,7.0,7.0,7.605140292161246,7.605140292161246,0.0,0.0,0.0,0.0,0.0,0.0,-0.009249775811846911,0.1919739592579748,0.054564594422555235,0.0,0.0,0.0,0.0,0.0,0.0,0.11999454084673039,0.0011259638231051919,0.0018427216748336723,0.0,0.58,0.92,0.0,0.0,0.0,8.505119654981604,8.505119654981604,7.0,7.0,7.0,7.0,7.605140292161246,7.605140292161246,1.1195670342635842,1.1195670342635842,1.2889571988330017,1.2889571988330017,1.2904927773601313,1.2904927773601313,1.1213346031426144,1.1213346031426144,0.0,0.0,0.0,0.0,0.0,0.0
13.0,0.23999999999999996,0.17700066279159382,0.011578730516680987,0.2485841645840248,0.17701196931823887,0.0114878787323215,0.24858416458402444,1.1306526645049608e-05,-9.085178435948651e-05,-3.608224830031759e-16,9.155263112591496e-05,0.12000109607897137,0.0014540074832333767,0.0021461285768673895,min_task,none,false,false,8.540685268019615,8.540685268019615,6.999999999999999,6.999999999999999,6.999999999999999,6.999999999999999,7.556514640530597,7.556514640530597,0.0,0.0,0.0,0.0,0.0,0.0,-0.011650911450924006,0.2092485938047941,0.03257874536510524,0.0,0.0,0.0,0.0,0.0,0.0,0.12000109607897137,0.0014540074832333767,0.0021461285768673895,0.0,0.58,0.92,0.0,0.0,0.0,8.540685268019615,8.540685268019615,6.999999999999999,6.999999999999999,6.999999999999999,6.999999999999999,7.556514640530597,7.556514640530597,1.1193094629553235,1.1193094629553235,1.288741903583399,1.288741903583399,1.29071834419991,1.29071834419991,1.1215845148109567,1.1215845148109567,0.0,0.0,0.0,0.0,0.0,0.0
14.0,0.25999999999999995,0.17700182737051934,0.011982419121000195,0.248584164584025,0.17700653207190797,0.011876282178987079,0.24858416458402444,4.704701388635879e-06,-0.00010613694201311655,-5.551115123125783e-16,0.0001062411628092045,0.12000504985265319,0.001842006185147749,0.0024213988482352164,min_task,none,false,false,8.573810293020577,8.573810293020577,6.999999999999998,6.999999999999998,6.999999999999998,6.999999999999998,7.508485459557578,7.508485459557578,0.0,0.0,0.0,0.0,0.0,0.0,-0.014374114385892211,0.22567399949523115,0.012728127820119055,0.0,0.0,0.0,0.0,0.0,0.0,0.12000504985265319,0.001842006185147749,0.0024213988482352164,0.0,0.58,0.92,0.0,0.0,0.0,8.573810293020577,8.573810293020577,6.999999999999998,6.999999999999998,6.999999999999998,6.999999999999998,7.508485459557578,7.508485459557578,1.1190086798718553,1.1190086798718553,1.2884855956021317,1.2884855956021317,1.2909811393769492,1.2909811393769492,1.1218812761524182,1.1218812761524182,0.0,0.0,0.0,0.0,0.0,0.0
15.0,0.27999999999999997,0.17699997541317894,0.012448443771182746,0.24858416458402502,0.17699869556485065,0.012324442150130302,0.24858416458402444,-1.2798483282894235e-06,-0.00012400162105244417,-5.828670879282072e-16,0.00012400822567627275,0.1200056669156249,0.002294162860336891,0.002664715679573518,min_task,none,false,false,8.604210037291873,8.604210037291873,6.999999999999999,6.999999999999999,6.999999999999999,6.999999999999999,7.461017411938392,7.461017411938392,0.0,0.0,0.0,0.0,0.0,0.0,-0.017475250455567873,0.24118126539770904,-0.0043034083219460504,0.0,0.0,0.0,0.0,0.0,0.0,0.1200056669156249,0.002294162860336891,0.002664715679573518,0.0,0.58,0.92,0.0,0.0,0.0,8.604210037291873,8.604210037291873,6.999999999999999,6.999999999999999,6.999999999999999,6.999999999999999,7.461017411938392,7.461017411938392,1.1186620635426678,1.1186620635426678,1.2881850284758887,1.2881850284758887,1.2912833517721498,1.2912833517721498,1.1222285147794238,1.1222285147794238,0.0,0.0,0.0,0.0,0.0,0.0
16.0,0.3,0.17699427769737164,0.012980594595523537,0.248584164584025,0.17698770700719088,0.012835858980831664,0.24858416458402444,-6.570690180757177e-06,-0.00014473561469187206,-5.551115123125783e-16,0.00014488468562855617,0.12000209418056754,0.0028143937359282997,0.0028738623687159814,min_task,none,false,false,8.631648761149602,8.631648761149602,6.999999999999999,6.999999999999999,6.999999999999999,6.999999999999999,7.414012024917013,7.414012024917013,0.0,0.0,0.0,0.0,0.0,0.0,-0.021012433964127015,0.25572672870030866,-0.018017321834260542,0.0,0.0,0.0,0.0,0.0,0.0,0.12000209418056754,0.0028143937359282997,0.0028738623687159814,0.0,0.58,0.92,0.0,0.0,0.0,8.631648761149602,8.631648761149602,6.999999999999999,6.999999999999999,6.999999999999999,6.999999999999999,7.414012024917013,7.414012024917013,1.1182672691603037,1.1182672691603037,1.2878370432316912,1.2878370432316912,1.2916269264040374,1.2916269264040374,1.1226297485669257,1.1226297485669257,0.0,0.0,0.0,0.0,0.0,0.0
17.0,0.32,0.17698375475179873,0.013582456488036736,0.2485841645840246,0.17697266134762585,0.013413877963295332,0.24858416458402444,-1.1093404172879406e-05,-0.00016857852474140393,-1.6653345369377348e-16,0.0001689431342793515,0.11999334432774708,0.0034063205991605445,0.003048187744406745,min_task,none,false,false,8.655934920380814,8.655934920380814,6.999999999999999,6.999999999999999,6.999999999999999,6.999999999999999,7.367312272236995,7.367312272236995,0.0,0.0,0.0,0.0,0.0,0.0,-0.025045985315343102,0.26929002461705265,-0.028108628578289607,0.0,0.0,0.0,0.0,0.0,0.0,0.11999334432774708,0.0034063205991605445,0.003048187744406745,0.0,0.58,0.92,0.0,0.0,0.0,8.655934920380814,8.655934920380814,6.999999999999999,6.999999999999999,6.999999999999999,6.999999999999999,7.367312272236995,7.367312272236995,1.1178222475866004,1.1178222475866004,1.287438562625052,1.287438562625052,1.2920135483311321,1.2920135483311321,1.1230883908832383,1.1230883908832383,0.0,0.0,0.0,0.0,0.0,0.0
18.0,0.34,0.17696726102146831,0.01425740167672139,0.24858416458402463,0.17695248619336668,0.014061687834997253,0.24858416458402444,-1.4774828101637993e-05,-0.0001957138417241367,-1.942890293094024e-16,0.0001962707400196305,0.11997827902690085,0.004073269256451776,0.0031885031331981037,min_task,none,false,false,8.676915448252933,8.676915448252933,6.999999999999998,6.999999999999998,6.999999999999998,6.999999999999998,7.320709558405064,7.320709558405064,0.0,0.0,0.0,0.0,0.0,0.0,-0.02963812110782622,0.28187139127859245,-0.0344641770548484,0.0,0.0,0.0,0.0,0.0,0.0,0.11997827902690085,0.004073269256451776,0.0031885031331981037,0.0,0.58,0.92,0.0,0.0,0.0,8.676915448252933,8.676915448252933,6.999999999999998,6.999999999999998,6.999999999999998,6.999999999999998,7.320709558405064,7.320709558405064,1.1173252609726383,1.1173252609726383,1.286986581461707,1.286986581461707,1.2924446290034948,1.2924446290034948,1.1236077594005234,1.1236077594005234,0.0,0.0,0.0,0.0,0.0,0.0
19.0,0.36000000000000004,0.1769434694048478,0.015008584298926795,0.2485841645840246,0.17692592703544696,0.014782318510410487,0.24858416458402444,-1.7542369400824764e-05,-0.0002262657885163076,-1.6653345369377348e-16,0.00022694479896464125,0.11995559188934678,0.004818273302249748,0.0032969212178459786,min_task,none,false,false,8.69446927182131,8.69446927182131,7.0,7.0,7.0,7.0,7.273952809442014,7.273952809442014,0.0,0.0,0.0,0.0,0.0,0.0,-0.03485239870643063,0.29348833709816236,-0.03715188634644502,0.0,0.0,0.0,0.0,0.0,0.0,0.11995559188934678,0.004818273302249748,0.0032969212178459786,0.0,0.58,0.92,0.0,0.0,0.0,8.69446927182131,8.69446927182131,7.0,7.0,7.0,7.0,7.273952809442014,7.273952809442014,1.1167748954150318,1.1167748954150318,1.2864781534691792,1.2864781534691792,1.2929212947216953,1.2929212947216953,1.1241910878585595,1.1241910878585595,0.0,0.0,0.0,0.0,0.0,0.0
20.0,0.38000000000000006,0.1769108562040253,0.015838936645562816,0.2485841645840246,0.17689153291653337,0.015578637962079929,0.24858416458402444,-1.9323287491934682e-05,-0.00026029868348288743,-1.6653345369377348e-16,0.00026101493072699954,0.11992379132142625,0.005644082159245607,0.003376649086835622,min_task,none,false,false,8.70850030260225,8.70850030260225,7.000000000000001,7.000000000000001,7.000000000000001,7.000000000000001,7.226759266702086,7.226759266702086,0.0,0.0,0.0,0.0,0.0,0.0,-0.04075294907192407,0.30417181146935673,-0.036402230410802726,0.0,0.0,0.0,0.0,0.0,0.0,0.11992379132142625,0.005644082159245607,0.003376649086835622,0.0,0.58,0.92,0.0,0.0,0.0,8.70850030260225,8.70850030260225,7.000000000000001,7.000000000000001,7.000000000000001,7.000000000000001,7.226759266702086,7.226759266702086,1.1161700711446125,1.1161700711446125,1.285910375409145,1.285910375409145,1.2934443768893253,1.2934443768893253,1.1248415400582854,1.1248415400582854,0.0,0.0,0.0,0.0,0.0,0.0
21.0,0.4000000000000001,0.17686768656101112,0.016751166692929795,0.24858416458402485,0.176847642675659,0.016453348158265116,0.24858416458402444,-2.0043885352122315e-05,-0.0002978185346646789,-4.163336342344337e-16,0.00029849227281426497,0.11988118350015131,0.0065531722417967,0.003431748964321584,min_task,none,false,false,8.718930169954726,8.718930169954726,7.000000000000001,7.000000000000001,7.000000000000001,7.000000000000001,7.178826504472392,7.178826504472392,0.0,0.0,0.0,0.0,0.0,0.0,-0.04740354059497461,0.31396204241518555,-0.032583515301793486,0.0,0.0,0.0,0.0,0.0,0.0,0.11988118350015131,0.0065531722417967,0.003431748964321584,0.0,0.58,0.92,0.0,0.0,0.0,8.718930169954726,8.718930169954726,7.000000000000001,7.000000000000001,7.000000000000001,7.000000000000001,7.178826504472392,7.178826504472392,1.1155100507939189,1.1155100507939189,1.2852803692549926,1.2852803692549926,1.2940144037679957,1.2940144037679957,1.1255622252852318,1.1255622252852318,0.0,0.0,0.0,0.0,0.0,0.0
22.0,0.4200000000000001,0.17681200048367596,0.01774775650385144,0.2485841645840246,0.1767923719026108,0.017408979967568034,0.24858416458402444,-1.9628581065161965e-05,-0.00033877653628340554,-1.6653345369377348e-16,0.000339344696040491,0.11982585572964428,0.007547760033102845,0.0034668805446379887,min_task,none,false,false,8.725690979142845,8.725690979142845,6.999999999999998,6.999999999999998,6.999999999999998,6.999999999999998,7.129845149905484,7.129845149905484,0.0,0.0,0.0,0.0,0.0,0.0,-0.054866522017757414,0.3229042170536579,-0.02617266716858536,0.0,0.0,0.0,0.0,0.0,0.0,0.11982585572964428,0.007547760033102845,0.0034668805446379887,0.0,0.58,0.92,0.0,0.0,0.0,8.725690979142845,8.725690979142845,6.999999999999998,6.999999999999998,6.999999999999998,6.999999999999998,7.129845149905484,7.129845149905484,1.1147944463132098,1.1147944463132098,1.2845852633432302,1.2845852633432302,1.2946315934597552,1.2946315934597552,1.126356214310697,1.126356214310697,0.0,0.0,0.0,0.0,0.0,0.0
23.0,0.4400000000000001,0.1767415995924213,0.018830961052708154,0.2485841645840246,0.17672360073400306,0.0184478869459482,0.24858416458402444,-1.7998858418244446e-05,-0.00038307410675995565,-1.6653345369377348e-16,0.0003834967146851429,0.11975566046182357,0.008629815855498855,0.003487038576701213,min_task,none,false,false,8.728718376842071,8.728718376842071,7.0,7.0,7.0,7.0,7.079511774771861,7.079511774771861,0.0,0.0,0.0,0.0,0.0,0.0,-0.0632016939861161,0.33104418300244526,-0.017723327149076512,0.0,0.0,0.0,0.0,0.0,0.0,0.11975566046182357,0.008629815855498855,0.003487038576701213,0.0,0.58,0.92,0.0,0.0,0.0,8.728718376842071,8.728718376842071,7.0,7.0,7.0,7.0,7.079511774771861,7.079511774771861,1.1140232250999305,1.1140232250999305,1.2838221734400679,1.2838221734400679,1.2952958478517844,1.2952958478517844,1.1272265550934044,1.1272265550934044,0.0,0.0,0.0,0.0,0.0,0.0
24.0,0.46000000000000013,0.1766540347424056,0.020002807014752308,0.248584164584025,0.17663896262330653,0.019572237928324354,0.24858416458402444,-1.5072119099068804e-05,-0.0004305690864279538,-5.551115123125783e-16,0.0004308328062735465,0.11966820027698193,0.009801077151143225,0.003497298422299606,min_task,none,false,false,8.72794519567473,8.72794519567473,7.000000000000001,7.000000000000001,7.000000000000001,7.000000000000001,7.027541450353764,7.027541450353764,0.0,0.0,0.0,0.0,0.0,0.0,-0.07246515656257588,0.338424341781596,-0.007833036765279603,0.0,0.0,0.0,0.0,0.0,0.0,0.11966820027698193,0.009801077151143225,0.003497298422299606,0.0,0.58,0.92,0.0,0.0,0.0,8.72794519567473,8.72794519567473,7.000000000000001,7.000000000000001,7.000000000000001,7.000000000000001,7.027541450353764,7.027541450353764,1.1131967158754164,1.1131967158754164,1.2829881846478621,1.2829881846478621,1.2960067472649088,1.2960067472649088,1.128176287308843,1.128176287308843,0.0,0.0,0.0,0.0,0.0,0.0
25.0,0.48000000000000015,0.1765465950289425,0.021265087992578285,0.24858416458402485,0.17653583421818958,0.020784008355582816,0.24858416458402444,-1.0760810752907801e-05,-0.0004810796369954691,-4.163336342344337e-16,0.00048119997109284223,0.11956081259231277,0.011063067505643653,0.0035023983468847873,min_task,none,false,false,8.727410739833914,8.727410739833914,7.026157706598269,7.026157706598269,6.999999999999999,6.999999999999999,6.999999999999999,6.999999999999999,0.0,0.0,0.0,0.0,0.0,0.0,-0.08271702491493792,0.3451293260315711,0.0020212861875622944,0.0,0.0,0.0,0.0,0.0,0.0,0.11956081259231277,0.011063067505643653,0.0035023983468847873,0.0,0.58,0.92,0.0,0.0,0.0,8.727410739833914,8.727410739833914,7.026157706598269,7.026157706598269,6.999999999999999,6.999999999999999,6.999999999999999,6.999999999999999,1.1123156127755753,1.1123156127755753,1.2820803316922094,1.2820803316922094,1.2967635468293432,1.2967635468293432,1.1292084581235282,1.1292084581235282,0.0,0.0,0.0,0.0,0.0,0.0
26.0,0.5000000000000001,0.1764162973898521,0.02261936092049528,0.24858416458402477,0.17641132648035657,0.022084970278260944,0.24858416458402444,-4.970909495527476e-06,-0.0005343906422343343,-3.3306690738754696e-16,0.0005344137614703021,0.11943055568085688,0.012417112942406753,0.003506390416933737,min_task,none,false,false,8.727667681197323,8.727667681197323,7.081792004869396,7.081792004869396,6.999999999999999,6.999999999999999,6.999999999999999,6.999999999999999,0.0,0.0,0.0,0.0,0.0,0.0,-0.09400381459607454,0.3511945500797619,0.011164241434641165,0.0,0.0,0.0,0.0,0.0,0.0,0.11943055568085688,0.012417112942406753,0.003506390416933737,0.0,0.58,0.92,0.0,0.0,0.0,8.727667681197323,8.727667681197323,7.081792004869396,7.081792004869396,6.999999999999999,6.999999999999999,6.999999999999999,6.999999999999999,1.1113809796353191,1.1113809796353191,1.2810955812222429,1.2810955812222429,1.2975651735499298,1.2975651735499298,1.130326135802258,1.130326135802258,0.0,0.0,0.0,0.0,0.0,0.0
27.0,0.5200000000000001,0.17625987708831659,0.0240669483242971,0.24858416458402463,0.17626227718549997,0.023476680990443182,0.24858416458402444,2.400097183385963e-06,-0.0005902673338539187,-1.942890293094024e-16,0.0005902722133740527,0.11927419971336921,0.01386434100806935,0.003512696175730072,min_task,none,false,false,8.724388971010567,8.724388971010567,7.139693332536156,7.139693332536156,7.0,7.0,7.0,7.0,0.0,0.0,0.0,0.0,0.0,0.0,-0.10635379570230981,0.35657959328159244,0.020019788854189844,0.0,0.0,0.0,0.0,0.0,0.0,0.11927419971336921,0.01386434100806935,0.003512696175730072,0.0,0.58,0.92,0.0,0.0,0.0,8.724388971010567,8.724388971010567,7.139693332536156,7.139693332536156,7.0,7.0,7.0,7.0,1.1103942584123885,1.1103942584123885,1.2800308234524067,1.2800308234524067,1.298410221630879,1.298410221630879,1.1315324139248069,1.1315324139248069,0.0,0.0,0.0,0.0,0.0,0.0
28.0,0.5400000000000001,0.17607378070767998,0.025608935710157262,0.24858416458402469,0.17608524494385314,0.024960470261481144,0.24858416458402444,1.1464236173153175e-05,-0.0006484654486761179,-2.498001805406602e-16,0.0006485667790118091,0.11908822031970322,0.01540567499610168,0.003524162188392997,min_task,none,false,false,8.71747096077405,8.71747096077405,7.199943426089892,7.199943426089892,7.0,7.0,7.0,7.0,0.0,0.0,0.0,0.0,0.0,0.0,-0.11979593129047393,0.3612714331126341,0.02816789168542287,0.0,0.0,0.0,0.0,0.0,0.0,0.11908822031970322,0.01540567499610168,0.003524162188392997,0.0,0.58,0.92,0.0,0.0,0.0,8.71747096077405,8.71747096077405,7.199943426089892,7.199943426089892,7.0,7.0,7.0,7.0,1.1093572798494493,1.1093572798494493,1.2788828687425677,1.2788828687425677,1.2992969466410653,1.2992969466410653,1.132830410053749,1.132830410053749,0.0,0.0,0.0,0.0,0.0,0.0
29.0,0.5600000000000002,0.175854161245387,0.02724616207054344,0.24858416458402469,0.17587650488494871,0.026537426149001335,0.24858416458402444,2.2343639561717143e-05,-0.000708735921542105,-2.498001805406602e-16,0.0007090880373500887,0.11886879288951854,0.017041828908757835,0.0035429818600718663,min_task,none,false,false,8.706787584288445,8.706787584288445,7.262568485507823,7.262568485507823,7.000000000000001,7.000000000000001,7.000000000000001,7.000000000000001,0.0,0.0,0.0,0.0,0.0,0.0,-0.13435091651931486,0.3652427620508547,0.03525538397049532,0.0,0.0,0.0,0.0,0.0,0.0,0.11886879288951854,0.017041828908757835,0.0035429818600718663,0.0,0.58,0.92,0.0,0.0,0.0,8.706787584288445,8.706787584288445,7.262568485507823,7.262568485507823,7.000000000000001,7.000000000000001,7.000000000000001,7.000000000000001,1.108272275031869,1.108272275031869,1.277648446094468,1.277648446094468,1.3002232591871352,1.3002232591871352,1.1342232617645975,1.1342232617645975,0.0,0.0,0.0,0.0,0.0,0.0
30.0,0.5800000000000002,0.17559687522342954,0.028979208400686213,0.24858416458402463,0.17563204615333816,0.02820837939425577,0.24858416458402444,3.517092990862336e-05,-0.0007708290064304436,-1.942890293094024e-16,0.0007716309684461752,0.11861178926249089,0.018773298350369283,0.0035706537429424303,min_task,none,false,false,8.692189734431679,8.692189734431679,7.327535415076356,7.327535415076356,6.999999999999999,6.999999999999999,6.999999999999999,6.999999999999999,0.0,0.0,0.0,0.0,0.0,0.0,-0.1500304929306102,0.36845129458824966,0.04100689401857035,0.0,0.0,0.0,0.0,0.0,0.0,0.11861178926249089,0.018773298350369283,0.0035706537429424303,0.0,0.58,0.92,0.0,0.0,0.0,8.692189734431679,8.692189734431679,7.327535415076356,7.327535415076356,6.999999999999999,6.999999999999999,6.999999999999999,6.999999999999999,1.1071418879667565,1.1071418879667565,1.2763242055112638,1.2763242055112638,1.3011867184259809,1.3011867184259809,1.1357141183963542,1.1357141183963542,0.0,0.0,0.0,0.0,0.0,0.0
31.0,0.6000000000000002,0.17529748199743642,0.030808384086866935,0.24858416458402469,0.17534757136497184,0.029973886420150482,0.24858416458402444,5.0089367535421925e-05,-0.0008344976667164529,-2.498001805406602e-16,0.0008359995816358418,0.11831277697745719,0.020600347266954495,0.0036079753801406813,min_task,none,false,false,8.673505898837018,8.673505898837018,7.394749489190668,7.394749489190668,7.0,7.0,7.0,7.0,0.0,0.0,0.0,0.0,0.0,0.0,-0.16683683928957743,0.3708396431428922,0.04523133793283857,0.0,0.0,0.0,0.0,0.0,0.0,0.11831277697745719,0.020600347266954495,0.0036079753801406813,0.0,0.58,0.92,0.0,0.0,0.0,8.673505898837018,8.673505898837018,7.394749489190668,7.394749489190668,7.0,7.0,7.0,7.0,1.1059691891288772,1.1059691891288772,1.2749067243665408,1.2749067243665408,1.302184525398847,1.302184525398847,1.1373061283821448,1.1373061283821448,0.0,0.0,0.0,0.0,0.0,0.0
32.0,0.6200000000000002,0.1749512454421971,0.03273371109583668,0.24858416458402458,0.1750184981764173,0.03183421097318622,0.24858416458402444,6.725273422020228e-05,-0.0008995001226504568,-1.3877787807814457e-16,0.0009020107543196367,0.11796702123083605,0.0225229906041152,0.00365507017741099,min_task,none,false,false,8.650544000407077,8.650544000407077,7.46405338170797,7.46405338170797,7.000000000000002,7.000000000000002,7.000000000000002,7.000000000000002,0.0,0.0,0.0,0.0,0.0,0.0,-0.18476203615079964,0.37233573765003203,0.04782403255505209,0.0,0.0,0.0,0.0,0.0,0.0,0.11796702123083605,0.0225229906041152,0.00365507017741099,0.0,0.58,0.92,0.0,0.0,0.0,8.650544000407077,8.650544000407077,7.46405338170797,7.46405338170797,7.000000000000002,7.000000000000002,7.000000000000002,7.000000000000002,1.1047576898367608,1.1047576898367608,1.2733925178343344,1.2733925178343344,1.3032135162236769,1.3032135162236769,1.1390024221418806,1.1390024221418806,0.0,0.0,0.0,0.0,0.0,0.0
33.0,0.6400000000000002,0.17455313818544227,0.03475490596537091,0.24858416458402488,0.1746399631208255,0.03378930447297854,0.24858416458402444,8.682493538322844e-05,-0.0009656014923923734,-4.440892098500626e-16,0.0009694971952072273,0.1175694896765583,0.02454097310154766,0.003711443469710475,min_task,none,false,false,8.623094348155266,8.623094348155266,7.535227454374645,7.535227454374645,6.999999999999998,6.999999999999998,6.999999999999998,6.999999999999998,0.0,0.0,0.0,0.0,0.0,0.0,-0.20378759938744748,0.37285374570144036,0.04876466262313349,0.0,0.0,0.0,0.0,0.0,0.0,0.1175694896765583,0.02454097310154766,0.003711443469710475,0.0,0.58,0.92,0.0,0.0,0.0,8.623094348155266,8.623094348155266,7.535227454374645,7.535227454374645,6.999999999999998,6.999999999999998,6.999999999999998,6.999999999999998,1.1035113572420219,1.1035113572420219,1.2717780533473702,1.2717780533473702,1.3042701552374476,1.3042701552374476,1.140806090634696,1.140806090634696,0.0,0.0,0.0,0.0,0.0,0.0
34.0,0.6600000000000003,0.17409784855438068,0.03687135966706123,0.24858416458402466,0.17420682786525066,0.03583878515688403,0.24858416458402444,0.0001089793108699777,-0.0010325745101772005,-2.220446049250313e-16,0.0010383094958948324,0.11711486018297967,0.02665374457372783,0.0037760628988656396,min_task,none,false,false,8.590933570239008,8.590933570239008,7.607991166861387,7.607991166861387,7.000000000000001,7.000000000000001,7.000000000000001,7.000000000000001,0.0,0.0,0.0,0.0,0.0,0.0,-0.22388407685602124,0.3722954356510439,0.048111497382664306,0.0,0.0,0.0,0.0,0.0,0.0,0.11711486018297967,0.02665374457372783,0.0037760628988656396,0.0,0.58,0.92,0.0,0.0,0.0,8.590933570239008,8.590933570239008,7.607991166861387,7.607991166861387,7.000000000000001,7.000000000000001,7.000000000000001,7.000000000000001,1.1022346296376766,1.1022346296376766,1.2700597689785804,1.2700597689785804,1.3053505282332782,1.3053505282332782,1.1427201597738088,1.1427201597738088,0.0,0.0,0.0,0.0,0.0,0.0
35.0,0.6800000000000003,0.17357979039093835,0.03908211548193059,0.24858416458402488,0.17371368804328235,0.03798191613241301,0.24858416458402444,0.00013389765234400608,-0.0011001993495175846,-4.440892098500626e-16,0.0011083172785724099,0.11659753164695041,0.02886043213896185,0.0038474574640793373,min_task,none,false,false,8.553829374786307,8.553829374786307,7.682005448185047,7.682005448185047,6.999999999999999,6.999999999999999,6.999999999999999,6.999999999999999,0.0,0.0,0.0,0.0,0.0,0.0,-0.24501070213093304,0.3705519142654194,0.04599238506639417,0.0,0.0,0.0,0.0,0.0,0.0,0.11659753164695041,0.02886043213896185,0.0038474574640793373,0.0,0.58,0.92,0.0,0.0,0.0,8.553829374786307,8.553829374786307,7.682005448185047,7.682005448185047,6.999999999999999,6.999999999999999,6.999999999999999,6.999999999999999,1.1009324317180906,1.1009324317180906,1.2682340955819371,1.2682340955819371,1.306450335985458,1.306450335985458,1.144747560997048,1.144747560997048,0.0,0.0,0.0,0.0,0.0,0.0
36.0,0.7000000000000003,0.1729931158818745,0.041385845095533,0.24858416458402477,0.17315488481464483,0.04021758247639842,0.24858416458402444,0.00016176893277033977,-0.0011682626191345802,-3.3306690738754696e-16,0.0011794094856651118,0.11601163795136361,0.031159809950599002,0.003923829160727041,min_task,none,false,false,8.511545966394158,8.511545966394158,7.756875855544531,7.756875855544531,6.999999999999997,6.999999999999997,6.999999999999997,6.999999999999997,0.0,0.0,0.0,0.0,0.0,0.0,-0.2671150993708883,0.3675056632927453,0.04259315779746827,0.0,0.0,0.0,0.0,0.0,0.0,0.11601163795136361,0.031159809950599002,0.003923829160727041,0.0,0.58,0.92,0.0,0.0,0.0,8.511545966394158,8.511545966394158,7.756875855544531,7.756875855544531,6.999999999999997,6.999999999999997,6.999999999999997,6.999999999999997,1.0996101893552621,1.0996101893552621,1.2662974824831865,1.2662974824831865,1.3075648882973392,1.3075648882973392,1.1468910983605602,1.1468910983605602,0.0,0.0,0.0,0.0,0.0,0.0
37.0,0.7200000000000003,0.17233173153884468,0.04378082318041948,0.24858416458402466,0.1725245192991495,0.04254426754712687,0.24858416458402444,0.00019278776030481892,-0.001236555633292613,-2.220446049250313e-16,0.0012514938892184187,0.11535106513994868,0.03355026705338298,0.004003170982992919,min_task,none,false,false,8.46384993658097,8.46384993658097,7.832156342046047,7.832156342046047,7.000000000000001,7.000000000000001,7.000000000000001,7.000000000000001,0.0,0.0,0.0,0.0,0.0,0.0,-0.29013303400996615,0.3630327956962864,0.03814415322886365,0.0,0.0,0.0,0.0,0.0,0.0,0.11535106513994868,0.03355026705338298,0.004003170982992919,0.0,0.58,0.92,0.0,0.0,0.0,8.46384993658097,8.46384993658097,7.832156342046047,7.832156342046047,7.000000000000001,7.000000000000001,7.000000000000001,7.000000000000001,1.098273843394727,1.098273843394727,1.2642464264791664,1.2642464264791664,1.308689098841063,1.308689098841063,1.1491534125803728,1.1491534125803728,0.0,0.0,0.0,0.0,0.0,0.0
38.0,0.7400000000000003,0.1715893174509186,0.0462649007890207,0.24858416458402485,0.1718164700258344,0.0449600287035968,0.24858416458402444,0.00022715257491578988,-0.0013048720854239027,-4.163336342344337e-16,0.0013244959235910838,0.11460947187158398,0.03602977403426542,0.004083385219255787,min_task,none,false,false,8.410516445194851,8.410516445194851,7.907353458346322,7.907353458346322,6.999999999999999,6.999999999999999,6.999999999999999,6.999999999999999,0.0,0.0,0.0,0.0,0.0,0.0,-0.31398820483499057,0.35700545207656437,0.03290560129846163,0.0,0.0,0.0,0.0,0.0,0.0,0.11460947187158398,0.03602977403426542,0.004083385219255787,0.0,0.58,0.92,0.0,0.0,0.0,8.410516445194851,8.410516445194851,7.907353458346322,7.907353458346322,6.999999999999999,6.999999999999999,6.999999999999999,6.999999999999999,1.0969298619208194,1.0969298619208194,1.26207750388563,1.26207750388563,1.3098174810837835,1.3098174810837835,1.1515369424869153,1.1515369424869153,0.0,0.0,0.0,0.0,0.0,0.0
39.0,0.7600000000000003,0.17075934991778485,0.04883547792825728,0.2485841645840248,0.1710244135289909,0.04746247265449523,0.24858416458402444,0.00026506361120604005,-0.0013730052737620513,-3.608224830031759e-16,0.0013983569643563807,0.11378031320566952,0.038595849161054324,0.004162396391615644,min_task,none,false,false,8.351335516163864,8.351335516163864,7.9819308246686855,7.9819308246686855,7.000000000000001,7.000000000000001,7.000000000000001,7.000000000000001,0.0,0.0,0.0,0.0,0.0,0.0,-0.33859207418942705,0.3492942607967027,0.02715263402216445,0.0,0.0,0.0,0.0,0.0,0.0,0.11378031320566952,0.038595849161054324,0.004162396391615644,0.0,0.58,0.92,0.0,0.0,0.0,8.351335516163864,8.351335516163864,7.9819308246686855,7.9819308246686855,7.000000000000001,7.000000000000001,7.000000000000001,7.000000000000001,1.0955852503967742,1.0955852503967742,1.2597874053670688,1.2597874053670688,1.3109441456124464,1.3109441456124464,1.1540438843826601,1.1540438843826601,0.0,0.0,0.0,0.0,0.0,0.0
40.0,0.7800000000000004,0.16983512755572155,0.05148947572797472,0.2485841645840245,0.1701418482107756,0.0500487306880799,0.24858416458402444,0.0003067206550540491,-0.0014407450398948238,-5.551115123125783e-17,0.0014730321891317658,0.11285686775974205,0.04124552470541514,0.004238253848522272,min_task,none,false,false,8.286118284191824,8.286118284191824,8.055313728282561,8.055313728282561,6.999999999999999,6.999999999999999,6.999999999999999,6.999999999999999,0.0,0.0,0.0,0.0,0.0,0.0,-0.36384373454010116,0.339770791214288,0.021160653014992346,0.0,0.0,0.0,0.0,0.0,0.0,0.11285686775974205,0.04124552470541514,0.004238253848522272,0.0,0.58,0.92,0.0,0.0,0.0,8.286118284191824,8.286118284191824,8.055313728282561,8.055313728282561,6.999999999999999,6.999999999999999,6.999999999999999,6.999999999999999,1.0942475590515575,1.0942475590515575,1.2573729732866366,1.2573729732866366,1.3120627991786504,1.3120627991786504,1.1566761498047458,1.1566761498047458,0.0,0.0,0.0,0.0,0.0,0.0
41.0,0.8000000000000004,0.168809800950127,0.05422330864827701,0.24858416458402455,0.1691621215749663,0.05271543406258453,0.24858416458402444,0.0003523206248393085,-0.00150787458569248,-1.1102230246251565e-16,0.0015484881623262184,0.11183226827006595,0.04397531413113792,0.004309219869467384,min_task,none,false,false,8.214703048045303,8.214703048045303,8.1268937267411,8.1268937267411,7.000000000000001,7.000000000000001,7.000000000000001,7.000000000000001,0.0,0.0,0.0,0.0,0.0,0.0,-0.38962981150007525,0.3283099378625677,0.015191734297766886,0.0,0.0,0.0,0.0,0.0,0.0,0.11183226827006595,0.04397531413113792,0.004309219869467384,0.0,0.58,0.92,0.0,0.0,0.0,8.214703048045303,8.214703048045303,8.1268937267411,8.1268937267411,7.000000000000001,7.000000000000001,7.000000000000001,7.000000000000001,1.0929248868635355,1.0929248868635355,1.2548312413280904,1.2548312413280904,1.3131667457871972,1.3131667457871972,1.1594353221952547,1.1594353221952547,0.0,0.0,0.0,0.0,0.0,0.0
42.0,0.8200000000000004,0.16767640590782498,0.05703285719597699,0.24858416458402488,0.168078460917913,0.05545868986465751,0.24858416458402444,0.000402055010088026,-0.0015741673313194801,-4.440892098500626e-16,0.0016247002856312842,0.11069953557483787,0.04678118079703195,0.004373840133495507,min_task,none,false,false,8.136961009691566,8.136961009691566,8.196033168020483,8.196033168020483,7.0,7.0,7.0,7.0,0.0,0.0,0.0,0.0,0.0,0.0,-0.41582440564834333,0.314792183962217,0.009482665165548828,0.0,0.0,0.0,0.0,0.0,0.0,0.11069953557483787,0.04678118079703195,0.004373840133495507,0.0,0.58,0.92,0.0,0.0,0.0,8.136961009691566,8.136961009691566,8.196033168020483,8.196033168020483,7.0,7.0,7.0,7.0,1.0916258814820652,1.0916258814820652,1.2521594761623704,1.2521594761623704,1.314248890147225,1.314248890147225,1.1623226129743351,1.1623226129743351,0.0,0.0,0.0,0.0,0.0,0.0
43.0,0.8400000000000004,0.16642790033926375,0.0599134416378386,0.2485841645840246,0.16688400754065735,0.05827405767028052,0.24858416458402444,0.0004561072013936074,-0.0016393839675580765,-1.6653345369377348e-16,0.0017016502496839852,0.10945161602724673,0.049658508779602074,0.004430994484342264,min_task,none,false,false,8.05280160524611,8.05280160524611,8.262069573869068,8.262069573869068,7.0,7.0,7.0,7.0,0.0,0.0,0.0,0.0,0.0,0.0,-0.44228907811293144,0.2991057047081324,0.0042350973054026625,0.0,0.0,0.0,0.0,0.0,0.0,0.10945161602724673,0.049658508779602074,0.004430994484342264,0.0,0.58,0.92,0.0,0.0,0.0,8.05280160524611,8.05280160524611,8.262069573869068,8.262069573869068,7.0,7.0,7.0,7.0,1.090359734432412,1.090359734432412,1.2493552209561825,1.2493552209561825,1.3153017437937415,1.3153017437937415,1.1653388174981154,1.1653388174981154,0.0,0.0,0.0,0.0,0.0,0.0
44.0,0.8600000000000004,0.1650572047749702,0.06285979720842921,0.2485841645840249,0.16557185452039114,0.06115652736814731,0.24858416458402444,0.0005146497454209253,-0.0017032698402819,-4.718447854656915e-16,0.001779323610048423,0.10808142233121092,0.0526020763674172,0.004479927037376319,min_task,none,false,false,7.962177362096374,7.962177362096374,8.324319870536229,8.324319870536229,7.000000000000001,7.000000000000001,7.000000000000001,7.000000000000001,0.0,0.0,0.0,0.0,0.0,0.0,-0.4688728877967607,0.28114828376566225,-0.0003918304947937666,0.0,0.0,0.0,0.0,0.0,0.0,0.10808142233121092,0.0526020763674172,0.004479927037376319,0.0,0.58,0.92,0.0,0.0,0.0,7.962177362096374,7.962177362096374,8.324319870536229,8.324319870536229,7.000000000000001,7.000000000000001,7.000000000000001,7.000000000000001,1.0891361709673881,1.0891361709673881,1.246416340545572,1.246416340545572,1.3163174341703126,1.3163174341703126,1.1684842713666301,1.1684842713666301,0.0,0.0,0.0,0.0,0.0,0.0
45.0,0.8800000000000004,0.1635572464920252,0.06586605131378984,0.2485841645840246,0.16413508804979887,0.06410049852911673,0.24858416458402444,0.000577841557773684,-0.0017655527846731078,-1.6653345369377348e-16,0.0018577075930719784,0.10658187777538372,0.05560603272055687,0.004520255760644191,min_task,none,false,false,7.865088245029654,7.865088245029654,8.382084489670609,8.382084489670609,7.000000000000001,7.000000000000001,7.000000000000001,7.000000000000001,0.0,0.0,0.0,0.0,0.0,0.0,-0.49541249122058517,0.2608290296188443,-0.004286190842288987,0.0,0.0,0.0,0.0,0.0,0.0,0.10658187777538372,0.05560603272055687,0.004520255760644191,0.0,0.58,0.92,0.0,0.0,0.0,7.865088245029654,7.865088245029654,8.382084489670609,8.382084489670609,7.000000000000001,7.000000000000001,7.000000000000001,7.000000000000001,1.0879654339607467,1.0879654339607467,1.2433410681206427,1.2433410681206427,1.3172877169408008,1.3172877169408008,1.1717588075287177,1.1717588075287177,0.0,0.0,0.0,0.0,0.0,0.0
46.0,0.9000000000000005,0.16192100719471186,0.06892570322937888,0.24858416458402463,0.16256683231933522,0.06709976172657628,0.24858416458402444,0.000645825124623356,-0.0018259415028026027,-1.942890293094024e-16,0.0019367892149771489,0.10494596382019887,0.05866387812839924,0.004551962670929542,min_task,none,false,false,7.76158548125774,7.76158548125774,8.4346513990387,8.4346513990387,6.999999999999998,6.999999999999998,6.999999999999998,6.999999999999998,0.0,0.0,0.0,0.0,0.0,0.0,-0.5217323189673887,0.23806989108113857,-0.007385227730884134,0.0,0.0,0.0,0.0,0.0,0.0,0.10494596382019887,0.05866387812839924,0.004551962670929542,0.0,0.58,0.92,0.0,0.0,0.0,7.76158548125774,7.76158548125774,8.4346513990387,8.4346513990387,6.999999999999998,6.999999999999998,6.999999999999998,6.999999999999998,1.0868582612824935,1.0868582612824935,1.2401280532849885,1.2401280532849885,1.3182039917696542,1.3182039917696542,1.1751617146125213,1.1751617146125213,0.0,0.0,0.0,0.0,0.0,0.0
47.0,0.9200000000000005,0.1601415741587563,0.07203160678267038,0.24858416458402463,0.16086029788015546,0.07014748223080741,0.24858416458402444,0.0007187237213991671,-0.001884124551862973,-1.942890293094024e-16,0.0020165537718183258,0.10316677096757944,0.061768448240711295,0.004575366668732641,min_task,none,false,false,7.651774878363108,7.651774878363108,8.481300155981552,8.481300155981552,6.999999999999999,6.999999999999999,6.999999999999999,6.999999999999999,0.0,0.0,0.0,0.0,0.0,0.0,-0.5476448455378345,0.2128069827711129,-0.009674664507610136,0.0,0.0,0.0,0.0,0.0,0.0,0.10316677096757944,0.061768448240711295,0.004575366668732641,0.0,0.58,0.92,0.0,0.0,0.0,7.651774878363108,7.651774878363108,8.481300155981552,8.481300155981552,6.999999999999999,6.999999999999999,6.999999999999999,6.999999999999999,1.085825856154533,1.085825856154533,1.236776411362123,1.236776411362123,1.3190573217765558,1.3190573217765558,1.1786916968929129,1.1786916968929129,0.0,0.0,0.0,0.0,0.0,0.0
48.0,0.9400000000000005,0.15821219471055104,0.07517595649811218,0.24858416458402458,0.15900883338434807,0.07323618651516628,0.24858416458402444,0.0007966386737970343,-0.0019397699829458992,-1.3877787807814457e-16,0.0020969837298670277,0.10123755281283135,0.06491190259347335,0.004591081754999715,min_task,none,false,false,7.535819669206419,7.535819669206419,8.521306103159594,8.521306103159594,6.999999999999999,6.999999999999999,6.999999999999999,6.999999999999999,0.0,0.0,0.0,0.0,0.0,0.0,-0.5729509716346985,0.18499174090706566,-0.01118558109966679,0.0,0.0,0.0,0.0,0.0,0.0,0.10123755281283135,0.06491190259347335,0.004591081754999715,0.0,0.58,0.92,0.0,0.0,0.0,7.535819669206419,7.535819669206419,8.521306103159594,8.521306103159594,6.999999999999999,6.999999999999999,6.999999999999999,6.999999999999999,1.0848798500560743,1.0848798500560743,1.2332857738188039,1.2332857738188039,1.3198384568327957,1.3198384568327957,1.1823468362915424,1.1823468362915424,0.0,0.0,0.0,0.0,0.0,0.0
49.0,0.9600000000000005,0.15612633387140495,0.07835027766567751,0.24858416458402482,0.15700598055449455,0.0763577520225004,0.24858416458402444,0.0008796466830895966,-0.001992525643177104,-3.885780586188048e-16,0.002178058017085142,0.09915178314274249,0.06808571770444187,0.004599963899489833,min_task,none,false,false,7.413942932486459,7.413942932486459,8.553944844847086,8.553944844847086,6.999999999999997,6.999999999999997,6.999999999999997,6.999999999999997,0.0,0.0,0.0,0.0,0.0,0.0,-0.5974405394490985,0.15459193695002005,-0.011989197476937247,0.0,0.0,0.0,0.0,0.0,0.0,0.09915178314274249,0.06808571770444187,0.004599963899489833,0.0,0.58,0.92,0.0,0.0,0.0,7.413942932486459,7.413942932486459,8.553944844847086,8.553944844847086,6.999999999999997,6.999999999999997,6.999999999999997,6.999999999999997,1.084032257831585,1.084032257831585,1.2296563396599456,1.2296563396599456,1.3205378608242642,1.3205378608242642,1.186124556791517,1.186124556791517,0.0,0.0,0.0,0.0,0.0,0.0
50.0,0.9800000000000005,0.15387773495216484,0.08154542077462762,0.2485841645840247,0.1548455321866798,0.07950340064612689,0.24858416458402444,0.0009677972345149555,-0.0020420201285007294,-2.7755575615628914e-16,0.002259751688203138,0.09690321590277727,0.0712806849757042,0.00460305015000596,min_task,none,false,false,7.28642964615098,7.28642964615098,8.578497150686827,8.578497150686827,6.999999999999998,6.999999999999998,6.999999999999998,6.999999999999998,0.0,0.0,0.0,0.0,0.0,0.0,-0.6208930021062771,0.12159258094859471,-0.012189990986964603,0.0,0.0,0.0,0.0,0.0,0.0,0.09690321590277727,0.0712806849757042,0.00460305015000596,0.0,0.58,0.92,0.0,0.0,0.0,7.28642964615098,7.28642964615098,8.578497150686827,8.578497150686827,6.999999999999998,6.999999999999998,6.999999999999998,6.999999999999998,1.0832954247494333,1.0832954247494333,1.2258889276209581,1.2258889276209581,1.3211457429605258,1.3211457429605258,1.1900215916369383,1.1900215916369383,0.0,0.0,0.0,0.0,0.0,0.0
51.0,1.0000000000000004,0.1514604828356123,0.08475156073192346,0.2485841645840249,0.15252159294025736,0.08266369638032159,0.24858416458402444,0.0010611101046450466,-0.0020878643516018675,-4.718447854656915e-16,0.0023420359102434164,0.0944859478095392,0.0744869136121487,0.004601493679893445,min_task,none,false,false,7.153628432656821,7.153628432656821,8.594254431615813,8.594254431615813,6.999999999999999,6.999999999999999,6.999999999999999,6.999999999999999,0.0,0.0,0.0,0.0,0.0,0.0,-0.6430782679798444,0.08599674774584663,-0.011917636506474738,0.0,0.0,0.0,0.0,0.0,0.0,0.0944859478095392,0.0744869136121487,0.004601493679893445,0.0,0.58,0.92,0.0,0.0,0.0,7.153628432656821,7.153628432656821,8.594254431615813,8.594254431615813,6.999999999999999,6.999999999999999,6.999999999999999,6.999999999999999,1.0826819653662816,1.0826819653662816,1.2219850289408423,1.2219850289408423,1.321652093162381,1.321652093162381,1.1940339536773423,1.1940339536773423,0.0,0.0,0.0,0.0,0.0,0.0
52.0,1.0200000000000005,0.14886906963307484,0.08795820126032873,0.2485841645840246,0.1500286426144012,0.08582854759005305,0.24858416458402444,0.0011595729813263511,-0.0021296536702756774,-1.6653345369377348e-16,0.0024248781937121597,0.09189448333268957,0.07769383874575045,0.00459649837684503,min_task,none,false,false,7.015953049926324,7.015953049926324,8.600524919125805,8.600524919125805,7.000000000000001,7.000000000000001,7.000000000000001,7.000000000000001,0.0,0.0,0.0,0.0,0.0,0.0,-0.6637577390369985,0.047826357462013434,-0.011318288190254924,0.0,0.0,0.0,0.0,0.0,0.0,0.09189448333268957,0.07769383874575045,0.00459649837684503,0.0,0.58,0.92,0.0,0.0,0.0,7.015953049926324,7.015953049926324,8.600524919125805,8.600524919125805,7.000000000000001,7.000000000000001,7.000000000000001,7.000000000000001,1.0822046941704377,1.0822046941704377,1.2179468604439845,1.2179468604439845,1.3220467215131289,1.3220467215131289,1.1981569092079654,1.1981569092079654,0.0,0.0,0.0,0.0,0.0,0.0
53.0,1.0400000000000005,0.1460984745075618,0.09115415967887086,0.24858416458402496,0.1473616015563051,0.08898721433810965,0.24858416458402444,0.00126312704874329,-0.0021669453407612144,-5.273559366969494e-16,0.002508214913262751,0.08912380265046699,0.08089027207684144,0.004588162867573564,min_task,none,false,false,6.999999999999999,6.999999999999999,8.595381539446052,8.595381539446052,7.125648415670891,7.125648415670891,6.999999999999999,6.999999999999999,0.0,0.0,0.0,0.0,0.0,0.0,-0.6827380184160904,0.007414120372402441,-0.015656477878463203,0.0,0.0,0.0,0.0,0.0,0.0,0.08912380265046699,0.08089027207684144,0.004588162867573564,0.0,0.58,0.92,0.0,0.0,0.0,6.999999999999999,6.999999999999999,8.595381539446052,8.595381539446052,7.125648415670891,7.125648415670891,6.999999999999999,6.999999999999999,1.0818765210482648,1.0818765210482648,1.2137774164943504,1.2137774164943504,1.3223193262433002,1.3223193262433002,1.2023849593871059,1.2023849593871059,0.0,0.0,0.0,0.0,0.0,0.0
54.0,1.0600000000000005,0.14314423446546476,0.09432759156244187,0.24858416458402494,0.14451589778948398,0.09212832118933469,0.24858416458402444,0.0013716633240192233,-0.002199270373107187,-4.996003610813204e-16,0.0025919588053220466,0.08616943387888523,0.08406441856135566,0.0045756204498203015,min_task,none,false,false,7.000000000000002,7.000000000000002,8.581366843291036,8.581366843291036,7.2707785717524125,7.2707785717524125,7.000000000000002,7.000000000000002,0.0,0.0,0.0,0.0,0.0,0.0,-0.6997519607629638,-0.03537943419120557,-0.02058657456835942,0.0,0.0,0.0,0.0,0.0,0.0,0.08616943387888523,0.08406441856135566,0.0045756204498203015,0.0,0.58,0.92,0.0,0.0,0.0,7.000000000000002,7.000000000000002,8.581366843291036,8.581366843291036,7.2707785717524125,7.2707785717524125,7.000000000000002,7.000000000000002,1.0817103611457226,1.0817103611457226,1.2094805225797478,1.2094805225797478,1.3224595464344864,1.3224595464344864,1.2067118226262379,1.2067118226262379,0.0,0.0,0.0,0.0,0.0,0.0
55.0,1.0800000000000005,0.14000249448251967,0.09746604982104376,0.2485841645840249,0.141487535393733,0.09523987588597901,0.24858416458402444,0.00148504091121332,-0.002226173935064746,-4.718447854656915e-16,0.0026760412734371164,0.0830275137330473,0.0872038770234347,0.004558065287092157,min_task,none,false,false,6.999999999999999,6.999999999999999,8.558232901608653,8.558232901608653,7.418917109458324,7.418917109458324,6.999999999999999,6.999999999999999,0.0,0.0,0.0,0.0,0.0,0.0,-0.7145318926369555,-0.0805383944089249,-0.025333304267988434,0.0,0.0,0.0,0.0,0.0,0.0,0.0830275137330473,0.0872038770234347,0.004558065287092157,0.0,0.58,0.92,0.0,0.0,0.0,6.999999999999999,6.999999999999999,8.558232901608653,8.558232901608653,7.418917109458324,7.418917109458324,6.999999999999999,6.999999999999999,1.0817190638098186,1.0817190638098186,1.2050608737490704,1.2050608737490704,1.3224569939901805,1.3224569939901805,1.2111304324977807,1.2111304324977807,0.0,0.0,0.0,0.0,0.0,0.0
56.0,1.1000000000000005,0.13667007723764368,0.10055651201026393,0.2485841645840248,0.13827316361176206,0.09830929425486369,0.24858416458402444,0.0016030863741183787,-0.002247217755400238,-3.608224830031759e-16,0.0027604118466399347,0.07969485881321892,0.09029565885763541,0.004534903502557603,min_task,none,false,false,7.0,7.0,8.525470760109057,8.525470760109057,7.569432872974923,7.569432872974923,7.0,7.0,0.0,0.0,0.0,0.0,0.0,0.0,-0.7268107070726428,-0.12799275200717994,-0.02977891698306893,0.0,0.0,0.0,0.0,0.0,0.0,0.07969485881321892,0.09029565885763541,0.004534903502557603,0.0,0.58,0.92,0.0,0.0,0.0,7.0,7.0,8.525470760109057,8.525470760109057,7.569432872974923,7.569432872974923,7.0,7.0,1.0819153218850237,1.0819153218850237,1.2005240884554595,1.2005240884554595,1.322301300203071,1.322301300203071,1.2156329237423995,1.2156329237423995,0.0,0.0,0.0,0.0,0.0,0.0
57.0,1.1200000000000006,0.13314455557797927,0.10358540955929099,0.2485841645840246,0.13487014610226483,0.10132343166586523,0.24858416458402444,0.0017255905242855585,-0.0022619778934257623,-1.6653345369377348e-16,0.0028450319238720254,0.07616903823223835,0.09332621635924315,0.004505768937178087,min_task,none,false,false,7.000000000000001,7.000000000000001,8.482626395363777,8.482626395363777,7.721613987934169,7.721613987934169,7.000000000000001,7.000000000000001,0.0,0.0,0.0,0.0,0.0,0.0,-0.7363226280345273,-0.17764304544405465,-0.033825033970230865,0.0,0.0,0.0,0.0,0.0,0.0,0.07616903823223835,0.09332621635924315,0.004505768937178087,0.0,0.58,0.92,0.0,0.0,0.0,7.000000000000001,7.000000000000001,8.482626395363777,8.482626395363777,7.721613987934169,7.721613987934169,7.000000000000001,7.000000000000001,1.0823115718032412,1.0823115718032412,1.195876761792705,1.195876761792705,1.3219821681031598,1.3219821681031598,1.2202106219198912,1.2202106219198912,0.0,0.0,0.0,0.0,0.0,0.0
58.0,1.1400000000000006,0.1294243241306529,0.10653866472435661,0.24858416458402455,0.13127662970621506,0.10426862131204656,0.24858416458402444,0.001852305575562152,-0.0022700434123100466,-1.1102230246251565e-16,0.002929869116365247,0.07244844528534504,0.09628147935333332,0.004470528841990032,min_task,none,false,false,6.999999999999999,6.999999999999999,8.42930670091179,8.42930670091179,7.8746685077983125,7.8746685077983125,6.999999999999999,6.999999999999999,0.0,0.0,0.0,0.0,0.0,0.0,-0.7428056691926643,-0.2293593960654019,-0.03739612465221948,0.0,0.0,0.0,0.0,0.0,0.0,0.07244844528534504,0.09628147935333332,0.004470528841990032,0.0,0.58,0.92,0.0,0.0,0.0,6.999999999999999,6.999999999999999,8.42930670091179,8.42930670091179,7.8746685077983125,7.8746685077983125,6.999999999999999,6.999999999999999,1.0829198872638874,1.0829198872638874,1.1911265146748207,1.1911265146748207,1.321489428677632,1.321489428677632,1.2248540396214478,1.2248540396214478,0.0,0.0,0.0,0.0,0.0,0.0
59.0,1.1600000000000006,0.12550866934908006,0.10940173543978937,0.24858416458402469,0.1274916120435643,0.10713071952454659,0.24858416458402444,0.0019829426944842354,-0.0022710159152427856,-2.498001805406602e-16,0.0030148922065132656,0.06853236745103423,0.09914690028979953,0.0044292795913379165,min_task,none,false,false,7.0,7.0,8.365185135240484,8.365185135240484,8.027726154977437,8.027726154977437,7.0,7.0,0.0,0.0,0.0,0.0,0.0,0.0,-0.7460042444433139,-0.2829808714208525,-0.0404417854297005,0.0,0.0,0.0,0.0,0.0,0.0,0.06853236745103423,0.09914690028979953,0.0044292795913379165,0.0,0.58,0.92,0.0,0.0,0.0,7.0,7.0,8.365185135240484,8.365185135240484,8.027726154977437,8.027726154977437,7.0,7.0,1.08375186741912,1.08375186741912,1.1862820381657442,1.1862820381657442,1.3208131008617316,1.3208131008617316,1.2295528794922732,1.2295528794922732,0.0,0.0,0.0,0.0,0.0,0.0
60.0,1.1800000000000006,0.12139783723829212,0.11215966816721631,0.24858416458402463,0.12351500721237119,0.10989515827021523,0.24858416458402444,0.0021171699740790695,-0.0022645098970010824,-1.942890293094024e-16,0.0031000667368232286,0.06442105397320128,0.1019075078732296,0.004382332972928076,min_task,none,false,false,6.999999999999999,6.999999999999999,8.290006983547165,8.290006983547165,8.179841234594095,8.179841234594095,6.999999999999999,6.999999999999999,0.0,0.0,0.0,0.0,0.0,0.0,-0.745671913086998,-0.3383152043788478,-0.042937731427893304,0.0,0.0,0.0,0.0,0.0,0.0,0.06442105397320128,0.1019075078732296,0.004382332972928076,0.0,0.58,0.92,0.0,0.0,0.0,6.999999999999999,6.999999999999999,8.290006983547165,8.290006983547165,8.179841234594095,8.179841234594095,6.999999999999999,6.999999999999999,1.084818520672155,1.084818520672155,1.1813531321069817,1.1813531321069817,1.3199434551546168,1.3199434551546168,1.234296044253507,1.234296044253507,0.0,0.0,0.0,0.0,0.0,0.0
61.0,1.2000000000000006,0.1170930979663131,0.11479715876335062,0.2485841645840249,0.11934770882285681,0.11254700490721763,0.24858416458402444,0.002254610856543701,-0.0022501538561329887,-4.718447854656915e-16,0.0031853512350626077,0.060115780242015755,0.10454796919172166,0.004330194044513176,min_task,none,false,false,7.000000000000001,7.000000000000001,8.203594195338741,8.203594195338741,8.329996783193934,8.329996783193934,7.000000000000001,7.000000000000001,0.0,0.0,0.0,0.0,0.0,0.0,-0.7415742390437542,-0.39513889080087267,-0.044885477601130215,0.0,0.0,0.0,0.0,0.0,0.0,0.060115780242015755,0.10454796919172166,0.004330194044513176,0.0,0.58,0.92,0.0,0.0,0.0,7.000000000000001,7.000000000000001,8.203594195338741,8.203594195338741,8.329996783193934,8.329996783193934,7.000000000000001,7.000000000000001,1.0861301453847134,1.0861301453847134,1.176350737131661,1.176350737131661,1.318871080663201,1.318871080663201,1.2390716538493387,1.2390716538493387,0.0,0.0,0.0,0.0,0.0,0.0
62.0,1.2200000000000006,0.11259680653831264,0.11729862129887522,0.248584164584025,0.11499164956612165,0.11507102919384242,0.24858416458402444,0.0023948430278090127,-0.0022275921050328024,-5.551115123125783e-16,0.0032706940722497897,0.05561890816466564,0.1070526601993454,0.0042735319239183105,min_task,none,false,false,6.999999999999998,6.999999999999998,8.10584977056697,8.10584977056697,8.477109997330224,8.477109997330224,6.999999999999998,6.999999999999998,0.0,0.0,0.0,0.0,0.0,0.0,-0.733491740047633,-0.4531976818963797,-0.046310753691783516,0.0,0.0,0.0,0.0,0.0,0.0,0.05561890816466564,0.1070526601993454,0.0042735319239183105,0.0,0.58,0.92,0.0,0.0,0.0,6.999999999999998,6.999999999999998,8.10584977056697,8.10584977056697,8.477109997330224,8.477109997330224,6.999999999999998,6.999999999999998,1.0876962089657431,1.0876962089657431,1.17128695909607,1.17128695909607,1.317586955321093,1.317586955321093,1.2438670697796608,1.2438670697796608,0.0,0.0,0.0,0.0,0.0,0.0
63.0,1.2400000000000007,0.10791245868830474,0.11964826466602504,0.2485841645840246,0.11044985649241254,0.11745177745913936,0.24858416458402444,0.002537397804107805,-0.002196487206885686,-1.6653345369377348e-16,0.0033560309394139367,0.05093394169831034,0.10940574429496117,0.004213145179499341,min_task,none,false,false,6.999999999999998,6.999999999999998,7.996761677076344,7.996761677076344,8.620038968481962,8.620038968481962,6.999999999999998,6.999999999999998,0.0,0.0,0.0,0.0,0.0,0.0,-0.721222899412129,-0.5122074803195303,-0.047260764708677704,0.0,0.0,0.0,0.0,0.0,0.0,0.05093394169831034,0.10940574429496117,0.004213145179499341,0.0,0.58,0.92,0.0,0.0,0.0,6.999999999999998,6.999999999999998,7.996761677076344,7.996761677076344,8.620038968481962,8.620038968481962,6.999999999999998,6.999999999999998,1.0895252269700857,1.0895252269700857,1.1661750849070858,1.1661750849070858,1.3160825189701189,1.3160825189701189,1.2486689266114146,1.2486689266114146,0.0,0.0,0.0,0.0,0.0,0.0
64.0,1.2600000000000007,0.10304474113067622,0.12183017671179233,0.2485841645840248,0.1057265011580155,0.1196736537515317,0.24858416458402444,0.002681760027339289,-0.002156522960260629,-3.608224830031759e-16,0.0034412829180940777,0.04606557670722131,0.11159125862756028,0.00414992369612038,min_task,none,false,false,7.0,7.0,7.876406290779213,7.876406290779213,8.757590731728396,8.757590731728396,7.0,7.0,0.0,0.0,0.0,0.0,0.0,0.0,-0.7045872096903414,-0.5718556418924151,-0.047800470961478325,0.0,0.0,0.0,0.0,0.0,0.0,0.04606557670722131,0.11159125862756028,0.00414992369612038,0.0,0.58,0.92,0.0,0.0,0.0,7.0,7.0,7.876406290779213,7.876406290779213,8.757590731728396,8.757590731728396,7.0,7.0,1.0916246439649602,1.0916246439649602,1.161029588679317,1.161029588679317,1.3143497489300398,1.3143497489300398,1.2534631705938635,1.2534631705938635,0.0,0.0,0.0,0.0,0.0,0.0
65.0,1.2800000000000007,0.09799957531181469,0.12382841552852741,0.24858416458402502,0.10082694379411315,0.12172100768414561,0.24858416458402444,0.002827368482298462,-0.002107407844381806,-5.828670879282072e-16,0.003526355109352528,0.04101974430507531,0.11359320764719241,0.004084808996196688,min_task,none,false,false,7.0,7.0,7.744951356378754,7.744951356378754,8.888530616576466,8.888530616576466,7.0,7.0,0.0,0.0,0.0,0.0,0.0,0.0,-0.683428214385232,-0.6318026778730429,-0.048008115361687566,0.0,0.0,0.0,0.0,0.0,0.0,0.04101974430507531,0.11359320764719241,0.004084808996196688,0.0,0.58,0.92,0.0,0.0,0.0,7.0,7.0,7.744951356378754,7.744951356378754,8.888530616576466,8.888530616576466,7.0,7.0,1.0940007180166744,1.0940007180166744,1.1558661271232062,1.1558661271232062,1.3123812376198714,1.3123812376198714,1.25823510523545,1.25823510523545,0.0,0.0,0.0,0.0,0.0,0.0
66.0,1.3000000000000007,0.09278415381147023,0.12562710742572009,0.2485841645840246,0.09575777065624967,0.1235782285943743,0.24858416458402444,0.002973616844779439,-0.002048878831345788,-1.6653345369377348e-16,0.0036111357777149434,0.03580364685255897,0.11539566331278074,0.004018754990713321,min_task,none,false,false,6.999999999999999,6.999999999999999,7.6026584700272535,7.6026584700272535,9.011592869796154,9.011592869796154,6.999999999999999,6.999999999999999,0.0,0.0,0.0,0.0,0.0,0.0,-0.6576165108265738,-0.6916843462291696,-0.047970267031997055,0.0,0.0,0.0,0.0,0.0,0.0,0.03580364685255897,0.11539566331278074,0.004018754990713321,0.0,0.58,0.92,0.0,0.0,0.0,6.999999999999999,6.999999999999999,7.6026584700272535,7.6026584700272535,9.011592869796154,9.011592869796154,6.999999999999999,6.999999999999999,1.0966584107032793,1.0966584107032793,1.1507015230492428,1.1507015230492428,1.3101702717335637,1.3101702717335637,1.2629694436338497,1.2629694436338497,0.0,0.0,0.0,0.0,0.0,0.0
67.0,1.3200000000000007,0.08740696856501051,0.12721055099755935,0.2485841645840246,0.09052682373024507,0.12522984553142047,0.24858416458402444,0.003119855165234553,-0.0019807054661388768,-1.6653345369377348e-16,0.0036954959607112476,0.03042578580064062,0.11698287126537095,0.003952691022044186,min_task,none,false,false,7.0,7.0,7.449885085748963,7.449885085748963,9.12549250233384,9.12549250233384,7.0,7.0,0.0,0.0,0.0,0.0,0.0,0.0,-0.6270526744804814,-0.7511141146555216,-0.04777667613728315,0.0,0.0,0.0,0.0,0.0,0.0,0.03042578580064062,0.11698287126537095,0.003952691022044186,0.0,0.58,0.92,0.0,0.0,0.0,7.0,7.0,7.449885085748963,7.449885085748963,9.12549250233384,9.12549250233384,7.0,7.0,1.0996012845656602,1.0996012845656602,1.1455537358786363,1.1455537358786363,1.3077109124157706,1.3077109124157706,1.267650367287541,1.267650367287541,0.0,0.0,0.0,0.0,0.0,0.0
68.0,1.3400000000000007,0.08187783011200378,0.12856332659237155,0.2485841645840248,0.0851432220001883,0.12666063248066667,0.24858416458402444,0.0032653918881845184,-0.001902694111704878,-3.608224830031759e-16,0.0037792894922376173,0.024895980601782233,0.11833936217903385,0.0038874888459504466,min_task,none,false,false,7.000000000000002,7.000000000000002,7.287086044617155,7.287086044617155,9.228938295520832,9.228938295520832,7.000000000000002,7.000000000000002,0.0,0.0,0.0,0.0,0.0,0.0,-0.591670062364632,-0.8096859732844599,-0.04751524303000618,0.0,0.0,0.0,0.0,0.0,0.0,0.024895980601782233,0.11833936217903385,0.0038874888459504466,0.0,0.58,0.92,0.0,0.0,0.0,7.000000000000002,7.000000000000002,7.287086044617155,7.287086044617155,9.228938295520832,9.228938295520832,7.000000000000002,7.000000000000002,1.102831409866312,1.102831409866312,1.1404418180824674,1.1404418180824674,1.3049980758318036,1.3049980758318036,1.2722615910579016,1.2722615910579016,0.0,0.0,0.0,0.0,0.0,0.0
69.0,1.3600000000000008,0.07620787712405759,0.12967041038404536,0.24858416458402469,0.07961737352706096,0.12785571812926855,0.24858416458402444,0.0034094964030033648,-0.0018146922547768174,-2.498001805406602e-16,0.003862353389015543,0.019225377955608997,0.11945006741286847,0.003823934897689934,min_task,none,false,false,6.999999999999999,6.999999999999999,7.114814619814211,7.114814619814211,9.320646885708568,9.320646885708568,6.999999999999999,6.999999999999999,0.0,0.0,0.0,0.0,0.0,0.0,-0.5514374510096733,-0.8669775712582088,-0.04726739411015048,0.0,0.0,0.0,0.0,0.0,0.0,0.019225377955608997,0.11945006741286847,0.003823934897689934,0.0,0.58,0.92,0.0,0.0,0.0,6.999999999999999,6.999999999999999,7.114814619814211,7.114814619814211,9.320646885708568,9.320646885708568,6.999999999999999,6.999999999999999,1.1063492824301926,1.1063492824301926,1.1353858565345496,1.1353858565345496,1.302027613481111,1.302027613481111,1.2767864338966117,1.2767864338966117,0.0,0.0,0.0,0.0,0.0,0.0
70.0,1.3800000000000008,0.07040958027885183,0.1305172892774325,0.2485841645840249,0.0739609776429363,0.12880069937503807,0.24858416458402444,0.0035513973640844687,-0.0017165899023944275,-4.718447854656915e-16,0.003944503027078142,0.013426450839560664,0.12030046094199905,0.003762256025118028,min_task,none,false,false,6.999999999999999,6.999999999999999,6.999999999999999,6.999999999999999,9.38826938843742,9.38826938843742,7.066472815863179,7.066472815863179,0.0,0.0,0.0,0.0,0.0,0.0,-0.506383388199925,-0.9224314047031481,-0.049249415786246975,0.0,0.0,0.0,0.0,0.0,0.0,0.013426450839560664,0.12030046094199905,0.003762256025118028,0.0,0.58,0.92,0.0,0.0,0.0,6.999999999999999,6.999999999999999,6.999999999999999,6.999999999999999,9.38826938843742,9.38826938843742,7.066472815863179,7.066472815863179,1.1101537320694432,1.1101537320694432,1.1304068907504414,1.1304068907504414,1.2987964139442785,1.2987964139442785,1.2812079046923457,1.2812079046923457,0.0,0.0,0.0,0.0,0.0,0.0
71.0,1.4000000000000008,0.06449673988051241,0.1310900849490935,0.2485841645840248,0.06818701663568774,0.12948175768225811,0.24858416458402444,0.0036902767551753313,-0.0016083272668353799,-3.608224830031759e-16,0.004025525944151091,0.007512989154323385,0.12087672237321874,0.003701435556005478,min_task,none,false,false,7.0,7.0,7.0,7.0,9.422608290900495,9.422608290900495,7.2562597806779285,7.2562597806779285,0.0,0.0,0.0,0.0,0.0,0.0,-0.45658355003874984,-0.9755061115519426,-0.055197135054076724,0.0,0.0,0.0,0.0,0.0,0.0,0.007512989154323385,0.12087672237321874,0.003701435556005478,0.0,0.58,0.92,0.0,0.0,0.0,7.0,7.0,7.0,7.0,9.422608290900495,9.422608290900495,7.2562597806779285,7.2562597806779285,1.114241825650784,1.114241825650784,1.1255268056373375,1.1255268056373375,1.2953025238806486,1.2953025238806486,1.2855088036232896,1.2855088036232896,0.0,0.0,0.0,0.0,0.0,0.0
72.0,1.4200000000000008,0.05848445609640302,0.13137569158579374,0.24858416458402477,0.06230973638260957,0.1298857772953912,0.24858416458402444,0.003825280286206545,-0.0014899142904025442,-3.3306690738754696e-16,0.00410519352293971,0.0015000768928004643,0.12116583611616301,0.0036398901705545195,min_task,none,false,false,7.0,7.0,7.0,7.0,9.442943451988242,9.442943451988242,7.453365340346983,7.453365340346983,0.0,0.0,0.0,0.0,0.0,0.0,-0.40210719808489104,-1.0259878990095108,-0.06112539518450856,0.0,0.0,0.0,0.0,0.0,0.0,0.0015000768928004643,0.12116583611616301,0.0036398901705545195,0.0,0.58,0.92,0.0,0.0,0.0,7.0,7.0,7.0,7.0,9.442943451988242,9.442943451988242,7.453365340346983,7.453365340346983,1.118608850132363,1.118608850132363,1.1207682228610019,1.1207682228610019,1.291545202392032,1.291545202392032,1.2896718032279815,1.2896718032279815,0.0,0.0,0.0,0.0,0.0,0.0
73.0,1.4400000000000008,0.05238907982800787,0.13136189668568227,0.24858416458402488,0.056344615487936636,0.13000046423659245,0.24858416458402444,0.0039555356599287675,-0.0013614324490898166,-4.440892098500626e-16,0.0041832715272144124,-0.00459594891993426,0.1211556671895885,0.003576259524381559,min_task,none,false,false,7.0,7.0,7.0,7.0,9.448797226652522,9.448797226652522,7.6568936842669,7.6568936842669,0.0,0.0,0.0,0.0,0.0,0.0,-0.34307941967583644,-1.0734626217925056,-0.06674830537914117,0.0,0.0,0.0,0.0,0.0,0.0,-0.00459594891993426,0.1211556671895885,0.003576259524381559,0.0,0.58,0.92,0.0,0.0,0.0,7.0,7.0,7.0,7.0,9.448797226652522,9.448797226652522,7.6568936842669,7.6568936842669,1.1232483369627084,1.1232483369627084,1.1161543856548277,1.1161543856548277,1.2875249450627744,1.2875249450627744,1.293679519058675,1.293679519058675,0.0,0.0,0.0,0.0,0.0,0.0
74.0,1.4600000000000009,0.04622816606870482,0.13103749738568768,0.2485841645840247,0.050308322588313054,0.12981446493738624,0.24858416458402444,0.004080156519608233,-0.0012230324483014365,-2.7755575615628914e-16,0.0042595170611349565,-0.010757544121571304,0.12083507335800792,0.003509479779897811,min_task,none,false,false,7.0,7.0,7.0,7.0,9.439776902470072,9.439776902470072,7.865826532870044,7.865826532870044,0.0,0.0,0.0,0.0,0.0,0.0,-0.27967064530132685,-1.1175130015731,-0.07179931324776351,0.0,0.0,0.0,0.0,0.0,0.0,-0.010757544121571304,0.12083507335800792,0.003509479779897811,0.0,0.58,0.92,0.0,0.0,0.0,7.0,7.0,7.0,7.0,9.439776902470072,9.439776902470072,7.865826532870044,7.865826532870044,1.1281520632334867,1.1281520632334867,1.111709021097949,1.111709021097949,1.2832435433312583,1.2832435433312583,1.2975145940176456,1.2975145940176456,0.0,0.0,0.0,0.0,0.0,0.0
75.0,1.4800000000000009,0.04002041468353543,0.13039241520211392,0.24858416458402463,0.044218661610889165,0.12931748329065365,0.24858416458402444,0.004198246927353738,-0.0010749319114602696,-1.942890293094024e-16,0.004333676946579051,-0.01696601608046602,0.12019401676361385,0.0034388381451181814,min_task,none,false,false,6.999999999999999,6.999999999999999,6.999999999999999,6.999999999999999,9.415579159482686,9.415579159482686,8.079024719098987,8.079024719098987,0.0,0.0,0.0,0.0,0.0,0.0,-0.21209744394900262,-1.157722150653334,-0.07604628502725788,0.0,0.0,0.0,0.0,0.0,0.0,-0.01696601608046602,0.12019401676361385,0.0034388381451181814,0.0,0.58,0.92,0.0,0.0,0.0,6.999999999999999,6.999999999999999,6.999999999999999,6.999999999999999,9.415579159482686,9.415579159482686,8.079024719098987,8.079024719098987,1.1333100687111166,1.1333100687111166,1.1074561845984803,1.1074561845984803,1.278704140233586,1.278704140233586,1.3011597862242312,1.3011597862242312,0.0,0.0,0.0,0.0,0.0,0.0
76.0,1.5000000000000009,0.033785598537546396,0.1294178079536166,0.248584164584025,0.03809450489975582,0.12850039485796239,0.24858416458402444,0.004308906362209423,-0.0009174130956542126,-5.551115123125783e-16,0.004405487581002436,-0.023201595241655815,0.11922367399813082,0.0033640053400809033,min_task,none,false,false,6.999999999999999,6.999999999999999,6.999999999999999,6.999999999999999,9.375993902942746,9.375993902942746,8.295231930216202,8.295231930216202,0.0,0.0,0.0,0.0,0.0,0.0,-0.14062276883829952,-1.193677490339126,-0.0793048185067255,0.0,0.0,0.0,0.0,0.0,0.0,-0.023201595241655815,0.11922367399813082,0.0033640053400809033,0.0,0.58,0.92,0.0,0.0,0.0,6.999999999999999,6.999999999999999,6.999999999999999,6.999999999999999,9.375993902942746,9.375993902942746,8.295231930216202,8.295231930216202,1.138710688488144,1.138710688488144,1.1034200870454478,1.1034200870454478,1.2739112821395182,1.2739112821395182,1.3045980600721858,1.3045980600721858,0.0,0.0,0.0,0.0,0.0,0.0
77.0,1.520000000000001,0.02754447904744891,0.12810617760405146,0.24858416458402458,0.031955714266387505,0.12735535693088285,0.24858416458402444,0.004411235218938596,-0.0007508206731686173,-1.3877787807814457e-16,0.00447467628327029,-0.029443519495119832,0.11791654345738475,0.003285044142914054,min_task,none,false,false,7.000000000000001,7.000000000000001,7.000000000000001,7.000000000000001,9.320907539546324,9.320907539546324,8.51308078824542,8.51308078824542,0.0,0.0,0.0,0.0,0.0,0.0,-0.06555561255896343,-1.224975070058628,-0.08144893218017539,0.0,0.0,0.0,0.0,0.0,0.0,-0.029443519495119832,0.11791654345738475,0.003285044142914054,0.0,0.58,0.92,0.0,0.0,0.0,7.000000000000001,7.000000000000001,7.000000000000001,7.000000000000001,9.320907539546324,9.320907539546324,8.51308078824542,8.51308078824542,1.1443406007809411,1.1443406007809411,1.099624905491899,1.099624905491899,1.2688709660284208,1.2688709660284208,1.3078126801065646,1.3078126801065646,0.0,0.0,0.0,0.0,0.0,0.0
78.0,1.540000000000001,0.021318709387603094,0.1264514727417133,0.24858416458402488,0.025823050166963832,0.12587591312474758,0.24858416458402444,0.004504340779360738,-0.0005755596169657318,-4.440892098500626e-16,0.004540964074873731,-0.035670131139577996,0.11626654872146407,0.003202393554372,min_task,none,false,false,6.999999999999997,6.999999999999997,6.999999999999997,6.999999999999997,9.250305772351295,9.250305772351295,8.73110138740007,8.73110138740007,0.0,0.0,0.0,0.0,0.0,0.0,0.012749960324609611,-1.2512242757592287,-0.08241838828016446,0.0,0.0,0.0,0.0,0.0,0.0,-0.035670131139577996,0.11626654872146407,0.003202393554372,0.0,0.58,0.92,0.0,0.0,0.0,6.999999999999997,6.999999999999997,6.999999999999997,6.999999999999997,9.250305772351295,9.250305772351295,8.73110138740007,8.73110138740007,1.1501848892222295,1.1501848892222295,1.0960945786802156,1.0960945786802156,1.2635906817512172,1.2635906817512172,1.31078730730485,1.31078730730485,0.0,0.0,0.0,0.0,0.0,0.0
79.0,1.560000000000001,0.015130725743808903,0.12444918440222127,0.24858416458402463,0.019718069361936076,0.12405709118059051,0.24858416458402444,0.004587343618127173,-0.00039209322163076543,-1.942890293094024e-16,0.004604069782835714,-0.041858986037296174,0.11426913661071737,0.0031168295838933224,min_task,none,false,false,6.999999999999998,6.999999999999998,6.999999999999998,6.999999999999998,9.16427598442441,9.16427598442441,8.947732334219719,8.947732334219719,0.0,0.0,0.0,0.0,0.0,0.0,0.09389642420696295,-1.2720528948224306,-0.08222208347938968,0.0,0.0,0.0,0.0,0.0,0.0,-0.041858986037296174,0.11426913661071737,0.0031168295838933224,0.0,0.58,0.92,0.0,0.0,0.0,6.999999999999998,6.999999999999998,6.999999999999998,6.999999999999998,9.16427598442441,9.16427598442441,8.947732334219719,8.947732334219719,1.1562271188560638,1.1562271188560638,1.0928525892126737,1.0928525892126737,1.2580794485964464,1.2580794485964464,1.3135060972869856,1.3135060972869856,0.0,0.0,0.0,0.0,0.0,0.0
80.0,1.580000000000001,0.009003627174798873,0.12209643394587472,0.24858416458402469,0.013663011568817843,0.12189549266676863,0.24858416458402444,0.004659384394018969,-0.00020094127910608162,-2.498001805406602e-16,0.004663715292433309,-0.0479869743738261,0.11192136848875887,0.0030294051113786014,min_task,none,false,false,6.999999999999999,6.999999999999999,6.999999999999999,6.999999999999999,9.063009265439163,9.063009265439163,9.161334253420007,9.161334253420007,0.0,0.0,0.0,0.0,0.0,0.0,0.17744505537868402,-1.287112480374425,-0.08093717362572588,0.0,0.0,0.0,0.0,0.0,0.0,-0.0479869743738261,0.11192136848875887,0.0030294051113786014,0.0,0.58,0.92,0.0,0.0,0.0,6.999999999999999,6.999999999999999,6.999999999999999,6.999999999999999,9.063009265439163,9.063009265439163,9.161334253420007,9.161334253420007,1.1624494249370518,1.1624494249370518,1.0899217346947814,1.0899217346947814,1.2523478453306833,1.2523478453306833,1.3159537999036313,1.3159537999036313,0.0,0.0,0.0,0.0,0.0,0.0
81.0,1.600000000000001,0.0029610448091287357,0.1193920517179704,0.248584164584025,0.007680675775595537,0.11938937330676702,0.24858416458402444,0.004719630966466801,-2.6784112033828578e-06,-5.551115123125783e-16,0.004719631726471773,-0.054030452255040676,0.10922200332499324,0.0029413726186187207,min_task,none,false,false,6.999999999999997,6.999999999999997,6.999999999999997,6.999999999999997,8.946802109274055,8.946802109274055,9.370205634063915,9.370205634063915,0.0,0.0,0.0,0.0,0.0,0.0,0.2629188417929697,-1.296083931782842,-0.07870387649415637,0.0,0.0,0.0,0.0,0.0,0.0,-0.054030452255040676,0.10922200332499324,0.0029413726186187207,0.0,0.58,0.92,0.0,0.0,0.0,6.999999999999997,6.999999999999997,6.999999999999997,6.999999999999997,8.946802109274055,8.946802109274055,9.370205634063915,9.370205634063915,1.1688326135595963,1.1688326135595963,1.087323890719489,1.087323890719489,1.2464080327251776,1.2464080327251776,1.3181158595635807,1.3181158595635807,0.0,0.0,0.0,0.0,0.0,0.0
82.0,1.620000000000001,-0.002972998728525352,0.1163366452537806,0.248584164584025,0.001794287036865995,0.11653871271434633,0.24858416458402444,0.004767285765391347,0.00020206746056573854,-5.551115123125783e-16,0.004771566286610975,-0.05996538319614933,0.10617157099801397,0.0028540947133457928,min_task,none,false,false,7.0,7.0,7.0,7.0,8.816057775242953,8.816057775242953,9.572600801125192,9.572600801125192,0.0,0.0,0.0,0.0,0.0,0.0,0.34980602027474356,-1.298683181809141,-0.07571620167538776,0.0,0.0,0.0,0.0,0.0,0.0,-0.05996538319614933,0.10617157099801397,0.0028540947133457928,0.0,0.58,0.92,0.0,0.0,0.0,7.0,7.0,7.0,7.0,8.816057775242953,8.816057775242953,9.572600801125192,9.572600801125192,1.175356273089811,1.175356273089811,1.085079769094918,1.085079769094918,1.2402737674236226,1.2402737674236226,1.31997851556443,1.31997851556443,0.0,0.0,0.0,0.0,0.0,0.0
83.0,1.640000000000001,-0.008774238605886617,0.1129326558401923,0.24858416458402469,-0.003972645274755757,0.11334527239160931,0.24858416458402444,0.00480159333113086,0.0004126165514170138,-2.498001805406602e-16,0.00481928946381763,-0.06576748838759404,0.10277243432436683,0.002768948195187941,min_task,none,false,false,7.0,7.0,7.0,7.0,8.671287263799515,8.671287263799515,9.766749712748382,9.766749712748382,0.0,0.0,0.0,0.0,0.0,0.0,0.437564207644624,-1.294666856419485,-0.07220916637597848,0.0,0.0,0.0,0.0,0.0,0.0,-0.06576748838759404,0.10277243432436683,0.002768948195187941,0.0,0.58,0.92,0.0,0.0,0.0,7.0,7.0,7.0,7.0,8.671287263799515,8.671287263799515,9.766749712748382,9.766749712748382,1.1819988953343552,1.1819988953343552,1.0832086752195584,1.0832086752195584,1.233960405864559,1.233960405864559,1.3215289015916951,1.3215289015916951,0.0,0.0,0.0,0.0,0.0,0.0
84.0,1.660000000000001,-0.014418324576637883,0.1091844023149898,0.24858416458402469,-0.009596476645906696,0.10981264093946823,0.24858416458402444,0.004821847930731187,0.0006282386244784305,-2.498001805406602e-16,0.004862602311148135,-0.071412404464741,0.09902883834053441,0.0026872278604614147,min_task,none,false,false,7.000000000000001,7.000000000000001,7.000000000000001,7.000000000000001,8.513109813259716,8.513109813259716,9.950879209072378,9.950879209072378,0.0,0.0,0.0,0.0,0.0,0.0,0.5256250787616048,-1.2838377527708165,-0.06844334301252444,0.0,0.0,0.0,0.0,0.0,0.0,-0.071412404464741,0.09902883834053441,0.0026872278604614147,0.0,0.58,0.92,0.0,0.0,0.0,7.000000000000001,7.000000000000001,7.000000000000001,7.000000000000001,8.513109813259716,8.513109813259716,9.950879209072378,9.950879209072378,1.1887380053487009,1.1887380053487009,1.0817282689454324,1.0817282689454324,1.2274848968611192,1.2274848968611192,1.3227551434588636,1.3227551434588636,0.0,0.0,0.0,0.0,0.0,0.0
85.0,1.680000000000001,-0.019880983926226635,0.10509811107393925,0.2485841645840246,-0.015053582778422683,0.10594626554276218,0.24858416458402444,0.004827401147803952,0.0008481544688229287,-1.6653345369377348e-16,0.004901343473457376,-0.0768758473657351,0.09494694545404493,0.002610056260650327,min_task,none,false,false,7.0,7.0,7.0,7.0,8.34225278250903,8.34225278250903,10.12323528004303,10.12323528004303,0.0,0.0,0.0,0.0,0.0,0.0,0.6133995322682299,-1.266049966705425,-0.06468782023663719,0.0,0.0,0.0,0.0,0.0,0.0,-0.0768758473657351,0.09494694545404493,0.002610056260650327,0.0,0.58,0.92,0.0,0.0,0.0,7.0,7.0,7.0,7.0,8.34225278250903,8.34225278250903,10.12323528004303,10.12323528004303,1.1955502987553668,1.1955502987553668,1.0806543336077687,1.0806543336077687,1.220865761375242,1.220865761375242,1.323646454083244,1.323646454083244,0.0,0.0,0.0,0.0,0.0,0.0
86.0,1.700000000000001,-0.025138189088290016,0.10068193136652642,0.24858416458402494,-0.020320519752164992,0.1017534689228842,0.24858416458402444,0.004817669336125024,0.0010715375563577767,-4.996003610813204e-16,0.004935395684940016,-0.08213378073799839,0.09053485521472712,0.0025383051988581962,min_task,none,false,false,7.000000000000001,7.000000000000001,7.000000000000001,7.000000000000001,8.159550751251892,8.159550751251892,10.282105881631146,10.282105881631146,0.0,0.0,0.0,0.0,0.0,0.0,0.7002832743283285,-1.2412134951809253,-0.06120281616301494,0.0,0.0,0.0,0.0,0.0,0.0,-0.08213378073799839,0.09053485521472712,0.0025383051988581962,0.0,0.58,0.92,0.0,0.0,0.0,7.000000000000001,7.000000000000001,7.000000000000001,7.000000000000001,8.159550751251892,8.159550751251892,10.282105881631146,10.282105881631146,1.2024117854055132,1.2024117854055132,1.0800005581056922,1.0800005581056922,1.2141230580159321,1.2141230580159321,1.3241932246388461,1.3241932246388461,0.0,0.0,0.0,0.0,0.0,0.0
87.0,1.720000000000001,-0.030166328338375785,0.09594593509425473,0.24858416458402466,-0.025374187515763008,0.0972434510978558,0.24858416458402444,0.004792140822612777,0.0012975160036010763,-2.220446049250313e-16,0.004964691475142516,-0.08716258725130463,0.08580260763916847,0.0024725338881368035,min_task,none,false,false,7.0,7.0,7.0,7.0,7.96594364964277,7.96594364964277,10.425843815665235,10.425843815665235,0.0,0.0,0.0,0.0,0.0,0.0,0.7856627422669012,-1.2092981430604606,-0.05822323890775857,0.0,0.0,0.0,0.0,0.0,0.0,-0.08716258725130463,0.08580260763916847,0.0024725338881368035,0.0,0.58,0.92,0.0,0.0,0.0,7.0,7.0,7.0,7.0,7.96594364964277,7.96594364964277,10.425843815665235,10.425843815665235,1.2092979381728117,1.2092979381728117,1.079778336962155,1.079778336962155,1.2072783328509875,1.2072783328509875,1.324387110805491,1.324387110805491,0.0,0.0,0.0,0.0,0.0,0.0
88.0,1.740000000000001,-0.03494237787983239,0.09090210048113678,0.24858416458402494,-0.030191995136089264,0.0924272754515816,0.24858416458402444,0.004750382743743127,0.001525174970444812,-4.996003610813204e-16,0.004989217864808452,-0.09193924109619768,0.08076216924736224,0.0024129474631416482,min_task,none,false,false,7.0,7.0,7.0,7.0,7.762473727632612,7.762473727632612,10.552889199096642,10.552889199096642,0.0,0.0,0.0,0.0,0.0,0.0,0.8689212839187866,-1.1703365783783384,-0.055944431598978564,0.0,0.0,0.0,0.0,0.0,0.0,-0.09193924109619768,0.08076216924736224,0.0024129474631416482,0.0,0.58,0.92,0.0,0.0,0.0,7.0,7.0,7.0,7.0,7.762473727632612,7.762473727632612,10.552889199096642,10.552889199096642,1.2161838456174434,1.2161838456174434,1.079996593149571,1.079996593149571,1.20035455225384,1.20035455225384,1.324221113048221,1.324221113048221,0.0,0.0,0.0,0.0,0.0,0.0
89.0,1.7600000000000011,-0.03944407356711586,0.08556427916375461,0.24858416458402482,-0.03475202616609653,0.08731783878845294,0.24858416458402444,0.004692047401019327,0.0017535596246983226,-3.885780586188048e-16,0.005009019881252653,-0.09644147989210572,0.07542740123439542,0.0023593780262400475,min_task,none,false,false,7.0,7.0,7.0,7.0,7.550281193620035,7.550281193620035,10.661791083098974,10.661791083098974,0.0,0.0,0.0,0.0,0.0,0.0,0.9494455047938837,-1.1244264054449093,-0.054511165131619584,0.0,0.0,0.0,0.0,0.0,0.0,-0.09644147989210572,0.07542740123439542,0.0023593780262400475,0.0,0.58,0.92,0.0,0.0,0.0,7.0,7.0,7.0,7.0,7.550281193620035,7.550281193620035,10.661791083098974,10.661791083098974,1.2230443672041589,1.2230443672041589,1.0806616281273056,1.0806616281273056,1.193376017711492,1.193376017711492,1.3236896499149646,1.3236896499149646,0.0,0.0,0.0,0.0,0.0,0.0
90.0,1.7800000000000011,-0.043650080466259164,0.07994814644647631,0.2485841645840248,-0.03903320244032629,0.08192982523414119,0.24858416458402444,0.004616878025932872,0.0019816787876648784,-3.608224830031759e-16,0.0050242027749507435,-0.1006479742005208,0.06981400949316115,0.0023112887446331996,min_task,none,false,false,7.0,7.0,7.0,7.0,7.3305983923404145,7.3305983923404145,10.751227837404915,10.751227837404915,0.0,0.0,0.0,0.0,0.0,0.0,1.0266316937404198,-1.071731159711437,-0.05401066370997056,0.0,0.0,0.0,0.0,0.0,0.0,-0.1006479742005208,0.06981400949316115,0.0023112887446331996,0.0,0.58,0.92,0.0,0.0,0.0,7.0,7.0,7.0,7.0,7.3305983923404145,7.3305983923404145,10.751227837404915,10.751227837404915,1.2298542897076195,1.2298542897076195,1.0817770029983047,1.0817770029983047,1.1863682617906197,1.1863682617906197,1.3227886234317012,1.3227886234317012,0.0,0.0,0.0,0.0,0.0,0.0
91.0,1.8000000000000012,-0.047540158432210544,0.07407113468326557,0.24858416458402494,-0.0430154445794282,0.0762796440356789,0.24858416458402444,0.004524713852782344,0.002208509352413332,-4.996003610813204e-16,0.005034932870382445,-0.1045384928351066,0.06393947651560342,0.0022677998381408237,min_task,none,false,false,6.999999999999998,6.999999999999998,6.999999999999998,6.999999999999998,7.1047424508356825,7.1047424508356825,10.820025985226986,10.820025985226986,0.0,0.0,0.0,0.0,0.0,0.0,1.0998922384344065,-1.0124801698948578,-0.05447009052508215,0.0,0.0,0.0,0.0,0.0,0.0,-0.1045384928351066,0.06393947651560342,0.0022677998381408237,0.0,0.58,0.92,0.0,0.0,0.0,6.999999999999998,6.999999999999998,6.999999999999998,6.999999999999998,7.1047424508356825,7.1047424508356825,10.820025985226986,10.820025985226986,1.2365884833983682,1.2365884833983682,1.0833434539693543,1.0833434539693543,1.179357924786837,1.179357924786837,1.3215154757976693,1.3215154757976693,0.0,0.0,0.0,0.0,0.0,0.0
92.0,1.8200000000000012,-0.0510953243982637,0.06795234418421384,0.24858416458402496,-0.04667982748056802,0.07038535151085765,0.24858416458402444,0.004415496917695674,0.00243300732664381,-5.273559366969494e-16,0.005041442024032654,-0.10809407017636957,0.05782300058980585,0.002227192249771618,min_task,none,false,false,7.126691995323793,7.126691995323793,6.999999999999999,6.999999999999999,6.999999999999999,6.999999999999999,10.841819338672867,10.841819338672867,0.0,0.0,0.0,0.0,0.0,0.0,1.168635614991535,-0.9468191551777404,-0.05845724700962777,0.0,0.0,0.0,0.0,0.0,0.0,-0.10809407017636957,0.05782300058980585,0.002227192249771618,0.0,0.58,0.92,0.0,0.0,0.0,7.126691995323793,7.126691995323793,6.999999999999999,6.999999999999999,6.999999999999999,6.999999999999999,10.841819338672867,10.841819338672867,1.2432220356371548,1.2432220356371548,1.0853588165847954,1.0853588165847954,1.1723726374942287,1.1723726374942287,1.3198692625789183,1.3198692625789183,0.0,0.0,0.0,0.0,0.0,0.0
93.0,1.8400000000000012,-0.054298011878387405,0.06161244976622068,0.24858416458402477,-0.05000872909037182,0.06426655759552286,0.24858416458402444,0.004289282788015582,0.0026541078293021783,-3.3306690738754696e-16,0.005044029659422101,-0.11129716767800217,0.05148541367158949,0.002186709052369245,min_task,none,false,false,7.362473720810594,7.362473720810594,6.999999999999997,6.999999999999997,6.999999999999997,6.999999999999997,10.820413905860374,10.820413905860374,0.0,0.0,0.0,0.0,0.0,0.0,1.2323396742436314,-0.8751262209242815,-0.0653605396807155,0.0,0.0,0.0,0.0,0.0,0.0,-0.11129716767800217,0.05148541367158949,0.002186709052369245,0.0,0.58,0.92,0.0,0.0,0.0,7.362473720810594,7.362473720810594,6.999999999999997,6.999999999999997,6.999999999999997,6.999999999999997,10.820413905860374,10.820413905860374,1.2497303924974146,1.2497303924974146,1.0878179875565424,1.0878179875565424,1.1654408735723845,1.1654408735723845,1.317850716004411,1.317850716004411,0.0,0.0,0.0,0.0,0.0,0.0
94.0,1.8600000000000012,-0.057132212987557926,0.05507360085408811,0.24858416458402463,-0.05298597080137872,0.05794431763432934,0.24858416458402444,0.004146242186179205,0.002870716780241228,-1.942890293094024e-16,0.005043048591755851,-0.11413180828767715,0.044949038762157174,0.002143305020731752,min_task,none,false,false,7.600467158820381,7.600467158820381,7.000000000000001,7.000000000000001,7.000000000000001,7.000000000000001,10.777381876494388,10.777381876494388,0.0,0.0,0.0,0.0,0.0,0.0,1.2905400947029242,-0.7979626616220022,-0.07261863345836221,0.0,0.0,0.0,0.0,0.0,0.0,-0.11413180828767715,0.044949038762157174,0.002143305020731752,0.0,0.58,0.92,0.0,0.0,0.0,7.600467158820381,7.600467158820381,7.000000000000001,7.000000000000001,7.000000000000001,7.000000000000001,10.777381876494388,10.777381876494388,1.2560895299678598,1.2560895299678598,1.0907129769892265,1.0907129769892265,1.1585917401980852,1.1585917401980852,1.315462249392739,1.315462249392739,0.0,0.0,0.0,0.0,0.0,0.0
95.0,1.8800000000000012,-0.05958360398110069,0.04835929236649124,0.248584164584025,-0.05559694788172649,0.05144101025268874,0.24858416458402444,0.0039866560993742015,0.003081717886197502,-5.551115123125783e-16,0.005038889955613947,-0.11658369637893369,0.03823752925084631,0.0020942000390913153,min_task,none,false,false,7.838989030847976,7.838989030847976,6.999999999999998,6.999999999999998,6.999999999999998,6.999999999999998,10.713194687792614,10.713194687792614,0.0,0.0,0.0,0.0,0.0,0.0,1.3427833843753856,-0.7158359442612492,-0.07976251676171907,0.0,0.0,0.0,0.0,0.0,0.0,-0.11658369637893369,0.03823752925084631,0.0020942000390913153,0.0,0.58,0.92,0.0,0.0,0.0,7.838989030847976,7.838989030847976,6.999999999999998,6.999999999999998,6.999999999999998,6.999999999999998,10.713194687792614,10.713194687792614,1.2622761132882205,1.2622761132882205,1.0940330063184782,1.0940330063184782,1.1518547560497692,1.1518547560497692,1.3127079440219147,1.3127079440219147,0.0,0.0,0.0,0.0,0.0,0.0
96.0,1.9000000000000012,-0.0616396630341637,0.041494215340926274,0.24858416458402463,-0.057828748440381356,0.04478020233178571,0.24858416458402444,0.0038109145937823413,0.003285986990859434,-1.942890293094024e-16,0.0050319758092821415,-0.11864033408535203,0.031375711417669636,0.0020370216081989144,min_task,none,false,false,8.076324532771793,8.076324532771793,7.0,7.0,7.0,7.0,10.628490200906684,10.628490200906684,0.0,0.0,0.0,0.0,0.0,0.0,1.388659223400579,-0.6292958250432475,-0.08634628179257094,0.0,0.0,0.0,0.0,0.0,0.0,-0.11864033408535203,0.031375711417669636,0.0020370216081989144,0.0,0.58,0.92,0.0,0.0,0.0,8.076324532771793,8.076324532771793,7.0,7.0,7.0,7.0,10.628490200906684,10.628490200906684,1.2682676364002075,1.2682676364002075,1.0977646223974311,1.0977646223974311,1.14525963013235,1.14525963013235,1.309593544487633,1.309593544487633,0.0,0.0,0.0,0.0,0.0,0.0
97.0,1.9200000000000013,-0.06328977428571239,0.034504095842832615,0.24858416458402463,-0.05967025954562358,0.03798650228149464,0.24858416458402444,0.003619514740088814,0.0034824064386620238,-1.942890293094024e-16,0.005022752388656533,-0.12029112422119304,0.02438941703114447,0.001969915577376596,min_task,none,false,false,8.310746223729167,8.310746223729167,6.999999999999998,6.999999999999998,6.999999999999998,6.999999999999998,10.52405826783601,10.52405826783601,0.0,0.0,0.0,0.0,0.0,0.0,1.4278049131064587,-0.5389274368362577,-0.0919780306568502,0.0,0.0,0.0,0.0,0.0,0.0,-0.12029112422119304,0.02438941703114447,0.001969915577376596,0.0,0.58,0.92,0.0,0.0,0.0,8.310746223729167,8.310746223729167,6.999999999999998,6.999999999999998,6.999999999999998,6.999999999999998,10.52405826783601,10.52405826783601,1.2740425514580205,1.2740425514580205,1.1018918429217237,1.1018918429217237,1.1388360294059232,1.1388360294059232,1.3061264453724528,1.3061264453724528,0.0,0.0,0.0,0.0,0.0,0.0
98.0,1.9400000000000013,-0.06452531693040367,0.027415523798247788,0.24858416458402463,-0.061112259251231774,0.031085402964803645,0.24858416458402444,0.0034130576791718964,0.003669879166555857,-1.942890293094024e-16,0.00501168393042448,-0.12152745864307106,0.017305308068615136,0.0018916182903609864,min_task,none,false,false,8.540533029721729,8.540533029721729,7.0,7.0,7.0,7.0,10.400825817693724,10.400825817693724,0.0,0.0,0.0,0.0,0.0,0.0,1.459909383968906,-0.445344278420584,-0.09634587322011302,0.0,0.0,0.0,0.0,0.0,0.0,-0.12152745864307106,0.017305308068615136,0.0018916182903609864,0.0,0.58,0.92,0.0,0.0,0.0,8.540533029721729,8.540533029721729,7.0,7.0,7.0,7.0,10.400825817693724,10.400825817693724,1.2795803873952118,1.2795803873952118,1.1063963290583747,1.1063963290583747,1.1326133377759238,1.1326133377759238,1.3023156697823122,1.3023156697823122,0.0,0.0,0.0,0.0,0.0,0.0
99.0,1.9600000000000013,-0.06533973831305556,0.020255773549543783,0.248584164584025,-0.06214749344098329,0.02410311576915542,0.24858416458402444,0.0031922448720722724,0.003847342219611638,-5.551115123125783e-16,0.004999246891090489,-0.12234279104626072,0.010150695567353247,0.0018014864772682335,min_task,none,false,false,8.763988790434604,8.763988790434604,6.999999999999998,6.999999999999998,6.999999999999998,6.999999999999998,10.25984220241731,10.25984220241731,0.0,0.0,0.0,0.0,0.0,0.0,1.4847167283187346,-0.349181339975803,-0.09923686297215745,0.0,0.0,0.0,0.0,0.0,0.0,-0.12234279104626072,0.010150695567353247,0.0018014864772682335,0.0,0.58,0.92,0.0,0.0,0.0,8.763988790434604,8.763988790434604,6.999999999999998,6.999999999999998,6.999999999999998,6.999999999999998,10.25984220241731,10.25984220241731,1.2848618568567878,1.2848618568567878,1.1112575807327438,1.1112575807327438,1.126620409139253,1.126620409139253,1.2981718402270863,1.2981718402270863,0.0,0.0,0.0,0.0,0.0,0.0
100.0,1.9800000000000013,-0.06572908415726852,0.01305260926982316,0.2485841645840248,-0.06277073657543131,0.01706639744241671,0.24858416458402444,0.0029583475818372174,0.004013788172593551,-3.608224830031759e-16,0.004986212581650926,-0.12273316636284563,0.0029533402947674535,0.0016995804494929737,min_task,none,false,false,8.972267372289554,8.972267372289554,6.999999999999999,6.999999999999999,6.999999999999999,6.999999999999999,10.095332979040343,10.095332979040343,0.0,0.0,0.0,0.0,0.0,0.0,1.4989904932569567,-0.25111857951435873,-0.10002058818330604,0.0,0.0,0.0,0.0,0.0,0.0,-0.12273316636284563,0.0029533402947674535,0.0016995804494929737,0.0,0.58,0.92,0.0,0.0,0.0,8.972267372289554,8.972267372289554,6.999999999999999,6.999999999999999,6.999999999999999,6.999999999999999,10.095332979040343,10.095332979040343,1.2898693187291843,1.2898693187291843,1.1164528542423526,1.1164528542423526,1.120884997862675,1.120884997862675,1.2937074870644456,1.2937074870644456,0.0,0.0,0.0,0.0,0.0,0.0
101.0,2.0000000000000013,-0.06569297993032934,0.005834074274966126,0.24858416458402469,-0.0629788356128086,0.010002371411801998,0.24858416458402444,0.0027141443175207336,0.004168297136835872,-2.498001805406602e-16,0.004974060755286793,-0.12269820364705092,-0.004258749459611238,0.0015865152848683866,min_task,none,false,false,9.155642252740066,9.155642252740066,6.999999999999999,6.999999999999999,6.999999999999999,6.999999999999999,9.899968052868916,9.899968052868916,0.0,0.0,0.0,0.0,0.0,0.0,1.4989983907413744,-0.15176081993593896,-0.09932804337724783,0.0,0.0,0.0,0.0,0.0,0.0,-0.12269820364705092,-0.004258749459611238,0.0015865152848683866,0.0,0.58,0.92,0.0,0.0,0.0,9.155642252740066,9.155642252740066,6.999999999999999,6.999999999999999,6.999999999999999,6.999999999999999,9.899968052868916,9.899968052868916,1.2945875718646498,1.2945875718646498,1.121956795120417,1.121956795120417,1.1154328761705334,1.1154328761705334,1.2889377146905125,1.2889377146905125,0.0,0.0,0.0,0.0,0.0,0.0
102.0,2.0200000000000014,-0.0652328660287508,-0.0013716613524305775,0.2485841645840246,-0.06277073657543124,0.002938345381187182,0.24858416458402444,0.002462129453319556,0.004310006733617759,-1.6653345369377348e-16,0.004963692122677844,-0.12223933648372169,-0.011457440856130454,0.0014629449630736708,min_task,none,false,false,9.346412521234633,9.346412521234633,6.999999999999999,6.999999999999999,6.999999999999999,6.999999999999999,9.707863999777668,9.707863999777668,0.0,0.0,0.0,0.0,0.0,0.0,1.4990025136957572,-0.05162626089743871,-0.0990162213274024,0.0,0.0,0.0,0.0,0.0,0.0,-0.12223933648372169,-0.011457440856130454,0.0014629449630736708,0.0,0.58,0.92,0.0,0.0,0.0,9.346412521234633,9.346412521234633,6.999999999999999,6.999999999999999,6.999999999999999,6.999999999999999,9.707863999777668,9.707863999777668,1.2990025231397064,1.2990025231397064,1.1277427851921955,1.1277427851921955,1.1102887848083176,1.1102887848083176,1.2838788693803649,1.2838788693803649,0.0,0.0,0.0,0.0,0.0,0.0
103.0,2.0400000000000014,-0.06435017804154104,-0.00853644464766168,0.2485841645840248,-0.062147493440983165,-0.004098372945551522,0.24858416458402444,0.0022026846005578776,0.004438071702110158,-3.608224830031759e-16,0.004954624090948351,-0.12135799063860402,-0.018614635200974144,0.0013298221617351706,min_task,none,false,false,9.542439771870306,9.542439771870306,7.0,7.0,7.0,7.0,9.521262748730555,9.521262748730555,0.0,0.0,0.0,0.0,0.0,0.0,1.499024514138524,0.04843439592232994,-0.09693852612661395,0.0,0.0,0.0,0.0,0.0,0.0,-0.12135799063860402,-0.018614635200974144,0.0013298221617351706,0.0,0.58,0.92,0.0,0.0,0.0,9.542439771870306,9.542439771870306,7.0,7.0,7.0,7.0,9.521262748730555,9.521262748730555,1.3030998761513763,1.3030998761513763,1.133784330090578,1.133784330090578,1.1054774113030579,1.1054774113030579,1.2785471000194328,1.2785471000194328,0.0,0.0,0.0,0.0,0.0,0.0
104.0,2.0600000000000014,-0.06304635214943693,-0.015632335727739283,0.24858416458402496,-0.06111225925123162,-0.011080660141199527,0.24858416458402444,0.001934092898205314,0.004551675586539756,-5.273559366969494e-16,0.004945550119449834,-0.12005558176557797,-0.025702507548757164,0.0011891636755004536,min_task,none,false,false,9.741547773634544,9.741547773634544,7.000000000000001,7.000000000000001,7.000000000000001,7.000000000000001,9.34236160084527,9.34236160084527,0.0,0.0,0.0,0.0,0.0,0.0,1.4990853992252557,0.14757095278461493,-0.09100294193422685,0.0,0.0,0.0,0.0,0.0,0.0,-0.12005558176557797,-0.025702507548757164,0.0011891636755004536,0.0,0.58,0.92,0.0,0.0,0.0,9.741547773634544,9.741547773634544,7.000000000000001,7.000000000000001,7.000000000000001,7.000000000000001,9.34236160084527,9.34236160084527,1.306865268097321,1.306865268097321,1.1400553226546775,1.1400553226546775,1.1010231345079433,1.1010231345079433,1.272958221218402,1.272958221218402,0.0,0.0,0.0,0.0,0.0,0.0
105.0,2.0800000000000014,-0.06132481749720692,-0.022631862847401332,0.24858416458402482,-0.059670259545623355,-0.017981759457890614,0.24858416458402444,0.0016545579515835629,0.004650103389510718,-3.885780586188048e-16,0.004935688761286257,-0.1183355103912194,-0.032693747247219615,0.0010437957257159265,min_task,none,false,false,9.912827243480285,9.912827243480285,7.000000000000001,7.000000000000001,7.000000000000001,7.000000000000001,9.14229711869615,9.14229711869615,0.0,0.0,0.0,0.0,0.0,0.0,1.4863666894003196,0.24517905106490412,-0.08322342553085994,0.0,0.0,0.0,0.0,0.0,0.0,-0.1183355103912194,-0.032693747247219615,0.0010437957257159265,0.0,0.58,0.92,0.0,0.0,0.0,9.912827243480285,9.912827243480285,7.000000000000001,7.000000000000001,7.000000000000001,7.000000000000001,9.14229711869615,9.14229711869615,1.3102858777366033,1.3102858777366033,1.1465290152194152,1.1465290152194152,1.096948458482394,1.096948458482394,1.2671291249209293,1.2671291249209293,0.0,0.0,0.0,0.0,0.0,0.0
