LordTarzan10086/HCDR_ML/results/tracking/routeb_trajectory_suite_20260416_105416/circle/circle_cooperative_detailed.csv
step,time_s,tip_x,tip_y,tip_z,des_x,des_y,des_z,err_x,err_y,err_z,err_norm,q_platform_x,q_platform_y,q_platform_psi,solver_status,fail_reason,fallback_applied,hold_active,u_a_1,u_a_2,u_a_3,u_a_4,u_a_5,u_a_6,u_a_7,u_a_8,u_a_9,u_a_10,u_a_11,u_a_12,u_a_13,u_a_14,qdd_1,qdd_2,qdd_3,qdd_4,qdd_5,qdd_6,qdd_7,qdd_8,qdd_9,q_1,q_2,q_3,q_4,q_5,q_6,q_7,q_8,q_9,cable_force_1,cable_force_2,cable_force_3,cable_force_4,cable_force_5,cable_force_6,cable_force_7,cable_force_8,cable_length_1,cable_length_2,cable_length_3,cable_length_4,cable_length_5,cable_length_6,cable_length_7,cable_length_8,arm_torque_1,arm_torque_2,arm_torque_3,arm_torque_4,arm_torque_5,arm_torque_6
1.0,0.0,0.1771078359284668,0.01000114448687794,0.2485874501613479,0.1770211643871914,0.010002371411802463,0.24858416458402444,-8.6671541275396e-05,1.2269249245223934e-06,-3.2855773234585772e-06,8.67424718933667e-05,0.09549306966292889,0.0001429940776587088,-0.0008903426151622667,min_task,none,false,false,6.999999999999999,6.999999999999999,6.999999999999999,6.999999999999999,6.999999999999999,6.999999999999999,6.999999999999999,6.999999999999999,0.013428028734083582,-0.2006301754983679,0.05241779361170647,-0.002168038680573579,0.0003400166789134781,-0.00010702433606945526,-0.31946823679502345,-0.0004755198546353954,0.12539099011930735,0.024918807829717678,-0.637250531782143,-0.23693938717441357,0.007553639408347679,-0.029673485410773866,6.811562350522823e-06,0.09549306966292889,0.0001429940776587088,-0.0008903426151622667,0.0010519129110680993,0.5331210793413241,0.9050580642635766,-7.072987256811335e-05,4.575546828388471e-05,4.8637313514109776e-05,6.999999999999999,6.999999999999999,6.999999999999999,6.999999999999999,6.999999999999999,6.999999999999999,6.999999999999999,6.999999999999999,1.1364696798201501,1.1364696798201501,1.2713142290960906,1.2713142290960906,1.2714853660492313,1.2714853660492313,1.136661119298833,1.136661119298833,0.013428028734083582,-0.2006301754983679,0.05241779361170647,-0.002168038680573579,0.0003400166789134781,-0.00010702433606945526
2.0,0.02,0.17731630519175695,0.010002293657982267,0.24856917303730985,0.17702116438354548,0.010003306835152227,0.24858416458402444,-0.00029514080821146926,1.0131771699603553e-06,1.4991546714582249e-05,0.00029552304423275104,0.09532592718999286,0.00013987994963543315,-0.0007688315275254831,min_task,none,false,false,7.0,7.0,7.0,7.0,7.0,7.0,7.0,7.0,0.0036200026642229637,-0.08527744150060898,0.02614032594730824,-0.0009754337288251148,0.000749295116104371,-5.9307805184878346e-05,-0.3192593728069486,-0.0004713642008314375,0.11832600356367816,-0.026482960115934026,-0.2493993158616137,-0.028619786558012332,0.0011231379853473154,0.03702649516062883,-0.008696551072174727,0.09532592718999286,0.00013987994963543315,-0.0007688315275254831,0.0013102880428454932,0.5323141307052329,0.9046818377049992,-0.00023261736361456582,7.681200137840543e-05,0.00017691988177191698,7.0,7.0,7.0,7.0,7.0,7.0,7.0,7.0,1.136581410765544,1.136581410765544,1.2711905982874614,1.2711905982874614,1.271360356187577,1.271360356187577,1.1367712704888189,1.1367712704888189,0.0036200026642229637,-0.08527744150060898,0.02614032594730824,-0.0009754337288251148,0.000749295116104371,-5.9307805184878346e-05
3.0,0.04,0.17758781693366704,0.010013693275260787,0.24854670156669173,0.1770211641573457,0.01000979858922015,0.24858416458402444,-0.0005666527763213414,-3.894686040636572e-06,3.746301733270618e-05,0.0005679031741060354,0.09506418650131229,0.0001355494822382744,-0.0006199505298592542,min_task,none,false,false,7.0,7.0,7.0,7.0,7.0,7.0,7.0,7.0,-0.003009546616533946,-0.011145447754660219,0.008907189356505479,-0.00019494540310930947,0.00123282607860845,-2.9604635453265528e-05,-0.31869535076430905,-0.0004610230377969193,0.10217875794393619,-0.0675607170145292,-0.0031950325214787577,0.09645755767256804,-0.005198755708020601,0.09819923147147475,-0.0165065408951827,0.09506418650131229,0.0001355494822382744,-0.0006199505298592542,0.001648012695766119,0.5311799286347706,0.9041656242685308,-0.0004829424604543205,0.00015752154532825349,0.00037112644327334804,7.0,7.0,7.0,7.0,7.0,7.0,7.0,7.0,1.1367565402875635,1.1367565402875635,1.2709971390103305,1.2709971390103305,1.271164519082512,1.271164519082512,1.1369436833407272,1.1369436833407272,-0.003009546616533946,-0.011145447754660219,0.008907189356505479,-0.00019494540310930947,0.00123282607860845,-2.9604635453265528e-05
4.0,0.06,0.177885120827857,0.010042329392438893,0.24852343989560083,0.17702116180842487,0.010027249192188784,0.24858416458402444,-0.0008639590194321478,-1.508020025010881e-05,6.07246884236079e-05,0.0008662217311300184,0.09471487124695817,0.00013049969349658965,-0.00047293706660623825,min_task,none,false,false,7.0,7.0,7.0,7.0,7.0,7.0,7.0,7.0,-0.00744005474575305,0.035525667556144454,-0.0021577337224482104,0.00030095722326422495,0.0017275744337004373,-1.1876751568753527e-05,-0.31781215858285206,-0.00044666329434630734,0.08239427017015925,-0.0997941541220613,0.14979454974131368,0.16968464087875423,-0.01125273944853649,0.15286984422229802,-0.023381602472127287,0.09471487124695817,0.00013049969349658965,-0.00047293706660623825,0.0020133938019369214,0.5298170559373946,0.903559245111281,-0.0008132278317153074,0.00031085702403547993,0.0006211547405884023,7.0,7.0,7.0,7.0,7.0,7.0,7.0,7.0,1.136990447154914,1.136990447154914,1.270739108766044,1.270739108766044,1.2709031060671556,1.2709031060671556,1.137173733158287,1.137173733158287,-0.00744005474575305,0.035525667556144454,-0.0021577337224482104,0.00030095722326422495,0.0017275744337004373,-1.1876751568753527e-05
5.0,0.08,0.1781846677891774,0.010094360855050617,0.24850121106850187,0.17702115011635905,0.010060894907521925,0.24858416458402444,-0.0011635176728183594,-3.3465947528692544e-05,8.29535155225658e-05,0.0011669509974040026,0.09428262343291638,0.00012510517184131475,-0.00034783641726817923,min_task,none,false,false,7.0,7.0,7.0,7.0,7.0,7.0,7.0,7.0,-0.010372797628909554,0.0639404094128146,-0.009036946750633454,0.0006030124828573154,0.00220455174271985,-2.1108219908760922e-06,-0.3166335638558239,-0.00042994549219990924,0.06285773775271263,-0.1253511191897819,0.24144635595063407,0.21042155894156098,-0.016662989891056794,0.2011283367111485,-0.02960977925671587,0.09428262343291638,0.00012510517184131475,-0.00034783641726817923,0.0023694779957076635,0.5282867361287834,0.9028920536606698,-0.001218551288158596,0.0005577222553023281,0.0009198442092175404,7.0,7.0,7.0,7.0,7.0,7.0,7.0,7.0,1.1372800666995992,1.1372800666995992,1.2704199696620098,1.2704199696620098,1.2705796236156366,1.2705796236156366,1.1374584083576311,1.1374584083576311,-0.010372797628909554,0.0639404094128146,-0.009036946750633454,0.0006030124828573154,0.00220455174271985,-2.1108219908760922e-06
6.0,0.1,0.17847209270945386,0.01017522183638964,0.24848090500300934,0.17702111077163357,0.010115807433395392,0.24858416458402444,-0.0014509819378202837,-5.9414402994248036e-05,0.00010325958101509158,0.0014558644154711938,0.09377053341290821,0.0001196490426289255,-0.00025740828325507287,min_task,none,false,false,7.0,7.0,7.0,7.0,7.0,7.0,7.0,7.0,-0.012294035077930442,0.0802824250090193,-0.013098224995558775,0.0007744765044473634,0.00265244635624531,2.4017071150591965e-06,-0.31517531479207855,-0.00041211867399009626,0.046232942534718546,-0.1460491220987913,0.2929010316709167,0.23078418967083938,-0.021279016897587957,0.2436607963274051,-0.03542221145027452,0.09377053341290821,0.0001196490426289255,-0.00025740828325507287,0.0026906139387405485,0.5266257032375203,0.9021804634369979,-0.001696503838827236,0.0009169349627931871,0.0012621967800175136,7.0,7.0,7.0,7.0,7.0,7.0,7.0,7.0,1.1376233418739699,1.1376233418739699,1.2700420079365577,1.2700420079365577,1.2701964518466362,1.2701964518466362,1.1377957603791466,1.1377957603791466,-0.012294035077930442,0.0802824250090193,-0.013098224995558775,0.0007744765044473634,0.00265244635624531,2.4017071150591965e-06
7.0,0.12000000000000001,0.17873912417228027,0.010289741489614231,0.24846287315369375,0.17702100672187596,0.010196895576993653,0.24858416458402444,-0.0017181174504043162,-9.284591262057745e-05,0.00012129143033068335,0.0017248940686157626,0.09318069537432361,0.00011434886735282817,-0.00020858798945320233,min_task,none,false,false,7.0,7.0,7.0,7.0,7.0,7.0,7.0,7.0,-0.013541138503667297,0.08871566309890912,-0.01528419487690506,0.0008590176720799685,0.003069286987325196,3.4829735452347183e-06,-0.3134479389525347,-0.0003941239716687663,0.034215626000751696,-0.16336481610243272,0.3182287339051379,0.2384182614463885,-0.025095078244820344,0.2813648986123166,-0.0409849839972538,0.09318069537432361,0.00011434886735282817,-0.00020858798945320233,0.0029597766415757915,0.5248547534431887,0.9014327323961898,-0.0022463397756091576,0.0014054131343308927,0.0016447251419207146,7.0,7.0,7.0,7.0,7.0,7.0,7.0,7.0,1.1380188557557622,1.1380188557557622,1.2696067485074631,1.2696067485074631,1.2697552599544242,1.2697552599544242,1.1381845370509514,1.1381845370509514,-0.013541138503667297,0.08871566309890912,-0.01528419487690506,0.0008590176720799685,0.003069286987325196,3.4829735452347183e-06
8.0,0.14,0.17898147195129682,0.0104422643564717,0.24844716747610024,0.17702077286987083,0.010308906896936254,0.24858416458402444,-0.0019606990814259873,-0.00013335745953544677,0.00013699710792419717,0.0019699983013947127,0.09251457997223418,0.00010937698882895454,-0.00020366507773673917,min_task,none,false,false,7.0,7.0,7.0,7.0,7.0,7.0,7.0,7.0,-0.014348186067080061,0.09204386563986809,-0.01624291239522783,0.000886509892349009,0.003457653670766811,2.3521924104414667e-06,-0.3114586164302215,-0.00037668125091588157,0.027727650294459776,-0.17848197047061215,0.3267987962774949,0.23816253518495967,-0.02818246460103881,0.31514238097090574,-0.04641123279908966,0.09251457997223418,0.00010937698882895454,-0.00020366507773673917,0.0031664482588157437,0.5229844416698038,0.9006520215553788,-0.0028683368099221025,0.0020384419386974273,0.0020649480785823585,7.0,7.0,7.0,7.0,7.0,7.0,7.0,7.0,1.138465585961347,1.138465585961347,1.2691152338700018,1.2691152338700018,1.269257284166963,1.269257284166963,1.1386239357172754,1.1386239357172754,-0.014348186067080061,0.09204386563986809,-0.01624291239522783,0.000886509892349009,0.003457653670766811,2.3521924104414667e-06
9.0,0.16,0.17919738599640025,0.010636761231599528,0.24843368345154498,0.1770203053484684,0.010456429288700211,0.24858416458402444,-0.002177080647931845,-0.0001803319428993165,0.00015048113247945194,0.002189713298233694,0.0917732841428009,0.00010487593555104626,-0.00024128025389272737,min_task,none,false,false,7.0,7.0,7.0,7.0,7.0,7.0,7.0,7.0,-0.0148771174645195,0.092150499975151,-0.016418271785008216,0.0008771897352150653,0.003821944756278191,-1.7993683999013755e-07,-0.30921243635588,-0.00036035732420517443,0.02707358811697245,-0.1923345098537098,0.3248366767274058,0.23307216811460646,-0.030647076047823744,0.34579854784546676,-0.051773460120719,0.0917732841428009,0.00010487593555104626,-0.00024128025389272737,0.0033049028244395763,0.521018874656089,0.8998383526921905,-0.003563332353788989,0.0028299510673562467,0.0025210129133533946,7.0,7.0,7.0,7.0,7.0,7.0,7.0,7.0,1.1389627415080905,1.1389627415080905,1.268568212361736,1.268568212361736,1.268703512152743,1.268703512152743,1.1391134354741324,1.1391134354741324,-0.0148771174645195,0.092150499975151,-0.016418271785008216,0.0008771897352150653,0.003821944756278191,-1.7993683999013755e-07
10.0,0.18,0.17938667687288937,0.01087692497981066,0.2484222441015164,0.17701944958627513,0.010643892478765021,0.24858416458402444,-0.002367227286614232,-0.00023303250104563834,0.00016192048250804336,0.0023841743677194003,0.09095769797647273,0.00010096972491418477,-0.0003172993683442593,min_task,none,false,false,7.0,7.0,7.0,7.0,7.0,7.0,7.0,7.0,-0.015239157196022222,0.09029491581763845,-0.016112784664351183,0.0008446014003604629,0.004166858952537331,-3.5777295141296496e-06,-0.30671323908011733,-0.0003456178014239266,0.032073165352174686,-0.20564281705134652,0.3164586665303341,0.22506103997298083,-0.03260463170073914,0.37400168841663217,-0.05711363351110681,0.09095769797647273,0.00010096972491418477,-0.0003172993683442593,0.0033727916902047497,0.5189582284850769,0.8989898572652332,-0.004332394005028459,0.0037927660213231138,0.0030114173127172594,7.0,7.0,7.0,7.0,7.0,7.0,7.0,7.0,1.1395096556795035,1.1395096556795035,1.2679662655120845,1.2679662655120845,1.2680948036533553,1.2680948036533553,1.1396526821636497,1.1396526821636497,-0.015239157196022222,0.09029491581763845,-0.016112784664351183,0.0008446014003604629,0.004166858952537331,-3.5777295141296496e-06
11.0,0.19999999999999998,0.1795500531118358,0.011166249116693365,0.24841264792219964,0.177017987367226,0.010875569383765608,0.24858416458402444,-0.0025320657446098183,-0.00029067973292775696,0.00017151666182479985,0.0025544607273248394,0.09006861541757828,9.777185528494822e-05,-0.0004255953744342187,min_task,none,false,false,7.0,7.0,7.0,7.0,7.0,7.0,7.0,7.0,-0.015509626989758532,0.08731295151954506,-0.015531239891336915,0.0007976623334958635,0.004496592602667304,-7.4888887034277785e-06,-0.3039641784696709,-0.000332865359199017,0.04217735980276728,-0.21894413442215052,0.30436493202465553,0.21531081453382336,-0.034167139477451675,0.40027450287508265,-0.06245087627323846,0.09006861541757828,9.777185528494822e-05,-0.0004255953744342187,0.0033699629248102503,0.5168004093295949,0.8981035667759185,-0.005176587972169243,0.004938816921762226,0.0035348055393222087,7.0,7.0,7.0,7.0,7.0,7.0,7.0,7.0,1.1401057169931428,1.1401057169931428,1.2673098943041674,1.2673098943041674,1.267431967737738,1.267431967737738,1.1402414088967137,1.1402414088967137,-0.015509626989758532,0.08731295151954506,-0.015531239891336915,0.0007976623334958635,0.004496592602667304,-7.4888887034277785e-06
12.0,0.21999999999999997,0.17968867579807257,0.011508089035966543,0.24840469499090698,0.17701562307684054,0.0111555772815788,0.24858416458402444,-0.0026730527212320276,-0.00035251175438774304,0.00017946959311745947,0.002702162971088387,0.08910680688048925,9.539064572833188e-05,-0.0005587515417592605,min_task,none,false,false,7.0,7.0,7.0,7.0,7.0,7.0,7.0,7.0,-0.015738244719601686,0.08375335946354676,-0.014811080777209211,0.0007421008651977391,0.00481445465537297,-1.1681763980454425e-05,-0.30096809454896306,-0.00032246702451272627,0.05657227278005435,-0.23261830511534487,0.2903060601107899,0.20453404378176643,-0.035436176519575674,0.42500152523308227,-0.06778717617121086,0.08910680688048925,9.539064572833188e-05,-0.0005587515417592605,0.0032974735168530256,0.5145421386194048,0.8971759061086925,-0.006096818261154733,0.006279299889493999,0.0040898200946186125,7.0,7.0,7.0,7.0,7.0,7.0,7.0,7.0,1.1407503260573204,1.1407503260573204,1.266599577656324,1.266599577656324,1.2667158107427678,1.2667158107427678,1.14087938077012,1.14087938077012,-0.015738244719601686,0.08375335946354676,-0.014811080777209211,0.0007421008651977391,0.00481445465537297,-1.1681763980454425e-05
13.0,0.23999999999999996,0.1798038616101949,0.0119057069460744,0.2483982000781692,0.17701196931823887,0.0114878787323215,0.24858416458402444,-0.002791892291956033,-0.00041782821375289936,0.0001859645058552295,0.0028291033532781068,0.08807306606404579,9.393244841006649e-05,-0.0007086886334441457,min_task,none,false,false,7.0,7.0,7.0,7.0,7.0,7.0,7.0,7.0,-0.01595633991852452,0.07997080183160644,-0.01404353005059897,0.0006814512186850725,0.005122723330773723,-1.600259786428282e-05,-0.29772775747118807,-0.00031477262430965107,0.0742725420021563,-0.24691008785817686,0.2753980518749874,0.19314445625939589,-0.03650005644374722,0.4484436777653648,-0.07311166380524128,0.08807306606404579,9.393244841006649e-05,-0.0007086886334441457,0.003156770130889856,0.5121796523176393,0.8962029949534626,-0.007093717916358948,0.007824792260638449,0.004674995439239802,7.0,7.0,7.0,7.0,7.0,7.0,7.0,7.0,1.141442869919385,1.141442869919385,1.2658358120700344,1.2658358120700344,1.2659471646290716,1.2659471646290716,1.1415663562856015,1.1415663562856015,-0.01595633991852452,0.07997080183160644,-0.01404353005059897,0.0006814512186850725,0.005122723330773723,-1.600259786428282e-05
14.0,0.25999999999999995,0.17989688686084826,0.012362302166350023,0.2483929982066788,0.17700653207190797,0.011876282178987079,0.24858416458402444,-0.002890354788940286,-0.00048601998736294387,0.00019116637734564734,0.002937160332343772,0.08696823932670121,9.350314993062795e-05,-0.0008672132242826736,min_task,none,false,false,7.0,7.0,7.0,7.0,7.0,7.0,7.0,7.0,-0.016181967311038215,0.07618932094604858,-0.013288260987121013,0.0006177402443699156,0.005422640749005677,-2.034663479978238e-05,-0.2942460242296729,-0.0003101261081049932,0.0942046589562209,-0.2619490752115875,0.26033529841046715,0.1813675807639598,-0.03743304863918462,0.4707552462185672,-0.07840394674567923,0.08696823932670121,9.350314993062795e-05,-0.0008672132242826736,0.0029490244047924623,0.509709142596872,0.8951808260357775,-0.008167580147606773,0.0095853260165671,0.005288685024507101,7.0,7.0,7.0,7.0,7.0,7.0,7.0,7.0,1.1421827080872946,1.1421827080872946,1.2650191384474276,1.2650191384474276,1.2651269024767682,1.2651269024767682,1.1423020604839231,1.1423020604839231,-0.016181967311038215,0.07618932094604858,-0.013288260987121013,0.0006177402443699156,0.005422640749005677,-2.034663479978238e-05
15.0,0.27999999999999997,0.17996885985329514,0.012881028657044463,0.24838894597390532,0.17699869556485065,0.012324442150130302,0.24858416458402444,-0.002970164288444488,-0.0005565865069141612,0.0001952186101191189,0.003028163592966321,0.08579324332696858,9.420829911879889e-05,-0.00102648233996275,min_task,none,false,false,7.0,7.0,7.0,7.0,7.0,7.0,7.0,7.0,-0.016423591554065222,0.07254567157903243,-0.01258356226608932,0.0005519617580385545,0.005714485214714725,-2.46388659978376e-05,-0.29052593632035106,-0.0003088710939826673,0.11527981766088312,-0.2777679894830234,0.24553460136050237,0.1693127473171081,-0.03829557124621736,0.4920009722658152,-0.08363686055387784,0.08579324332696858,9.420829911879889e-05,-0.00102648233996275,0.002674614077969592,0.5071270287829591,0.8941053652262752,-0.009318321634239101,0.011570425134541033,0.005929016002311523,7.0,7.0,7.0,7.0,7.0,7.0,7.0,7.0,1.1429691661614727,1.1429691661614727,1.264150160087263,1.264150160087263,1.2642559457464368,1.2642559457464368,1.143086166438216,1.143086166438216,-0.016423591554065222,0.07254567157903243,-0.01258356226608932,0.0005519617580385545,0.005714485214714725,-2.46388659978376e-05
16.0,0.3,0.1800206391063059,0.013465001674437786,0.24838592062890996,0.17698770700719088,0.012835858980831664,0.24858416458402444,-0.00303293209911501,-0.0006291426936061214,0.00019824395511447435,0.003103836064050351,0.08454907482596813,9.615214601607038e-05,-0.0011793800038905902,min_task,none,false,false,7.0,7.0,7.0,7.0,7.0,7.0,7.0,7.0,-0.016682802592986823,0.06911889911237563,-0.01195335682715925,0.00048440607261495327,0.005997686117289896,-2.8821475076243197e-05,-0.2865707776201076,-0.0003113517347554232,0.13645565523373565,-0.2943198606521744,0.23123250707283205,0.15702002185370398,-0.03913477211984143,0.5121722646420116,-0.08877887041965146,0.08454907482596813,9.615214601607038e-05,-0.0011793800038905902,0.002332743049572138,0.504430116389057,0.8929726031411229,-0.010545472982203756,0.013789112919071308,0.006593867863379588,7.0,7.0,7.0,7.0,7.0,7.0,7.0,7.0,1.1438015342213126,1.1438015342213126,1.2632295545212624,1.2632295545212624,1.2633352664568165,1.2633352664568165,1.1439182828089414,1.1439182828089414,-0.016682802592986823,0.06911889911237563,-0.01195335682715925,0.00048440607261495327,0.005997686117289896,-2.8821475076243197e-05
17.0,0.32,0.18005278209779596,0.01411729535204472,0.24838381807119647,0.17697266134762585,0.013413877963295332,0.24858416458402444,-0.0030801207501701122,-0.0007034173887493882,0.00020034651282796467,0.003165766666010909,0.0832368153176851,9.943584295946991e-05,-0.0013198032142246287,min_task,none,false,false,7.0,7.0,7.0,7.0,7.0,7.0,7.0,7.0,-0.0169563712895088,0.06595051729941685,-0.011412025179027853,0.00041489166665456876,0.006270961017158272,-3.284593732341509e-05,-0.2823841056635502,-0.00031790983500751247,0.15678629750664955,-0.31149435067637166,0.2175510165995947,0.1444908813322772,-0.03998522214769448,0.531202203664089,-0.09379624987240973,0.0832368153176851,9.943584295946991e-05,-0.0013198032142246287,0.001921192969434134,0.5016156840382756,0.8917785777203234,-0.01184819265646523,0.016249895226022777,0.007280872169661188,7.0,7.0,7.0,7.0,7.0,7.0,7.0,7.0,1.1446790679544538,1.1446790679544538,1.26225808095302,1.26225808095302,1.2623658863968563,1.2623658863968563,1.1447979458491342,1.1447979458491342,-0.0169563712895088,0.06595051729941685,-0.011412025179027853,0.00041489166665456876,0.006270961017158272,-3.284593732341509e-05
18.0,0.34,0.1800655140981884,0.014840932872018207,0.2483825504345351,0.17695248619336668,0.014061687834997253,0.24858416458402444,-0.0031130279048217357,-0.0007792450370209536,0.00020161414948932643,0.0032154025920862377,0.08185763231377459,0.00010415503683746339,-0.001442857660082385,min_task,none,false,false,7.0,7.0,7.0,7.0,7.0,7.0,7.0,7.0,-0.017237850450234342,0.06305826440203989,-0.010967699309207624,0.00034293113006798155,0.006532462657610795,-3.666833198239478e-05,-0.27796976535784784,-0.0003288790472064592,0.1754603792203448,-0.32913329314453543,0.2045418949949481,0.13170836878034725,-0.04086962706616887,0.5489793176553854,-0.09865508263528029,0.08185763231377459,0.00010415503683746339,-0.001442857660082385,0.0014361971151708416,0.49868152516101455,0.8905193806397529,-0.013225301147035752,0.018960725109223493,0.007987430792883702,7.0,7.0,7.0,7.0,7.0,7.0,7.0,7.0,1.14560099111948,1.14560099111948,1.2612365844731783,1.2612365844731783,1.2613488747691348,1.2613488747691348,1.1457246146966247,1.1457246146966247,-0.017237850450234342,0.06305826440203989,-0.010967699309207624,0.00034293113006798155,0.006532462657610795,-3.666833198239478e-05
19.0,0.36000000000000004,0.18005871007087326,0.015638870740245385,0.2483820436137767,0.17692592703544696,0.014782318510410487,0.24858416458402444,-0.003132783035426301,-0.0008565522298348976,0.00020212097024774334,0.0032540534961957605,0.0804127785383053,0.00011039706586592692,-0.0015449665961280695,min_task,none,false,false,7.0,7.0,7.0,7.0,7.0,7.0,7.0,7.0,-0.017518853438560824,0.060445473490862406,-0.010624493439136882,0.00026785295732732365,0.006779928015869513,-4.024684722521015e-05,-0.27333189134944497,-0.00034457691165136787,0.1918270778347341,-0.34704537016279347,0.19221651205699913,0.1186504613809342,-0.04179955806443473,0.5653602053577125,-0.10332307967927327,0.0804127785383053,0.00011039706586592692,-0.0015449665961280695,0.0008724248550385337,0.49562596259053376,0.8891911560746301,-0.014675332019144872,0.021928953943579715,0.008710749912791388,7.0,7.0,7.0,7.0,7.0,7.0,7.0,7.0,1.1465664983737203,1.1465664983737203,1.260165997851367,1.260165997851367,1.2602853451656637,1.2602853451656637,1.1466976690878807,1.1466976690878807,-0.017518853438560824,0.060445473490862406,-0.010624493439136882,0.00026785295732732365,0.006779928015869513,-4.024684722521015e-05
20.0,0.38000000000000006,0.18003188496958425,0.01651397853066253,0.24838223491332645,0.17689153291653337,0.015578637962079929,0.24858416458402444,-0.003140352053050882,-0.0009353405685826009,0.00020192967069798673,0.0032829024640164853,0.07890358989827811,0.00011823796020145405,-0.001623899330120418,min_task,none,false,false,7.0,7.0,7.0,7.0,7.0,7.0,7.0,7.0,-0.017790092927842227,0.058107449065874076,-0.010383998714990728,0.00018889337181667818,0.007010823873529003,-4.354074813709118e-05,-0.26847490332613433,-0.0003652954606717419,0.20541061278662934,-0.3650197557989983,0.18056591205307154,0.10529906204073111,-0.04277624160409021,0.580181080455027,-0.10777117252960361,0.07890358989827811,0.00011823796020145405,-0.001623899330120418,0.00022306250470372518,0.4924478482377139,0.8877900974966634,-0.016196596136199434,0.025161273577901645,0.00944788668057943,7.0,7.0,7.0,7.0,7.0,7.0,7.0,7.0,1.147574757827879,1.147574757827879,1.2590473414782757,1.2590473414782757,1.2591764524416185,1.2591764524416185,1.1477164088326266,1.1477164088326266,-0.017790092927842227,0.058107449065874076,-0.010383998714990728,0.00018889337181667818,0.007010823873529003,-4.354074813709118e-05
21.0,0.4000000000000001,0.1799841893785473,0.017469015324257146,0.24838307089550504,0.176847642675659,0.016453348158265116,0.24858416458402444,-0.003136546702888293,-0.0010156671659920305,0.0002010936885193937,0.0033030203879231565,0.0773314828300342,0.00012773943042875623,-0.0016787284494591363,min_task,none,false,false,7.0,7.0,7.0,7.0,7.0,7.0,7.0,7.0,-0.018042229418148696,0.05603580536646979,-0.010246272192577417,0.00010526733273152309,0.007222484426102079,-4.651027836578131e-05,-0.2634034972164058,-0.0003912910669422541,0.21591406512150293,-0.3828385019164399,0.16957430447940652,0.09164616694203556,-0.04379144965853184,0.5932682569397644,-0.11197483145557434,0.0773314828300342,0.00012773943042875623,-0.0016787284494591363,-0.0005200257352604389,0.48914655600547924,0.8863124463367024,-0.017787254941123085,0.028663653570048526,0.010195805078818676,7.0,7.0,7.0,7.0,7.0,7.0,7.0,7.0,1.148624912939031,1.148624912939031,1.2578817218996228,1.2578817218996228,1.2580233898306654,1.2580233898306654,1.1487800545344071,1.1487800545344071,-0.018042229418148696,0.05603580536646979,-0.010246272192577417,0.00010526733273152309,0.007222484426102079,-4.651027836578131e-05
22.0,0.4200000000000001,0.1799144085456137,0.018506603934972554,0.2483845054545847,0.1767923719026108,0.017408979967568034,0.24858416458402444,-0.0031220366430028956,-0.00109762396740452,0.00019965912943972763,0.003315381568091712,0.07569795143907788,0.0001389460097476411,-0.0017097270226009527,min_task,none,false,false,7.0,7.0,7.0,7.0,7.0,7.0,7.0,7.0,-0.018266556645144493,0.054221403496456065,-0.010210479871219712,1.6224349842127827e-05,0.007412237131959282,-4.91171142780939e-05,-0.258122634341287,-0.00042277416911118523,0.22321372739207415,-0.400287427058844,0.15922806945178292,0.07769813205839421,-0.0448285150827031,0.6044475332237672,-0.11591505885205199,0.07569795143907788,0.0001389460097476411,-0.0017097270226009527,-0.0013660745506455488,0.4857219733778618,0.8847544951237175,-0.019445398383539477,0.03244127705902313,0.01095143722519015,7.0,7.0,7.0,7.0,7.0,7.0,7.0,7.0,1.1497160835420879,1.1497160835420879,1.25667032930968,1.25667032930968,1.256827386501521,1.256827386501521,1.1498877491513255,1.1498877491513255,-0.018266556645144493,0.054221403496456065,-0.010210479871219712,1.6224349842127827e-05,0.007412237131959282,-4.91171142780939e-05
23.0,0.4400000000000001,0.17982096360468264,0.019629203886720424,0.24838649811915223,0.17672360073400306,0.0184478869459482,0.24858416458402444,-0.0030973628706795764,-0.0011813169407722257,0.0001976664648722093,0.0033208791755429696,0.07400456472430346,0.00015188249403750063,-0.0017182184474711622,min_task,none,false,false,7.0,7.0,7.0,7.0,7.0,7.0,7.0,7.0,-0.018455540290103493,0.052656332979242194,-0.010275308090001182,-7.890732926606127e-05,0.007577513714134639,-5.132509083604688e-05,-0.2526375299471041,-0.0004598994494258065,0.2273454742622502,-0.4171653023256567,0.14952172696361937,0.06347863797367635,-0.04586347729797904,0.613552412733418,-0.11957902001322919,0.07400456472430346,0.00015188249403750063,-0.0017182184474711622,-0.0023251504673099136,0.48217449527208917,0.8831125968929439,-0.02116912297537293,0.036498478334567784,0.011711746246942524,7.0,7.0,7.0,7.0,7.0,7.0,7.0,7.0,1.1508473659583907,1.1508473659583907,1.2554144343286906,1.2554144343286906,1.255589705663291,1.255589705663291,1.151038560075278,1.151038560075278,-0.018455540290103493,0.052656332979242194,-0.010275308090001182,-7.890732926606127e-05,0.007577513714134639,-5.132509083604688e-05
24.0,0.46000000000000013,0.17970191428112658,0.020839083977809324,0.24838901257825474,0.17663896262330653,0.019572237928324354,0.24858416458402444,-0.0030629516578200566,-0.0012668460494849702,0.00019515200576969427,0.0033203397531870508,0.0722529640880174,0.00016655179912675595,-0.001706392335532458,min_task,none,false,false,7.0,7.0,7.0,7.0,7.0,7.0,7.0,7.0,-0.018603217458843267,0.051335220623681094,-0.010439221242011281,-0.00018068607397218588,0.007715943389720382,-5.310099723197411e-05,-0.24695364211091592,-0.0005027569663191913,0.22848483547776793,-0.4332911517668666,0.14046176061658067,0.04903063307280117,-0.04686632901266348,0.6204310345723623,-0.12296029157736746,0.0722529640880174,0.00016655179912675595,-0.001706392335532458,-0.003407859296312165,0.4785050224793864,0.8813831820810649,-0.0229566055863928,0.04083868466478857,0.012473786934769663,7.0,7.0,7.0,7.0,7.0,7.0,7.0,7.0,1.15201783221668,1.15201783221668,1.2541153843571633,1.2541153843571633,1.254311643267833,1.254311643267833,1.152231481474601,1.152231481474601,-0.018603217458843267,0.051335220623681094,-0.010439221242011281,-0.00018068607397218588,0.007715943389720382,-5.310099723197411e-05
25.0,0.48000000000000015,0.17955496270084054,0.022138295140948734,0.24839201542751627,0.17653583421818958,0.020784008355582816,0.24858416458402444,-0.003019128482650957,-0.0013542867853659178,0.0001921491565081701,0.0033145362858351428,0.07044486126752914,0.00018293332749784905,-0.001677099831849402,min_task,none,false,false,7.0,7.0,7.0,7.0,7.0,7.0,7.0,7.0,-0.01870546455943161,0.05025606312381568,-0.010700620264380787,-0.00028953038884319546,0.007825426836537575,-5.4415304546545304e-05,-0.2410766617009165,-0.0005513646608202555,0.22692254860383282,-0.44850958087478743,0.13206891345252755,0.03441744400557549,-0.047802330034553794,0.6249517603788018,-0.126058729543653,0.07044486126752914,0.00018293332749784905,-0.001677099831849402,-0.0046250454008530985,0.4747149661399662,0.8795627836926057,-0.024806168959608327,0.04546436444310683,0.013234760677840428,7.0,7.0,7.0,7.0,7.0,7.0,7.0,7.0,1.1532265284829657,1.1532265284829657,1.252774599768912,1.252774599768912,1.252994527317756,1.252994527317756,1.1534654366988906,1.1534654366988906,-0.01870546455943161,0.05025606312381568,-0.010700620264380787,-0.00028953038884319546,0.007825426836537575,-5.4415304546545304e-05
26.0,0.5000000000000001,0.17937745812965306,0.023528644173812344,0.2483954751351728,0.17641132648035657,0.022084970278260944,0.24858416458402444,-0.0029661316492964884,-0.0014436738955513999,0.00018868944885164218,0.0033041995983540094,0.0685820367748091,0.0002009819084968622,-0.0016336411382844467,min_task,none,false,false,7.0,7.0,7.0,7.0,7.0,7.0,7.0,7.0,-0.01876013981634241,0.04942071846708466,-0.011057941840735984,-0.0004056994415699628,0.007904188982248875,-5.5242719419570477e-05,-0.23501250384838857,-0.0006056625629608706,0.22303737111493274,-0.46269407110672833,0.12437937189956721,0.019723141952086798,-0.04863331376987178,0.6270072853680712,-0.12887998079359494,0.0685820367748091,0.0002009819084968622,-0.0016336411382844467,-0.005987498411413369,0.4708062590793701,0.8776480711735068,-0.02671633550691815,0.05037698320875669,0.013992061670495931,7.0,7.0,7.0,7.0,7.0,7.0,7.0,7.0,1.1544724728275106,1.1544724728275106,1.2513935701685885,1.2513935701685885,1.2516397177610719,1.2516397177610719,1.154739280588565,1.154739280588565,-0.01876013981634241,0.04942071846708466,-0.011057941840735984,-0.0004056994415699628,0.007904188982248875,-5.5242719419570477e-05
27.0,0.5200000000000001,0.1791664025983039,0.025011668778619676,0.24839936122990597,0.17626227718549997,0.023476680990443182,0.24858416458402444,-0.0029041254128039373,-0.0015349877881764944,0.00018480335411846793,0.0032900279942331863,0.06666633889120678,0.00022062734833304924,-0.0015795568212508505,min_task,none,false,false,7.0,7.0,7.0,7.0,7.0,7.0,7.0,7.0,-0.018767109311692245,0.048835127099413435,-0.011509720960970775,-0.0005292798164639136,0.007950810942382718,-5.556251633532785e-05,-0.22876730122025576,-0.0006655089272147183,0.21726784797286122,-0.4757483024438456,0.11744504840851283,0.005052177357572818,-0.049318933680281854,0.626517291380832,-0.13143468259953772,0.06666633889120678,0.00022062734833304924,-0.0015795568212508505,-0.007505680723508194,0.4667813743699184,0.8756358931129583,-0.02868586669712247,0.05557696859269377,0.014743312034174734,7.0,7.0,7.0,7.0,7.0,7.0,7.0,7.0,1.1557546524663775,1.1557546524663775,1.2499738508958866,1.2499738508958866,1.2502486069326497,1.2502486069326497,1.1560518015691235,1.1560518015691235,-0.018767109311692245,0.048835127099413435,-0.011509720960970775,-0.0005292798164639136,0.007950810942382718,-5.556251633532785e-05
28.0,0.5400000000000001,0.17891845744305562,0.02658861421301229,0.24840364371254464,0.17608524494385314,0.024960470261481144,0.24858416458402444,-0.0028332124992024865,-0.001628143951531144,0.00018052087147979456,0.0032726951550036665,0.06469968323206791,0.0002417746002322491,-0.0015184328682457994,min_task,none,false,false,7.0,7.0,7.0,7.0,7.0,7.0,7.0,7.0,-0.018728169580490096,0.04850933748748708,-0.012054636046922133,-0.0006601773636529929,0.007964241512107005,-5.5358614920660656e-05,-0.222347399248979,-0.000730678429770511,0.21008457395498936,-0.4876056167377573,0.11133321289137509,-0.009471612228755713,-0.04981777999981763,0.6234296562906594,-0.13373741200177458,0.06469968323206791,0.0002417746002322491,-0.0015184328682457994,-0.009189486406868473,0.4626433511310364,0.8735233286094207,-0.030713786214472183,0.06106368476047506,0.015486384268321985,7.0,7.0,7.0,7.0,7.0,7.0,7.0,7.0,1.157072020607566,1.157072020607566,1.2485170599095292,1.2485170599095292,1.2488226204871764,1.2488226204871764,1.1574017234427287,1.1574017234427287,-0.018728169580490096,0.04850933748748708,-0.012054636046922133,-0.0006601773636529929,0.007964241512107005,-5.5358614920660656e-05
29.0,0.5600000000000002,0.17862995083380756,0.028260411717187656,0.24840829269010228,0.17587650488494871,0.026537426149001335,0.24858416458402444,-0.002753445948858846,-0.0017229855681863207,0.00017587189392215263,0.0032528564039221424,0.06268405286890479,0.0002643045421510061,-0.0014537275340861346,min_task,none,false,false,7.0,7.0,7.0,7.0,7.0,7.0,7.0,7.0,-0.018646879585086963,0.048457362463034996,-0.012691544872726052,-0.0007981131745762253,0.007943789461175665,-5.4619403000498546e-05,-0.21575935337060564,-0.000800862470290318,0.20196427572245346,-0.49822678951620397,0.10612555490608884,-0.02370661569244462,-0.05008830379432318,0.617720276081012,-0.13580545947624562,0.06268405286890479,0.0002643045421510061,-0.0014537275340861346,-0.011048039200982726,0.45839582730336637,0.8713077468668491,-0.03279938598323211,0.06683541646295947,0.016219410278573914,7.0,7.0,7.0,7.0,7.0,7.0,7.0,7.0,1.158423493014148,1.158423493014148,1.2470248751323572,1.2470248751323572,1.2473632187574109,1.2473632187574109,1.1587877068199668,1.1587877068199668,-0.018646879585086963,0.048457362463034996,-0.012691544872726052,-0.0007981131745762253,0.007943789461175665,-5.4619403000498546e-05
30.0,0.5800000000000002,0.17829688638293126,0.030027658751280478,0.24841327822389067,0.17563204615333816,0.02820837939425577,0.24858416458402444,-0.002664840229593096,-0.0018192793570247084,0.00017088636013376513,0.003231153505519939,0.06062149897391425,0.0002880753305653948,-0.0013886259235764808,min_task,none,false,false,7.0,7.0,7.0,7.0,7.0,7.0,7.0,7.0,-0.01852832101984087,0.04869691369711697,-0.013419518866952309,-0.0009426224141969429,0.007889099274779678,-5.3337323877776535e-05,-0.20900992823337736,-0.0008756715408945858,0.19336678355005324,-0.5075963696297076,0.10191685478588783,-0.03749554286893923,-0.050089509805609736,0.6093916779892506,-0.13765750891944117,0.06062149897391425,0.0002880753305653948,-0.0013886259235764808,-0.013089534255403676,0.4540430789088426,0.8689868743396993,-0.03494221506138978,0.0728893623901391,0.016940777071641384,7.0,7.0,7.0,7.0,7.0,7.0,7.0,7.0,1.1598079443740925,1.1598079443740925,1.2454990322880262,1.2454990322880262,1.245871898465573,1.245871898465573,1.1602083501634777,1.1602083501634777,-0.01852832101984087,0.04869691369711697,-0.013419518866952309,-0.0009426224141969429,0.007889099274779678,-5.3337323877776535e-05
31.0,0.6000000000000002,0.17791495293952614,0.03189060095675147,0.24841857037521345,0.17534757136497184,0.029973886420150482,0.24858416458402444,-0.0025673815745543005,-0.0019167145366009858,0.0001655942088109874,0.003208218229199845,0.05851414193267614,0.00031292428467131074,-0.001325926118332717,min_task,none,false,false,7.0,7.0,7.0,7.0,7.0,7.0,7.0,7.0,-0.01837880421290354,0.049249030661507286,-0.014237875594629298,-0.0010930548752827289,0.007800113080729726,-5.1508267106542975e-05,-0.202106098765257,-0.0009546395590943037,0.18471568471118627,-0.5157178592337315,0.09881333460697471,-0.050667914410361954,-0.04978138402987106,0.5984705969095893,-0.1393123073808182,0.05851414193267614,0.00031292428467131074,-0.001325926118332717,-0.015321125355963515,0.44959006513259553,0.8665588685307614,-0.037142052246750566,0.07922163716516337,0.017649109998058594,7.0,7.0,7.0,7.0,7.0,7.0,7.0,7.0,1.1612242045429353,1.1612242045429353,1.2439413232133771,1.2439413232133771,1.2443501947148825,1.2443501947148825,1.1616621904432851,1.1616621904432851,-0.01837880421290354,0.049249030661507286,-0.014237875594629298,-0.0010930548752827289,0.007800113080729726,-5.1508267106542975e-05
32.0,0.6200000000000002,0.17747953568213548,0.03384911564940625,0.24842413942231806,0.1750184981764173,0.03183421097318622,0.24858416458402444,-0.002461037505718189,-0.0020149046762200293,0.0001600251617063786,0.0031846749459221264,0.05636417285544194,0.0003386702461367617,-0.001267958584359962,min_task,none,false,false,7.0,7.0,7.0,7.0,7.0,7.0,7.0,7.0,-0.018205539224500536,0.05013763570710595,-0.015146210793979837,-0.0012485759818885904,0.007677022216851658,-4.913080784562773e-05,-0.19505505292741665,-0.0010372300118468515,0.17638316645340119,-0.5226080497957176,0.09693081279530573,-0.06304281046736336,-0.04912504467695205,0.5850047530808262,-0.14078740411643834,0.05636417285544194,0.0003386702461367617,-0.001267958584359962,-0.01774885669681333,0.44504247842352646,0.864022397365935,-0.0393988639613072,0.08582728102119266,0.018343245115919962,7.0,7.0,7.0,7.0,7.0,7.0,7.0,7.0,1.1626710547042984,1.1626710547042984,1.242353594590875,1.242353594590875,1.2427996831921369,1.2427996831921369,1.1631477034310016,1.1631477034310016,-0.018205539224500536,0.05013763570710595,-0.015146210793979837,-0.0012485759818885904,0.007677022216851658,-4.913080784562773e-05
33.0,0.6400000000000002,0.17698572863083062,0.035902696565094074,0.24842995621317437,0.1746399631208255,0.03378930447297854,0.24858416458402444,-0.002345765510005121,-0.002113392092115536,0.0001542083708500619,0.0031611425441739095,0.054173855405941794,0.00036511635533336323,-0.001216538692294052,min_task,none,false,false,7.0,7.0,7.0,7.0,7.0,7.0,7.0,7.0,-0.01801629053675706,0.0513890366804795,-0.01614442718254873,-0.0014081671261213535,0.007520212072769705,-4.6205351908815655e-05,-0.18786419593040965,-0.0011228437255054653,0.1686792812884749,-0.5282908367917654,0.09639275438085954,-0.07443173787546081,-0.048082620933620715,0.5690590845166913,-0.14209802923125645,0.054173855405941794,0.00036511635533336323,-0.001216538692294052,-0.020377635929492575,0.44040679871364957,0.8613767229386622,-0.04171274954546975,0.09270027598432604,0.01902219279805424,7.0,7.0,7.0,7.0,7.0,7.0,7.0,7.0,1.1641472234760015,1.1641472234760015,1.2407377470144796,1.2407377470144796,1.2412219825203847,1.2412219825203847,1.1646633036857268,1.1646633036857268,-0.01801629053675706,0.0513890366804795,-0.01614442718254873,-0.0014081671261213535,0.007520212072769705,-4.6205351908815655e-05
34.0,0.6600000000000003,0.17642834871129304,0.038050439517369604,0.2484359926118272,0.17420682786525066,0.03583878515688403,0.24858416458402444,-0.0022215208460423796,-0.0022116543604855723,0.00014817197219724187,0.0031382359396642753,0.0519455278587064,0.00039205318540909276,-0.001172950520456081,min_task,none,false,false,7.0,7.0,7.0,7.0,7.0,7.0,7.0,7.0,-0.017819032852280918,0.053031398174879445,-0.017232756804620226,-0.0015706243867675022,0.0073302042036438335,-4.273324832749581e-05,-0.1805411556518123,-0.0012108280613945576,0.1618456140696783,-0.5327908463478793,0.09732830118809264,-0.08464148270918907,-0.0466168873396407,0.5507117214707867,-0.14325616862352586,0.0519455278587064,0.00039205318540909276,-0.001172950520456081,-0.023211243327599357,0.4356903507955225,0.8586217883365247,-0.04408387647710926,0.09983356725044759,0.019685095081377918,7.0,7.0,7.0,7.0,7.0,7.0,7.0,7.0,1.1656513829770767,1.1656513829770767,1.2390957342802447,1.2390957342802447,1.2396187567118075,1.2396187567118075,1.166207344307435,1.166207344307435,-0.017819032852280918,0.053031398174879445,-0.017232756804620226,-0.0015706243867675022,0.0073302042036438335,-4.273324832749581e-05
35.0,0.6800000000000003,0.17580195151908312,0.0402910285905373,0.24844222199137822,0.17371368804328235,0.03798191613241301,0.24858416458402444,-0.0020882634758007668,-0.0023091124581242906,0.0001419425926462159,0.0031165674047315952,0.04968160529118008,0.00041926217994465,-0.0011379587448022966,min_task,none,false,false,7.0,7.0,7.0,7.0,7.0,7.0,7.0,7.0,-0.017621621984266693,0.05509419824151626,-0.018411774307227336,-0.0017345548678727209,0.00710759901720295,-3.871592385376683e-05,-0.17309378896747504,-0.001300487337708688,0.15605310922915014,-0.5361271638814318,0.09987033815332232,-0.09347686195685725,-0.04469068690118735,0.5300499338768471,-0.14426987509723377,0.04968160529118008,0.00041926217994465,-0.0011379587448022966,-0.026252370492869246,0.43090136386666994,0.8557583062262399,-0.046512408218042506,0.10721908838633738,0.02033117944333867,7.0,7.0,7.0,7.0,7.0,7.0,7.0,7.0,1.1671821448634545,1.1671821448634545,1.2374295627793936,1.2374295627793936,1.2379917176831567,1.2379917176831567,1.1677781165528605,1.1677781165528605,-0.017621621984266693,0.05509419824151626,-0.018411774307227336,-0.0017345548678727209,0.00710759901720295,-3.871592385376683e-05
36.0,0.7000000000000003,0.17510084895064731,0.042622722484935906,0.24844861972581556,0.17315488481464483,0.04021758247639842,0.24858416458402444,-0.0019459641360024815,-0.0024051400085374833,0.0001355448582088803,0.003096747856681657,0.04738458181526252,0.0004465193474431111,-0.0011118443835578002,min_task,none,false,false,7.0,7.0,7.0,7.0,7.0,7.0,7.0,7.0,-0.017431493787073298,0.057607689355653795,-0.019682397941253576,-0.0018983702052979856,0.006853022685752845,-3.415409633822501e-05,-0.16553018869203842,-0.0013910942929904067,0.15140363465013665,-0.5383074573651817,0.10415366103478231,-0.1007432704885692,-0.04226620184267917,0.5071663199567298,-0.1451428368789988,0.04738458181526252,0.0004465193474431111,-0.0011118443835578002,-0.029502681118157438,0.42604903224952134,0.852787847881015,-0.04899842738411213,0.1148477890071477,0.020959711683204114,7.0,7.0,7.0,7.0,7.0,7.0,7.0,7.0,1.1687380563367846,1.1687380563367846,1.2357412908658303,1.2357412908658303,1.2363426278081122,1.2363426278081122,1.1693738494231027,1.1693738494231027,-0.017431493787073298,0.057607689355653795,-0.019682397941253576,-0.0018983702052979856,0.006853022685752845,-3.415409633822501e-05
37.0,0.7200000000000003,0.1743191288886701,0.04504334065436187,0.24845516363586878,0.1725245192991495,0.04254426754712687,0.24858416458402444,-0.0017946095895206016,-0.002499073107235003,0.00012900094815565533,0.003079388124080752,0.04505703275348348,0.0004735991754765633,-0.0010944594680483023,min_task,none,false,false,7.0,7.0,7.0,7.0,7.0,7.0,7.0,7.0,-0.01725539888692266,0.06060236955854855,-0.021045875548746415,-0.002060277146219342,0.006567080859794469,-2.90471116119389e-05,-0.15785869081804055,-0.0014819024317721005,0.14793472051710296,-0.5393227181054647,0.11031324871589544,-0.10624900967496315,-0.039304131711363446,0.48215541257938793,-0.14587420552099928,0.04505703275348348,0.0004735991754765633,-0.0010944594680483023,-0.03296288590205754,0.4211435763131816,0.8497129313717057,-0.051541856749900326,0.12270966367455627,0.02156995039728642,7.0,7.0,7.0,7.0,7.0,7.0,7.0,7.0,1.1703175961312908,1.1703175961312908,1.2340330280704481,1.2340330280704481,1.2346733024908965,1.2346733024908965,1.1709927093409165,1.1709927093409165,-0.01725539888692266,0.06060236955854855,-0.021045875548746415,-0.002060277146219342,0.006567080859794469,-2.90471116119389e-05
38.0,0.7400000000000003,0.17345067715045076,0.047550248926025405,0.2484618343504364,0.1718164700258344,0.0449600287035968,0.24858416458402444,-0.0016342071246163714,-0.0025902202224286075,0.00012233023358804163,0.0030651000657196687,0.04270161666713054,0.0005002787377777466,-0.00108529534705023,min_task,none,false,false,7.0,7.0,7.0,7.0,7.0,7.0,7.0,7.0,-0.017099178930148312,0.0641084734947716,-0.02250375433363115,-0.0022182654342450367,0.006250321403336716,-2.3392439110187494e-05,-0.15008788174380558,-0.0015721591252946835,0.1456268185242976,-0.5391428090914555,0.11848265537733446,-0.10980738581812274,-0.03576285053262005,0.4551108584721282,-0.14645866714986444,0.04270161666713054,0.0005002787377777466,-0.00108529534705023,-0.03663282374028827,0.41619630265118274,0.8465371076956385,-0.05414238026251776,0.13079378090698157,0.022161105191886105,7.0,7.0,7.0,7.0,7.0,7.0,7.0,7.0,1.1719191704871652,1.1719191704871652,1.2323069340398318,1.2323069340398318,1.2329856127521535,1.2329856127521535,1.1726328000386474,1.1726328000386474,-0.017099178930148312,0.0641084734947716,-0.02250375433363115,-0.0022182654342450367,0.006250321403336716,-2.3392439110187494e-05
39.0,0.7600000000000003,0.17248920192562017,0.05014034437144494,0.2484686155544674,0.1710244135289909,0.04746247265449523,0.24858416458402444,-0.0014647883966292796,-0.002677871716949713,0.00011554902955704383,0.003054497267566392,0.04032107714664305,0.0005263419777952794,-0.001083559278141858,min_task,none,false,false,7.0,7.0,7.0,7.0,7.0,7.0,7.0,7.0,-0.016967586570331393,0.06815548286671161,-0.02405783384028311,-0.0023700936969019365,0.00590320781240048,-1.718535192660834e-05,-0.14222660518645722,-0.0016611193755202965,0.14441237800765946,-0.5377129653238875,0.12879249042789837,-0.11123863713294206,-0.03159762407433278,0.42612327813121315,-0.14688672520482918,0.04032107714664305,0.0005263419777952794,-0.001083559278141858,-0.04051154175112629,0.4112196625985918,0.8432650436689637,-0.05679936579035503,0.13908831138826824,0.022732300311220987,7.0,7.0,7.0,7.0,7.0,7.0,7.0,7.0,1.1735411091251777,1.1735411091251777,1.2305652170857146,1.2305652170857146,1.2312814878206733,1.2312814878206733,1.1742921627752743,1.1742921627752743,-0.016967586570331393,0.06815548286671161,-0.02405783384028311,-0.0023700936969019365,0.00590320781240048,-1.718535192660834e-05
40.0,0.7800000000000004,0.17142826094049696,0.05281003929620534,0.24847549410577247,0.1701418482107756,0.0500487306880799,0.24858416458402444,-0.0012864127297213535,-0.002761308608125443,0.00010867047825197096,0.0030481949106545545,0.03791824427783259,0.0005515841610132943,-0.0010882541794454647,min_task,none,false,false,7.0,7.0,7.0,7.0,7.0,7.0,7.0,7.0,-0.016864148406520302,0.0727716577824102,-0.025710103010851373,-0.00251327432135387,0.00552610367474359,-1.0418799312675365e-05,-0.13428396848532542,-0.001748060185109043,0.14418602803870312,-0.5349513154655451,0.14136896480774197,-0.11037174849207218,-0.02675995704523095,0.39527881528574826,-0.1471451505457022,0.03791824427783259,0.0005515841610132943,-0.0010882541794454647,-0.04459736745116659,0.40622730819552366,0.8399026004467136,-0.05951179081714844,0.1475805546801704,0.02328254481363309,7.0,7.0,7.0,7.0,7.0,7.0,7.0,7.0,1.1751816612456665,1.1751816612456665,1.2288101322429288,1.2288101322429288,1.229562917722595,1.229562917722595,1.175968776993565,1.175968776993565,-0.016864148406520302,0.0727716577824102,-0.025710103010851373,-0.00251327432135387,0.00552610367474359,-1.0418799312675365e-05
41.0,0.8000000000000004,0.17026129158918005,0.055555244331712134,0.24848246001601754,0.1691621215749663,0.05271543406258453,0.24858416458402444,-0.0010991700142137517,-0.0028398102691276003,0.00010170456800689953,0.0030468083142762203,0.03549603570012317,0.0005758164945668185,-0.001098256863477493,min_task,none,false,false,7.0,7.0,7.0,7.0,7.0,7.0,7.0,7.0,-0.016791067533358555,0.07798357777667926,-0.02746266154382118,-0.0026450587835900393,0.0051192680276149725,-3.083473359531298e-06,-0.12626934801092166,-0.0018322955054740234,0.14481518344201338,-0.5307474544387437,0.15633243264839553,-0.1070462702905263,-0.02119714500071695,0.3626583425917261,-0.14721754686462069,0.03549603570012317,0.0005758164945668185,-0.001098256863477493,-0.04888796740215492,0.4012341447110384,0.8364569065446849,-0.06227817176057441,0.1562569639659682,0.023810709856526273,7.0,7.0,7.0,7.0,7.0,7.0,7.0,7.0,1.1768389915859334,1.1768389915859334,1.2270439787465828,1.2270439787465828,1.2278319558530528,1.2278319558530528,1.1776605615170634,1.1776605615170634,-0.016791067533358555,0.07798357777667926,-0.02746266154382118,-0.0026450587835900393,0.0051192680276149725,-3.083473359531298e-06
42.0,0.8200000000000004,0.16898164426149373,0.058371350740713236,0.24848950630334213,0.168078460917913,0.05545868986465751,0.24858416458402444,-0.0009031833435807213,-0.0029126608760557254,9.46582806823082e-05,0.0030509496425095398,0.03305745717459517,0.0005988709155174204,-0.001112390704115147,min_task,none,false,false,7.0,7.0,7.0,7.0,7.0,7.0,7.0,7.0,-0.016749162068972492,0.0838156869954083,-0.029317628472555573,-0.00276242523005335,0.004682861068382177,4.831940563527736e-06,-0.11819239340223203,-0.001913191755649302,0.14615045205824884,-0.5249620718257949,0.17379587441122885,-0.10111426157676792,-0.014852106357685593,0.3283372643918952,-0.14708497625608663,0.03305745717459517,0.0005988709155174204,-0.001112390704115147,-0.05338038782735251,0.39625637882510295,0.8329364242059069,-0.06509649710174567,0.16510316857097057,0.02431551309657351,7.0,7.0,7.0,7.0,7.0,7.0,7.0,7.0,1.1785111765832152,1.1785111765832152,1.2252690968533717,1.2252690968533717,1.2260907215041894,1.2260907215041894,1.1793653763725394,1.1793653763725394,-0.016749162068972492,0.0838156869954083,-0.029317628472555573,-0.00276242523005335,0.004682861068382177,4.831940563527736e-06
43.0,0.8400000000000004,0.1675826190730177,0.06125321218105185,0.248496628735451,0.16688400754065735,0.05827405767028052,0.24858416458402444,-0.0006986115323603381,-0.0029791545107713258,8.753584857343344e-05,0.003061222337070842,0.03060560258011672,0.00062060504779053,-0.0011294894454320383,min_task,none,false,false,7.0,7.0,7.0,7.0,7.0,7.0,7.0,7.0,-0.016737833813648226,0.09028983195964448,-0.031277038849629256,-0.0028620703437998917,0.00421695819110867,1.3340350655686766e-05,-0.11006303035898406,-0.0019901839138884722,0.14803530407778115,-0.5174275648568619,0.1938632621878308,-0.09244245663640963,-0.007663542179482244,0.2923857442583973,-0.14672659138965516,0.03060560258011672,0.00062060504779053,-0.0011294894454320383,-0.05807107396123985,0.39131156152828495,0.8293510078845714,-0.06796416410418472,0.17410399419445827,0.02479550972133024,7.0,7.0,7.0,7.0,7.0,7.0,7.0,7.0,1.1801962007056956,1.1801962007056956,1.2234878639471958,1.2234878639471958,1.2243414023087837,1.2243414023087837,1.1810810253075468,1.1810810253075468,-0.016737833813648226,0.09028983195964448,-0.031277038849629256,-0.0028620703437998917,0.00421695819110867,1.3340350655686766e-05
44.0,0.8600000000000004,0.16605750616339482,0.06419512629961864,0.2485038254908892,0.16557185452039114,0.06115652736814731,0.24858416458402444,-0.0004856516430036817,-0.003038598931471327,8.033909313523435e-05,0.003078213013190715,0.02814365325477547,0.0006409073216334354,-0.001148449694502236,min_task,none,false,false,7.0,7.0,7.0,7.0,7.0,7.0,7.0,7.0,-0.01675506119659394,0.09742477642876367,-0.03334272991379761,-0.002940407810433332,0.0037215700230846882,2.2455708867495262e-05,-0.10189146171545989,-0.0020627921787786337,0.1503145649360772,-0.5079495487480307,0.2166277298821321,-0.08091477858405129,0.00043353403240207274,0.2548691633340207,-0.1461202269706355,0.02814365325477547,0.0006409073216334354,-0.001148449694502236,-0.06295586616920695,0.3864186247321272,0.8257119535080166,-0.07087791861984964,0.18324348092360163,0.025249089239757348,7.0,7.0,7.0,7.0,7.0,7.0,7.0,7.0,1.1818919530316663,1.1818919530316663,1.2217026898852867,1.2217026898852867,1.2225862565407672,1.2225862565407672,1.1828052590559566,1.1828052590559566,-0.01675506119659394,0.09742477642876367,-0.03334272991379761,-0.002940407810433332,0.0037215700230846882,2.2455708867495262e-05
45.0,0.8800000000000004,0.16439962967231186,0.06719081664926983,0.2485110967718907,0.16413508804979887,0.06410049852911673,0.24858416458402444,-0.0002645416225129926,-0.0030903181201531044,7.306781213373137e-05,0.0031024808233022865,0.02567487659772998,0.0006597022384169674,-0.0011682705057447132,min_task,none,false,false,7.0,7.0,7.0,7.0,7.0,7.0,7.0,7.0,-0.016797413135103145,0.10523568615279588,-0.03551621818241611,-0.002993575869092976,0.0031966662813686323,3.21923503722358e-05,-0.09368816651671724,-0.0021306391754834114,0.1528414040617913,-0.4963091923036781,0.2421695121146283,-0.06643526035396746,0.009506862730436454,0.21584864082082478,-0.1452429131769808,0.02567487659772998,0.0006597022384169674,-0.0011682705057447132,-0.06802997210600749,0.38159791049448566,0.8220320370322636,-0.07383379735795409,0.19250489918676314,0.02567447689825807,7.0,7.0,7.0,7.0,7.0,7.0,7.0,7.0,1.1835962241762765,1.1835962241762765,1.2199160115580363,1.2199160115580363,1.2208276151938313,1.2208276151938313,1.1845357793872369,1.1845357793872369,-0.016797413135103145,0.10523568615279588,-0.03551621818241611,-0.002993575869092976,0.0031966662813686323,3.21923503722358e-05
46.0,0.9000000000000005,0.1626023954333008,0.0702334155248393,0.24851844440389254,0.16256683231933522,0.06709976172657628,0.24858416458402444,-3.556311396557543e-05,-0.0031336537982630253,6.572018013190073e-05,0.0031345446247453205,0.023202623843148446,0.0006769557475235011,-0.001188079315192394,min_task,none,false,false,7.0,7.0,7.0,7.0,7.0,7.0,7.0,7.0,-0.016860078144851843,0.11373355918973665,-0.03779856462527032,-0.0030174564765562545,0.002642199783709276,4.256425109826853e-05,-0.08546389680854702,-0.0021934676451465574,0.15548260691329502,-0.4822662361594904,0.27055356688720855,-0.048931443733569606,0.019625606602928957,0.17538132826346725,-0.14407128629188715,0.023202623843148446,0.0006769557475235011,-0.001188079315192394,-0.0732879153095527,0.37687119164814914,0.8183255406361883,-0.07682707204581637,0.20187076381676783,0.026069738471612487,7.0,7.0,7.0,7.0,7.0,7.0,7.0,7.0,1.1853067036864449,1.1853067036864449,1.218130286653388,1.218130286653388,1.2190678837373792,1.2190678837373792,1.1862702439586403,1.1862702439586403,-0.016860078144851843,0.11373355918973665,-0.03779856462527032,-0.0030174564765562545,0.002642199783709276,4.256425109826853e-05
47.0,0.9200000000000005,0.16065934234074847,0.07331544839649173,0.24852587145476973,0.16086029788015546,0.07014748223080741,0.24858416458402444,0.00020095553940699395,-0.0031679661656843217,5.829312925470509e-05,0.0031748686342362707,0.020730326914625178,0.0006926806813113654,-0.001207144286393545,min_task,none,false,false,7.0,7.0,7.0,7.0,7.0,7.0,7.0,7.0,-0.016936909054101567,0.12292460894476315,-0.040190229671637545,-0.003007708480616348,0.002058128003585922,5.358423277898699e-05,-0.07722967183804733,-0.002251158501129061,0.15812203099455252,-0.46556261994173614,0.30182691538632367,-0.028358207256965296,0.03085863278460916,0.1335202997779656,-0.14258188621438003,0.020730326914625178,0.0006926806813113654,-0.001207144286393545,-0.0787234616219657,0.37226168249884495,0.8146082647309274,-0.0798521951394908,0.21132284633374893,0.02643278720532518,7.0,7.0,7.0,7.0,7.0,7.0,7.0,7.0,1.1870209780459744,1.1870209780459744,1.2163479866356475,1.2163479866356475,1.2173095434268542,1.2173095434268542,1.188006271972806,1.188006271972806,-0.016936909054101567,0.12292460894476315,-0.040190229671637545,-0.003007708480616348,0.002058128003585922,5.358423277898699e-05
48.0,0.9400000000000005,0.15856419725309648,0.0764288206733714,0.248533381900495,0.15900883338434807,0.07323618651516628,0.24858416458402444,0.0004446361312515912,-0.0031926341582051154,5.078268352942672e-05,0.003223847551963169,0.0182614942652025,0.000706942169126907,-0.0012248738522009938,min_task,none,false,false,7.0,7.0,7.0,7.0,7.0,7.0,7.0,7.0,-0.017020480214341008,0.13280957187538076,-0.04269091106634326,-0.0029598171627074825,0.001444428347159339,6.526313404933491e-05,-0.06899676934751427,-0.002303749065935696,0.1606622535271032,-0.44592658380913813,0.3360156218774447,-0.0047020153590511884,0.04327246050722377,0.09031375456745715,-0.14075134460716154,0.0182614942652025,0.000706942169126907,-0.0012248738522009938,-0.08432952566303349,0.3677940381254093,0.810897523806097,-0.08290274713086228,0.22084218541238843,0.026761391847212764,7.0,7.0,7.0,7.0,7.0,7.0,7.0,7.0,1.188736529454506,1.188736529454506,1.2145715889685103,1.2145715889685103,1.2155551520231294,1.2155551520231294,1.1897414506269945,1.1897414506269945,-0.017020480214341008,0.13280957187538076,-0.04269091106634326,-0.0029598171627074825,0.001444428347159339,6.526313404933491e-05
49.0,0.9600000000000005,0.15631093319817338,0.07956480755661491,0.2485409803541177,0.15700598055449455,0.0763577520225004,0.24858416458402444,0.0006950473563211712,-0.003207055534114503,4.3184229906734206e-05,0.0032817923310496273,0.015799705605952827,0.0007198629228196934,-0.001240804857253844,min_task,none,false,false,7.0,7.0,7.0,7.0,7.0,7.0,7.0,7.0,-0.01710216068468751,0.14338294971050447,-0.04529936303920362,-0.002869162125729703,0.0008011047761929588,7.760896436603151e-05,-0.060776713629943996,-0.0023514512188773586,0.16302451472545,-0.4230771982683723,0.37312147853692373,0.022014563901394047,0.056928935315162736,0.0458033940416621,-0.1385564810979593,0.015799705605952827,0.0007198629228196934,-0.001240804857253844,-0.09009806024949647,0.36349434068374425,0.8072121240190598,-0.08597138601582588,0.230409095275976,0.02705318497887615,7.0,7.0,7.0,7.0,7.0,7.0,7.0,7.0,1.1904507355644967,1.1904507355644967,1.2128035686331697,1.2128035686331697,1.2138073437541772,1.2138073437541772,1.19147334232381,1.19147334232381,-0.01710216068468751,0.14338294971050447,-0.04529936303920362,-0.002869162125729703,0.0008011047761929588,7.760896436603151e-05
50.0,0.9800000000000005,0.15389383054727934,0.08271404773918348,0.24854867186244112,0.1548455321866798,0.07950340064612689,0.24858416458402444,0.0009517016394004485,-0.0032106470930565872,3.5492721583318954e-05,0.003348917810259847,0.013348605426186001,0.0007316282551736304,-0.0012545812093233257,min_task,none,false,false,7.0,7.0,7.0,7.0,7.0,7.0,7.0,7.0,-0.017172204998724874,0.15463217712689578,-0.0480131906179526,-0.0027311052031793485,0.0001281830535818356,9.062604776778328e-05,-0.05258126000354015,-0.0023946690894691186,0.16514714333972033,-0.39672925642961476,0.4131183991157016,0.051728207294552235,0.07188272137775588,2.1805225637789244e-05,-0.13597433574773465,0.013348605426186001,0.0007316282551736304,-0.0012545812093233257,-0.09601993216641784,0.35939007100165904,0.8035723203823045,-0.08904980009094039,0.24000317147163036,0.027305671210073545,7.0,7.0,7.0,7.0,7.0,7.0,7.0,7.0,1.1921608703785607,1.1921608703785607,1.2110463890148877,1.2110463890148877,1.2120688283327687,1.2120688283327687,1.1931994925961626,1.1931994925961626,-0.017172204998724874,0.15463217712689578,-0.0480131906179526,-0.0027311052031793485,0.0001281830535818356,9.062604776778328e-05
51.0,1.0000000000000004,0.15130754073129982,0.08586654167376723,0.24855646176094107,0.15252159294025736,0.08266369638032159,0.24858416458402444,0.001214052208957539,-0.0032028452934456386,2.77028230833698e-05,0.0034253332956412207,0.01091189521176443,0.0007424906600599652,-0.0012659253192349143,min_task,none,false,false,7.0,7.0,7.0,7.0,7.0,7.0,7.0,7.0,-0.017219864612376838,0.16653673094446536,-0.05082861509788883,-0.0025410991799388535,-0.0005743082647289865,0.0001043141682496379,-0.044422375359249554,-0.0024340158284401328,0.16698271825700467,-0.36659845188489115,0.4559486357607956,0.08433032626815254,0.0881787495849941,-0.04701130223964674,-0.13298217407166413,0.01091189521176443,0.0007424906600599652,-0.0012659253192349143,-0.10208478804723993,0.3555100636689547,0.7999997514465124,-0.09212866587359508,0.24960329311446977,0.027516235194307428,7.0,7.0,7.0,7.0,7.0,7.0,7.0,7.0,1.1938641065242062,1.1938641065242062,1.2093024922555304,1.2093024922555304,1.2103423888272955,1.2103423888272955,1.1949174386808354,1.1949174386808354,-0.017219864612376838,0.16653673094446536,-0.05082861509788883,-0.0025410991799388535,-0.0005743082647289865,0.0001043141682496379
52.0,1.0200000000000005,0.14854715198808802,0.08901165507099487,0.24856435556276993,0.1500286426144012,0.08582854759005305,0.24858416458402444,0.00148149062631317,-0.0031831074809418186,1.9809021254507675e-05,0.0035110368993225664,0.0084933242750993,0.0007527737502949338,-0.0012746048468814143,min_task,none,false,false,7.0,7.0,7.0,7.0,7.0,7.0,7.0,7.0,-0.017233524371888034,0.1790671795641499,-0.053740204996269976,-0.0022948181079371402,-0.0013063712155846723,0.00011866769919855803,-0.03631221444307634,-0.0024703288804772917,0.16849426952569868,-0.3324068951846423,0.50151884910761,0.11966289250704336,0.10584972367987469,-0.09529395293380831,-0.12955750507505093,0.0084933242750993,0.0007527737502949338,-0.0012746048468814143,-0.10828091434737928,0.35188444377743155,0.7965173495209046,-0.09519761354098598,0.2591876202866223,0.02768214982340037,7.0,7.0,7.0,7.0,7.0,7.0,7.0,7.0,1.1955575191334533,1.1955575191334533,1.2075742891949472,1.2075742891949472,1.2086308781695767,1.2086308781695767,1.1966247186552756,1.1966247186552756,-0.017233524371888034,0.1790671795641499,-0.053740204996269976,-0.0022948181079371402,-0.0013063712155846723,0.00011866769919855803
53.0,1.0400000000000005,0.14560825656045767,0.09213812820538761,0.2485723588447163,0.1473616015563051,0.08898721433810965,0.24858416458402444,0.0017533449958474223,-0.003150913867277963,1.1805739308146102e-05,0.003605914065663293,0.006096679122632026,0.0007628753174487473,-0.001280397371119082,min_task,none,false,false,7.0,7.0,7.0,7.0,7.0,7.0,7.0,7.0,-0.01720086539654899,0.19218420659972063,-0.05674057042043751,-0.001988308357177812,-0.0020680884015433906,0.00013367472588075751,-0.02826309155506904,-0.0025046830748781087,0.16965085392455043,-0.29388889010636327,0.5496962255408565,0.15751499045450187,0.12491387857699301,-0.1448479330898858,-0.1256781530691347,0.006096679122632026,0.0007628753174487473,-0.001280397371119082,-0.11459509550592081,0.348544543473834,0.7931492247501588,-0.09824520278861795,0.2687335848403044,0.027800585323190793,7.0,7.0,7.0,7.0,7.0,7.0,7.0,7.0,1.1972380915595688,1.1972380915595688,1.2058641490510522,1.2058641490510522,1.206937214075062,1.206937214075062,1.1983188810303596,1.1983188810303596,-0.01720086539654899,0.19218420659972063,-0.05674057042043751,-0.001988308357177812,-0.0020680884015433906,0.00013367472588075751
54.0,1.0600000000000005,0.14248701870951352,0.09523409150408085,0.2485804770827587,0.14451589778948398,0.09212832118933469,0.24858416458402444,0.002028879079970458,-0.0031057703147461674,3.68750126572559e-06,0.0037097403098823325,0.0037257713036549078,0.0007732692487721302,-0.0012830555679630012,min_task,none,false,false,7.0,7.0,7.0,7.0,7.0,7.0,7.0,7.0,-0.017109056362660493,0.20583762782885387,-0.05982001983833046,-0.0016181594753725034,-0.0028596879869363712,0.00014931614033394843,-0.020287447384442405,-0.002538400746515927,0.1704228536216564,-0.2507970556598958,0.6003047448684925,0.19762036634776423,0.14537312413336478,-0.19572578913595678,-0.1213224205170027,0.0037257713036549078,0.0007732692487721302,-0.0012830555679630012,-0.12101247440693833,0.34552279656699525,0.7899205217893359,-0.10125891236937018,0.27821787241845114,0.02786862026985106,7.0,7.0,7.0,7.0,7.0,7.0,7.0,7.0,1.198902723161225,1.198902723161225,1.2041743890168723,1.2041743890168723,1.2052643721481584,1.2052643721481584,1.1999974946677752,1.1999974946677752,-0.017109056362660493,0.20583762782885387,-0.05982001983833046,-0.0016181594753725034,-0.0028596879869363712,0.00014931614033394843
55.0,1.0800000000000005,0.139180242874323,0.09828708778075652,0.24858871538343005,0.141487535393733,0.09523987588597901,0.24858416458402444,0.002307292519409976,-0.00304721189477751,-4.55079940561709e-06,0.003822187830493683,0.0013844237075087194,0.0007845060115073612,-0.0012822753174149693,min_task,none,false,false,7.0,7.0,7.0,7.0,7.0,7.0,7.0,7.0,-0.016944969316718836,0.21996542915115808,-0.06296617831787199,-0.0011816925063574243,-0.003681623169254171,0.00016556470010555446,-0.012397810757748099,-0.002573058005109558,0.17077734207544548,-0.2029087802125562,0.6531217578708262,0.23965632873568724,0.1672117617560316,-0.24801867053260895,-0.11646937227115191,0.0013844237075087194,0.0007845060115073612,-0.0012822753174149693,-0.12751641919054776,0.342852609573481,0.7868572483812872,-0.10422514674823713,0.2876163931062805,0.02788325575046118,7.0,7.0,7.0,7.0,7.0,7.0,7.0,7.0,1.200548239375739,1.200548239375739,1.2025072639814116,1.2025072639814116,1.2036153769485667,1.2036153769485667,1.2016581588651434,1.2016581588651434,-0.016944969316718836,0.21996542915115808,-0.06296617831787199,-0.0011816925063574243,-0.003681623169254171,0.00016556470010555446
56.0,1.1000000000000005,0.13568544129422905,0.10128410135738167,0.24859707805610293,0.13827316361176206,0.09830929425486369,0.24858416458402444,0.0025877223175330144,-0.002974807102517976,-1.2913472078490695e-05,0.003942835381753967,-0.0009235446949504183,0.0007972113958660564,-0.0012776688716248702,min_task,none,false,false,7.0,7.0,7.0,7.0,7.0,7.0,7.0,7.0,-0.016695414364628174,0.23449286582832107,-0.06616357305433918,-0.0006771626492004261,-0.004534663310001314,0.00018238404280518193,-0.004606755152120965,-0.0026104861907833097,0.1706738395041837,-0.15003306406470446,0.707875050403047,0.28324431037501485,0.1903959343181095,-0.30186472478727855,-0.11109926225969487,-0.0009235446949504183,0.0007972113958660564,-0.0012776688716248702,-0.13408840032515604,0.3405682078120034,0.7839860758540695,-0.10712926326566953,0.29690423779016273,0.02784143398580476,7.0,7.0,7.0,7.0,7.0,7.0,7.0,7.0,1.2021714042867098,1.2021714042867098,1.2008649566094867,1.2008649566094867,1.2019932908046784,1.2019932908046784,1.2032985134252583,1.2032985134252583,-0.016695414364628174,0.23449286582832107,-0.06616357305433918,-0.0006771626492004261,-0.004534663310001314,0.00018238404280518193
57.0,1.1200000000000006,0.13200090041255097,0.10421159420162587,0.24860556797603026,0.13487014610226483,0.10132343166586523,0.24858416458402444,0.002869245689713862,-0.002888162535760644,-2.1403392005819866e-05,0.0040711806354056905,-0.003194335636668327,0.0008120831966932632,-0.0012687448169682633,min_task,none,false,false,7.0,7.0,7.0,7.0,7.0,7.0,7.0,7.0,-0.016347381746295433,0.24933164688383355,-0.06939319013801673,-0.00010397239674758349,-0.005419992485527452,0.00019972763892840462,0.0030731500795387044,-0.0026527674939012683,0.17006074195234372,-0.09201782311723122,0.7642405094091307,0.32795233989885253,0.21487395073393872,-0.3574576703315643,-0.10519411245079875,-0.003194335636668327,0.0008120831966932632,-0.0012687448169682633,-0.14070788165341477,0.33870445545432376,0.7813341123972718,-0.10995562294070003,0.30605561708523166,0.027740062710919645,7.0,7.0,7.0,7.0,7.0,7.0,7.0,7.0,1.2037689358676256,1.2037689358676256,1.199249568041722,1.199249568041722,1.2004012001770896,1.2004012001770896,1.2049162484995446,1.2049162484995446,-0.016347381746295433,0.24933164688383355,-0.06939319013801673,-0.00010397239674758349,-0.005419992485527452,0.00019972763892840462
58.0,1.1400000000000006,0.12812574539775926,0.10705554909885664,0.2486141856996802,0.13127662970621506,0.10426862131204656,0.24858416458402444,0.003150884308455809,-0.002786927786810084,-3.0021115655753938e-05,0.004206654214640468,-0.005424189801478291,0.0008298855120815125,-0.0012548960599947261,min_task,none,false,false,7.0,7.0,7.0,7.0,7.0,7.0,7.0,7.0,-0.015888274315294434,0.2643792434658904,-0.07263201289747659,0.0005371099178788754,-0.006339310802170723,0.00021753768571773847,0.0106293937148081,-0.0027022236830412595,0.16887265468632137,-0.028757687743885565,0.8218405489633275,0.3732996529099875,0.24057762899533958,-0.41505516093981804,-0.09873844214497847,-0.005424189801478291,0.0008298855120815125,-0.0012548960599947261,-0.14735222885198257,0.3372966488088843,0.7789286509323836,-0.11268766756939755,0.315043779629185,0.027576046471761886,7.0,7.0,7.0,7.0,7.0,7.0,7.0,7.0,1.2053375240519284,1.2053375240519284,1.1976631094977974,1.1976631094977974,1.19884219939934,1.19884219939934,1.206509113971522,1.206509113971522,-0.015888274315294434,0.2643792434658904,-0.07263201289747659,0.0005371099178788754,-0.006339310802170723,0.00021753768571773847
59.0,1.1600000000000006,0.12406000214822685,0.10980151978728112,0.2486229283114143,0.1274916120435643,0.10713071952454659,0.24858416458402444,0.003431609895337445,-0.0026708002627345295,-3.8763727389867775e-05,0.004348634629830593,-0.007609406432879562,0.0008514403465796718,-0.0012353964777557737,min_task,none,false,false,6.999999999999999,6.999999999999999,6.999999999999999,6.999999999999999,6.999999999999999,6.999999999999999,6.999999999999999,6.999999999999999,-0.015306108425464806,0.27951831097538987,-0.07585254684753917,0.0012437309600752617,-0.007294930215454774,0.00023574391146630912,0.01804958172192805,-0.002761396882513684,0.16702879369449766,0.03979752961138853,0.8802432456116254,0.4187634323678403,0.26742469881597053,-0.47498635017991236,-0.09172013391218446,-0.007609406432879562,0.0008514403465796718,-0.0012353964777557737,-0.153996638416639,0.33638028250762547,0.7767968944026338,-0.11530802512444735,0.323840906691525,0.02734632575726844,6.999999999999999,6.999999999999999,6.999999999999999,6.999999999999999,6.999999999999999,6.999999999999999,6.999999999999999,6.999999999999999,1.2068738517437203,1.2068738517437203,1.1961074950800044,1.1961074950800044,1.197319371652227,1.197319371652227,1.2080749281273262,1.2080749281273262,-0.015306108425464806,0.27951831097538987,-0.07585254684753917,0.0012437309600752617,-0.007294930215454774,0.00023574391146630912
60.0,1.1800000000000006,0.11980465618100626,0.11243468791288813,0.24863178800405428,0.12351500721237119,0.10989515827021523,0.24858416458402444,0.003710351031364925,-0.0025395296426728997,-4.762342002984088e-05,0.004496463451658475,-0.009746364172755552,0.0008776162288244986,-0.00120940621617169,min_task,none,false,false,7.000000000000001,7.000000000000001,7.000000000000001,7.000000000000001,7.000000000000001,7.000000000000001,7.000000000000001,7.000000000000001,-0.014589656227744966,0.2946162450673927,-0.07902234555206553,0.002011738834647824,-0.008289857502989969,0.00025426230196361503,0.025321501077673003,-0.0028330213751880545,0.16443254054748035,0.11363362569563538,0.9389622374467143,0.4637876873473155,0.29532232124536445,-0.5376581557617336,-0.08413141207907063,-0.009746364172755552,0.0008776162288244986,-0.00120940621617169,-0.16061408990011183,0.33599078867082927,0.7749656623327374,-0.11779864467460761,0.3324179804463348,0.027047924560523528,7.000000000000001,7.000000000000001,7.000000000000001,7.000000000000001,7.000000000000001,7.000000000000001,7.000000000000001,7.000000000000001,1.2083746188425335,1.2083746188425335,1.1945845360774319,1.1945845360774319,1.1958357670619986,1.1958357670619986,1.2096115853497202,1.2096115853497202,-0.014589656227744966,0.2946162450673927,-0.07902234555206553,0.002011738834647824,-0.008289857502989969,0.00025426230196361503
61.0,1.2000000000000006,0.11536170784160138,0.11493992661042705,0.24864075042393513,0.11934770882285681,0.11254700490721763,0.24858416458402444,0.003986000981255428,-0.0023929217032094274,-5.6585839910694435e-05,0.004649460189907893,-0.011831542974952593,0.0009093135896610962,-0.0011759849188100132,min_task,none,false,false,7.0,7.0,7.0,7.0,7.0,7.0,7.0,7.0,-0.013728498341689826,0.30952481846429386,-0.08210354189305624,0.002834980529068494,-0.009327853508018243,0.0002729937188439993,0.03243318793792086,-0.002919985482831761,0.16097214838361645,0.19266183218051536,0.9974571421140906,0.5077939493991587,0.3241716418599727,-0.6035595507254199,-0.07596990057431438,-0.011831542974952593,0.0009093135896610962,-0.0011759849188100132,-0.1671753237097701,0.3361632494827907,0.7734610834719418,-0.12014096117519932,0.34074462393709204,0.026678006574819616,7.0,7.0,7.0,7.0,7.0,7.0,7.0,7.0,1.2098365693132613,1.2098365693132613,1.1930959370593133,1.1930959370593133,1.1943943778489936,1.1943943778489936,1.2111170625738563,1.2111170625738563,-0.013728498341689826,0.30952481846429386,-0.08210354189305624,0.002834980529068494,-0.009327853508018243,0.0002729937188439993
62.0,1.2200000000000006,0.11073422330116373,0.11730187049528254,0.2486497928431476,0.11499164956612165,0.11507102919384242,0.24858416458402444,0.004257426264957925,-0.00223084130144012,-6.562825912315162e-05,0.004806936486179132,-0.013861546928342919,0.0009474466983204408,-0.001134111458123997,min_task,none,false,false,6.999999999999999,6.999999999999999,6.999999999999999,6.999999999999999,6.999999999999999,6.999999999999999,6.999999999999999,6.999999999999999,-0.012712957223529503,0.3240798609039996,-0.08505239659538728,0.0037051162493000707,-0.010413456926548608,0.00029182240344861605,0.03937299967376065,-0.003025282698765781,0.15652250339500506,0.27670743905378264,1.0551342831994313,0.5501933989006703,0.3538732353530652,-0.6732631749176828,-0.06723972042962036,-0.013861546928342919,0.0009474466983204408,-0.001134111458123997,-0.17364884637598105,0.3369320838666665,0.7723082801518047,-0.12231608958931992,0.3487889117716933,0.026233939803708695,6.999999999999999,6.999999999999999,6.999999999999999,6.999999999999999,6.999999999999999,6.999999999999999,6.999999999999999,6.999999999999999,1.2112565212909845,1.2112565212909845,1.191643294014981,1.191643294014981,1.1929981104898053,1.1929981104898053,1.2125894242616946,1.2125894242616946,-0.012712957223529503,0.3240798609039996,-0.08505239659538728,0.0037051162493000707,-0.010413456926548608,0.00029182240344861605
63.0,1.2400000000000007,0.10592638082886915,0.11950499185471741,0.24865888225475508,0.11044985649241254,0.11745177745913936,0.24858416458402444,0.004523475663543386,-0.002053214395578054,-7.471767073063962e-05,0.004968209351788392,-0.015833127832231172,0.0009929220217000305,-0.0010827080575517942,min_task,none,false,false,6.999999999999999,6.999999999999999,6.999999999999999,6.999999999999999,6.999999999999999,6.999999999999999,6.999999999999999,6.999999999999999,-0.011533880165349035,0.3381008721466619,-0.08781886660735766,0.004611456010000941,-0.011551959751021997,0.00031061433792439335,0.04612969024604958,-0.0031519514199074665,0.1509477516148566,0.36549694702704544,1.1113472239416302,0.5903996971785722,0.3843331637163878,-0.747423560762169,-0.05795258274961267,-0.015833127832231172,0.0009929220217000305,-0.0010827080575517942,-0.18000096488443815,0.338330709028082,0.7715310505634236,-0.12430504693362944,0.3565171519272613,0.02571336892607119,6.999999999999999,6.999999999999999,6.999999999999999,6.999999999999999,6.999999999999999,6.999999999999999,6.999999999999999,6.999999999999999,1.2126314001734428,1.2126314001734428,1.190228094742999,1.190228094742999,1.1916497548900666,1.1916497548900666,1.2140268256923363,1.2140268256923363,-0.011533880165349035,0.3381008721466619,-0.08781886660735766,0.004611456010000941,-0.011551959751021997,0.00031061433792439335
64.0,1.2600000000000007,0.10094351183657549,0.12153368285191886,0.24866797351846415,0.1057265011580155,0.1196736537515317,0.24858416458402444,0.004782989321440015,-0.001860029100387156,-8.380893443971082e-05,0.005132613275982147,-0.017743209397895938,0.001046612956097042,-0.0010206660844466863,min_task,none,false,false,7.000000000000001,7.000000000000001,7.000000000000001,7.000000000000001,7.000000000000001,7.000000000000001,7.000000000000001,7.000000000000001,-0.010182250361585236,0.35139047229626524,-0.09034620335054089,0.0055408243550832,-0.012749320593360015,0.00032921545687384886,0.052692488412136126,-0.0033030028496380333,0.14410450981221704,0.4586434781922633,1.165396635883219,0.6278417234466029,0.4154692702545674,-0.8267711999986145,-0.04812883158605053,-0.017743209397895938,0.001046612956097042,-0.0010206660844466863,-0.1861958515177368,0.34039117748555725,0.7711515553954646,-0.12608900003409523,0.3638936407170444,0.02511429433341627,7.000000000000001,7.000000000000001,7.000000000000001,7.000000000000001,7.000000000000001,7.000000000000001,7.000000000000001,7.000000000000001,1.2139582746235458,1.2139582746235458,1.1888517216096304,1.1888517216096304,1.1903519505950155,1.1903519505950155,1.2154275144319189,1.2154275144319189,-0.010182250361585236,0.35139047229626524,-0.09034620335054089,0.0055408243550832,-0.012749320593360015,0.00032921545687384886
65.0,1.2800000000000007,0.09579213618640545,0.12337234360353883,0.2486770077131995,0.10082694379411315,0.12172100768414561,0.24858416458402444,0.005034807607707706,-0.0016513359193932181,-9.284312917506865e-05,0.005299511091784284,-0.01958891200701006,0.0011093309830095721,-0.0009468703211474223,min_task,none,false,false,6.999999999999998,6.999999999999998,6.999999999999998,6.999999999999998,6.999999999999998,6.999999999999998,6.999999999999998,6.999999999999998,-0.0086486154364024,0.36373354195473884,-0.09257058522927089,0.00647745904956669,-0.014012000299004351,0.00034744968285463883,0.05905117835415367,-0.003481336921883087,0.13584529834499065,0.5556301544742366,1.2165288185927454,0.6619751560783382,0.447217155821707,-0.9121015563896654,-0.03779839203753669,-0.01958891200701006,0.0011093309830095721,-0.0009468703211474223,-0.1921956408032797,0.3431437897673547,0.7711900150868307,-0.12764953604470664,0.3708803949874441,0.024435156374159443,6.999999999999998,6.999999999999998,6.999999999999998,6.999999999999998,6.999999999999998,6.999999999999998,6.999999999999998,6.999999999999998,1.2152343953818745,1.2152343953818745,1.1875154566833908,1.1875154566833908,1.1891071500905834,1.1891071500905834,1.21678982994342,1.21678982994342,-0.0086486154364024,0.36373354195473884,-0.09257058522927089,0.00647745904956669,-0.014012000299004351,0.00034744968285463883
66.0,1.3000000000000007,0.0904799912334259,0.12500547605125778,0.24868591087412178,0.09575777065624967,0.1235782285943743,0.24858416458402444,0.005277779422823772,-0.001427247456883482,-0.0001017462900973487,0.005468303507186755,-0.021367578042732156,0.0011817934223665063,-0.0008602182472762214,min_task,none,false,false,7.0,7.0,7.0,7.0,7.0,7.0,7.0,7.0,-0.006922339819068335,0.37489591820985846,-0.09442079822736556,0.00740295146296344,-0.015346705162660526,0.00036511679617023604,0.06519618250032043,-0.003689646434032252,0.12602177096599324,0.6557913430179062,1.2639322124425383,0.6922917427544087,0.4795351685405403,-1.0042581328169176,-0.027001582944289355,-0.021367578042732156,0.0011817934223665063,-0.0008602182472762214,-0.19796056073618082,0.3466166821839697,0.7716644232501249,-0.12896895212010853,0.3774368679477231,0.023674923026449017,7.0,7.0,7.0,7.0,7.0,7.0,7.0,7.0,1.2164572367746302,1.2164572367746302,1.1862204891050903,1.1862204891050903,1.187917579269738,1.187917579269738,1.2181122014275712,1.2181122014275712,-0.006922339819068335,0.37489591820985846,-0.09442079822736556,0.00740295146296344,-0.015346705162660526,0.00036511679617023604
67.0,1.3200000000000007,0.08501605404748597,0.12641778360945072,0.24869459330113575,0.09052682373024507,0.12522984553142047,0.24858416458402444,0.005510769682759098,-0.0011879380780302484,-0.00011042871711131053,0.005638437183760572,-0.02307679792064357,0.0012645881005670686,-0.0007596308638037426,min_task,none,false,false,7.000000000000001,7.000000000000001,7.000000000000001,7.000000000000001,7.000000000000001,7.000000000000001,7.000000000000001,7.000000000000001,-0.00499071263590455,0.3846225194380834,-0.09581798423907292,0.008296238883909948,-0.016760022283593853,0.000381990163856256,0.07111864658620953,-0.003930309976883615,0.11448728015527875,0.7582918609274973,1.3067312654960053,0.7183250539562716,0.5124075827000995,-1.1041085112469977,-0.015789760495255174,-0.02307679792064357,0.0012645881005670686,-0.0007596308638037426,-0.20344910155805987,0.3508353879886129,0.7725902805732578,-0.13003056001488092,0.38351965767203067,0.02283317900700874,7.000000000000001,7.000000000000001,7.000000000000001,7.000000000000001,7.000000000000001,7.000000000000001,7.000000000000001,7.000000000000001,1.2176245407921327,1.2176245407921327,1.1849679243702065,1.1849679243702065,1.1867851951616304,1.1867851951616304,1.219393144153208,1.219393144153208,-0.00499071263590455,0.3846225194380834,-0.09581798423907292,0.008296238883909948,-0.016760022283593853,0.000381990163856256
68.0,1.3400000000000007,0.07941055622409492,0.1275942766203767,0.24870294962077183,0.0851432220001883,0.12666063248066667,0.24858416458402444,0.005732665776093382,-0.0009336441397100326,-0.00011878503674739305,0.005809411171965908,-0.02471443707852197,0.001358135421349592,-0.0006440519369376012,min_task,none,false,false,7.0,7.0,7.0,7.0,7.0,7.0,7.0,7.0,-0.0028379741649594984,0.3926348347918322,-0.09667549545680697,0.009133663916328034,-0.01825793324765342,0.0003978144165137196,0.07681052736652534,-0.004205274723028777,0.10109831630005206,0.8621046778310183,1.3439772419718756,0.7396516129706595,0.5458450504035698,-1.2125121792789375,-0.004225769423129809,-0.02471443707852197,0.001358135421349592,-0.0006440519369376012,-0.20861822711444622,0.35582236887507634,0.773980351713795,-0.13081900076832378,0.3890822202456624,0.0219102142398136,7.0,7.0,7.0,7.0,7.0,7.0,7.0,7.0,1.218734363598701,1.218734363598701,1.1837587949830333,1.1837587949830333,1.1857116410532795,1.1857116410532795,1.2206312547390834,1.2206312547390834,-0.0028379741649594984,0.3926348347918322,-0.09667549545680697,0.009133663916328034,-0.01825793324765342,0.0003978144165137196
69.0,1.3600000000000008,0.07367499066503319,0.1285203836703618,0.2487108597571802,0.07961737352706096,0.12785571812926855,0.24858416458402444,0.005942382862027765,-0.0006646655410932623,-0.0001266951731557775,0.005980781389362017,-0.026278664327472456,0.0014626485301798388,-0.0005124333121052972,min_task,none,false,false,7.0,7.0,7.0,7.0,7.0,7.0,7.0,7.0,-0.00044436084164012454,0.3986277615102823,-0.09689890868816421,0.009889121937520897,-0.019845193279412712,0.0004123032085539897,0.08226468382022545,-0.004515930695524311,0.08571440538388563,0.96598819662814,1.3746357310497328,0.7558863557243896,0.579881288048871,-1.3302787403950351,0.007615807683209533,-0.026278664327472456,0.0014626485301798388,-0.0005124333121052972,-0.21342363620329466,0.3615965122259776,0.7758444453952096,-0.1313205639992677,0.39407460275876044,0.020907109691506907,7.0,7.0,7.0,7.0,7.0,7.0,7.0,7.0,1.2197851243055557,1.2197851243055557,1.18259407169132,1.18259407169132,1.184698199186077,1.184698199186077,1.22182520608817,1.22182520608817,-0.00044436084164012454,0.3986277615102823,-0.09689890868816421,0.009889121937520897,-0.019845193279412712,0.0004123032085539897
70.0,1.3800000000000008,0.06782210968917347,0.12918206878991806,0.24871819091838782,0.0739609776429363,0.12880069937503807,0.24858416458402444,0.006138867953762825,-0.000381369414879984,-0.00013402633436337963,0.006152162663864225,-0.027767982104406955,0.0015780925044583608,-0.0003637052169921717,min_task,none,false,false,7.0,7.0,7.0,7.0,7.0,7.0,7.0,7.0,0.0022146861257996637,0.40226595415752175,-0.09638629286944704,0.01053432706356617,-0.02152456844271587,0.00042513733586601536,0.08747497316385208,-0.004862978804568103,0.0681961526954119,1.068465111477694,1.3975713037180957,0.7666718771006685,0.6145650301058523,-1.4581150594855148,0.01964859421735619,-0.027767982104406955,0.0015780925044583608,-0.0003637052169921717,-0.2178200842567036,0.3681725880400549,0.7781892152410325,-0.13152350565843213,0.3984432148811678,0.019825818860982183,7.0,7.0,7.0,7.0,7.0,7.0,7.0,7.0,1.2207756557754856,1.2207756557754856,1.1814746742327595,1.1814746742327595,1.1837457413004828,1.1837457413004828,1.2229737429428693,1.2229737429428693,0.0022146861257996637,0.40226595415752175,-0.09638629286944704,0.01053432706356617,-0.02152456844271587,0.00042513733586601536
71.0,1.4000000000000008,0.06186591383374917,0.12956595445534042,0.24872480062836338,0.06818701663568774,0.12948175768225811,0.24858416458402444,0.006321102801938573,-8.419677308230122e-05,-0.00014063604433894872,0.006323227674711741,-0.029181259274684946,0.0017041437883411638,-0.00019673228936991808,min_task,none,false,false,7.0,7.0,7.0,7.0,7.0,7.0,7.0,7.0,0.005168959287733569,0.4031799745104216,-0.0950288499824622,0.011039235774153154,-0.023295928756811562,0.0004359635783460187,0.09243635344067015,-0.005246295734503682,0.04840128896099756,1.1678058177536987,1.411530237619721,0.7716612360454183,0.6499463305916123,-1.5965598426396752,0.031774526644358536,-0.029181259274684946,0.0017041437883411638,-0.00019673228936991808,-0.22176177889755505,0.37556065832136726,0.7810179760389564,-0.13141835739219335,0.402130661585057,0.01866924371294076,7.0,7.0,7.0,7.0,7.0,7.0,7.0,7.0,1.2217052571097031,1.2217052571097031,1.1804014802315332,1.1804014802315332,1.1828546774521738,1.1828546774521738,1.2240756793136514,1.2240756793136514,0.005168959287733569,0.4031799745104216,-0.0950288499824622,0.011039235774153154,-0.023295928756811562,0.0004359635783460187
72.0,1.4200000000000008,0.05582163073759833,0.129659450104629,0.24873054073443593,0.06230973638260957,0.1298857772953912,0.24858416458402444,0.00648810564501124,0.00022632719076218222,-0.00014637615041149243,0.006493701936146616,-0.030517767183056904,0.0018401514249692917,-1.0258447770423024e-05,min_task,none,false,false,7.0,7.0,7.0,7.0,7.0,7.0,7.0,7.0,0.008453337539622137,0.4009628014560622,-0.09271209864026436,0.011372677738851164,-0.025155207738879363,0.0004443948239696355,0.09714499481111445,-0.005664799707014381,0.026178817101448485,1.2620206773663767,1.4151232625061712,0.7704948903542427,0.686056638204764,-1.74590454605228,0.04388407080260897,-0.030517767183056904,0.0018401514249692917,-1.0258447770423024e-05,-0.2252028658921382,0.38376543130338825,0.7843305274037424,-0.13099822002463016,0.40507566367072306,0.017441304569128967,7.0,7.0,7.0,7.0,7.0,7.0,7.0,7.0,1.2225737472681446,1.2225737472681446,1.1793753305933505,1.1793753305933505,1.182024903754604,1.182024903754604,1.2251298993140194,1.2251298993140194,0.008453337539622137,0.4009628014560622,-0.09271209864026436,0.011372677738851164,-0.025155207738879363,0.0004443948239696355
73.0,1.4400000000000008,0.049705683561277386,0.12945088555385942,0.2487352622016612,0.056344615487936636,0.13000046423659245,0.24858416458402444,0.00663893192665925,0.0005495786827330318,-0.000151097617636764,0.006663353836123787,-0.03177721959901366,0.0019851020161657774,0.00019715336383077412,min_task,none,false,false,7.0,7.0,7.0,7.0,7.0,7.0,7.0,7.0,0.012106786711752228,0.39516755019457217,-0.0893178139540884,0.011503250269822041,-0.02709325567093379,0.00045001221026752514,0.10159840183021933,-0.006116322247981279,0.0013616748224086698,1.3488667329574877,1.4068113742081811,0.7627731985597568,0.7228825894987191,-1.9061002793505046,0.05585647047115252,-0.03177721959901366,0.0019851020161657774,0.00019715336383077412,-0.22809802404717128,0.3927855537534643,0.7881229746237303,-0.13025903314581758,0.40721309694912444,0.0161470043685167,7.0,7.0,7.0,7.0,7.0,7.0,7.0,7.0,1.2233815189659378,1.2233815189659378,1.178397029493238,1.178397029493238,1.181255750041108,1.181255750041108,1.226135363177369,1.226135363177369,0.012106786711752228,0.39516755019457217,-0.0893178139540884,0.011503250269822041,-0.02709325567093379,0.00045001221026752514
74.0,1.4600000000000009,0.0435356485055121,0.12892964824122405,0.2487388203826547,0.050308322588313054,0.12981446493738624,0.24858416458402444,0.006772674082800953,0.0008848166961621939,-0.00015465579863027656,0.006831978720231868,-0.03295981700299076,0.0021375907423554583,0.0004271772147739759,min_task,none,false,false,7.0,7.0,7.0,7.0,7.0,7.0,7.0,7.0,0.016170237639583456,0.3853075591850421,-0.08472697045911985,0.011400533567762465,-0.029094640105455975,0.00045237019830834035,0.10579554882002125,-0.006597492331972614,-0.026241284155707336,1.425875675956697,1.3848989432367955,0.7480269309823935,0.760334298172814,-2.076652032310422,0.06755993489490575,-0.03295981700299076,0.0021375907423554583,0.0004271772147739759,-0.23040318770495527,0.40261283734280207,0.7923875352951081,-0.1291998124904454,0.408474184901703,0.014792488662434659,7.0,7.0,7.0,7.0,7.0,7.0,7.0,7.0,1.224129591548885,1.224129591548885,1.1774673368773745,1.1774673368773745,1.1805459289009839,1.1805459289009839,1.2270911203888775,1.2270911203888775,0.016170237639583456,0.3853075591850421,-0.08472697045911985,0.011400533567762465,-0.029094640105455975,0.00045237019830834035
75.0,1.4800000000000009,0.037330201138434604,0.12808632263311065,0.24874108034654013,0.044218661610889165,0.12931748329065365,0.24858416458402444,0.006888460472454561,0.0012311606575430012,-0.00015691576251569694,0.006999376172329682,-0.03406629525892632,0.0022958011675591598,0.0006817632180451755,min_task,none,false,false,7.0,7.0,7.0,7.0,7.0,7.0,7.0,7.0,0.020683103980620534,0.37086038855258957,-0.07882396061297983,0.011036674349836208,-0.03113648275143199,0.0004510056719421466,0.10973702977508551,-0.007103640610970171,-0.056852746873298055,1.4904105792917721,1.3475398152442586,0.7256896135472373,0.7982101643527136,-2.2565041928956324,0.0788516706933915,-0.03406629525892632,0.0022958011675591598,0.0006817632180451755,-0.2320764125336828,0.4132314203535822,0.797112320744883,-0.12782284670051938,0.40878688272156166,0.01338510350156157,7.0,7.0,7.0,7.0,7.0,7.0,7.0,7.0,1.2248196609655415,1.2248196609655415,1.1765869513731557,1.1765869513731557,1.1798934881353635,1.1798934881353635,1.227996331871721,1.227996331871721,0.020683103980620534,0.37086038855258957,-0.07882396061297983,0.011036674349836208,-0.03113648275143199,0.0004510056719421466
76.0,1.5000000000000009,0.031109051430840667,0.1269128294258867,0.24874192179066873,0.03809450489975582,0.12850039485796239,0.24858416458402444,0.006985453468915152,0.0015875654320756938,-0.00015775720664429338,0.007165320055918551,-0.03509797806924765,0.0024574968752453193,0.0009631436118240327,min_task,none,false,false,7.0,7.0,7.0,7.0,7.0,7.0,7.0,7.0,0.02567830271155247,0.3512775052113491,-0.07150233218336279,0.010388357290506557,-0.03318746425376118,0.0004454521810130346,0.11342522289778163,-0.007628732734423631,-0.09073213368648644,1.5397584775883317,1.2927630003801496,0.6950766128991438,0.8361616834480546,-2.443925083652209,0.08957769048425182,-0.03509797806924765,0.0024574968752453193,0.0009631436118240327,-0.23307889316354877,0.4246168744014691,0.8022810837560949,-0.12613384506910347,0.4080764918118881,0.011933453660510185,7.0,7.0,7.0,7.0,7.0,7.0,7.0,7.0,1.2254541442313478,1.2254541442313478,1.175756481699152,1.175756481699152,1.1792957693829078,1.1792957693829078,1.2288503029419986,1.2288503029419986,0.02567830271155247,0.3512775052113491,-0.07150233218336279,0.010388357290506557,-0.03318746425376118,0.0004454521810130346
77.0,1.520000000000001,0.024892867615947438,0.12540256141465234,0.2487412430740931,0.031955714266387505,0.12735535693088285,0.24858416458402444,0.0070628466504400675,0.00195279551623051,-0.00015707849006865726,0.007329521593384163,-0.036056831680901374,0.00262002814412547,0.0012737877497288918,min_task,none,false,false,7.0,7.0,7.0,7.0,7.0,7.0,7.0,7.0,0.031175817642741993,0.3260015788467958,-0.06267220674487348,0.009439134677314186,-0.035207176403827256,0.00043526033458391486,0.1168644676898988,-0.008165341835528443,-0.1281764055544402,1.571263831453968,1.2185252078343587,0.6553771243602534,0.8736634946940139,-2.6364030905596496,0.09957239820106825,-0.036056831680901374,0.00262002814412547,0.0012737877497288918,-0.23337612901480992,0.4367352777297828,0.807872929195112,-0.12414202765041267,0.40626654161301795,0.010447462976256601,7.0,7.0,7.0,7.0,7.0,7.0,7.0,7.0,1.2260362149619795,1.2260362149619795,1.174976405174538,1.174976405174538,1.1787493764322388,1.1787493764322388,1.229652528204943,1.229652528204943,0.031175817642741993,0.3260015788467958,-0.06267220674487348,0.009439134677314186,-0.035207176403827256,0.00043526033458391486
78.0,1.540000000000001,0.018703189218002982,0.12355051214975715,0.2487389640270824,0.025823050166963832,0.12587591312474758,0.24858416458402444,0.0071198609489608496,0.002325400974990427,-0.00015479944305796245,0.0074915867808225504,-0.03694551911783884,0.0027803567701343407,0.0016162874483488753,min_task,none,false,false,7.0,7.0,7.0,7.0,7.0,7.0,7.0,7.0,0.037175116307802514,0.29449303235858937,-0.05226934819953161,0.008182008308560678,-0.03714604054555034,0.0004200248725736339,0.1200612494302347,-0.008704670808000614,-0.16951407211425737,1.5825033762358147,1.1227966045939142,0.6056656065006564,0.909995390584639,-2.830572093843407,0.10865807355030466,-0.03694551911783884,0.0027803567701343407,0.0016162874483488753,-0.2329392171620955,0.44954229181630406,0.8138619919911917,-0.12186014823840721,0.40327996827750395,0.00893843642444473,7.0,7.0,7.0,7.0,7.0,7.0,7.0,7.0,1.226569825726601,1.226569825726601,1.1742470128194002,1.1742470128194002,1.178250157471263,1.178250157471263,1.230402748635078,1.230402748635078,0.037175116307802514,0.29449303235858937,-0.05226934819953161,0.008182008308560678,-0.03714604054555034,0.0004200248725736339
79.0,1.560000000000001,0.012562329796970475,0.12135339286915703,0.24873502740916814,0.019718069361936076,0.12405709118059051,0.24858416458402444,0.007155739564965602,0.0027036983114334806,-0.00015086282514370497,0.007650970714417399,-0.03776744983871501,0.002935101655164283,0.0019931564911668783,min_task,none,false,false,7.0,7.0,7.0,7.0,7.0,7.0,7.0,7.0,0.04364706977172625,0.2562667361556548,-0.04026555241831109,0.006622058557651973,-0.038946026360133036,0.0003994180873337661,0.12302438188648222,-0.009236634668519317,-0.21508993230618936,1.5714955557482397,1.0036836127573343,0.5449385811179353,0.9442437898946625,-3.022188052765773,0.11664455951788748,-0.03776744983871501,0.002935101655164283,0.0019931564911668783,-0.23174622908639098,0.4629822955103583,0.8202170972120096,-0.11930443871454922,0.3990406055009616,0.007419119445115697,7.0,7.0,7.0,7.0,7.0,7.0,7.0,7.0,1.2270597122835747,1.2270597122835747,1.1735683418440919,1.1735683418440919,1.1777932060729221,1.1777932060729221,1.2311010197389534,1.2311010197389534,0.04364706977172625,0.2562667361556548,-0.04026555241831109,0.006622058557651973,-0.038946026360133036,0.0003994180873337661
80.0,1.580000000000001,0.00649327009379508,0.11880973280919216,0.2487293991864439,0.013663011568817843,0.12189549266676863,0.24858416458402444,0.007169741475022763,0.0030857598575764755,-0.0001452346024194695,0.007806932804055118,-0.038526819334511624,0.003080606815657891,0.0024065341035614824,min_task,none,false,false,7.0,7.0,7.0,7.0,7.0,7.0,7.0,7.0,0.05052639167406394,0.21093825339588523,-0.026679596956629425,0.004778805548248678,-0.04054237589148057,0.000373227919193272,0.12576517452015937,-0.00975001170531429,-0.2652383921780448,1.536928068045666,0.8595874723071164,0.4721804830697209,0.9753295392489502,-3.2061798526148015,0.1233296884332315,-0.038526819334511624,0.003080606815657891,0.0024065341035614824,-0.22978360382065155,0.47698764856598286,0.8269014287319655,-0.11649445995168829,0.393474980674145,0.005903743712815872,7.0,7.0,7.0,7.0,7.0,7.0,7.0,7.0,1.2275113744157398,1.2275113744157398,1.1729400980009368,1.1729400980009368,1.1773728858840402,1.1773728858840402,1.2317477879973984,1.2317477879973984,0.05052639167406394,0.21093825339588523,-0.026679596956629425,0.004778805548248678,-0.04054237589148057,0.000373227919193272
81.0,1.600000000000001,0.0005195422792285366,0.11591995800247556,0.24872206811657574,0.007680675775595537,0.11938937330676702,0.24858416458402444,0.0071611334963670005,0.0034694153042914566,-0.0001379035325513034,0.007958498155477035,-0.039228632066433365,0.0032130319702452373,0.0028577924426945183,min_task,none,false,false,7.0,7.0,7.0,7.0,7.0,7.0,7.0,7.0,0.05770591180126535,0.15827694606928958,-0.011587510822895285,0.002687891503897355,-0.04186644404313185,0.00034139741699693574,0.12829756583491375,-0.010232668923081436,-0.32024400503981054,1.4783765107774098,0.689389969797224,0.38645806612959366,1.0020662064969132,-3.3767936300296197,0.12850122990128082,-0.039228632066433365,0.0032130319702452373,0.0028577924426945183,-0.22704746682520144,0.4914781709516645,0.8338722444299727,-0.11345284023205,0.3865143798075806,0.004408040264251437,7.0,7.0,7.0,7.0,7.0,7.0,7.0,7.0,1.227931028321479,1.227931028321479,1.1723615721591347,1.1723615721591347,1.1769828835480567,1.1769828835480567,1.2323439708962372,1.2323439708962372,0.05770591180126535,0.15827694606928958,-0.011587510822895285,0.002687891503897355,-0.04186644404313185,0.00034139741699693574
82.0,1.620000000000001,-0.005334894138078293,0.11268644421741673,0.24871304537282413,0.001794287036865995,0.11653871271434633,0.24858416458402444,0.007129181174944288,0.0038522684969296006,-0.00012888078879969012,0.00810443132214333,-0.0398787006534184,0.003328463894405591,0.0033470624206688995,min_task,none,false,false,7.0,7.0,7.0,7.0,7.0,7.0,7.0,7.0,0.0650341243479768,0.09826069629342776,0.004869528081232775,0.000401626927570441,-0.04284960172869623,0.00030406057885620547,0.13063820081726152,-0.010671862357842066,-0.38028924037052575,1.3964786223990606,0.4926488099324772,0.2870370323834327,1.023248028099709,-3.5278391478669313,0.13194134600114021,-0.0398787006534184,0.003328463894405591,0.0033470624206688995,-0.2235447664595723,0.5063609314964052,0.8410806845321426,-0.11020487826001829,0.3780971099244377,0.002949191629070063,7.0,7.0,7.0,7.0,7.0,7.0,7.0,7.0,1.2283255265746134,1.2283255265746134,1.1718315572870015,1.1718315572870015,1.1766162931603636,1.1766162931603636,1.2328910340786638,1.2328910340786638,0.0650341243479768,0.09826069629342776,0.004869528081232775,0.000401626927570441,-0.04284960172869623,0.00030406057885620547
83.0,1.640000000000001,-0.011045784545213436,0.10911354088817166,0.2487023649990079,-0.003972645274755757,0.11334527239160931,0.24858416458402444,0.00707313927045768,0.004231731503437655,-0.000118200414983477,0.008243228857345863,-0.04048361470365175,0.0034230444554042374,0.0038727092836335565,min_task,none,false,false,7.0,7.0,7.0,7.0,7.0,7.0,7.0,7.0,0.07231728408946914,0.031124764897372533,0.022481568671219247,-0.002012013780344486,-0.04342793101345266,0.00026156854623246426,0.13280642880487795,-0.011054606311490047,-0.44539138747132984,1.293025954662235,0.26977723451498736,0.17350831807924766,1.0377600442469634,-3.6530297135351413,0.13343460534665597,-0.04048361470365175,0.0034230444554042374,0.0038727092836335565,-0.21929411276533278,0.5215304351057558,0.8484717230105853,-0.106777986455686,0.36817085277119793,0.0015456862183611155,7.0,7.0,7.0,7.0,7.0,7.0,7.0,7.0,1.2287022436852646,1.2287022436852646,1.1713482734186222,1.1713482734186222,1.1762657334393034,1.1762657334393034,1.2333910578806373,1.2333910578806373,0.07231728408946914,0.031124764897372533,0.022481568671219247,-0.002012013780344486,-0.04342793101345266,0.00026156854623246426
