LordTarzan10086/HCDR_ML/results/tracking/routeb_trajectory_suite_20260416_105416/square/square_cooperative_detailed.csv
step,time_s,tip_x,tip_y,tip_z,des_x,des_y,des_z,err_x,err_y,err_z,err_norm,q_platform_x,q_platform_y,q_platform_psi,solver_status,fail_reason,fallback_applied,hold_active,u_a_1,u_a_2,u_a_3,u_a_4,u_a_5,u_a_6,u_a_7,u_a_8,u_a_9,u_a_10,u_a_11,u_a_12,u_a_13,u_a_14,qdd_1,qdd_2,qdd_3,qdd_4,qdd_5,qdd_6,qdd_7,qdd_8,qdd_9,q_1,q_2,q_3,q_4,q_5,q_6,q_7,q_8,q_9,cable_force_1,cable_force_2,cable_force_3,cable_force_4,cable_force_5,cable_force_6,cable_force_7,cable_force_8,cable_length_1,cable_length_2,cable_length_3,cable_length_4,cable_length_5,cable_length_6,cable_length_7,cable_length_8,arm_torque_1,arm_torque_2,arm_torque_3,arm_torque_4,arm_torque_5,arm_torque_6
1.0,0.0,0.057021164387191264,0.010002371411802225,0.24858416458402482,0.05702116438719139,0.010002371411802463,0.24858416458402444,1.249000902703301e-16,2.3765711620882257e-16,-3.885780586188048e-16,4.723069394728281e-16,-2.1968391236329727e-18,5.09956043596355e-20,4.156773776817837e-18,min_task,none,false,false,6.999999999999999,6.999999999999999,6.999999999999999,6.999999999999999,6.999999999999999,6.999999999999999,6.999999999999999,6.999999999999999,2.0735974849677033e-15,-3.313528487868663e-14,-8.363144271006783e-16,-1.881630113489805e-16,1.2955927754417228e-15,-6.164120721898534e-18,2.978444668511691e-20,3.018528705767232e-20,6.018457163984425e-23,-2.0468876040646248e-14,-1.6743508116131942e-13,-2.299887068403821e-13,-2.4679307216601758e-14,9.732224671735393e-14,-1.503612515903958e-17,-2.1968391236329727e-18,5.09956043596355e-20,4.156773776817837e-18,7.337162378668337e-19,0.58,0.92,-8.007163875882442e-18,2.3806541987077465e-17,2.7146528757908912e-18,6.999999999999999,6.999999999999999,6.999999999999999,6.999999999999999,6.999999999999999,6.999999999999999,6.999999999999999,6.999999999999999,1.2020815280171306,1.2020815280171306,1.2020815280171306,1.2020815280171306,1.2020815280171306,1.2020815280171306,1.2020815280171306,1.2020815280171306,2.0735974849677033e-15,-3.313528487868663e-14,-8.363144271006783e-16,-1.881630113489805e-16,1.2955927754417228e-15,-6.164120721898534e-18
2.0,0.02,0.05707144606245084,0.010002615984617089,0.24858308379772298,0.05703358345919139,0.010002371411802463,0.24858416458402444,-3.786260325944896e-05,-2.4457281462553215e-07,1.0807863014550279e-06,3.787881519363431e-05,-7.38021032082315e-06,-1.8483042694556464e-07,1.58106692539218e-05,min_task,none,false,false,7.0,7.0,7.0,7.0,7.0,7.0,7.0,7.0,0.00792030610248614,-0.13060451344907195,0.03625926601274992,-0.0014590199583124927,0.00044704877815465727,-7.596736892579452e-05,1.030894589803689e-17,1.3165151076948582e-16,-1.1557041215352714e-22,0.007427272962032597,-0.4025005669221489,-0.10904781476159899,-0.00042649008350380594,0.0017766025172925037,1.1787921768341572e-06,-7.38021032082315e-06,-1.8483042694556464e-07,1.58106692539218e-05,2.3264208638178673e-05,0.5798899893333389,0.9199650476931339,-6.799403997579396e-06,2.0781470513764834e-06,5.355768353507043e-06,7.0,7.0,7.0,7.0,7.0,7.0,7.0,7.0,1.2020868773648996,1.2020868773648996,1.2020764401732351,1.2020764401732351,1.2020761787532828,1.2020761787532828,1.202086615947217,1.202086615947217,0.00792030610248614,-0.13060451344907195,0.03625926601274992,-0.0014590199583124927,0.00044704877815465727,-7.596736892579452e-05
3.0,0.04,0.05725334949331487,0.010003409367057904,0.24857966329284542,0.05711751869119139,0.010002371411802463,0.24858416458402444,-0.0001358308021234822,-1.037955255441328e-06,4.501291179015432e-06,0.0001359093292563066,-3.3946225410639844e-05,-8.268837552755484e-07,6.98487294584147e-05,min_task,none,false,false,7.0,7.0,7.0,7.0,7.0,7.0,7.0,7.0,0.013972171302892971,-0.23377386950274248,0.06544707826382089,-0.002615950226497817,0.0007883482459966741,-0.00013738055807789563,2.4558102420952085e-05,6.150345794106085e-07,-0.0021044388599881594,0.009947882559641553,-0.7173381903801173,-0.18489018270063778,0.0008275329388453219,0.0012300689429872059,-0.0009552854510287295,-3.3946225410639844e-05,-8.268837552755484e-07,6.98487294584147e-05,0.00010324617907617746,0.5794938949001255,0.9198412319961706,-3.054550822562001e-05,9.059308314710562e-06,2.4194735724087134e-05,7.0,7.0,7.0,7.0,7.0,7.0,7.0,7.0,1.2021061174440026,1.2021061174440026,1.2020581102694254,1.2020581102694254,1.2020569402640928,1.2020569402640928,1.202104947485395,1.202104947485395,0.013972171302892971,-0.23377386950274248,0.06544707826382089,-0.002615950226497817,0.0007883482459966741,-0.00013738055807789563
4.0,0.06,0.05763190973552014,0.01000489527058504,0.2485736293295038,0.05733640688319139,0.010002371411802463,0.24858416458402444,-0.0002955028523287523,-2.523858782577104e-06,1.0535254520632753e-05,0.0002957013648690132,-8.895976399503802e-05,-2.093193004275952e-06,0.0001748046501203217,min_task,none,false,false,7.0,7.0,7.0,7.0,7.0,7.0,7.0,7.0,0.018600320861550078,-0.3157238485235067,0.08892384399843896,-0.003532233371600698,0.0010654297441824996,-0.000187105751116182,0.00011295814675582002,2.7515063976616624e-06,-0.009297037210796262,0.008586251397838848,-0.9660150248943306,-0.24042955680670836,0.0030140050987200536,0.00037922936298609027,-0.002656831403561818,-8.895976399503802e-05,-2.093193004275952e-06,0.0001748046501203217,0.0002595904383091706,0.5786732961155617,0.9195886823580257,-7.779706408675637e-05,2.2577420914383874e-05,6.198918201081787e-05,7.0,7.0,7.0,7.0,7.0,7.0,7.0,7.0,1.2021459194573432,1.2021459194573432,1.2020201115992537,1.2020201115992537,1.2020171473412933,1.2020171473412933,1.2021429555096013,1.2021429555096013,0.018600320861550078,-0.3157238485235067,0.08892384399843896,-0.003532233371600698,0.0010654297441824996,-0.000187105751116182
5.0,0.08,0.05825895724403778,0.010007170605374226,0.24856525398005566,0.05774520611519139,0.010002371411802463,0.24858416458402444,-0.0005137511288463917,-4.799193571762561e-06,1.8910603968774753e-05,0.0005141214502355886,-0.00017971562991145836,-4.062201791159162e-06,0.00033527659526337133,min_task,none,false,false,7.0,7.0,7.0,7.0,7.0,7.0,7.0,7.0,0.022150668875633765,-0.3809610027772122,0.10767080126873493,-0.0042519952890688354,0.0013028464264138095,-0.00022712768912392677,0.0002960190702684724,6.96522799331819e-06,-0.02326692749027304,0.00455113595164047,-1.1641859238589338,-0.2854227803935378,0.005561696452089189,0.0003648594723215011,-0.004880867135143692,-0.00017971562991145836,-4.062201791159162e-06,0.00033527659526337133,0.0005006036998531974,0.5773183947260678,0.9191761573570477,-0.00015211494380943185,4.3817569404836484e-05,0.0001219145330764816,7.0,7.0,7.0,7.0,7.0,7.0,7.0,7.0,1.2022115063590373,1.2022115063590373,1.201957351028514,1.201957351028514,1.2019515905611962,1.2019515905611962,1.2022057471095253,1.2022057471095253,0.022150668875633765,-0.3809610027772122,0.10767080126873493,-0.0042519952890688354,0.0013028464264138095,-0.00022712768912392677
6.0,0.1,0.059175347064407226,0.010010328038794133,0.24855507328859133,0.05839076438719139,0.010002371411802463,0.24858416458402444,-0.0007845826772158379,-7.956626991670324e-06,2.9091295433103515e-05,0.0007851621417071969,-0.0003119643646877941,-6.73936134779007e-06,0.0005493430987608221,min_task,none,false,false,7.0,7.0,7.0,7.0,7.0,7.0,7.0,7.0,0.024887687403237095,-0.4327539012511553,0.12240550105799486,-0.004808065022211606,0.0015149718212408468,-0.0002588554681498162,0.0005980147823078096,1.3517224878816794e-05,-0.04462613563300614,-0.0010940474769419591,-1.3232036264985056,-0.32703825124867475,0.00805643926841181,0.0017786414070796704,-0.0074218034190476,-0.0003119643646877941,-6.73936134779007e-06,0.0005493430987608221,0.0008255791565026504,0.5753414447601554,0.9185770356692546,-0.000254482418620427,7.392978747500627e-05,0.0002051074251590746,7.0,7.0,7.0,7.0,7.0,7.0,7.0,7.0,1.2023069635293613,1.2023069635293613,1.2018657819841383,1.2018657819841383,1.2018562065612817,1.2018562065612817,1.2022973916201944,1.2022973916201944,0.024887687403237095,-0.4327539012511553,0.12240550105799486,-0.004808065022211606,0.0015149718212408468,-0.0002588554681498162
7.0,0.12000000000000001,0.060412581590281296,0.010014472307883954,0.24854371313184676,0.05931218825919139,0.010002371411802463,0.24858416458402444,-0.0011003933310899036,-1.2100896081491258e-05,4.045145217768109e-05,0.001101203085164763,-0.0004902211559396882,-1.0071954188049546e-05,0.0008100697569186166,min_task,none,false,false,7.0,7.0,7.0,7.0,7.0,7.0,7.0,7.0,0.027014882353817535,-0.47348019993930296,0.13366316890021557,-0.0052260356168788,0.0017095612601062704,-0.00028331223140579543,0.001038080574020982,2.2425634801714778e-05,-0.07311890674489378,-0.007461780818663692,-1.4512648559790178,-0.3703608834866378,0.010195546675632848,0.004851948746087828,-0.010090139699768784,-0.0004902211559396882,-1.0071954188049546e-05,0.0008100697569186166,0.0012269540986643603,0.5726719971274163,0.917766428709847,-0.0003837201719865786,0.00011425536196758868,0.00031093872081109286,7.0,7.0,7.0,7.0,7.0,7.0,7.0,7.0,1.2024354670022304,1.2024354670022304,1.2017421958030603,1.2017421958030603,1.2017278486659804,1.2017278486659804,1.2024211281371748,1.2024211281371748,0.027014882353817535,-0.47348019993930296,0.13366316890021557,-0.0052260356168788,0.0017095612601062704,-0.00028331223140579543
8.0,0.14,0.061994014081092785,0.010019729120281139,0.24853178692708142,0.06054121149119139,0.010002371411802463,0.24858416458402444,-0.0014528025899013947,-1.7357708478675862e-05,5.23776569430201e-05,0.0014538500865683061,-0.000717991246185153,-1.396369307160599e-05,0.0011069414334827408,min_task,none,false,false,7.0,7.0,7.0,7.0,7.0,7.0,7.0,7.0,0.028689044318615273,-0.5048756684319063,0.14185390901331038,-0.005526731755931929,0.0018898321033188276,-0.0003012641042499774,0.001631241050477314,3.351503307258689e-05,-0.10782224806757951,-0.013843501492120274,-1.5542405798779702,-0.4187977632148265,0.011772646420529139,0.009554138592958778,-0.012718778452155395,-0.000717991246185153,-1.396369307160599e-05,0.0011069414334827408,0.0016923142007988666,0.5692534817041267,0.9167191837879991,-0.0005369727179064139,0.00016643931527657378,0.00043735308886652164,7.0,7.0,7.0,7.0,7.0,7.0,7.0,7.0,1.2025994514503069,1.2025994514503069,1.2015840708838528,1.2015840708838528,1.2015641164647757,1.2015641164647757,1.2025795138794542,1.2025795138794542,0.028689044318615273,-0.5048756684319063,0.14185390901331038,-0.005526731755931929,0.0018898321033188276,-0.0003012641042499774
9.0,0.16,0.06393576439319647,0.010026251929950965,0.24851984015665424,0.06210256368319139,0.010002371411802463,0.24858416458402444,-0.0018332007100050757,-2.3880518148501964e-05,6.432442737019928e-05,0.001834484329250773,-0.0009979336707719249,-1.8288957262559505e-05,0.0014271962445316375,min_task,none,false,false,7.0,7.0,7.0,7.0,7.0,7.0,7.0,7.0,0.0300295692160116,-0.5282109761478153,0.14730265871260798,-0.005727607743994469,0.0020557600801268004,-0.00031330824384123685,0.002389160236003442,4.646500966370234e-05,-0.147336558069792,-0.019702325153688888,-1.6362700696304444,-0.4743882400187325,0.012675281850360506,0.015651429700333834,-0.015172047006131551,-0.0009979336707719249,-1.8288957262559505e-05,0.0014271962445316375,0.0022062299770184484,0.5650407810382204,0.9154085994867612,-0.0007102711246006835,0.00023246332829874764,0.0005812774700965852,7.0,7.0,7.0,7.0,7.0,7.0,7.0,7.0,1.2028007339099493,1.2028007339099493,1.201389464771952,1.201389464771952,1.2013632294402665,1.2013632294402665,1.202774529361352,1.202774529361352,0.0300295692160116,-0.5282109761478153,0.14730265871260798,-0.005727607743994469,0.0020557600801268004,-0.00031330824384123685
10.0,0.18,0.06624743868383479,0.010034225695172346,0.24850832466364808,0.06401433891519138,0.010002371411802463,0.24858416458402444,-0.002233099768643401,-3.185428336988268e-05,7.583992037635268e-05,0.0022346142766945065,-0.001331978881761602,-2.290614518864749e-05,0.0017570301362489255,min_task,none,false,false,7.0,7.0,7.0,7.0,7.0,7.0,7.0,7.0,0.03112443270042861,-0.5444169357876281,0.1502768560452885,-0.0058434641607504655,0.0022049946483767647,-0.0003199328515624676,0.003320686498876379,6.085753913410307e-05,-0.18996318356119998,-0.024659291129196452,-1.7001864791298253,-0.5380395633752322,0.012883356725331975,0.022754864670923396,-0.01735364844692726,-0.001331978881761602,-2.290614518864749e-05,0.0017570301362489255,0.0027518947485897192,0.5599985468152531,0.9138057190569477,-0.0008991380666710048,0.00031461572993897956,0.0007390729964862796,7.0,7.0,7.0,7.0,7.0,7.0,7.0,7.0,1.2030406044833277,1.2030406044833277,1.2011569384356375,1.2011569384356375,1.2011239343388835,1.2011239343388835,1.203007652064298,1.203007652064298,0.03112443270042861,-0.5444169357876281,0.1502768560452885,-0.0058434641607504655,0.0022049946483767647,-0.0003199328515624676
11.0,0.19999999999999998,0.06893271678895668,0.010043864880742742,0.24849759134856125,0.06628836438719139,0.010002371411802463,0.24858416458402444,-0.0026443524017652903,-4.1493468940279055e-05,8.657323546318318e-05,0.002646094529261024,-0.001721411328931471,-2.7669489249303738e-05,0.00208264079358541,min_task,none,false,false,7.0,7.0,7.0,7.0,7.0,7.0,7.0,7.0,0.03203413976717108,-0.5541738184107634,0.15100537591642066,-0.005886764825089102,0.0023336146856797494,-0.00032155789592831524,0.004432244068307851,7.622141040107368e-05,-0.233864753920382,-0.02847534010649438,-1.747826526603072,-0.6097109756443562,0.012462577604678097,0.030370172364607876,-0.01921142230587692,-0.001721411328931471,-2.7669489249303738e-05,0.00208264079358541,0.0033125292363417836,0.5541000790517135,0.9118791001011429,-0.0010991846571650732,0.0004154098230597946,0.000906992189770523,7.0,7.0,7.0,7.0,7.0,7.0,7.0,7.0,1.2033198918013284,1.2033198918013284,1.2008855048762153,1.2008855048762153,1.2008454390449388,1.2008454390449388,1.2032799070282816,1.2032799070282816,0.03203413976717108,-0.5541738184107634,0.15100537591642066,-0.005886764825089102,0.0023336146856797494,-0.00032155789592831524
12.0,0.21999999999999997,0.07198985126359067,0.010055403507314205,0.24848789382001907,0.06893056905919138,0.010002371411802463,0.24858416458402444,-0.0030592822043992857,-5.3032095511742344e-05,9.627076400536838e-05,0.0030612559627235837,-0.0021669249597047425,-3.243872110067937e-05,0.002391085213486104,min_task,none,false,false,7.0,7.0,7.0,7.0,7.0,7.0,7.0,7.0,0.032794654072614365,-0.5579760802647227,0.14969127907544966,-0.005867755524564989,0.002436825483695178,-0.0003185625409889757,0.005728107984549963,9.207153963719531e-05,-0.2772041308330013,-0.031030904765738464,-1.7802627255212722,-0.6885651506470927,0.011551147395326604,0.03795234119315373,-0.020738006795741355,-0.0021669249597047425,-3.243872110067937e-05,0.002391085213486104,0.00387252258918566,0.5473266353462894,0.9095949809230309,-0.001306646560084409,0.0005374623482189108,0.0010816008533341887,7.0,7.0,7.0,7.0,7.0,7.0,7.0,7.0,1.203639008617367,1.203639008617367,1.2005745961929755,1.2005745961929755,1.200527367675627,1.200527367675627,1.2035919003464761,1.2035919003464761,0.032794654072614365,-0.5579760802647227,0.14969127907544966,-0.005867755524564989,0.002436825483695178,-0.0003185625409889757
13.0,0.23999999999999996,0.07541210830139064,0.010069076685255147,0.24847939820056658,0.07194135229119138,0.010002371411802463,0.24858416458402444,-0.0034707560101992635,-6.670527345268434e-05,0.00010476638345785494,0.003472977522378103,-0.002668657505375361,-3.708613534359337e-05,0.0026709346489756118,min_task,none,false,false,7.0,7.0,7.0,7.0,7.0,7.0,7.0,7.0,0.03342000998280061,-0.5561804808096569,0.1465201920035978,-0.005794523214109845,0.0025096207023367996,-0.0003113033870674182,0.007210588969694726,0.00010794113117976273,-0.31825855630214983,-0.03230489623338209,-1.7979848959828149,-0.7731004859393146,0.010340557484407051,0.04496184592493646,-0.021967356030355916,-0.002668657505375361,-3.708613534359337e-05,0.0026709346489756118,0.004418290247990021,0.5396670693693915,0.9069177780304382,-0.0015188142072220367,0.0006833462150929577,0.0012601286457671055,7.0,7.0,7.0,7.0,7.0,7.0,7.0,7.0,1.20399798130362,1.20399798130362,1.2002240445792862,1.2002240445792862,1.2001697328152914,1.2001697328152914,1.203943839787745,1.203943839787745,0.03342000998280061,-0.5561804808096569,0.1465201920035978,-0.005794523214109845,0.0025096207023367996,-0.0003113033870674182
14.0,0.25999999999999995,0.0791881711785781,0.010085094935707802,0.2484721960380098,0.07531595248319138,0.010002371411802463,0.24858416458402444,-0.003872218695386717,-8.272352390533907e-05,0.00011196854601464024,0.003874720346245179,-0.0032262080521822693,-4.150082848119229e-05,0.0029127219761865913,min_task,none,false,false,7.0,7.0,7.0,7.0,7.0,7.0,7.0,7.0,0.0339050509764358,-0.5490430416342517,0.14166561846426487,-0.005673084208852427,0.0025473874894909035,-0.00030012631866839956,0.008880147731109303,0.0001234051823904017,-0.35550682926374655,-0.032354591231467056,-1.801048612045434,-0.8612727975825968,0.009052778244214318,0.05091670861152019,-0.022967661450721308,-0.0032262080521822693,-4.150082848119229e-05,0.0029127219761865913,0.004938842851428233,0.531117718880482,0.9038108578253744,-0.0017343246219990492,0.0008554333133815871,0.001440721294023417,7.0,7.0,7.0,7.0,7.0,7.0,7.0,7.0,1.2043964660465323,1.2043964660465323,1.1998340736805186,1.1998340736805186,1.1997729215239197,1.1997729215239197,1.2043355455530773,1.2043355455530773,0.0339050509764358,-0.5490430416342517,0.14166561846426487,-0.005673084208852427,0.0025473874894909035,-0.00030012631866839956
15.0,0.27999999999999997,0.08330252024739807,0.010103614147274002,0.24846631840486202,0.07904481571519138,0.010002371411802463,0.24858416458402444,-0.0042577045322066825,-0.00010124273547153922,0.00011784617916241191,0.004260538193350961,-0.003838641533012589,-4.559014977320495e-05,0.003109188281171316,min_task,none,false,false,7.0,7.0,7.0,7.0,7.0,7.0,7.0,7.0,0.034228528456025774,-0.5367484497774657,0.1352921138273952,-0.00550754954924163,0.0025464121672298438,-0.0002853738257700291,0.010735453649795801,0.00013809459017874069,-0.38768885175223083,-0.031297359903879086,-1.7892015546722126,-0.950611104188887,0.007916712372692022,0.05543417091907058,-0.023831605131838223,-0.003838641533012589,-4.559014977320495e-05,0.003109188281171316,0.005426075269846682,0.5216824775518456,0.9002375304882032,-0.0019532974453468493,0.0010557430406304006,0.0016225786731318003,7.0,7.0,7.0,7.0,7.0,7.0,7.0,7.0,1.2048337540263134,1.2048337540263134,1.1994052974475642,1.1994052974475642,1.1993376921783998,1.1993376921783998,1.2047664533741256,1.2047664533741256,0.034228528456025774,-0.5367484497774657,0.1352921138273952,-0.00550754954924163,0.0025464121672298438,-0.0002853738257700291
16.0,0.3,0.08773579894021924,0.010124704937882433,0.24846174998609508,0.08311396438719139,0.010002371411802463,0.24858416458402444,-0.004621834553027851,-0.00012233352607997003,0.00012241459792936005,0.0046250735627610855,-0.004504483256617792,-4.927865973094989e-05,0.0032553463223634295,min_task,none,false,false,7.0,7.0,7.0,7.0,7.0,7.0,7.0,7.0,0.034356630097014895,-0.5194341958381858,0.12755699159428835,-0.005300383636543795,0.0025042423667001545,-0.00026738901577387194,0.012773399932084815,0.00015170098125448435,-0.41383844942792614,-0.029294437778480148,-1.7619940054787044,-1.038329435629027,0.007146664061232216,0.058257071928257735,-0.024665068599169407,-0.004504483256617792,-4.927865973094989e-05,0.0032553463223634295,0.005874799185152229,0.5113729943860057,0.8961622169533351,-0.0021773130813760324,0.0012858098821941092,0.0018059748506918177,7.0,7.0,7.0,7.0,7.0,7.0,7.0,7.0,1.2053087676764764,1.2053087676764764,1.198938724162336,1.198938724162336,1.198865179459307,1.198865179459307,1.2052356116800453,1.2052356116800453,0.034356630097014895,-0.5194341958381858,0.12755699159428835,-0.005300383636543795,0.0025042423667001545,-0.00026738901577387194
17.0,0.32,0.0924651721012266,0.010148325380724384,0.24845844240211942,0.0875053658591914,0.010002371411802463,0.24858416458402444,-0.004959806242035195,-0.00014595396892192088,0.0001257221819050136,0.004963545767553503,-0.005221706297944364,-5.250512350452542e-05,0.003348387514892983,min_task,none,false,false,7.0,7.0,7.0,7.0,7.0,7.0,7.0,7.0,0.034246877644886584,-0.4972108367679021,0.11861104985583751,-0.0050527475065214695,0.0024198747401346686,-0.00024651711116190913,0.01498908557498346,0.00016397325043987723,-0.4332918171249681,-0.026536277362539627,-1.7188765433948143,-1.1214348267616667,0.006924987728763311,0.05926246049368145,-0.02557546545943814,-0.005221706297944364,-5.250512350452542e-05,0.003348387514892983,0.006282555226123378,0.5002089513973484,0.8915517417124375,-0.002409244873958868,0.001546579359133277,0.0019921673375886523,7.0,7.0,7.0,7.0,7.0,7.0,7.0,7.0,1.2058200501332184,1.2058200501332184,1.198435763740104,1.198435763740104,1.1983569049564105,1.1983569049564105,1.2057416743020284,1.2057416743020284,0.034246877644886584,-0.4972108367679021,0.11861104985583751,-0.0050527475065214695,0.0024198747401346686,-0.00024651711116190913
18.0,0.34,0.09746468078497597,0.01017430055868123,0.24845632628901393,0.0921973010911914,0.010002371411802463,0.24858416458402444,-0.005267379693784574,-0.00017192914687876731,0.00012783829501050725,0.005271735112817385,-0.005987714418097097,-5.521824577043085e-05,0.003387465515276896,min_task,none,false,false,7.0,7.0,7.0,7.0,7.0,7.0,7.0,7.0,0.03385223254970927,-0.4701791636020709,0.10859867729699973,-0.004764900043671768,0.0022937602093161284,-0.0002231049862867385,0.017375773519168226,0.00017470756175457164,-0.4456751368912327,-0.023228658610188753,-1.659285972616878,-1.1968306239518056,0.007390217871142303,0.05845288755712958,-0.026660790038917397,-0.005987714418097097,-5.521824577043085e-05,0.003387465515276896,0.006649250613357607,0.48821837574746696,0.8863767056404441,-0.0026529688331618784,0.001838336757663482,0.0021832122144634265,7.0,7.0,7.0,7.0,7.0,7.0,7.0,7.0,1.2063657500951874,1.2063657500951874,1.197898236745665,1.197898236745665,1.1978147909799233,1.1978147909799233,1.206282890077874,1.206282890077874,0.03385223254970927,-0.4701791636020709,0.10859867729699973,-0.004764900043671768,0.0022937602093161284,-0.0002231049862867385
19.0,0.36000000000000004,0.10270559614598002,0.010202311392584117,0.24845532182764973,0.09716473328319139,0.010002371411802463,0.24858416458402444,-0.005540862862788626,-0.00019993998078165348,0.000128842756374703,0.005545965895677268,-0.006799323102432708,-5.737195868899662e-05,0.0033733929676054274,min_task,none,false,false,7.0,7.0,7.0,7.0,7.0,7.0,7.0,7.0,0.03312517830641609,-0.43844472044927457,0.09765762266299474,-0.004436619730286258,0.002127645669538733,-0.00019749923249716276,0.019924833847594275,0.0001837331637750426,-0.4508757720076806,-0.01957883551965157,-1.5827195380483663,-1.2614138508577146,0.008631042923272622,0.05593359815824695,-0.028000306349202312,-0.006799323102432708,-5.737195868899662e-05,0.0033733929676054274,0.006976674857291941,0.47543794744474777,0.8806128945008043,-0.0029129829874122836,0.002160668261631508,0.0023817088455791737,7.0,7.0,7.0,7.0,7.0,7.0,7.0,7.0,1.2069436044352984,1.2069436044352984,1.1973283837983868,1.1973283837983868,1.1972411752636598,1.1972411752636598,1.2068570907049112,1.2068570907049112,0.03312517830641609,-0.43844472044927457,0.09765762266299474,-0.004436619730286258,0.002127645669538733,-0.00019749923249716276
20.0,0.38000000000000006,0.10815677397891027,0.010231893869639557,0.24845534752062723,0.1023796765151914,0.010002371411802463,0.24858416458402444,-0.005777097463718864,-0.000229522457837094,0.00012881706339720744,0.005783089961238783,-0.007652741251998302,-5.892108742286711e-05,0.0033082884110937653,min_task,none,false,false,7.0,7.0,7.0,7.0,7.0,7.0,7.0,7.0,0.0320215109942189,-0.40212989771570773,0.08591864764709108,-0.004067605356749037,0.0019242955647093068,-0.0001700432473739664,0.02262568062162328,0.00019089671996209704,-0.4490019036644866,-0.015781537056963828,-1.4887970132352475,-1.3121653706589296,0.010685648728614392,0.0518809059839446,-0.029647569411681056,-0.007652741251998302,-5.892108742286711e-05,0.0033082884110937653,0.007267948748293668,0.4619132684707393,0.8742426804289674,-0.0031939735671072667,0.0025124503231668265,0.0025905021545590892,7.0,7.0,7.0,7.0,7.0,7.0,7.0,7.0,1.2075509209705493,1.2075509209705493,1.196728874185525,1.196728874185525,1.1966388243581456,1.1966388243581456,1.207461678227807,1.207461678227807,0.0320215109942189,-0.40212989771570773,0.08591864764709108,-0.004067605356749037,0.0019242955647093068,-0.0001700432473739664
21.0,0.4000000000000001,0.11378501071446617,0.010262448423458135,0.24845632709072424,0.10781156438719142,0.010002371411802463,0.24858416458402444,-0.005973446327274756,-0.00026007701165567214,0.000127837493300198,0.005980471846060083,-0.008543556000384913,-5.9818130064923853e-05,0.0031952079562506145,min_task,none,false,false,7.0,7.0,7.0,7.0,7.0,7.0,7.0,7.0,0.030503579712321677,-0.3613837638420056,0.0735052490421282,-0.003657817789940527,0.0016871532610324383,-0.00014107391782086436,0.025465710770025445,0.00019604789749892696,-0.4403355349700508,-0.012005420878127528,-1.377310392004848,-1.3462318775577198,0.013545353916009941,0.04650797032243447,-0.0316261980749264,-0.008543556000384913,-5.9818130064923853e-05,0.0031952079562506145,0.0075269603922929265,0.4476990639518468,0.8672563755636483,-0.0035003667814859714,0.002891860915615912,0.002812371774305333,7.0,7.0,7.0,7.0,7.0,7.0,7.0,7.0,1.2081845637592263,1.2081845637592263,1.196102812560924,1.196102812560924,1.19601094366052,1.19601094366052,1.2080936136101563,1.2080936136101563,0.030503579712321677,-0.3613837638420056,0.0735052490421282,-0.003657817789940527,0.0016871532610324383,-0.00014107391782086436
22.0,0.4200000000000001,0.1195554011446093,0.010293258008084194,0.24845819443564165,0.1134276186591914,0.010002371411802463,0.24858416458402444,-0.006127782485417899,-0.0002908865962817312,0.0001259701483827813,0.006135976016802405,-0.009466723030085484,-6.001170595642824e-05,0.003037791620827069,min_task,none,false,false,7.0,7.0,7.0,7.0,7.0,7.0,7.0,7.0,0.028542777627058393,-0.3163898115770094,0.06053360058425215,-0.003207735030761546,0.0014200068095209341,-0.00011091849792746597,0.028430253237955606,0.0001990286661585738,-0.42528346820322477,-0.008381305625683424,-1.2482613916436396,-1.3609993362750774,0.01716115218447675,0.04003386967246205,-0.03392852824294585,-0.009466723030085484,-6.001170595642824e-05,0.003037791620827069,0.007757836471237872,0.43285929071624357,0.8596534990221958,-0.003835903004515865,0.0032964058844201162,0.0030497358795368865,7.0,7.0,7.0,7.0,7.0,7.0,7.0,7.0,1.2088409431399452,1.2088409431399452,1.1954537425942866,1.1954537425942866,1.1953611822305823,1.1953611822305823,1.2087494079057417,1.2087494079057417,0.028542777627058393,-0.3163898115770094,0.06053360058425215,-0.003207735030761546,0.0014200068095209341,-0.00011091849792746597
23.0,0.4400000000000001,0.1254316977837985,0.010323512532694942,0.24846089663135024,0.1191932178911914,0.010002371411802463,0.24858416458402444,-0.0062384798926071044,-0.0003211411208924788,0.00012326795267419977,0.006247956304116388,-0.01041656461491287,-5.9446969993608316e-05,0.002839947918872824,min_task,none,false,false,7.0,7.0,7.0,7.0,7.0,7.0,7.0,7.0,0.026121186332315183,-0.267371877675469,0.047112834276947145,-0.0027185080236517807,0.001126715633879957,-7.98922466532896e-05,0.03150253628103069,0.00019966814974614022,-0.4043302333560151,-0.004993885280211205,-1.1018877194561842,-1.3541582338820315,0.021451754749422094,0.03266043367397578,-0.03651699040262026,-0.01041656461491287,-5.9446969993608316e-05,0.002839947918872824,0.00796448781025284,0.4174671330871447,0.8514439204437342,-0.004203265046539749,0.003722954692522961,0.003304393464582476,7.0,7.0,7.0,7.0,7.0,7.0,7.0,7.0,1.2095160124614563,1.2095160124614563,1.194785646382559,1.194785646382559,1.1946936308038278,1.1946936308038278,1.2094251176001372,1.2094251176001372,0.026121186332315183,-0.267371877675469,0.047112834276947145,-0.0027185080236517807,0.001126715633879957,-7.98922466532896e-05
24.0,0.46000000000000013,0.13137667152765786,0.010352336873646657,0.24846439504055862,0.12507226608319144,0.010002371411802463,0.24858416458402444,-0.006304405444466421,-0.0003499654618441938,0.0001197695434658197,0.006315247309190961,-0.01138677741223581,-5.806799714450439e-05,0.0026055932789998586,min_task,none,false,false,7.0,7.0,7.0,7.0,7.0,7.0,7.0,7.0,0.0232323981966855,-0.21459858402153636,0.033345745239273694,-0.0021920217308998378,0.0008110360012915255,-4.829725419579034e-05,0.03466368030580208,0.00019778401894589927,-0.37799610778042253,-0.0018784793336922752,-0.9386797969880519,-1.3237617139129292,0.026311919863589238,0.02455916375932479,-0.03932779866785646,-0.01138677741223581,-5.806799714450439e-05,0.0026055932789998586,0.008150256749312109,0.4016048698316695,0.84264884518201,-0.004603784429704324,0.004167781883829816,0.0035773227445236497,7.0,7.0,7.0,7.0,7.0,7.0,7.0,7.0,1.2102052731041906,1.2102052731041906,1.194102938375331,1.194102938375331,1.1940128117242985,1.1940128117242985,1.2101163457181932,1.2101163457181932,0.0232323981966855,-0.21459858402153636,0.033345745239273694,-0.0021920217308998378,0.0008110360012915255,-4.829725419579034e-05
25.0,0.48000000000000015,0.13735247311991783,0.010378819670108378,0.24846866465659662,0.13102756131519142,0.010002371411802463,0.24858416458402444,-0.006324911804726413,-0.00037644825830591457,0.00011549992742782011,0.006337157317124526,-0.012370451776619946,-5.5821856273000604e-05,0.002338455980324565,min_task,none,false,false,6.999999999999999,6.999999999999999,6.999999999999999,6.999999999999999,6.999999999999999,6.999999999999999,6.999999999999999,6.999999999999999,0.019881661480923747,-0.15838679342784517,0.019329969428996296,-0.0016308819418806757,0.00047655943083513286,-1.6422683893018787e-05,0.037892722993840895,0.00019319043749882112,-0.34680243287515217,0.000976295388886036,-0.7593905787781992,-1.2682785915420196,0.031620153117853156,0.015868319303489597,-0.04227633277363181,-0.012370451776619946,-5.5821856273000604e-05,0.002338455980324565,0.008317681141284089,0.38536359951567195,0.8333016077044795,-0.005037240054808532,0.004626612879494602,0.0038685459214275074,6.999999999999999,6.999999999999999,6.999999999999999,6.999999999999999,6.999999999999999,6.999999999999999,6.999999999999999,6.999999999999999,1.2109037890072716,1.2109037890072716,1.1934104525350377,1.1934104525350377,1.1933236598587307,1.1933236598587307,1.2108182502716578,1.2108182502716578,0.019881661480923747,-0.15838679342784517,0.019329969428996296,-0.0016308819418806757,0.00047655943083513286,-1.6422683893018787e-05
26.0,0.5000000000000001,0.14332099485703365,0.010402040483353412,0.24847369189612006,0.13702116438719142,0.010002371411802463,0.24858416458402444,-0.006299830469842227,-0.00039966907155094926,0.0001104726879043727,0.0063134620874984075,-0.01336010407872534,-5.266386008946573e-05,0.0020419482236372632,min_task,none,false,false,7.0,7.0,7.0,7.0,7.0,7.0,7.0,7.0,0.016085574906710184,-0.09910465319933494,0.005159640924993554,-0.0010383591727191597,0.00012675472747821263,1.54535908794872e-05,0.041166682621998796,0.0001857116244220285,-0.31124551715548016,0.003620034929793049,-0.5650417218304211,-1.1866438779103907,0.03724516777280159,0.006698376235280883,-0.0452634609326836,-0.01336010407872534,-5.266386008946573e-05,0.0020419482236372632,0.008468377543018844,0.3688428138407003,0.8234482406520939,-0.005501753424948977,0.0050946746763703065,0.004177062595102377,7.0,7.0,7.0,7.0,7.0,7.0,7.0,7.0,1.2116062115349542,1.2116062115349542,1.1927134214776018,1.1927134214776018,1.1926314938863254,1.1926314938863254,1.2115255615408222,1.2115255615408222,0.016085574906710184,-0.09910465319933494,0.005159640924993554,-0.0010383591727191597,0.00012675472747821263,1.54535908794872e-05
27.0,0.5200000000000001,0.14924423193954267,0.010421093554396854,0.24847947114365787,0.1430147674591914,0.010002371411802463,0.24858416458402444,-0.006229464480351277,-0.000418722142594391,0.00010469344036656558,0.006244398823034354,-0.014347723212143282,-4.856333280934081e-05,0.0017191051323093979,min_task,none,false,false,6.999999999999998,6.999999999999998,6.999999999999998,6.999999999999998,6.999999999999998,6.999999999999998,6.999999999999998,6.999999999999998,0.011871593768508815,-0.03717491589751857,-0.009072492227885219,-0.0004183259793205195,-0.00023491292682361448,4.706216763402212e-05,0.0444606645514917,0.0001751993218456797,-0.27177960714414956,0.006127364242475255,-0.35693002205648966,-1.07831005906505,0.04305073747346177,-0.002857049926316225,-0.048182005806732535,-0.014347723212143282,-4.856333280934081e-05,0.0017191051323093979,0.008603035701329715,0.3521498096199154,0.8131477871816619,-0.0059937749065460105,0.005566753266818653,0.004500846518638235,6.999999999999998,6.999999999999998,6.999999999999998,6.999999999999998,6.999999999999998,6.999999999999998,6.999999999999998,6.999999999999998,1.212306815186925,1.212306815186925,1.192017446431887,1.192017446431887,1.1919419776498819,1.1919419776498819,1.2122326095409988,1.2122326095409988,0.011871593768508815,-0.03717491589751857,-0.009072492227885219,-0.0004183259793205195,-0.00023491292682361448,4.706216763402212e-05
28.0,0.5400000000000001,0.15508464290439133,0.010435107204034563,0.24848600043558122,0.1489700626911914,0.010002371411802463,0.24858416458402444,-0.006114580213199938,-0.00043273579223209943,9.816414844321386e-05,0.006130659642287649,-0.015324832179927186,-4.350919534341179e-05,0.0013725860369362664,min_task,none,false,false,7.0,7.0,7.0,7.0,7.0,7.0,7.0,7.0,0.0072775841852493394,0.026920804134300404,-0.023272561940524586,0.00022477894159326638,-0.0006048212130929266,7.813849662804978e-05,0.047748014875631996,0.0001615519750473706,-0.22880876566081704,0.00858193411617193,-0.1366380817914426,-0.9433025436770563,0.04889874680690879,-0.01270799910564958,-0.050922608487682666,-0.015324832179927186,-4.350919534341179e-05,0.0013725860369362664,0.008721508742850098,0.3353989297613081,0.8024723235779235,-0.006508147606607768,0.006037260067078856,0.0048368941178932754,7.0,7.0,7.0,7.0,7.0,7.0,7.0,7.0,1.2129995444064514,1.2129995444064514,1.1913284570130123,1.1913284570130123,1.1912610714758571,1.1912610714758571,1.2129333628254528,1.2129333628254528,0.0072775841852493394,0.026920804134300404,-0.023272561940524586,0.00022477894159326638,-0.0006048212130929266,7.813849662804978e-05
29.0,0.5600000000000002,0.16080550863881785,0.010443258758087758,0.24849327674261718,0.15484911088319142,0.010002371411802463,0.24858416458402444,-0.005956397755626425,-0.00044088734628529476,9.088784140726114e-05,0.00597338400532409,-0.01628256539276011,-3.751472559586277e-05,0.0010047312137582282,min_task,none,false,false,6.999999999999999,6.999999999999999,6.999999999999999,6.999999999999999,6.999999999999999,6.999999999999999,6.999999999999999,6.999999999999999,0.0023515952020651053,0.09263623330919679,-0.037342769800781855,0.0008859344001136819,-0.0009790235027304312,0.00010841887602600647,0.05100052426718549,0.00014473329308303302,-0.18268703918964585,0.0110597878809189,0.09394710830636804,-0.7822822231845429,0.05465037983321974,-0.02275543506541386,-0.05337839611401096,-0.01628256539276011,-3.751472559586277e-05,0.0010047312137582282,0.00882297901130721,0.3187106220165393,0.7915066578124826,-0.007038230429351304,0.006500309495561273,0.005181309046245457,6.999999999999999,6.999999999999999,6.999999999999999,6.999999999999999,6.999999999999999,6.999999999999999,6.999999999999999,6.999999999999999,1.213678071579526,1.213678071579526,1.190652660007039,1.190652660007039,1.1905949735086605,1.1905949735086605,1.213621479537688,1.213621479537688,0.0023515952020651053,0.09263623330919679,-0.037342769800781855,0.0008859344001136819,-0.0009790235027304312,0.00010841887602600647
30.0,0.5800000000000002,0.16637128958698705,0.010444785642644316,0.248501291347853,0.16061471011519143,0.010002371411802463,0.24858416458402444,-0.005756579471795614,-0.0004424142308418529,8.287323617142683e-05,0.005774149767716766,-0.01721176209780228,-3.0620986742744806e-05,0.0006176660294572056,min_task,none,false,false,7.000000000000001,7.000000000000001,7.000000000000001,7.000000000000001,7.000000000000001,7.000000000000001,7.000000000000001,7.000000000000001,-0.002848071820894179,0.15935268102144362,-0.05117839626328845,0.0015594547502746133,-0.001353103386618456,0.00013763646711827256,0.054188684218716955,0.00012478805190457387,-0.13372600532305368,0.013614128988393136,0.3326048131599626,-0.5966172320100702,0.06016553118147972,-0.032880883780934934,-0.055448098192103515,-0.01721176209780228,-3.0620986742744806e-05,0.0006176660294572056,0.008906178169861851,0.302210301532183,0.7803476680344469,-0.007576060523898691,0.006949809380940894,0.005529405682451973,7.000000000000001,7.000000000000001,7.000000000000001,7.000000000000001,7.000000000000001,7.000000000000001,7.000000000000001,7.000000000000001,1.2143358662404573,1.2143358662404573,1.1899964765845379,1.1899964765845379,1.189950051158929,1.189950051158929,1.2142903713723026,1.2142903713723026,-0.002848071820894179,0.15935268102144362,-0.05117839626328845,0.0015594547502746133,-0.001353103386618456,0.00013763646711827256
31.0,0.6000000000000002,0.17174798091515786,0.01043899390128872,0.2485100258071623,0.16623076438719142,0.010002371411802463,0.24858416458402444,-0.00551721652796644,-0.00043662248948625644,7.413877686213155e-05,0.005534962870067499,-0.018103076190310097,-2.2898595812538907e-05,0.00021344382519060452,min_task,none,false,false,7.000000000000001,7.000000000000001,7.000000000000001,7.000000000000001,7.000000000000001,7.000000000000001,7.000000000000001,7.000000000000001,-0.008252516977535644,0.22636924635857486,-0.06466477182404284,0.0022388422561567937,-0.0017220692404817895,0.00016551764638205257,0.05728199717276823,0.00010185345373218815,-0.08220862923194468,0.016263012183036434,0.5767393470832572,-0.38846365464643196,0.06530073251685961,-0.042939401113369,-0.05703756058667992,-0.018103076190310097,-2.2898595812538907e-05,0.00021344382519060452,0.008969641409191377,0.2860269999389113,0.7691032435766347,-0.008112537884774416,0.007379565376270161,0.005875816224614675,7.000000000000001,7.000000000000001,7.000000000000001,7.000000000000001,7.000000000000001,7.000000000000001,7.000000000000001,7.000000000000001,1.2149662754785935,1.2149662754785935,1.1893664675735507,1.1893664675735507,1.1893327627575179,1.1893327627575179,1.2149332808555247,1.2149332808555247,-0.008252516977535644,0.22636924635857486,-0.06466477182404284,0.0022388422561567937,-0.0017220692404817895,0.00016551764638205257
32.0,0.6200000000000002,0.1769034656091772,0.010425265791355387,0.2485194489079668,0.17166265225919147,0.010002371411802463,0.24858416458402444,-0.005240813349985718,-0.00042289437955292386,6.471567605764728e-05,0.0052582461281660805,-0.018947102520815332,-1.4447692581680177e-05,-0.00020578149590080917,min_task,none,false,false,7.000000000000001,7.000000000000001,7.000000000000001,7.000000000000001,7.000000000000001,7.000000000000001,7.000000000000001,7.000000000000001,-0.013781721886622245,0.2928913574428363,-0.07767438209186713,0.002916586289860929,-0.002080297126549314,0.0001917789237292757,0.06024934148775075,7.616495542074915e-05,-0.028408275639087623,0.018980831892590887,0.8233282231264142,-0.16085198311439539,0.06990615251627924,-0.052756037914203774,-0.058059932898137975,-0.018947102520815332,-1.4447692581680177e-05,-0.00020578149590080917,0.009011978428763404,0.27029178065868587,0.7578907910074163,-0.008637620840190477,0.007783400137652072,0.006214590744036599,7.000000000000001,7.000000000000001,7.000000000000001,7.000000000000001,7.000000000000001,7.000000000000001,7.000000000000001,7.000000000000001,1.2155626155376336,1.2155626155376336,1.1887692466149096,1.1887692466149096,1.1887495694721668,1.1887495694721668,1.215543372124407,1.215543372124407,-0.013781721886622245,0.2928913574428363,-0.07767438209186713,0.002916586289860929,-0.002080297126549314,0.0001917789237292757
33.0,0.6400000000000002,0.1818078657346828,0.010403068298801669,0.24852951490204012,0.1768775954911914,0.010002371411802463,0.24858416458402444,-0.004930270243491408,-0.0004006968869992057,5.4649681984320075e-05,0.004946828201671114,-0.019734519655787344,-5.396134973684873e-06,-0.000637562611859152,min_task,none,false,false,7.000000000000001,7.000000000000001,7.000000000000001,7.000000000000001,7.000000000000001,7.000000000000001,7.000000000000001,7.000000000000001,-0.019344031935422595,0.358018672100707,-0.09006431409349834,0.003583933263255693,-0.0024215238427165433,0.0002161245945649185,0.06305939171670752,4.80561048554175e-05,0.027388326240568462,0.021693893988437483,1.068864279771284,0.08222842882449863,0.07382252280197049,-0.06212549623425792,-0.05843509835182798,-0.019734519655787344,-5.396134973684873e-06,-0.000637562611859152,0.009032147152447703,0.25513589850659185,0.7468352705769427,-0.00914052927941787,0.008155287621254403,0.006539286515024689,7.000000000000001,7.000000000000001,7.000000000000001,7.000000000000001,7.000000000000001,7.000000000000001,7.000000000000001,7.000000000000001,1.2161182745620087,1.2161182745620087,1.1882113812042172,1.1882113812042172,1.188206837532208,1.188206837532208,1.2161138351563698,1.2161138351563698,-0.019344031935422595,0.358018672100707,-0.09006431409349834,0.003583933263255693,-0.0024215238427165433,0.0002161245945649185
34.0,0.6600000000000003,0.1864338924013296,0.010371964370810704,0.24854016308528865,0.1818450276831914,0.010002371411802463,0.24858416458402444,-0.004588864718138186,-0.00036959295900824106,4.400149873579062e-05,0.004603934674668279,-0.020456248816175235,4.103925598030197e-06,-0.0010789557018644619,min_task,none,false,false,7.000000000000001,7.000000000000001,7.000000000000001,7.000000000000001,7.000000000000001,7.000000000000001,7.000000000000001,7.000000000000001,-0.02483586205674001,0.42073403114015356,-0.10167427491809072,0.004230659591829937,-0.002738888748043702,0.0002382452343468351,0.06568109414403658,1.795247878869874e-05,0.08485542025591732,0.0242799864456349,1.3093000101740169,0.3357597587594375,0.07687907342721743,-0.07081449393724647,-0.05808910970817923,-0.020456248816175235,4.103925598030197e-06,-0.0010789557018644619,0.009029718808651874,0.24068868300627824,0.7360667360404101,-0.009609960792151687,0.00848950222958233,0.00684305084758611,7.000000000000001,7.000000000000001,7.000000000000001,7.000000000000001,7.000000000000001,7.000000000000001,7.000000000000001,7.000000000000001,1.2166268263187527,1.2166268263187527,1.1876992818285286,1.1876992818285286,1.18771073087418,1.18771073087418,1.2166380031447797,1.2166380031447797,-0.02483586205674001,0.42073403114015356,-0.10167427491809072,0.004230659591829937,-0.002738888748043702,0.0002382452343468351
35.0,0.6800000000000003,0.19075719531239826,0.010331628412580014,0.24855131855085705,0.18653696291519145,0.010002371411802463,0.24858416458402444,-0.004220232397206813,-0.0003292570007775511,3.2846033167388544e-05,0.0042331844421061825,-0.02110362832337666,1.3880850401344884e-05,-0.0015263181135182335,min_task,none,false,false,7.000000000000001,7.000000000000001,7.000000000000001,7.000000000000001,7.000000000000001,7.000000000000001,7.000000000000001,7.000000000000001,-0.03014188567873462,0.4798959762075998,-0.11232546321460918,0.004844887638394711,-0.003025023804150663,0.00025781717432663746,0.06808419671894714,-1.363976019973466e-05,0.1436012001441223,0.02657173151876251,1.5400065767402364,0.5936595745132606,0.07889365398187459,-0.07856642022501932,-0.056954437169817476,-0.02110362832337666,1.3880850401344884e-05,-0.0015263181135182335,0.009005124233214803,0.2270751308656805,0.7257173655102022,-0.010034331227089549,0.008780781429853252,0.0071187088790833864,7.000000000000001,7.000000000000001,7.000000000000001,7.000000000000001,7.000000000000001,7.000000000000001,7.000000000000001,7.000000000000001,1.2170821544503807,1.2170821544503807,1.1872390796907135,1.1872390796907135,1.1872670945278139,1.1872670945278139,1.2171094823742212,1.2171094823742212,-0.03014188567873462,0.4798959762075998,-0.11232546321460918,0.004844887638394711,-0.003025023804150663,0.00025781717432663746
36.0,0.7000000000000003,0.19475671311647608,0.01028186714420961,0.24856289368852197,0.1909283643871914,0.010002371411802463,0.24858416458402444,-0.0038283487292846696,-0.0002794957324071465,2.1270895502467635e-05,0.0038385966587341303,-0.02166860224232394,2.3749411653709563e-05,-0.001975118985478037,min_task,none,false,false,7.000000000000001,7.000000000000001,7.000000000000001,7.000000000000001,7.000000000000001,7.000000000000001,7.000000000000001,7.000000000000001,-0.03513597361000094,0.5342379036683739,-0.12182058109467953,0.005412988575053852,-0.0032721928613192,0.0002745030769319856,0.07023983116862809,-4.6149886712448565e-05,0.2031408852605722,0.02836354698486,1.7557631894556962,0.8488014168459528,0.07967609550745272,-0.08510801444423653,-0.05497170088822387,-0.02166860224232394,2.3749411653709563e-05,-0.001975118985478037,0.008959870745850055,0.21441320543309378,0.7159179947902211,-0.01040205371162602,0.009024498733264967,0.007358872729603678,7.000000000000001,7.000000000000001,7.000000000000001,7.000000000000001,7.000000000000001,7.000000000000001,7.000000000000001,7.000000000000001,1.2174785863451156,1.2174785863451156,1.1868364939495057,1.1868364939495057,1.1868813294603986,1.1868813294603986,1.2175222934551257,1.2175222934551257,-0.03513597361000094,0.5342379036683739,-0.12182058109467953,0.005412988575053852,-0.0032721928613192,0.0002745030769319856
37.0,0.7200000000000003,0.19841502604760436,0.010222646278655918,0.24857478979246053,0.19499751305919139,0.010002371411802463,0.24858416458402444,-0.003417512988412974,-0.0002202748668534548,9.374791563904195e-06,0.0034246173406171313,-0.022143920962341582,3.351746448407154e-05,-0.00241977647352242,min_task,none,false,false,7.000000000000001,7.000000000000001,7.000000000000001,7.000000000000001,7.000000000000001,7.000000000000001,7.000000000000001,7.000000000000001,-0.03968313369671975,0.5823772732124914,-0.12994527905089903,0.005919618189766876,-0.0034724824209834988,0.0002879537515700603,0.07212114289205339,-7.89622461590361e-05,0.26287151937306474,0.029422112715867078,1.9507944545351195,1.0931177521843671,0.07903553752914706,-0.09015794329545883,-0.05209327758161326,-0.022143920962341582,3.351746448407154e-05,-0.00241977647352242,0.008896717063735208,0.20281086084985467,0.7067941989259211,-0.010701868089411587,0.009216841672900496,0.007556089981234814,7.000000000000001,7.000000000000001,7.000000000000001,7.000000000000001,7.000000000000001,7.000000000000001,7.000000000000001,7.000000000000001,1.2178110350140765,1.2178110350140765,1.186496690048067,1.186496690048067,1.1865582602237246,1.1865582602237246,1.2178710220758968,1.2178710220758968,-0.03968313369671975,0.5823772732124914,-0.12994527905089903,0.005919618189766876,-0.0034724824209834988,0.0002879537515700603
38.0,0.7400000000000003,0.2017187124607039,0.010154122677818095,0.2485868980262676,0.19872637629119144,0.010002371411802463,0.24858416458402444,-0.002992336169512444,-0.00015175126601563171,-2.7334422431635197e-06,0.002996182849863514,-0.022523350183804823,4.299305771168236e-05,-0.002853536613670725,min_task,none,false,false,7.000000000000001,7.000000000000001,7.000000000000001,7.000000000000001,7.000000000000001,7.000000000000001,7.000000000000001,7.000000000000001,-0.043642631043390674,0.622837957825805,-0.13647125864811818,0.006347927700371469,-0.0036180438056863736,0.00029781128743858014,0.07370396101659114,-0.00011143843502012218,0.32205030818536756,0.02950019107119873,2.1188719260792657,1.3178085635780263,0.0767919356546542,-0.09343718502257682,-0.048288803615983075,-0.022523350183804823,4.299305771168236e-05,-0.002853536613670725,0.008819791429406861,0.19236283614023464,0.6984620122018762,-0.010923226525524639,0.009354987041383923,0.007703047285612978,7.000000000000001,7.000000000000001,7.000000000000001,7.000000000000001,7.000000000000001,7.000000000000001,7.000000000000001,7.000000000000001,1.2180751464436366,1.2180751464436366,1.186224131582213,1.186224131582213,1.186301997604123,1.186301997604123,1.2181509765030127,1.2181509765030127,-0.043642631043390674,0.622837957825805,-0.13647125864811818,0.006347927700371469,-0.0036180438056863736,0.00029781128743858014
39.0,0.7600000000000003,0.20465871076104392,0.01007668069687302,0.24859909903136057,0.20210097648319136,0.010002371411802463,0.24858416458402444,-0.0025577342778525525,-7.430928507055727e-05,-1.4934447336134582e-05,0.002558857077616265,-0.022801883252965848,5.199164281110646e-05,-0.0032684097457128486,min_task,none,false,false,6.999999999999998,6.999999999999998,6.999999999999998,6.999999999999998,6.999999999999998,6.999999999999998,6.999999999999998,6.999999999999998,-0.04687233595326837,0.6540877072963954,-0.14116112460039065,0.006679980439857749,-0.0037013808222792475,0.00030371347622040046,0.07496749670177386,-0.00014294091168748325,0.37977849556488097,0.028353415922994427,2.2534906585711814,1.5136700729272294,0.07279136534253053,-0.09468106784048146,-0.04355223260790022,-0.022801883252965848,5.199164281110646e-05,-0.0032684097457128486,0.008734636850716708,0.18314729798634374,0.6910234287164738,-0.011056732357521071,0.009437263735614983,0.007792839524547789,6.999999999999998,6.999999999999998,6.999999999999998,6.999999999999998,6.999999999999998,6.999999999999998,6.999999999999998,6.999999999999998,1.218267448803259,1.218267448803259,1.186022429230175,1.186022429230175,1.1861157995103504,1.1861157995103504,1.218358347952126,1.218358347952126,-0.04687233595326837,0.6540877072963954,-0.14116112460039065,0.006679980439857749,-0.0037013808222792475,0.00030371347622040046
40.0,0.7800000000000004,0.20723068782265003,0.009990970387342294,0.24861126068476108,0.2051117597151914,0.010002371411802463,0.24858416458402444,-0.0021189281074586175,1.1401024460169426e-05,-2.709610073664548e-05,0.002119132017268398,-0.02297595018675751,6.034305073762636e-05,-0.0036551801974555975,min_task,none,false,false,7.000000000000002,7.000000000000002,7.000000000000002,7.000000000000002,7.000000000000002,7.000000000000002,7.000000000000002,7.000000000000002,-0.049234142639098505,0.6745906113801521,-0.1437748599776677,0.0068973838847552005,-0.003715667638992345,0.00030529933530535155,0.07589505264024954,-0.00017285690623048666,0.43499289687087506,0.02575926056850747,2.3481211511111093,1.6715415872840966,0.06692411696824624,-0.09365265670907724,-0.0379098145538708,-0.02297595018675751,6.034305073762636e-05,-0.0036551801974555975,0.008648168559864897,0.175222446577268,0.6845618789050081,-0.011094620337492377,0.0094632927201018,0.007819307340072834,7.000000000000002,7.000000000000002,7.000000000000002,7.000000000000002,7.000000000000002,7.000000000000002,7.000000000000002,7.000000000000002,1.2183854987634715,1.2183854987634715,1.1858941914061358,1.1858941914061358,1.1860019344233228,1.1860019344233228,1.2184903687933544,1.2184903687933544,-0.049234142639098505,0.6745906113801521,-0.1437748599776677,0.0068973838847552005,-0.003715667638992345,0.00030529933530535155
41.0,0.8000000000000004,0.20943541428453655,0.009897944186286589,0.24862323391666016,0.20775396438719135,0.010002371411802463,0.24858416458402444,-0.0016814498973451997,0.00010442722551587402,-3.9069332635727205e-05,0.0016851424911454008,-0.023043615346021104,6.789793996539772e-05,-0.004003502874771283,min_task,none,false,false,6.999999999999998,6.999999999999998,6.999999999999998,6.999999999999998,6.999999999999998,6.999999999999998,6.999999999999998,6.999999999999998,-0.050600047466157705,0.6828715145505311,-0.14407750022695615,0.006982114369355197,-0.003655071005062762,0.00030221532813899383,0.07647472133748599,-0.000200621535488184,0.4864671782446906,0.021536926312013708,2.396522364926606,1.7828453199595011,0.05914400507437707,-0.09015698145810423,-0.031428176488965,-0.023043615346021104,6.789793996539772e-05,-0.004003502874771283,0.008568533650433419,0.16862323057344444,0.6791379226664743,-0.011031259148990235,0.009434094312460258,0.00777743706791252,6.999999999999998,6.999999999999998,6.999999999999998,6.999999999999998,6.999999999999998,6.999999999999998,6.999999999999998,6.999999999999998,1.2184280192207717,1.2184280192207717,1.1858408823025492,1.1858408823025492,1.1859615526747713,1.1859615526747713,1.2185454625515286,1.2185454625515286,-0.050600047466157705,0.6828715145505311,-0.14407750022695615,0.006982114369355197,-0.003655071005062762,0.00030221532813899383
42.0,0.8200000000000004,0.21127914616691407,0.009798887807152644,0.24863484703992528,0.2100279898591914,0.010002371411802463,0.24858416458402444,-0.0012511563077226562,0.0002034836046498189,-5.0682455900841195e-05,0.0012686080541489614,-0.023004754920243505,7.453347824199472e-05,-0.004302095871407157,min_task,none,false,false,6.999999999999999,6.999999999999999,6.999999999999999,6.999999999999999,6.999999999999999,6.999999999999999,6.999999999999999,6.999999999999999,-0.050858220874966754,0.677586049854836,-0.14184727179583342,0.006917472549882875,-0.003515042136370375,0.00029412170043753214,0.07670004513173946,-0.0002257391457500559,0.5328246975279839,0.015566508457642373,2.3930848209269975,1.8401676216175429,0.049486845505346634,-0.08405537611865546,-0.024221587043959325,-0.023004754920243505,7.453347824199472e-05,-0.004302095871407157,0.008504871769255505,0.16335833723369153,0.6747854256401246,-0.010863652450699843,0.009352155335246685,0.007663807886917589,6.999999999999999,6.999999999999999,6.999999999999999,6.999999999999999,6.999999999999999,6.999999999999999,6.999999999999999,6.999999999999999,1.2183950221964341,1.2183950221964341,1.1858626935872996,1.1858626935872996,1.1859945713600528,1.1859945713600528,1.2185233790807788,1.2185233790807788,-0.050858220874966754,0.677586049854836,-0.14184727179583342,0.006917472549882875,-0.003515042136370375,0.00029412170043753214
43.0,0.8400000000000004,0.2127740112086084,0.009695440442732756,0.2486458996199068,0.21193976509119145,0.010002371411802463,0.24858416458402444,-0.000834246117416948,0.0003069309690697068,-6.173503588235985e-05,0.0008910580333820675,-0.022861205556785263,8.015809684793893e-05,-0.004539030880622999,min_task,none,false,false,7.0,7.0,7.0,7.0,7.0,7.0,7.0,7.0,-0.04991822187940386,0.6575870420342423,-0.13688319056192672,0.006689067389524949,-0.00329253947530538,0.0002806982081500912,0.07657060828708485,-0.00024780210491860336,0.5725641199778364,0.0078056084743652054,2.333157949378895,1.8378066616763953,0.038085741497880646,-0.07527895228657523,-0.016457435627980844,-0.022861205556785263,8.015809684793893e-05,-0.004539030880622999,0.008466988105689409,0.15940762444596152,0.6715084804331356,-0.010591912353754188,0.00922145237443212,0.00747706162494635,7.0,7.0,7.0,7.0,7.0,7.0,7.0,7.0,1.2182879108401472,1.2182879108401472,1.185958435953072,1.185958435953072,1.1860995785556905,1.1860995785556905,1.2184253083964485,1.2184253083964485,-0.04991822187940386,0.6575870420342423,-0.13688319056192672,0.006689067389524949,-0.00329253947530538,0.0002806982081500912
44.0,0.8600000000000004,0.21393839740566045,0.009589599286588835,0.24865615738409136,0.21350111728319132,0.010002371411802463,0.24858416458402444,-0.0004372801224691303,0.00041277212521362815,-7.199280006692232e-05,0.0006056217434351812,-0.02261687687877506,8.47152308217647e-05,-0.004702113309604412,min_task,none,false,false,7.0,7.0,7.0,7.0,7.0,7.0,7.0,7.0,-0.04771446809505493,0.6219764922993516,-0.12901098928733257,0.006285696039647664,-0.0029861466730912974,0.0002616484832722404,0.07609253211535141,-0.00026650652137862865,0.6040980469156834,-0.0016983742496583488,2.213307887748429,1.7721989692571343,0.025180724538538486,-0.06383997664758487,-0.00835890972162753,-0.02261687687877506,8.47152308217647e-05,-0.004702113309604412,0.008464963928078533,0.1567201372993605,0.669279291460659,-0.010219677715704383,0.009047431742538957,0.007218361157521842,7.0,7.0,7.0,7.0,7.0,7.0,7.0,7.0,1.2181095555221673,1.2181095555221673,1.1861254557817573,1.1861254557817573,1.186273761505215,1.186273761505215,1.2182539676260702,1.2182539676260702,-0.04771446809505493,0.6219764922993516,-0.12901098928733257,0.006285696039647664,-0.0029861466730912974,0.0002616484832722404
45.0,0.8800000000000004,0.21479734065070194,0.009483703950035501,0.24866534988557198,0.21473014051519163,0.010002371411802463,0.24858416458402444,-6.720013551031467e-05,0.0005186674617669619,-8.118530154754833e-05,0.00052926632926699,-0.022277823356229173,8.818600918657674e-05,-0.004779332536119792,min_task,none,false,false,7.0,7.0,7.0,7.0,7.0,7.0,7.0,7.0,-0.04420722689457569,0.5701329206827364,-0.11808633015440691,0.005699976686669922,-0.002596060333958754,0.00023670238368084728,0.0752788488743039,-0.0002816646147403903,0.6258035813113333,-0.012801743772873884,2.031454500396315,1.642141348715858,0.011120449212465203,-0.049839676015314596,-0.00020379962839385982,-0.022277823356229173,8.818600918657674e-05,-0.004779332536119792,0.00850874274069377,0.15521280176187333,0.6680371593543538,-0.009754447018473873,0.008836950802424167,0.006891793861437551,7.0,7.0,7.0,7.0,7.0,7.0,7.0,7.0,1.2178643409856942,1.2178643409856942,1.1863595803354408,1.1863595803354408,1.186512861507036,1.186512861507036,1.2180136574408558,1.2180136574408558,-0.04420722689457569,0.5701329206827364,-0.11808633015440691,0.005699976686669922,-0.002596060333958754,0.00023670238368084728
46.0,0.9000000000000005,0.21538290830055043,0.009380397698891898,0.24867317248098203,0.2156515643871914,0.010002371411802463,0.24858416458402444,0.0002686560866409782,0.0006219737129105653,-8.900789695759359e-05,0.0006833372506762767,-0.021852274822937685,9.059087111785347e-05,-0.004759351311581154,min_task,none,false,false,7.0,7.0,7.0,7.0,7.0,7.0,7.0,7.0,-0.03938071970379257,0.5017067290745418,-0.10399456858581346,0.004928608154983123,-0.002123937011572709,0.00020561587724313675,0.07414973936476103,-0.00029321362933393464,0.6360822298874799,-0.02526484041334964,1.7868507349322684,1.4487476020238312,-0.003645959801905627,-0.033470796505555366,0.00768166241534222,-0.021852274822937685,9.059087111785347e-05,-0.004759351311581154,0.008607738512808435,0.15476981630944983,0.6676885857388976,-0.009207790551898779,0.008598188096058144,0.0065046679239627574,7.0,7.0,7.0,7.0,7.0,7.0,7.0,7.0,1.2175581843059933,1.2175581843059933,1.1866550922523962,1.1866550922523962,1.1868111555348935,1.1868111555348935,1.2177102870157719,1.2177102870157719,-0.03938071970379257,0.5017067290745418,-0.10399456858581346,0.004928608154983123,-0.002123937011572709,0.00020561587724313675
47.0,0.9200000000000005,0.2157345759768407,0.009282564536648668,0.24867929364579006,0.21629712265919154,0.010002371411802463,0.24858416458402444,0.0005625466823508396,0.0007198068751537948,-9.512906176561975e-05,0.0009184934652652758,-0.021350629413563443,9.199006226759769e-05,-0.004631993818537892,min_task,none,false,false,7.0,7.0,7.0,7.0,7.0,7.0,7.0,7.0,-0.03323834606554917,0.4165809021617411,-0.08664681769628539,0.003972173757510455,-0.0015726038517079534,0.00016816828300109292,0.07273263201945802,-0.0003012212162815565,0.6334250202367074,-0.038759783940359956,1.479890696998388,1.1951167172331494,-0.01858821768544694,-0.015013134227543816,0.014934926703753378,-0.021350629413563443,9.199006226759769e-05,-0.004631993818537892,0.008770513617795562,0.15524267837053002,0.6681083861608677,-0.008595399422406098,0.008340530609181154,0.006067643163745987,7.0,7.0,7.0,7.0,7.0,7.0,7.0,7.0,1.2171985266312129,1.2171985266312129,1.1870047310180256,1.1870047310180256,1.187161461487393,1.187161461487393,1.217351369742895,1.217351369742895,-0.03323834606554917,0.4165809021617411,-0.08664681769628539,0.003972173757510455,-0.0015726038517079534,0.00016816828300109292
48.0,0.9400000000000005,0.21589959580611987,0.0091932438438479,0.24868336782857814,0.21670592189119153,0.010002371411802463,0.24858416458402444,0.000806326085071668,0.0008091275679545634,-9.920324455370277e-05,0.0011465995205044571,-0.020785417236953218,9.24829399709865e-05,-0.004388686031413265,min_task,none,false,false,7.0,7.0,7.0,7.0,7.0,7.0,7.0,7.0,-0.025795404871737874,0.31479950496939907,-0.06597259608508031,0.0028344687169368724,-0.0009456468734527941,0.00012415696596326518,0.07106217630846179,-0.00030588713181352116,0.6164774479976116,-0.052885800959136406,1.1117585626614812,0.8857304917148225,-0.03312593351829265,0.005179729357286673,0.021175893886794372,-0.020785417236953218,9.24829399709865e-05,-0.004388686031413265,0.00900456696301617,0.1564506983374816,0.6691415665417925,-0.007936922011908668,0.008074445525693814,0.005594636897769649,7.0,7.0,7.0,7.0,7.0,7.0,7.0,7.0,1.2167943049238237,1.2167943049238237,1.1873997158978558,1.1873997158978558,1.1875551608540407,1.1875551608540407,1.2169459952075972,1.2169459952075972,-0.025795404871737874,0.31479950496939907,-0.06597259608508031,0.0028344687169368724,-0.0009456468734527941,0.00012415696596326518
49.0,0.9600000000000005,0.2159333553783562,0.009115527226207275,0.2486850531457982,0.21692481008319142,0.010002371411802463,0.24858416458402444,0.0009914547048352207,0.000886844185595188,-0.00010088856177375982,0.0013340365599040622,-0.020171247146139736,9.220603487898326e-05,-0.004022800754209444,min_task,none,false,false,7.0,7.0,7.0,7.0,7.0,7.0,7.0,7.0,-0.017069886509558013,0.1964704467815944,-0.041909761815808314,0.0015213942159780054,-0.0002468916494053528,7.338976973653154e-05,0.06918011848038856,-0.00030754100823805666,0.5840980890110425,-0.06719197560986113,0.6839505840063692,0.5256312247430333,-0.04667119050442301,0.026704084426860293,0.026032393089700522,-0.020171247146139736,9.220603487898326e-05,-0.004022800754209444,0.0093162585099713,0.15818178095128424,0.6706056036360083,-0.007255536221898961,0.007811341859815256,0.005102451898022698,7.0,7.0,7.0,7.0,7.0,7.0,7.0,7.0,1.2163559127697239,1.2163559127697239,1.187829781938258,1.187829781938258,1.1879822299341645,1.1879822299341645,1.2165047859789655,1.2165047859789655,-0.017069886509558013,0.1964704467815944,-0.041909761815808314,0.0015213942159780054,-0.0002468916494053528,7.338976973653154e-05
50.0,0.9800000000000005,0.21589972763288484,0.00905244501122423,0.24868403249297238,0.21700874531519126,0.010002371411802463,0.24858416458402444,0.0011090176823064235,0.0009499264005782323,-9.986790894794817e-05,0.0014636440774387274,-0.01952475216736299,9.132992709664788e-05,-0.003529862895423001,min_task,none,false,false,7.0,7.0,7.0,7.0,7.0,7.0,7.0,7.0,-0.00707186545777926,0.06165065365036529,-0.014392631697881273,3.950968707256309e-05,0.0005202158817121905,1.5675575919990705e-05,0.06713512114796694,-0.00030663601104304993,0.5354045404695064,-0.08120693926124374,0.19771078718856563,0.11944391502003557,-0.0586815631931079,0.04914134450412621,0.029171555211600687,-0.01952475216736299,9.132992709664788e-05,-0.003529862895423001,0.009710878576764394,0.16019319906650603,0.6722926827290174,-0.006577212782207454,0.007563425965009684,0.00461008910712658,7.0,7.0,7.0,7.0,7.0,7.0,7.0,7.0,1.2158951615219171,1.2158951615219171,1.1882832182982286,1.1882832182982286,1.1884312688228,1.1884312688228,1.2160398503498904,1.2160398503498904,-0.00707186545777926,0.06165065365036529,-0.014392631697881273,3.950968707256309e-05,0.0005202158817121905,1.5675575919990705e-05
51.0,1.0000000000000004,0.2158714123905195,0.009006852042463414,0.24868003632190588,0.21702116438719138,0.010002371411802463,0.24858416458402444,0.0011497519966718883,0.0009955193693390492,-9.587173788144776e-05,0.0015238700268410759,-0.018864551489008907,9.005521967718812e-05,-0.002907576994893711,min_task,none,false,false,7.0,7.0,7.0,7.0,7.0,7.0,7.0,7.0,0.004208260869741272,-0.08977949730626461,0.01666091779037373,-0.0016056467966700327,0.001353331139594445,-4.9186611766613347e-05,0.06498257885691071,-0.0003037385597319032,0.4698007771206622,-0.09447459845107362,-0.34658549750178735,-0.3297025567900379,-0.06872160585312768,0.07210538710523347,0.03033528583764689,-0.018864551489008907,9.005521967718812e-05,-0.002907576994893711,0.010192854070999083,0.16221204852669469,0.673971386161507,-0.005929643761228646,0.007343555879991454,0.004137731500115364,7.0,7.0,7.0,7.0,7.0,7.0,7.0,7.0,1.2154252545951973,1.2154252545951973,1.1887468964023316,1.1887468964023316,1.1888895161942774,1.1888895161942774,1.215564744272508,1.215564744272508,0.004208260869741272,-0.08977949730626461,0.01666091779037373,-0.0016056467966700327,0.001353331139594445,-4.9186611766613347e-05
52.0,1.0200000000000005,0.21587455812699521,0.009034365556695624,0.2486737196811032,0.21702116438719138,0.010014790483802464,0.24858416458402444,0.0011466062601961646,0.0009804249271068398,-8.955509707875287e-05,0.0015112772971980597,-0.01819689742146925,8.78101131624332e-05,-0.002216991084503605,min_task,none,false,false,7.0,7.0,7.0,7.0,7.0,7.0,7.0,7.0,-0.013947718142205355,-0.05193827035104015,0.012197083156287617,-0.003964879860302932,0.007394145676500703,-0.00011521651897131429,0.06278448948885428,-0.0002995150368988742,0.3869808650780088,-0.5862469519233324,-0.2380486536406411,-0.22521008521370467,-0.18212058941183332,0.5265755808711118,0.029307800191349168,-0.01819689742146925,8.78101131624332e-05,-0.002216991084503605,0.01059215690370678,0.16414243608072507,0.6755636234037982,-0.005377646726453896,0.00727404151267304,0.0037218943577973064,7.0,7.0,7.0,7.0,7.0,7.0,7.0,7.0,1.2149509907711014,1.2149509907711014,1.1892167795299342,1.1892167795299342,1.1893524745110504,1.1893524745110504,1.2150838118770622,1.2150838118770622,-0.013947718142205355,-0.05193827035104015,0.012197083156287617,-0.003964879860302932,0.007394145676500703,-0.00011521651897131429
53.0,1.0400000000000005,0.21589669562407987,0.009221366415634051,0.24866626776352374,0.21702116438719138,0.010098725715802467,0.24858416458402444,0.001124468763111508,0.0008773593001684156,-8.210317949930435e-05,0.0014286113092403516,-0.017518156585616555,8.361791833636623e-05,-0.0015544474502806097,min_task,none,false,false,7.0,7.0,7.0,7.0,7.0,7.0,7.0,7.0,-0.027478188658075806,-0.02650314568934773,0.00940711390737681,-0.005750045854200655,0.012155561740904985,-0.00016787299643712726,0.06056166614933469,-0.0002920626533676816,0.29506961067197024,-0.9650499323312365,-0.16861077112685632,-0.1589559181442497,-0.26698428307809285,0.8841536319391571,0.02317763779546134,-0.017518156585616555,8.361791833636623e-05,-0.0015544474502806097,0.010637429619813824,0.1660322606434057,0.67711368095912,-0.005002411290665951,0.007541542064091134,0.0034035538912070376,7.0,7.0,7.0,7.0,7.0,7.0,7.0,7.0,1.2144703089992532,1.2144703089992532,1.1896959545777401,1.1896959545777401,1.1898222993150367,1.1898222993150367,1.214594076656651,1.214594076656651,-0.027478188658075806,-0.02650314568934773,0.00940711390737681,-0.005750045854200655,0.012155561740904985,-0.00016787299643712726
54.0,1.0600000000000005,0.21592956717220047,0.009633890818063793,0.24865851471538708,0.21702116438719138,0.01031761390780247,0.24858416458402444,0.0010915972149909137,0.0006837230897386772,-7.435013136264379e-05,0.0012901897865242014,-0.016826202094690726,7.686260260497645e-05,-0.0009915444764386197,min_task,none,false,false,7.0,7.0,7.0,7.0,7.0,7.0,7.0,7.0,-0.037308798419656806,-0.010709359897530529,0.007853682522949422,-0.007074379855429414,0.015867140723265418,-0.000209229914718603,0.058302009380294714,-0.00027813178859819357,0.20688961302939687,-1.2520157921386323,-0.12954323902784062,-0.12235840291873769,-0.32904418234056765,1.162435043153269,0.013287956937535525,-0.016826202094690726,7.686260260497645e-05,-0.0009915444764386197,0.010123800878795768,0.16791031728936917,0.6786480897232436,-0.004862477033805263,0.008291992951298198,0.003208825609693355,7.0,7.0,7.0,7.0,7.0,7.0,7.0,7.0,1.2139819905988036,1.2139819905988036,1.1901862153213818,1.1901862153213818,1.1903002017842261,1.1903002017842261,1.214093742972415,1.214093742972415,-0.037308798419656806,-0.010709359897530529,0.007853682522949422,-0.007074379855429414,0.015867140723265418,-0.000209229914718603
55.0,1.0800000000000005,0.21596775451505867,0.01032143147146407,0.24865102262853692,0.21702116438719138,0.010726413139802476,0.24858416458402444,0.0010534098721327045,0.0004049816683384059,-6.685804451248001e-05,0.0011305540714679826,-0.01612013098657656,6.721275208486608e-05,-0.000576617401878732,min_task,none,false,false,7.0,7.0,7.0,7.0,7.0,7.0,7.0,7.0,-0.04412856819038661,-0.0030004795429454936,0.007284102315550771,-0.00803550505657656,0.018715980177827055,-0.00024109755762935598,0.05599844020514064,-0.0002556725091774818,0.13197047498885164,-1.4645373940977704,-0.1165318111939592,-0.11109568148991684,-0.3729276969713399,1.3753441893246265,0.0008562174041253351,-0.01612013098657656,6.721275208486608e-05,-0.000576617401878732,0.008903483273260633,0.16978983618304122,0.6801788984063641,-0.004998374855728712,0.00963788011314401,0.0031522602946755384,7.0,7.0,7.0,7.0,7.0,7.0,7.0,7.0,1.2134855271139569,1.2134855271139569,1.190688330675319,1.190688330675319,1.1907866312898758,1.1907866312898758,1.213581981148101,1.213581981148101,-0.04412856819038661,-0.0030004795429454936,0.007284102315550771,-0.00803550505657656,0.018715980177827055,-0.00024109755762935598
56.0,1.1000000000000005,0.21600775764824598,0.011320000130489456,0.24864412287889603,0.21702116438719138,0.011371971411802483,0.24858416458402444,0.0010134067389453993,5.197128131302631e-05,-5.9958294871598206e-05,0.0010165083520292276,-0.015400096737572417,5.4559805283576954e-05,-0.0003365694042201017,min_task,none,false,false,7.0,7.0,7.0,7.0,7.0,7.0,7.0,7.0,-0.04847352664633958,-0.0024271758304953,0.007551992130026369,-0.008716855647537528,0.020854478746666856,-0.00026506140860488173,0.053647956509122734,-0.00022358171192113894,0.07674571289073011,-1.6168736427333252,-0.12724179734657481,-0.12265527645583452,-0.40237994933278853,1.5340618582367582,-0.01314602974300513,-0.015400096737572417,5.4559805283576954e-05,-0.0003365694042201017,0.006877479680973891,0.17167038112549585,0.6817053877451432,-0.005436334933373817,0.011664055978242863,0.0032395405668710314,7.0,7.0,7.0,7.0,7.0,7.0,7.0,7.0,1.212981060246323,1.212981060246323,1.1912022221701453,1.1912022221701453,1.1912813888262008,1.1912813888262008,1.2130588055724603,1.2130588055724603,-0.04847352664633958,-0.0024271758304953,0.007551992130026369,-0.008716855647537528,0.020854478746666856,-0.00026506140860488173
57.0,1.1200000000000006,0.2160473879597855,0.012654620226400227,0.24863795292880636,0.21702116438719138,0.012293395283802492,0.24858416458402444,0.0009737764274058702,-0.0003612249425977345,-5.378834478192429e-05,0.00104000825754436,-0.01466719587881567,3.896250765627464e-05,-0.0002791665947118539,min_task,none,false,false,7.0,7.0,7.0,7.0,7.0,7.0,7.0,7.0,-0.050779008184351875,-0.008314418942529572,0.008569440641838172,-0.009190088406473344,0.022405536790445154,-0.0002825141620301182,0.0512510730617311,-0.00018149770477627272,0.044796359680969136,-1.7207637844879131,-0.1600414999139351,-0.15512519786982448,-0.42044415805203245,1.6475342329186116,-0.027958008909206203,-0.01466719587881567,3.896250765627464e-05,-0.0002791665947118539,0.003987997029678207,0.17353904199885545,0.6832151764878969,-0.006191360683682648,0.014432412733914579,0.0034697364134699243,7.0,7.0,7.0,7.0,7.0,7.0,7.0,7.0,1.212469346744389,1.212469346744389,1.1917270899791146,1.1917270899791146,1.1917836994487194,1.1917836994487194,1.212524987815242,1.212524987815242,-0.050779008184351875,-0.008314418942529572,0.008569440641838172,-0.009190088406473344,0.022405536790445154,-0.0002825141620301182
58.0,1.1400000000000006,0.21608537767066635,0.014341364992341447,0.24863249909284305,0.21702116438719138,0.013522418515802503,0.24858416458402444,0.0009357867165250278,-0.0008189464765389447,-4.8334508818609345e-05,0.001244470302981546,-0.01392337589505135,2.0593064257756293e-05,-0.0003957829577480516,min_task,none,false,false,7.0,7.0,7.0,7.0,7.0,7.0,7.0,7.0,-0.051409583252731386,-0.02008206310674092,0.010276509850522277,-0.009516824687362783,0.023466855742957326,-0.0002946701989351403,0.04881144248185076,-0.00012961546119323903,0.0371563660471308,-1.7858593526333337,-0.21336545529173367,-0.20664723912155364,-0.4295900790181399,1.7228582549742457,-0.04300140708658314,-0.01392337589505135,2.0593064257756293e-05,-0.0003957829577480516,0.00021135755416125027,0.17537140803394854,0.6846851868538515,-0.00726986209775808,0.017985618751445054,0.00383723305632752,7.0,7.0,7.0,7.0,7.0,7.0,7.0,7.0,1.2119517248294633,1.2119517248294633,1.1922615105377938,1.1922615105377938,1.1922922596033894,1.1922922596033894,1.2119819743368319,1.2119819743368319,-0.051409583252731386,-0.02008206310674092,0.010276509850522277,-0.009516824687362783,0.023466855742957326,-0.0002946701989351403
59.0,1.1600000000000006,0.21612113222076468,0.016389020475324714,0.24862764457370765,0.21702116438719138,0.015083770707802514,0.24858416458402444,0.0009000321664267008,-0.0013052497675222,-4.347998968320943e-05,0.0015860723078480216,-0.013171347466540875,-3.1695717507656995e-07,-0.0006644984398078884,min_task,none,false,false,7.0,7.0,7.0,7.0,7.0,7.0,7.0,7.0,-0.05067583256939119,-0.03715124928008486,0.012621384052857228,-0.009749706315971956,0.02411452678117144,-0.00030256782909242964,0.04633554789476897,-6.850751035661155e-05,0.05267790918998352,-1.820028339335,-0.2854251696633506,-0.275208285311853,-0.43180374651179465,1.7655817502212636,-0.05785916509193043,-0.013171347466540875,-3.1695717507656995e-07,-0.0006644984398078884,-0.004448647510742296,0.17713256111093184,0.6860826743442262,-0.00867195123482099,0.022350076695623413,0.004333385854737997,7.0,7.0,7.0,7.0,7.0,7.0,7.0,7.0,1.211430072936851,1.211430072936851,1.1928035204334366,1.1928035204334366,1.1928052699864642,1.1928052699864642,1.211431795589362,1.211431795589362,-0.05067583256939119,-0.03715124928008486,0.012621384052857228,-0.009749706315971956,0.02411452678117144,-0.00030256782909242964
60.0,1.1800000000000006,0.21615457025912982,0.01880042975761302,0.2486232176410491,0.21702116438719138,0.016995545939802528,0.24858416458402444,0.0008665941280615597,-0.0018048838178104931,-3.9053057024673876e-05,0.0020025274329826116,-0.012414492795012055,-2.3531186202194846e-05,-0.0010534092792088025,min_task,none,false,false,7.0,7.0,7.0,7.0,7.0,7.0,7.0,7.0,-0.04884391597863296,-0.058898082962778514,0.015547577348665308,-0.009932928702862784,0.02440613354586304,-0.00030706618379731227,0.04383241069884154,1.0560153454736748e-06,0.08844370651243665,-1.8295829593451869,-0.3741007598711584,-0.35858888488710944,-0.428652838571064,1.779947526596692,-0.07225648749371322,-0.012414492795012055,-2.3531186202194846e-05,-0.0010534092792088025,-0.009966930012454817,0.17877819450421079,0.6873663903443963,-0.01039343214385076,0.02753822908338172,0.004947912775235643,7.0,7.0,7.0,7.0,7.0,7.0,7.0,7.0,1.2109067594572676,1.2109067594572676,1.1933506968157683,1.1933506968157683,1.1933204624380878,1.1933204624380878,1.2108769634368608,1.2108769634368608,-0.04884391597863296,-0.058898082962778514,0.015547577348665308,-0.009932928702862784,0.02440613354586304,-0.00030706618379731227
61.0,1.2000000000000006,0.21618601072795934,0.021573561161598486,0.2486190342729751,0.21702116438719138,0.019269571411802543,0.24858416458402444,0.0008351536592320352,-0.0023039897497959434,-3.486968895066722e-05,0.0024509317201629566,-0.011656766342462722,-4.8862553482503096e-05,-0.0015239933986907891,min_task,none,false,false,7.0,7.0,7.0,7.0,7.0,7.0,7.0,7.0,-0.04614166362348751,-0.08463278440302617,0.018986153673755026,-0.010102463933138944,0.024383563089943584,-0.0003088426293773953,0.04131328566862759,7.828888920824432e-05,0.14020758057163848,-1.8194680327470947,-0.47691981609690887,-0.4543722028565662,-0.4213398450783414,1.7691050493661487,-0.08604031446954451,-0.011656766342462722,-4.8862553482503096e-05,-0.0015239933986907891,-0.01630273355030434,0.1802558933780413,0.6884878812955186,-0.012427470166154106,0.033550315799732305,0.0056700079185907845,7.0,7.0,7.0,7.0,7.0,7.0,7.0,7.0,1.210384585761205,1.210384585761205,1.193900241679428,1.193900241679428,1.1938351281743882,1.1938351281743882,1.2103203590906355,1.2103203590906355,-0.04614166362348751,-0.08463278440302617,0.018986153673755026,-0.010102463933138944,0.024383563089943584,-0.0003088426293773953
62.0,1.2200000000000006,0.21621607946694338,0.024702336289502518,0.2486149310289114,0.21702116438719138,0.021911776083802556,0.24858416458402444,0.0008050849202480004,-0.0027905602056999615,-3.0766444886975997e-05,0.0029045368933063877,-0.010902586629911894,-7.622532328152284e-05,-0.002034377024826573,min_task,none,false,false,7.0,7.0,7.0,7.0,7.0,7.0,7.0,7.0,-0.0427634004798962,-0.11359221576847284,0.022851634093607815,-0.010286169928283115,0.024075652272633686,-0.0003083945993924646,0.038791330909586766,0.0001625688007227119,0.20284236783749682,-1.7934332445998689,-0.591072955297437,-0.5599660452533967,-0.41075146978302,1.7353060554996564,-0.09915523363078312,-0.010902586629911894,-7.622532328152284e-05,-0.002034377024826573,-0.023404644891213827,0.18150658027351504,0.6893929029655725,-0.014765904004850892,0.04037567550033472,0.00648915169394946,7.0,7.0,7.0,7.0,7.0,7.0,7.0,7.0,1.2098667255043076,1.2098667255043076,1.194449074829701,1.194449074829701,1.1943461534000939,1.1943461534000939,1.2097651157404843,1.2097651157404843,-0.0427634004798962,-0.11359221576847284,0.022851634093607815,-0.010286169928283115,0.024075652272633686,-0.0003083945993924646
63.0,1.2400000000000007,0.21624561895341868,0.028177251051985236,0.2486107861191813,0.21702116438719138,0.02492255931580257,0.24858416458402444,0.0007755454337727008,-0.0032546917361826674,-2.6621535156867715e-05,0.0033459225519362435,-0.010156718868695963,-0.00010568305089750513,-0.002542365200323923,min_task,none,false,false,7.0,7.0,7.0,7.0,7.0,7.0,7.0,7.0,-0.038874649356117896,-0.14493941564844862,0.02704060461612788,-0.01050392845696824,0.02350073302689518,-0.0003060476655126575,0.036281247981243,0.0002536104949219828,0.27077470601001874,-1.7542011465206235,-0.7134415026747678,-0.6726195862934631,-0.39750846445633,1.6800934714128681,-0.11161574166324484,-0.010156718868695963,-0.00010568305089750513,-0.002542365200323923,-0.031214928899452248,0.18246611487870537,0.6900229231409877,-0.017400167204348543,0.04799367606110055,0.007395603630362464,7.0,7.0,7.0,7.0,7.0,7.0,7.0,7.0,1.209356662193821,1.209356662193821,1.1949939377810659,1.1949939377810659,1.1948500667414252,1.1948500667414252,1.2092145000168788,1.2092145000168788,-0.038874649356117896,-0.14493941564844862,0.02704060461612788,-0.01050392845696824,0.02350073302689518,-0.0003060476655126575
64.0,1.2600000000000007,0.21627559394020213,0.03198582242437496,0.24860652876823144,0.21702116438719138,0.028297159507802584,0.24858416458402444,0.0007455704469892521,-0.0036886629165723793,-2.2364184207007698e-05,0.003763324269878328,-0.009424148769507399,-0.0001374902778081201,-0.0030081233445928912,min_task,none,false,false,7.0,7.0,7.0,7.0,7.0,7.0,7.0,7.0,-0.03461711249647545,-0.17776720053610576,0.03143224225342445,-0.010767889928320467,0.022669090556024774,-0.0003019699524788815,0.03379889136291162,0.00035162537051519773,0.33838841933910296,-1.703634238288999,-0.840628260184836,-0.789432222261894,-0.38201624449652305,1.6044870030757845,-0.12347653112491569,-0.009424148769507399,-0.0001374902778081201,-0.0030081233445928912,-0.03967315125771598,0.18306703246581982,0.6903166894650832,-0.02032180897504408,0.05637435579566728,0.00838058824082891,7.0,7.0,7.0,7.0,7.0,7.0,7.0,7.0,1.2088581252034474,1.2088581252034474,1.1955315082918747,1.1955315082918747,1.1953431011121278,1.1953431011121278,1.2086717953721378,1.2086717953721378,-0.03461711249647545,-0.17776720053610576,0.03143224225342445,-0.010767889928320467,0.022669090556024774,-0.0003019699524788815
65.0,1.2800000000000007,0.21630699255726485,0.03611289402492001,0.24860213856933788,0.21702116438719138,0.032026022739802595,0.24858416458402444,0.0007141718299265298,-0.004086871285117415,-1.7973985313446406e-05,0.004148840966815422,-0.008709948266548891,-0.00017212572828944491,-0.003396425417309426,min_task,none,false,false,7.0,7.0,7.0,7.0,7.0,7.0,7.0,7.0,-0.03011384907397741,-0.21110490861697004,0.03589015670079059,-0.011082845348911657,0.021585317634460366,-0.0002961918839668864,0.03136084843965667,0.0004574602531269091,0.40038146943933156,-1.6428990606760483,-0.9689910361564276,-0.9073591463093484,-0.36451383633161355,1.5091643200415183,-0.13480373294159056,-0.008709948266548891,-0.00017212572828944491,-0.003396425417309426,-0.04871907843494047,0.18324040361525984,0.6902118448326148,-0.023522639822194526,0.06547885503235158,0.009436215902111683,7.0,7.0,7.0,7.0,7.0,7.0,7.0,7.0,1.2083750226185046,1.2083750226185046,1.1960585229296974,1.1960585229296974,1.1958212708346463,1.1958212708346463,1.2081401892148487,1.2081401892148487,-0.03011384907397741,-0.21110490861697004,0.03589015670079059,-0.011082845348911657,0.021585317634460366,-0.0002961918839668864
66.0,1.3000000000000007,0.21634072683467914,0.040540833637113055,0.24859763741372204,0.21702116438719138,0.036095171411802615,0.24858416458402444,0.0006804375525122364,-0.00444566222531044,-1.3472829697602773e-05,0.004497453657522341,-0.008019134308306914,-0.00021031481740706312,-0.0036784134713860003,min_task,none,false,false,7.0,7.0,7.0,7.0,7.0,7.0,7.0,7.0,-0.025474292163481956,-0.24392848359079214,0.040265136850811734,-0.011446704677623116,0.02025053254392958,-0.000288629734684932,0.028983992550483513,0.0005727078950048648,0.4520652150540483,-1.5726225163339982,-1.0946828155257284,-1.0232200149034696,-0.3451172555129777,1.394633879454,-0.14565055620191725,-0.008019134308306914,-0.00021031481740706312,-0.0036784134713860003,-0.058294866944423235,0.18291779596899094,0.6896465776322962,-0.026994565778380632,0.07525971522906573,0.010555211283343052,7.0,7.0,7.0,7.0,7.0,7.0,7.0,7.0,1.2079113680134597,1.2079113680134597,1.1965719032313358,1.1965719032313358,1.196280463329922,1.196280463329922,1.207622664708782,1.207622664708782,-0.025474292163481956,-0.24392848359079214,0.040265136850811734,-0.011446704677623116,0.02025053254392958,-0.000288629734684932
67.0,1.3200000000000007,0.216377538806173,0.04524965480634025,0.24859307677748127,0.21702116438719138,0.04048657288380263,0.24858416458402444,0.0006436255810183811,-0.004763081922537625,-8.912193456833695e-06,0.004806379377092301,-0.007356522389783156,-0.00025303940949666736,-0.0038328412790149284,min_task,none,false,false,7.0,7.0,7.0,7.0,7.0,7.0,7.0,7.0,-0.02079865010623399,-0.2751745391343822,0.044398568157378235,-0.011851038957365955,0.018664427594504474,-0.0002791114514071146,0.026685013030945507,0.0006997819064852682,0.48959862009670607,-1.4930352639907027,-1.2137034162803118,-1.1337157150616939,-0.3238534102469646,1.2613943200022038,-0.15604045017357795,-0.007356522389783156,-0.00025303940949666736,-0.0038328412790149284,-0.06834657225007655,0.18203331526227695,0.6885612971305082,-0.03072920679796767,0.08566111896058048,0.011730543751201392,7.0,7.0,7.0,7.0,7.0,7.0,7.0,7.0,1.207471197808566,1.207471197808566,1.1970688798376812,1.1970688798376812,1.1967165436127916,1.1967165436127916,1.2071218978288643,1.2071218978288643,-0.02079865010623399,-0.2751745391343822,0.044398568157378235,-0.011851038957365955,0.018664427594504474,-0.0002791114514071146
68.0,1.3400000000000007,0.2164179188328672,0.05021709232980929,0.24858852284275035,0.21702116438719138,0.045178508115802644,0.24858416458402444,0.0006032455543241722,-0.0050385842140066445,-4.358258725911668e-06,0.005074569447240619,-0.006726577140878379,-0.00030153298505028475,-0.0038467998895997777,min_task,none,false,false,7.0,7.0,7.0,7.0,7.0,7.0,7.0,7.0,-0.016181260473547725,-0.30375899784231286,0.0481264172329284,-0.012281638309277518,0.01682712433076676,-0.00026740348294351806,0.02447992789627493,0.0008419492560681972,0.5101537730495007,-1.4040981534675203,-1.321966366898771,-1.2354556812183317,-0.30068184960697497,1.110075653184729,-0.16595984711306222,-0.006726577140878379,-0.00030153298505028475,-0.0038467998895997777,-0.07882502192330651,0.180525697461997,0.686900325386452,-0.034717412280677006,0.09661913818751798,0.012955061590377147,7.0,7.0,7.0,7.0,7.0,7.0,7.0,7.0,1.2070584762936203,1.2070584762936203,1.197547108506011,1.197547108506011,1.1971254692148003,1.1971254692148003,1.2066401605880372,1.2066401605880372,-0.016181260473547725,-0.30375899784231286,0.0481264172329284,-0.012281638309277518,0.01682712433076676,-0.00026740348294351806
69.0,1.3600000000000008,0.2164620421411773,0.055418657879028915,0.2485840413625688,0.21702116438719138,0.05014594030780266,0.24858416458402444,0.0005591222460140655,-0.005272717571226257,1.2322145565013543e-07,0.005302279536868031,-0.006133262996940422,-0.0003572596986681433,-0.003715944653826703,min_task,none,false,false,7.0,7.0,7.0,7.0,7.0,7.0,7.0,7.0,-0.011712566606939836,-0.3286004893106291,0.05128373203144177,-0.012719045636099989,0.014740826667798723,-0.00025323772447031497,0.02238358689023882,0.001003314206280029,0.5120124416997774,-1.305609629048161,-1.4153824307547092,-1.3249958301561005,-0.2755037832964598,0.94155884968813,-0.17536094884749753,-0.006133262996940422,-0.0003572596986681433,-0.003715944653826703,-0.08968610905067272,0.17834041694592281,0.684613596608519,-0.0389487849962649,0.10806205008629523,0.014221222009237828,7.0,7.0,7.0,7.0,7.0,7.0,7.0,7.0,1.206676986631588,1.206676986631588,1.1980047720845337,1.1980047720845337,1.1975034129262192,1.1975034129262192,1.2061792321620022,1.2061792321620022,-0.011712566606939836,-0.3286004893106291,0.05128373203144177,-0.012719045636099989,0.014740826667798723,-0.00025323772447031497
70.0,1.3800000000000008,0.21650972837313884,0.06082769748488996,0.24857968359939095,0.21702116438719138,0.05536088353980269,0.24858416458402444,0.0005114360140525409,-0.005466813945087273,4.480984633487006e-06,0.005490686804571347,-0.005579898684740435,-0.0004218762607534448,-0.003444261088796298,min_task,none,false,false,7.0,7.0,7.0,7.0,7.0,7.0,7.0,7.0,-0.007479524505408905,-0.34864806852583186,0.05370957360602106,-0.013139043011856054,0.012411277880716743,-0.00023633796018203383,0.020409174939714433,0.0011887486353058256,0.4945962767483214,-1.1972941211023678,-1.4899584753226491,-1.39888581255905,-0.24816029534482786,0.7570722294807738,-0.18417322027534946,-0.005579898684740435,-0.0004218762607534448,-0.003444261088796298,-0.10089057182865475,0.1754317681919828,0.6816583530455503,-0.04341130309505191,0.11991076976461977,0.015520982550751199,7.0,7.0,7.0,7.0,7.0,7.0,7.0,7.0,1.2063302079242708,1.2063302079242708,1.1984406632515667,1.1984406632515667,1.197846890758932,1.197846890758932,1.2057403206812816,1.2057403206812816,-0.007479524505408905,-0.34864806852583186,0.05370957360602106,-0.013139043011856054,0.012411277880716743,-0.00023633796018203383
71.0,1.4000000000000008,0.21656042762823097,0.06641546770964932,0.24857547426061932,0.21702116438719138,0.060792771411802685,0.24858416458402444,0.00046073675896041166,-0.005622696297846633,8.690323405113887e-06,0.005641548328304603,-0.005069019875742884,-0.0004971761688018091,-0.0030434209242005657,min_task,none,false,false,7.0,7.0,7.0,7.0,7.0,7.0,7.0,7.0,-0.0035643921500400637,-0.36291216373350205,0.0552522027826219,-0.013513092667946154,0.009849036954860856,-0.0002164453052543226,0.018567728370730147,0.0014037651937569239,0.4584356497489434,-1.0788732750595516,-1.5419080002545436,-1.4537243387141576,-0.21842406248132962,0.55826475183645,-0.19232061967302852,-0.005069019875742884,-0.0004971761688018091,-0.0030434209242005657,-0.11240333461340331,0.17176487145379474,0.6780008232939638,-0.04809109190938945,0.13207943818926757,0.016845881008507608,7.0,7.0,7.0,7.0,7.0,7.0,7.0,7.0,1.2060211804400278,1.2060211804400278,1.1988542439090035,1.1988542439090035,1.1981528926082814,1.1981528926082814,1.2053239994279223,1.2053239994279223,-0.0035643921500400637,-0.36291216373350205,0.0552522027826219,-0.013513092667946154,0.009849036954860856,-0.0002164453052543226
72.0,1.4200000000000008,0.21661323523048415,0.07215124258925139,0.2485714022045663,0.21702116438719138,0.06640882568380269,0.24858416458402444,0.00040792915670723184,-0.005742416905448702,1.2762379458131079e-05,0.005756902030710994,-0.0046022548106003066,-0.0005850165629597503,-0.0025317898906123144,min_task,none,false,false,7.0,7.0,7.0,7.0,7.0,7.0,7.0,7.0,-4.197909730267128e-05,-0.37049711642495,0.05577423245477653,-0.013808762954694298,0.007070584248306484,-0.00019334202718881754,0.016867678286280767,0.0016543317214945809,0.4050839616324983,-0.9501227631231411,-1.5677679310348045,-1.4862224219088682,-0.18599056595769015,0.34725692773491335,-0.19974047761407926,-0.0046022548106003066,-0.0005850165629597503,-0.0025317898906123144,-0.12419249425143773,0.1673175473521233,0.6736178639885753,-0.052972350191599925,0.14447619251435861,0.0181872872971556,7.0,7.0,7.0,7.0,7.0,7.0,7.0,7.0,1.2057523630769267,1.2057523630769267,1.1992456784066448,1.1992456784066448,1.198419013073401,1.198419013073401,1.2049301617871484,1.2049301617871484,-4.197909730267128e-05,-0.37049711642495,0.05577423245477653,-0.013808762954694298,0.007070584248306484,-0.00019334202718881754
73.0,1.4400000000000008,0.2166669362353626,0.07800245934933515,0.2485674147632792,0.21702116438719138,0.07217442491580273,0.24858416458402444,0.00035422815182878375,-0.005828034433532428,1.6749820745232125e-05,0.005838813535169853,-0.004180217925265074,-0.0006872288878330069,-0.001933155567278554,min_task,none,false,false,7.0,7.0,7.0,7.0,7.0,7.0,7.0,7.0,0.003024439437198519,-0.37063340368717557,0.05515738710289472,-0.01399020369964515,0.004099254517831068,-0.00016687297687060536,0.015314437020697175,0.001946627842783405,0.33698560943270317,-0.8109181280409583,-1.5645157165753671,-1.4932760727085705,-0.15047556538196105,0.1266700999863096,-0.20639958815930076,-0.004180217925265074,-0.0006872288878330069,-0.001933155567278554,-0.13622804220465778,0.1620820019262497,0.6684985388858177,-0.058037389254272945,0.15700413561719567,0.01953677039367633,7.0,7.0,7.0,7.0,7.0,7.0,7.0,7.0,1.2055254888209173,1.2055254888209173,1.199615839113815,1.199615839113815,1.1986435796630925,1.1986435796630925,1.2045579993556648,1.2045579993556648,0.003024439437198519,-0.37063340368717557,0.05515738710289472,-0.01399020369964515,0.004099254517831068,-0.00016687297687060536
74.0,1.4600000000000009,0.21672007927077533,0.08393490775116905,0.24856341669005033,0.21702116438719138,0.07805347310780271,0.24858416458402444,0.00030108511641604996,-0.005881434643366337,2.0747893974104592e-05,0.005889172793068764,-0.0038024264748523205,-0.000805515593985488,-0.0012752473002607767,min_task,none,false,false,7.000000000000001,7.000000000000001,7.000000000000001,7.000000000000001,7.000000000000001,7.000000000000001,7.000000000000001,7.000000000000001,0.005588226200924978,-0.3627076707136555,0.05330652550296243,-0.014018765169367476,0.0009659670441421637,-0.00013696365200592585,0.013910044366415792,0.002286747678492915,0.25730669218813623,-0.6612728719442321,-1.529681131433613,-1.4720512096041816,-0.11142500864211508,-0.10036654833935965,-0.21230360980200833,-0.0038024264748523205,-0.000805515593985488,-0.0012752473002607767,-0.14848041606711082,0.15606626284034902,0.6626456002703619,-0.06326670888008586,0.16956251262423022,0.020886494605523807,7.000000000000001,7.000000000000001,7.000000000000001,7.000000000000001,7.000000000000001,7.000000000000001,7.000000000000001,7.000000000000001,1.2053414251902825,1.2053414251902825,1.1999662841394103,1.1999662841394103,1.1988257751143283,1.1988257751143283,1.2042060069966716,1.2042060069966716,0.005588226200924978,-0.3627076707136555,0.05330652550296243,-0.014018765169367476,0.0009659670441421637,-0.00013696365200592585
75.0,1.4800000000000009,0.21677107741245827,0.08991296570495289,0.2485592747945164,0.21702116438719138,0.08400876833980274,0.24858416458402444,0.00025008697473311026,-0.005904197365150146,2.4889789508042437e-05,0.005909543935296432,-0.0034672448478220703,-0.0009413362687229205,-0.0005881213764963332,min_task,none,false,false,6.999999999999999,6.999999999999999,6.999999999999999,6.999999999999999,6.999999999999999,6.999999999999999,6.999999999999999,6.999999999999999,0.007625048235803348,-0.3462891117350535,0.050152716712509364,-0.01385387963281776,-0.0022903038657583258,-0.00010363395729217218,0.012652890189204248,0.002680356113397631,0.16973802830519413,-0.5013720395577517,-1.4614486136412697,-1.4200839543437624,-0.06834181888606627,-0.33023337601086483,-0.21749721897771396,-0.0034672448478220703,-0.0009413362687229205,-0.0005881213764963332,-0.16091897194094767,0.1492953091009745,0.6560768268272177,-0.06863902004073684,0.18204809470455022,0.022229548202877723,6.999999999999999,6.999999999999999,6.999999999999999,6.999999999999999,6.999999999999999,6.999999999999999,6.999999999999999,6.999999999999999,1.2052000473495934,1.2052000473495934,1.2002992081631625,1.2002992081631625,1.1989657498036361,1.1989657498036361,1.2038720173741653,1.2038720173741653,0.007625048235803348,-0.3462891117350535,0.050152716712509364,-0.01385387963281776,-0.0022903038657583258,-0.00010363395729217218
76.0,1.5000000000000009,0.21681833125391792,0.09589988226317223,0.24855482908696494,0.21702116438719138,0.09000237141180273,0.24858416458402444,0.0002028331332734612,-0.005897510851369497,2.933549705949612e-05,0.005901070758206703,-0.0031718607054833027,-0.001095787777118848,9.751600196759212e-05,min_task,none,false,false,6.999999999999999,6.999999999999999,6.999999999999999,6.999999999999999,6.999999999999999,6.999999999999999,6.999999999999999,6.999999999999999,0.009138490974823388,-0.32115140383922514,0.0456553915731327,-0.01345433445930309,-0.005622397485017892,-6.700703342627214e-05,0.011537529067875337,0.003132309902926844,0.0782802181526617,-0.33160470470080894,-1.358747958204401,-1.3353985279438818,-0.020731231032774727,-0.5588655121518638,-0.22205437687665538,-0.0031718607054833027,-0.001095787777118848,9.751600196759212e-05,-0.17351046129119296,0.14181184038956302,0.6488261605589489,-0.07413113680295817,0.19435676410746747,0.023560116677385515,6.999999999999999,6.999999999999999,6.999999999999999,6.999999999999999,6.999999999999999,6.999999999999999,6.999999999999999,6.999999999999999,1.2051001317175305,1.2051001317175305,1.2006173683451455,1.2006173683451455,1.1990647193301904,1.1990647193301904,1.203553265724444,1.203553265724444,0.009138490974823388,-0.32115140383922514,0.0456553915731327,-0.01345433445930309,-0.005622397485017892,-6.700703342627214e-05
77.0,1.520000000000001,0.21686036621580868,0.1018581078724482,0.24854991059891596,0.21702116438719138,0.09599597448380273,0.24858416458402444,0.00016079817138270336,-0.0058621333886454685,3.425398510847888e-05,0.005864438357906734,-0.0029122963026746614,-0.0012694841235306852,0.0007519770660127603,min_task,none,false,false,6.999999999999999,6.999999999999999,6.999999999999999,6.999999999999999,6.999999999999999,6.999999999999999,6.999999999999999,6.999999999999999,0.010164832865777644,-0.2872901891894721,0.0398038692472695,-0.012780054188437705,-0.008975267042377645,-2.7313108472773245e-05,0.010554600758187536,0.0036462588651802724,-0.012979591653724197,-0.15259907507925818,-1.2213333910915882,-1.2166428861314549,0.03183701197539421,-0.7818300470755539,-0.22606018534651773,-0.0029122963026746614,-0.0012694841235306852,0.0007519770660127603,-0.18621758362229776,0.13367663721891465,0.6409445743164095,-0.07971769800775831,0.20638528836668174,0.024873441223399743,6.999999999999999,6.999999999999999,6.999999999999999,6.999999999999999,6.999999999999999,6.999999999999999,6.999999999999999,6.999999999999999,1.2050392775286947,1.2050392775286947,1.2009239881180882,1.2009239881180882,1.1991250414423842,1.1991250414423842,1.2032464835450898,1.2032464835450898,0.010164832865777644,-0.2872901891894721,0.0398038692472695,-0.012780054188437705,-0.008975267042377645,-2.7313108472773245e-05
78.0,1.540000000000001,0.21689597284889275,0.1077496704518668,0.2485443649920229,0.21702116438719138,0.10195126971580276,0.24858416458402444,0.00012519153829862462,-0.005798400736064038,3.979959200153815e-05,0.0057998886217558564,-0.0026834573917090838,-0.0014624427019293176,0.0013481831905984832,min_task,none,false,false,6.999999999999998,6.999999999999998,6.999999999999998,6.999999999999998,6.999999999999998,6.999999999999998,6.999999999999998,6.999999999999998,0.01077602975705316,-0.24493689407402083,0.03261881134299095,-0.011794475495402272,-0.012286800374865518,1.5110830639684865e-05,0.009690867692981416,0.004224246156939916,-0.10008980022681763,0.03473547880125369,-1.0498532993148415,-1.06323983118142,0.08965451309020042,-0.9944386820572327,-0.2295876814243442,-0.0026834573917090838,-0.0014624427019293176,0.0013481831905984832,-0.19899767311762231,0.1249684685699876,0.6325005923303058,-0.08537073657864712,0.21803326426462064,0.026165545095755513,6.999999999999998,6.999999999999998,6.999999999999998,6.999999999999998,6.999999999999998,6.999999999999998,6.999999999999998,6.999999999999998,1.2050138630307694,1.2050138630307694,1.2012226423462622,1.2012226423462622,1.1991502657409976,1.1991502657409976,1.2029480177620757,1.2029480177620757,0.01077602975705316,-0.24493689407402083,0.03261881134299095,-0.011794475495402272,-0.012286800374865518,1.5110830639684865e-05
79.0,1.560000000000001,0.21692433609190886,0.11353659427703855,0.2485380797804777,0.21702116438719138,0.1078303179078027,0.24858416458402444,9.682829528251391e-05,-0.0057062763692358465,4.6084803546730946e-05,0.005707283901295317,-0.0024792210229745027,-0.001673984290851736,0.0018631105958391648,min_task,none,false,false,7.000000000000001,7.000000000000001,7.000000000000001,7.000000000000001,7.000000000000001,7.000000000000001,7.000000000000001,7.000000000000001,0.01107985501248759,-0.19457002978942284,0.024154243274759214,-0.01046753622126806,-0.01548923888806296,5.982406259313501e-05,0.008929377550523287,0.004866329814548698,-0.1794461101437032,0.2291556418083679,-0.8459138135121046,-0.875548530228272,0.15279570239121584,-1.1918980868629994,-0.23267414481003332,-0.0024792210229745027,-0.001673984290851736,0.0018631105958391648,-0.21180156841392522,0.11578350853111884,0.6235803798002444,-0.09105917791208083,0.2292052015418403,0.027432757806434532,7.000000000000001,7.000000000000001,7.000000000000001,7.000000000000001,7.000000000000001,7.000000000000001,7.000000000000001,7.000000000000001,1.205019041917414,1.205019041917414,1.2015171278901278,1.2015171278901278,1.1991451491979879,1.1991451491979879,1.2026539700243313,1.2026539700243313,0.01107985501248759,-0.19457002978942284,0.024154243274759214,-0.01046753622126806,-0.01548923888806296,5.982406259313501e-05
80.0,1.580000000000001,0.2169451379662384,0.11918135685818908,0.24853101177341114,0.21702116438719138,0.1135959171398027,0.24858416458402444,7.602642095297374e-05,-0.005585439718386376,5.315281061329946e-05,0.005586209992981565,-0.0022925623516224635,-0.001902654498162162,0.002279024721867918,min_task,none,false,false,7.000000000000001,7.000000000000001,7.000000000000001,7.000000000000001,7.000000000000001,7.000000000000001,7.000000000000001,7.000000000000001,0.011216150624874865,-0.1369250246052939,0.014500665076183826,-0.008779215329169376,-0.018511249956372565,0.00010628591671896478,0.008249755287242309,0.005570250022566973,-0.24798397268812616,0.4290184150037129,-0.6121391961097987,-0.6550291851922908,0.22104386539002185,-1.3694980652559516,-0.23530178316146472,-0.0022925623516224635,-0.001902654498162162,0.002279024721867918,-0.22457271533554823,0.10623422722583185,0.6142873147112787,-0.09674840251166816,0.23981270041153002,0.02867110990021825,7.000000000000001,7.000000000000001,7.000000000000001,7.000000000000001,7.000000000000001,7.000000000000001,7.000000000000001,7.000000000000001,1.2050487843309345,1.2050487843309345,1.2018113241126662,1.2018113241126662,1.1991156306319875,1.1991156306319875,1.2023603492622217,1.2023603492622217,0.011216150624874865,-0.1369250246052939,0.014500665076183826,-0.008779215329169376,-0.018511249956372565,0.00010628591671896478
