LordTarzan10086/HCDR_ML/results/tracking/routeb_trajectory_suite_20260416_105416/square/square_arm_only_detailed.csv
step,time_s,tip_x,tip_y,tip_z,des_x,des_y,des_z,err_x,err_y,err_z,err_norm,q_platform_x,q_platform_y,q_platform_psi,solver_status,fail_reason,fallback_applied,hold_active,u_a_1,u_a_2,u_a_3,u_a_4,u_a_5,u_a_6,u_a_7,u_a_8,u_a_9,u_a_10,u_a_11,u_a_12,u_a_13,u_a_14,qdd_1,qdd_2,qdd_3,qdd_4,qdd_5,qdd_6,qdd_7,qdd_8,qdd_9,q_1,q_2,q_3,q_4,q_5,q_6,q_7,q_8,q_9,cable_force_1,cable_force_2,cable_force_3,cable_force_4,cable_force_5,cable_force_6,cable_force_7,cable_force_8,cable_length_1,cable_length_2,cable_length_3,cable_length_4,cable_length_5,cable_length_6,cable_length_7,cable_length_8,arm_torque_1,arm_torque_2,arm_torque_3,arm_torque_4,arm_torque_5,arm_torque_6
1.0,0.0,0.057021164387191264,0.010002371411802225,0.24858416458402482,0.05702116438719139,0.010002371411802463,0.24858416458402444,1.249000902703301e-16,2.3765711620882257e-16,-3.885780586188048e-16,4.723069394728281e-16,-2.1968387758494882e-18,5.1000505964409524e-20,4.156707148478315e-18,min_task,none,false,false,6.999999999999999,6.999999999999999,6.999999999999999,6.999999999999999,6.999999999999999,6.999999999999999,6.999999999999999,6.999999999999999,2.073564292072696e-15,-3.313529154518867e-14,-8.363079298052082e-16,-1.881621165774564e-16,1.2955960422100785e-15,-6.164207810760031e-18,0.0,-6.428432399757374e-17,0.0,-2.0469680235663737e-14,-1.674351508494452e-13,-2.299887257921962e-13,-2.4679099464202682e-14,9.732223044449413e-14,-1.5024353660199816e-17,-2.1968387758494882e-18,5.1000505964409524e-20,4.156707148478315e-18,7.33441312021563e-19,0.58,0.92,-8.00704860315717e-18,2.3806532736642853e-17,2.714616468699326e-18,6.999999999999999,6.999999999999999,6.999999999999999,6.999999999999999,6.999999999999999,6.999999999999999,6.999999999999999,6.999999999999999,1.2020815280171306,1.2020815280171306,1.2020815280171306,1.2020815280171306,1.2020815280171306,1.2020815280171306,1.2020815280171306,1.2020815280171306,2.073564292072696e-15,-3.313529154518867e-14,-8.363079298052082e-16,-1.881621165774564e-16,1.2955960422100785e-15,-6.164207810760031e-18
2.0,0.02,0.057071446063436254,0.01000261598723312,0.24858308379676022,0.05703358345919139,0.010002371411802463,0.24858416458402444,-3.78626042448621e-05,-2.4457543065618814e-07,1.0807872642126792e-06,3.787881622298688e-05,-7.38020533094627e-06,-1.8481247052275092e-07,1.5810424787335267e-05,min_task,none,false,false,7.0,7.0,7.0,7.0,7.0,7.0,7.0,7.0,0.007920183741346282,-0.13060447140593137,0.0362592709726343,-0.0014590152416324145,0.00044705647421618605,-7.596759498251546e-05,8.11835442777437e-17,-1.4679080818353197e-16,-2.833264187099015e-22,0.007424365720965177,-0.40250062050023505,-0.10904782933817532,-0.0004253982217431572,0.0017761422741379238,1.2362716570198556e-06,-7.38020533094627e-06,-1.8481247052275092e-07,1.5810424787335267e-05,2.326320699242696e-05,0.5798899893231977,0.9199650476858082,-6.798896886504572e-06,2.0780152410268107e-06,5.355626810309065e-06,7.0,7.0,7.0,7.0,7.0,7.0,7.0,7.0,1.202086877348673,1.202086877348673,1.2020764401640651,1.2020764401640651,1.2020761787695076,1.2020761787695076,1.202086615956385,1.202086615956385,0.007920183741346282,-0.13060447140593137,0.0362592709726343,-0.0014590152416324145,0.00044705647421618605,-7.596759498251546e-05
3.0,0.04,0.05725310706087616,0.010003362888875095,0.24857978007968257,0.05711751869119139,0.010002371411802463,0.24858416458402444,-0.00013558836968477483,-9.914770726319327e-07,4.384504341869988e-06,0.00013566286484843447,-3.308440276690938e-05,-7.885734511847173e-07,6.532843361140295e-05,min_task,none,false,false,47.447202727221175,47.447202727223,47.43412051126685,47.43412051126747,47.433793124685295,47.4337931246878,47.44687534603839,47.44687534603799,0.013980862854169268,-0.2338016589903329,0.06545418878074392,-0.002616214453102876,0.0007832639922593195,-0.0001373625021814037,0.00545245035606766,0.00013643613232403322,-0.014262011948789823,0.010072378290716973,-0.7174198460250253,-0.18491231454512003,0.0009458348579927664,0.0007602261775459757,-0.0009536086885231614,-3.308440276690938e-05,-7.885734511847173e-07,6.532843361140295e-05,9.795504679317501e-05,0.5794963477435824,0.9198424536590266,-2.9485983958490207e-05,8.754324614695068e-06,2.342166788329278e-05,47.447202727221175,47.447202727223,47.43412051126685,47.43412051126747,47.433793124685295,47.4337931246878,47.44687534603839,47.44687534603799,1.2021054808410467,1.2021054808410467,1.2020586924645336,1.2020586924645336,1.2020575766921473,1.2020575766921473,1.2021043651120886,1.2021043651120886,0.013980862854169268,-0.2338016589903329,0.06545418878074392,-0.002616214453102876,0.0007832639922593195,-0.0001373625021814037
4.0,0.06,0.057630709302574384,0.010004613326517444,0.24857421607173302,0.05733640688319139,0.010002371411802463,0.24858416458402444,-0.00029430241938299684,-2.2419147149808916e-06,9.948512291413358e-06,0.0002944790538104315,-8.42616302738448e-05,-1.8977597763963575e-06,0.00015405490663609287,min_task,none,false,false,26.572571107050297,26.57257110712957,26.537252872326082,26.53725287241869,26.536442047836744,26.536442047022067,26.571759568308906,26.57175956829178,0.018715467841500927,-0.316290856879968,0.08901426085453198,-0.0035388812920518187,0.0010465099149885916,-0.00018705368074466258,0.01468820937198309,0.0003375566958351519,-0.032985907174382115,0.0101700723753772,-0.9680516740812991,-0.24203085836578256,0.003218348656078643,-0.0011368102646404613,-0.002513743567690463,-8.42616302738448e-05,-1.8977597763963575e-06,0.00015405490663609287,0.00023501503998691272,0.5786862797895809,0.91959501898086,-7.22613022367659e-05,2.0873826050262394e-05,5.7928552802054856e-05,26.572571107050297,26.57257110712957,26.537252872326082,26.53725287241869,26.536442047836744,26.536442047022067,26.571759568308906,26.57175956829178,1.2021424578615705,1.2021424578615705,1.20202329412759,1.20202329412759,1.202020606917177,1.202020606917177,1.202139770917531,1.202139770917531,0.018715467841500927,-0.316290856879968,0.08901426085453198,-0.0035388812920518187,0.0010465099149885916,-0.00018705368074466258
5.0,0.08,0.05825565188472805,0.010006228910360123,0.24856689728227807,0.05774520611519139,0.010002371411802463,0.24858416458402444,-0.0005104457695366618,-3.857498557659905e-06,1.726730174636537e-05,0.0005107523114412673,-0.0001653379518038663,-3.5009677235962887e-06,0.0002852306992547415,min_task,none,false,false,18.946812533712496,18.946812533890174,18.8830463033856,18.88304630359354,18.881703677196217,18.88170367536532,18.945468232426315,18.9454682323879,0.02245394185205965,-0.3826791556915791,0.10793970944712689,-0.004272566458828408,0.0012631215807252045,-0.0002271460040414215,0.02652273693609702,0.0005592042084071086,-0.055405458862554866,0.008296492443996646,-1.1704730482817267,-0.2904695450865902,0.005788081963598609,-0.002911312743514209,-0.004392122352860752,-0.0001653379518038663,-3.5009677235962887e-06,0.0002852306992547415,0.0004397518247728841,0.5773569684882734,0.9191946046086507,-0.00013585826661580367,3.843505989464702e-05,0.00010994747763663575,18.946812533712496,18.946812533890174,18.8830463033856,18.88304630359354,18.881703677196217,18.88170367536532,18.945468232426315,18.9454682323879,1.202200936519923,1.202200936519923,1.2019671140794002,1.2019671140794002,1.2019621507112197,1.2019621507112197,1.2021959741170984,1.2021959741170984,0.02245394185205965,-0.3826791556915791,0.10793970944712689,-0.004272566458828408,0.0012631215807252045,-0.0002271460040414215
6.0,0.1,0.05916849909339383,0.01000800180114035,0.2485585424387149,0.05839076438719139,0.010002371411802463,0.24858416458402444,-0.000777734706202439,-5.6303893378861075e-06,2.5622145309545097e-05,0.0007781770163954688,-0.0002787076533687609,-5.516846736201165e-06,0.00045788830851711885,min_task,none,false,false,14.582061070917705,14.582061070918298,14.485745229030117,14.485745229031519,14.483902873202112,14.48390287319116,14.580219447190773,14.580219447190983,0.025452436355702098,-0.43618865187265055,0.12294250726175737,-0.004850446538849776,0.0014491124636846703,-0.00025906038437885245,0.04005989650784295,0.0007665037575783912,-0.0788203099308997,0.005386918628708471,-1.3358438879392274,-0.3371586155182337,0.008160920344284459,-0.0038411055937493956,-0.006347791600218319,-0.0002787076533687609,-5.516846736201165e-06,0.00045788830851711885,0.0007107702405981037,0.5754282172453362,0.9186177697962518,-0.00021836206043093407,6.108262270375084e-05,0.00017845010420520534,14.582061070917705,14.582061070918298,14.485745229030117,14.485745229031519,14.483902873202112,14.48390287319116,14.580219447190773,14.580219447190983,1.20228256237595,1.20228256237595,1.2018884121539553,1.2018884121539553,1.2018805770210794,1.2018805770210794,1.2022747298117211,1.2022747298117211,0.025452436355702098,-0.43618865187265055,0.12294250726175737,-0.004850446538849776,0.0014491124636846703,-0.00025906038437885245
7.0,0.12000000000000001,0.06040063626722331,0.010009701515543118,0.24854988971032455,0.05931218825919139,0.010002371411802463,0.24858416458402444,-0.0010884480080319142,-7.330103740654792e-06,3.427487369989102e-05,0.0010890121962478815,-0.00042525744120128136,-7.819685878424676e-06,0.0006690757174188554,min_task,none,false,false,11.764414915853113,11.76441491585344,11.633054151515527,11.633054151516438,11.630802216209108,11.630802216201797,11.762164237923558,11.762164237923699,0.027887470438564894,-0.4790616173705337,0.13453979066510735,-0.005296826576387498,0.0016142718856231668,-0.00028382842861812376,0.05462788354595143,0.0009360536368235704,-0.10184567908647035,0.00197849003186118,-1.4718314861276633,-0.38663638646540754,0.010019560648480603,-0.0035739830479241228,-0.008189997486189763,-0.00042525744120128136,-7.819685878424676e-06,0.0006690757174188554,0.0010429520299191696,0.5728372451718736,0.9178427790386069,-0.00031591137726163815,8.843920980699224e-05,0.0002607920956425942,11.764414915853113,11.76441491585344,11.633054151515527,11.633054151516438,11.630802216209108,11.630802216201797,11.762164237923558,11.762164237923699,1.2023878867229487,1.2023878867229487,1.2017864859949372,1.2017864859949372,1.2017753534955602,1.2017753534955602,1.2023767597917874,1.2023767597917874,0.027887470438564894,-0.4790616173705337,0.13453979066510735,-0.005296826576387498,0.0016142718856231668,-0.00028382842861812376
8.0,0.14,0.06197546451073447,0.010011106390498297,0.24854159359155864,0.06054121149119139,0.010002371411802463,0.24858416458402444,-0.0014342530195430789,-8.73497869583427e-06,4.2570992465795765e-05,0.0014349112562527268,-0.0006047414698666452,-1.025802974925202e-05,0.0009148501018424094,min_task,none,false,false,9.809573568284538,9.80957356828454,9.641907761462777,9.64190776146278,9.639371319516314,9.639371319516274,9.807039899458967,9.807039899458964,0.029882494065996426,-0.5128664211742311,0.14311876850560484,-0.005630169627887832,0.001763739093439014,-0.0003022163693667071,0.06971372134994966,0.0010524660226621614,-0.12371588860038883,-0.0015953095537714053,-1.583651270384889,-0.4416468778089774,0.011168723432810784,-0.0020238687219123375,-0.00976760157012879,-0.0006047414698666452,-1.025802974925202e-05,0.0009148501018424094,0.0014289713678669984,0.5695350912743501,0.9168476714458969,-0.0004232225219549244,0.00012028218449984445,0.0003530913466941026,9.809573568284538,9.80957356828454,9.641907761462777,9.64190776146278,9.639371319516314,9.639371319516274,9.807039899458967,9.807039899458964,1.2025166440794786,1.2025166440794786,1.2016614181080785,1.2016614181080785,1.2016467677804339,1.2016467677804339,1.2025020041712269,1.2025020041712269,0.029882494065996426,-0.5128664211742311,0.14311876850560484,-0.005630169627887832,0.001763739093439014,-0.0003022163693667071
9.0,0.16,0.0639092897693264,0.01001202371741747,0.24853417739970285,0.06210256368319139,0.010002371411802463,0.24858416458402444,-0.0018067260861350104,-9.652305615006143e-06,4.998718432158711e-05,0.0018074432317284044,-0.0008160536269957112,-1.2669829503842703e-05,0.0011908745245261102,min_task,none,false,false,8.383558322195213,8.383558322195213,8.17928834734874,8.17928834734874,8.176614456883335,8.176614456883332,8.380888750266362,8.380888750266362,0.03152782641667915,-0.5387056351770843,0.1489805692150698,-0.005865126949697516,0.0018990017857174603,-0.00031480416645970124,0.08491886973688488,0.0011065940680294018,-0.14403412312479189,-0.00501193277176284,-1.6747726148026885,-0.5035546020624226,0.011460125331810787,0.0007222458420975608,-0.010950491507272241,-0.0008160536269957112,-1.2669829503842703e-05,0.0011908745245261102,0.0018603020278251693,0.5654841490335762,0.9156091206844825,-0.0005340253963506791,0.0001566166549754732,0.00045055070334032866,8.383558322195213,8.383558322195213,8.17928834734874,8.17928834734874,8.176614456883335,8.176614456883332,8.380888750266362,8.380888750266362,1.202667954437009,1.202667954437009,1.2015138929715397,1.2015138929715397,1.2014957238740276,1.2014957238740276,1.2026498027745436,1.2026498027745436,0.03152782641667915,-0.5387056351770843,0.1489805692150698,-0.005865126949697516,0.0018990017857174603,-0.00031480416645970124
10.0,0.18,0.06621201038233769,0.010012301314270009,0.24852801913142727,0.06401433891519138,0.010002371411802463,0.24858416458402444,-0.002197671467146306,-9.929902467545673e-06,5.614545259716164e-05,0.002198410969841479,-0.0010574260478439046,-1.4894556750947882e-05,0.0014927622972839187,min_task,none,false,false,7.303842858527832,7.303842858527832,7.06343318650198,7.06343318650198,7.060777126345202,7.060777126345202,7.301192877213326,7.301192877213326,0.032882439247014165,-0.5573541006201204,0.15237032852772434,-0.006013401497912716,0.0020194271976977426,-0.0003220649605746853,0.09992778652165793,0.0010948263883993603,-0.16263206663569543,-0.008105500049633688,-1.7474097505560853,-0.5726396246675522,0.010842343009302686,0.004437500297022593,-0.01164172668358029,-0.0010574260478439046,-1.4894556750947882e-05,0.0014927622972839187,0.002327879731995016,0.5606565095849194,0.9141018989538737,-0.000641420533140604,0.00019767316964563843,0.0005477329670795087,7.303842858527832,7.303842858527832,7.06343318650198,7.06343318650198,7.060777126345202,7.060777126345202,7.301192877213326,7.301192877213326,1.2028404711909746,1.2028404711909746,1.201345064170066,1.201345064170066,1.2013235927974528,1.2013235927974528,1.2028190265126861,1.2028190265126861,0.032882439247014165,-0.5573541006201204,0.15237032852772434,-0.006013401497912716,0.0020194271976977426,-0.0003220649605746853
11.0,0.19999999999999998,0.06888770177618916,0.010011828206491769,0.24852334458306685,0.06628836438719139,0.010002371411802463,0.24858416458402444,-0.0025993373889977717,-9.456794689305381e-06,6.082000095758433e-05,0.002600066030954604,-0.0013266959418913673,-1.6827450722286605e-05,0.0018111093159084175,min_task,none,false,false,7.274219624384458,7.274219624384458,6.999999999995511,6.999999999995511,6.999999999995511,6.999999999995511,7.270706523464594,7.270706523464594,0.03398436556444733,-0.5693569148723656,0.15349690276576158,-0.0060846581924889976,0.0021227981966245816,-0.0003243984526974658,0.11367894979436065,0.0007308385836358095,-0.2025461740133234,-0.010745146781208779,-1.8028602415877975,-0.6483112446504914,0.00930644394767481,0.008821512330614529,-0.011765721468393664,-0.0013266959418913673,-1.6827450722286605e-05,0.0018111093159084175,0.002817743258152164,0.5550325650092875,0.9122986527387666,-0.0007389388522355655,0.00024395261413545223,0.000639274930609984,7.274219624384458,7.274219624384458,6.999999999995511,6.999999999995511,6.999999999995511,6.999999999995511,7.270706523464594,7.270706523464594,1.2030326041145776,1.2030326041145776,1.2011564000331338,1.2011564000331338,1.2011319837209828,1.2011319837209828,1.2030082258819546,1.2030082258819546,0.03398436556444733,-0.5693569148723656,0.15349690276576158,-0.0060846581924889976,0.0021227981966245816,-0.0003243984526974658
12.0,0.21999999999999997,0.07193508749945697,0.010010561232552647,0.24852024292472485,0.06893056905919138,0.010002371411802463,0.24858416458402444,-0.0030045184402655856,-8.189820750183555e-06,6.392165929958171e-05,0.003005209495124671,-0.0016214923326446733,-1.8469181236633566e-05,0.0021318685587566858,min_task,none,false,false,7.300888084543585,7.300888084543585,6.999999999989192,6.999999999989192,6.999999999989192,6.999999999989192,7.300821896413045,7.300821896413045,0.034894536330992175,-0.5750627749432395,0.1525372416436854,-0.006090575379504614,0.002206118445898443,-0.00032204872270386194,0.1260731947717649,3.1707461831949765e-05,-0.24621869250109363,-0.01208445280106422,-1.8415761981556367,-0.7291482935127533,0.006926852259808567,0.013877511698255369,-0.01135353678537766,-0.0016214923326446733,-1.8469181236633566e-05,0.0021318685587566858,0.0033122008628593265,0.5486002067454342,0.9101701417098709,-0.0008219236841953317,0.00029638163990847746,0.000720842920905248,7.300888084543585,7.300888084543585,6.999999999989192,6.999999999989192,6.999999999989192,6.999999999989192,7.300821896413045,7.300821896413045,1.2032426829024445,1.2032426829024445,1.2009495832218542,1.2009495832218542,1.20092257540435,1.20092257540435,1.2032157265566903,1.2032157265566903,0.034894536330992175,-0.5750627749432395,0.1525372416436854,-0.006090575379504614,0.002206118445898443,-0.00032204872270386194
13.0,0.23999999999999996,0.07534793249147427,0.010008547543854364,0.24851869690122702,0.07194135229119138,0.010002371411802463,0.24858416458402444,-0.0034065802002828938,-6.176132051900762e-06,6.546768279741544e-05,0.003407214819035839,-0.0019393076793876363,-1.9941741658215105e-05,0.0024411606379227484,min_task,none,false,false,7.322599534994141,7.322599534994141,6.999999999961017,6.999999999961017,6.999999999961016,6.999999999961016,7.327776496148922,7.327776496148922,0.035621719069136325,-0.5747299920595766,0.14966017000792342,-0.006038383413658099,0.002265826358027115,-0.00031533320094482496,0.13691617859548566,-0.0010314534184239848,-0.2902980376014764,-0.012052635121547486,-1.8636655878039152,-0.8132800636669265,0.003981646443868429,0.01927509419129548,-0.01052623843094478,-0.0019393076793876363,-1.9941741658215105e-05,0.0024411606379227484,0.0037951443231223243,0.5413545678770946,0.9076858809581809,-0.000888462627708921,0.0003563965210129762,0.0007898344877523932,7.322599534994141,7.322599534994141,6.999999999961017,6.999999999961017,6.999999999961016,6.999999999961016,7.327776496148922,7.327776496148922,1.2034690193355813,1.2034690193355813,1.2007264718211816,1.2007264718211816,1.2006970549146574,1.2006970549146574,1.2034396694679523,1.2034396694679523,0.035621719069136325,-0.5747299920595766,0.14966017000792342,-0.006038383413658099,0.002265826358027115,-0.00031533320094482496
14.0,0.25999999999999995,0.07911541413378242,0.010005915130265407,0.24851861006673776,0.07531595248319138,0.010002371411802463,0.24858416458402444,-0.0037994616505910433,-3.5437184629436014e-06,6.555451728668116e-05,0.0038000287876527,-0.002277543361811908,-2.1496785541550782e-05,0.0027262435630575296,min_task,none,false,false,7.339153369629048,7.339153369629048,6.999999999934299,6.999999999934299,6.999999999934297,6.999999999934297,7.351423123856718,7.351423123856718,0.03615225599927792,-0.568549525230604,0.14502726783291636,-0.00593301686814103,0.0022991317380613423,-0.0003045859153249973,0.14612853026098716,-0.0024681456500028954,-0.3328468678437819,-0.010795189562228255,-1.8689513486944347,-0.8984414457360763,0.0008291879182469161,0.02470474163793653,-0.009470492491792288,-0.002277543361811908,-2.1496785541550782e-05,0.0027262435630575296,0.0042532223713708725,0.5332979523576306,0.904814979780746,-0.0009399685916729475,0.0004259134291836762,0.0008458495796892034,7.339153369629048,7.339153369629048,6.999999999934299,6.999999999934299,6.999999999934297,6.999999999934297,7.351423123856718,7.351423123856718,1.203709945691546,1.203709945691546,1.2004890736743679,1.2004890736743679,1.2004570802051298,1.2004570802051298,1.2036780378323055,1.2036780378323055,0.03615225599927792,-0.568549525230604,0.14502726783291636,-0.00593301686814103,0.0022991317380613423,-0.0003045859153249973
15.0,0.27999999999999997,0.08322247322152872,0.010002854988652657,0.24851983377744846,0.07904481571519138,0.010002371411802463,0.24858416458402444,-0.0041776575063373345,-4.835768501933874e-07,6.433080657597401e-05,0.004178152812760438,-0.0026335083740635637,-2.351109322301429e-05,0.0029760028320857876,min_task,none,false,false,7.350782211454392,7.350782211454392,6.999999999901643,6.999999999901643,6.99999999990164,6.99999999990164,7.371881768733986,7.371881768733986,0.03645759434477268,-0.5566745457632429,0.13879579863546648,-0.005777576757395548,0.0023043708300988733,-0.00029015434318084153,0.15377205164552724,-0.004253907148179043,-0.37208119796547573,-0.00856896539581399,-1.8570915582639926,-0.9820844770169078,-0.0021338400989270763,0.029939340355032974,-0.008421066494378408,-0.0026335083740635637,-2.351109322301429e-05,0.0029760028320857876,0.0046763362000271725,0.5244399767130936,0.901527178454154,-0.0009814454943496938,0.000507271987444683,0.0008909534216370442,7.350782211454392,7.350782211454392,6.999999999901643,6.999999999901643,6.99999999990164,6.99999999990164,7.371881768733986,7.371881768733986,1.2039638116337132,1.2039638116337132,1.200239545355835,1.200239545355835,1.2002042851391874,1.2002042851391874,1.203928660492002,1.203928660492002,0.03645759434477268,-0.5566745457632429,0.13879579863546648,-0.005777576757395548,0.0023043708300988733,-0.00029015434318084153
16.0,0.3,0.08765015556719626,0.009999599593256272,0.24852219200911738,0.08311396438719139,0.010002371411802463,0.24858416458402444,-0.004536191180004867,2.771818546191268e-06,6.197257490705987e-05,0.00453661533575116,-0.003004376251888949,-2.646872847477786e-05,0.003181267442219846,min_task,none,false,false,7.358077308647416,7.358077308647416,6.999999999865052,6.999999999865052,6.9999999998650475,6.9999999998650475,7.38946564731575,7.38946564731575,0.036498861880981115,-0.5392437127031183,0.13112039860637603,-0.005573671837415467,0.002281047399349293,-0.000272400582642256,0.16001983051493893,-0.006330574364633044,-0.40644681755763146,-0.005706165765327593,-1.8276831589057292,-1.0614826728395041,-0.0045046512667216,0.03483594925048306,-0.007639637978497036,-0.003004376251888949,-2.646872847477786e-05,0.003181267442219846,0.005057781839582322,0.5147978664059817,0.8977940375572012,-0.0010214112898711176,0.0006031597472794622,0.0009297077791512472,7.358077308647416,7.358077308647416,6.999999999865052,6.999999999865052,6.9999999998650475,6.9999999998650475,7.38946564731575,7.38946564731575,1.2042289426153094,1.2042289426153094,1.1999802116604446,1.1999802116604446,1.1999403235138524,1.1999403235138524,1.204189195205749,1.204189195205749,0.036498861880981115,-0.5392437127031183,0.13112039860637603,-0.005573671837415467,0.002281047399349293,-0.000272400582642256
17.0,0.32,0.09237595347650931,0.009996400326530087,0.24852550197303655,0.0875053658591914,0.010002371411802463,0.24858416458402444,-0.004870587617317915,5.971085272376414e-06,5.866261098788628e-05,0.0048709445381525185,-0.0033871138523180852,-3.0931800456537546e-05,0.0033349655481360327,min_task,none,false,false,7.361864825800523,7.361864825800523,6.9999999998271765,6.9999999998271765,6.99999999982717,6.99999999982717,7.404575141631825,7.404575141631825,0.036231605521163945,-0.516396930188796,0.12215327917231751,-0.005321854790132291,0.0022296551441202523,-0.00025169831225972363,0.1651097510692085,-0.008609987848859406,-0.43466748292342544,-0.002577511959478132,-1.7803379599528053,-1.1338183795537955,-0.0059044788663177375,0.03931844348189405,-0.007391052574632552,-0.0033871138523180852,-3.0931800456537546e-05,0.0033349655481360327,0.005394079299950801,0.5043968338710392,0.8935902264603623,-0.0010714813743104834,0.0007165148421066431,0.0009689669885779186,7.361864825800523,7.361864825800523,6.9999999998271765,6.9999999998271765,6.99999999982717,6.99999999982717,7.404575141631825,7.404575141631825,1.2045035704487388,1.2045035704487388,1.1997135969548016,1.1997135969548016,1.1996669408470124,1.1996669408470124,1.2044570998864015,1.2044570998864015,0.036231605521163945,-0.516396930188796,0.12215327917231751,-0.005321854790132291,0.0022296551441202523,-0.00025169831225972363
18.0,0.34,0.09737415316041034,0.009993506301382475,0.24852958934115116,0.0921973010911914,0.010002371411802463,0.24858416458402444,-0.005176852069218946,8.865110419987651e-06,5.4575242873278196e-05,0.005177147322019523,-0.0037783983149394617,-3.7502853157861335e-05,0.0034321424767053475,min_task,none,false,false,7.36305968806803,7.36305968806803,7.0000000000001625,7.0000000000001625,7.0000000000001625,7.0000000000001625,7.417581311577594,7.417581311577594,0.03561046704309001,-0.4882851488080877,0.11204338583471625,-0.005022108215894323,0.0021513382063529447,-0.00022842639237323606,0.1692911910351864,-0.01098012072662504,-0.4557664027082923,0.0004464501963353604,-1.7147354103990153,-1.1962563775999515,-0.006005017501062275,0.04334814552007524,-0.007919222351897862,-0.0037783983149394617,-3.7502853157861335e-05,0.0034321424767053475,0.005684550426392043,0.49327046738403707,0.8888948576533415,-0.0011456454717036055,0.0008504031789194593,0.0010174557070985828,7.36305968806803,7.36305968806803,7.0000000000001625,7.0000000000001625,7.0000000000001625,7.0000000000001625,7.417581311577594,7.417581311577594,1.2047857494525516,1.2047857494525516,1.1994424586822356,1.1994424586822356,1.1993860600619322,1.1993860600619322,1.2047296009749011,1.2047296009749011,0.03561046704309001,-0.4882851488080877,0.11204338583471625,-0.005022108215894323,0.0021513382063529447,-0.00022842639237323606
19.0,0.36000000000000004,0.1026161911335599,0.009991146443376446,0.24853429777783478,0.09716473328319139,0.010002371411802463,0.24858416458402444,-0.005451457850368505,1.1224968426017112e-05,4.9866806189652335e-05,0.005451697478090665,-0.004174538687545372,-4.6782500618256295e-05,0.003469869416912749,min_task,none,false,false,7.362523465771427,7.362523465771427,6.999999999759434,6.999999999759434,6.999999999759423,6.999999999759423,7.428720210138005,7.428720210138005,0.034593432512602496,-0.4550759959696661,0.10093497749356796,-0.004674326020646266,0.0020474763867312637,-0.00020296059443799416,0.1727746041799087,-0.013312561992963648,-0.4690652341926065,0.0030331526369414582,-1.6306581325035254,-1.246008531154263,-0.004550295354683009,0.046890677416832074,-0.009424663462060525,-0.004174538687545372,-4.6782500618256295e-05,0.003469869416912749,0.005930721410621077,0.4814610666573789,0.8836928144015526,-0.0012592947362572494,0.0010078676359595916,0.0010851618087017263,7.362523465771427,7.362523465771427,6.999999999759434,6.999999999759434,6.999999999759423,6.999999999759423,7.428720210138005,7.428720210138005,1.205073272221984,1.205073272221984,1.1991698137482614,1.1991698137482614,1.1990998667704567,1.1990998667704567,1.2050036679229181,1.2050036679229181,0.034593432512602496,-0.4550759959696661,0.10093497749356796,-0.004674326020646266,0.0020474763867312637,-0.00020296059443799416
20.0,0.38000000000000006,0.10807102000669998,0.009989515974780193,0.24853949326023062,0.1023796765151914,0.010002371411802463,0.24858416458402444,-0.0056913434915085714,1.285543702226992e-05,4.4671323793821216e-05,0.005691533319569298,-0.004571416625467239,-5.932603363572349e-05,0.0034470727914202217,min_task,none,false,false,7.360946522923281,7.360946522923281,6.999999999735025,6.999999999735025,6.999999999735009,6.999999999735009,7.438014376068602,7.438014376068602,0.033145333526789354,-0.4169570282952908,0.08896607777249575,-0.004278738931139661,0.0019192877849220978,-0.00017566505826810871,0.1756914437137145,-0.01547058434776336,-0.47416715862745096,0.004921583509801276,-1.5280164968547019,-1.280394370528691,-0.0013737762622395764,0.04988714741792011,-0.012045257652300464,-0.004571416625467239,-5.932603363572349e-05,0.0034470727914202217,0.006135630471651439,0.46901987147465024,0.8779760208515669,-0.001428072313795885,0.0011917498220277243,0.0011825896544209627,7.360946522923281,7.360946522923281,6.999999999735025,6.999999999735025,6.999999999735009,6.999999999735009,7.438014376068602,7.438014376068602,1.2053635977892685,1.2053635977892685,1.1988989501845724,1.1988989501845724,1.1988108813499452,1.1988108813499452,1.2052760013228723,1.2052760013228723,0.033145333526789354,-0.4169570282952908,0.08896607777249575,-0.004278738931139661,0.0019192877849220978,-0.00017566505826810871
21.0,0.4000000000000001,0.1137054820244324,0.009988767706626989,0.2485450642337947,0.10781156438719142,0.010002371411802463,0.24858416458402444,-0.005893917637240981,1.360370517547449e-05,3.9100350229748226e-05,0.005894063030945877,-0.004964456961293362,-7.560243247815801e-05,0.0033643125144947107,min_task,none,false,false,7.358767001482912,7.358767001482912,6.999999999719693,6.999999999719693,6.999999999719672,6.999999999719672,7.44523097892177,7.44523097892177,0.031240378659295857,-0.3741382050225853,0.07626719337863444,-0.003836244221631516,0.0017675310101766767,-0.00014688497701869879,0.17806897967027244,-0.017317165664320084,-0.47092945210580095,0.005948147103927138,-1.406868012400785,-1.2969018436757849,0.0035892327238346597,0.052236067182977484,-0.015841411560427565,-0.004964456961293362,-7.560243247815801e-05,0.0033643125144947107,0.00630311734525936,0.4560071422506259,0.8717446061384281,-0.001666630497128921,0.0014044896454029133,0.0013199264263966386,7.358767001482912,7.358767001482912,6.999999999719693,6.999999999719693,6.999999999719672,6.999999999719672,7.44523097892177,7.44523097892177,1.2056538022718017,1.2056538022718017,1.1986334189470524,1.1986334189470524,1.1985220078570338,1.1985220078570338,1.2055430399755158,1.2055430399755158,0.031240378659295857,-0.3741382050225853,0.07626719337863444,-0.003836244221631516,0.0017675310101766767,-0.00014688497701869879
22.0,0.4200000000000001,0.11948468736337647,0.009989007910998129,0.24855091893902148,0.1134276186591914,0.010002371411802463,0.24858416458402444,-0.00605706870418507,1.3363500804334377e-05,3.3245645002955015e-05,0.006057174683240001,-0.005348634611024149,-9.595867077878654e-05,0.0032235330825275575,min_task,none,false,false,7.3561299919737815,7.3561299919737815,6.99999999971459,6.99999999971459,6.999999999714563,6.999999999714563,7.4498790318032,7.4498790318032,0.028863631531290564,-0.3268547902388857,0.0629606025388843,-0.003348616740925941,0.0015923635782890994,-0.00011694169929568106,0.17982122731636482,-0.0187227830552831,-0.4594317360066047,0.006061716179237918,-1.2674359778452624,-1.2932510156225252,0.010293834189295928,0.05378949138609414,-0.02078639165006105,-0.005348634611024149,-9.595867077878654e-05,0.0032235330825275575,0.006437161062982346,0.44249206446155975,0.8650079172432668,-0.001987382380198067,0.0016479134614852053,0.0015061784173059395,7.3561299919737815,7.3561299919737815,6.99999999971459,6.99999999971459,6.999999999714563,6.999999999714563,7.4498790318032,7.4498790318032,1.2059405587159924,1.2059405587159924,1.1983770034511079,1.1983770034511079,1.19823655333086,1.19823655333086,1.2058009895890793,1.2058009895890793,0.028863631531290564,-0.3268547902388857,0.0629606025388843,-0.003348616740925941,0.0015923635782890994,-0.00011694169929568106
23.0,0.4400000000000001,0.1253723936146599,0.009990296079961615,0.24855698127291923,0.1191932178911914,0.010002371411802463,0.24858416458402444,-0.006179175723468502,1.2075331840848483e-05,2.7183311105211105e-05,0.00617924731399741,-0.00571851994723693,-0.00012059150916780766,0.003027806042682368,min_task,none,false,false,7.352884618631822,7.352884618631822,6.999999999720043,6.999999999720043,6.99999999972001,6.99999999972001,7.451242409803147,7.451242409803147,0.026011505952420258,-0.27537150062004717,0.04916041871079264,-0.0028185976695146303,0.0013933813165471116,-8.613101205547639e-05,0.18075493704518583,-0.019572768777597175,-0.43994313709317956,0.005325701786387436,-1.110130494315189,-1.2674620169566635,0.018582760206349712,0.054363666491463424,-0.02676236937807247,-0.00571851994723693,-0.00012059150916780766,0.003027806042682368,0.006541318487812383,0.4285524610588133,0.857785339293093,-0.002399336697844568,0.0019230268295656466,0.0017483360274306112,7.352884618631822,7.352884618631822,6.999999999720043,6.999999999720043,6.99999999972001,6.99999999972001,7.451242409803147,7.451242409803147,1.2062201493191902,1.2062201493191902,1.198133667063802,1.198133667063802,1.1979582146148695,1.1979582146148695,1.2060458732714527,1.2060458732714527,0.026011505952420258,-0.27537150062004717,0.04916041871079264,-0.0028185976695146303,0.0013933813165471116,-8.613101205547639e-05
24.0,0.46000000000000013,0.1313313829256781,0.009992647603570643,0.24856318636739144,0.12507226608319144,0.010002371411802463,0.24858416458402444,-0.006259116842486645,9.723808231819689e-06,2.097821663299415e-05,0.0062591595510834855,-0.006068360931257061,-0.00014952823891213444,0.0027810771084863556,min_task,none,false,false,7.3486124197325,7.3486124197325,6.999999999735572,6.999999999735572,6.999999999735534,6.999999999735534,7.448441488878763,7.448441488878763,0.02269148761609893,-0.2199882505699785,0.034973501169821036,-0.0022498748488422476,0.0011698291569659414,-5.472478605619145e-05,0.1805878882953681,-0.019774105302322712,-0.4128905959949197,0.003906475286770476,-0.935573411029447,-1.2179272290568095,0.028189182114685397,0.05376149499803481,-0.03356248902398043,-0.006068360931257061,-0.00014952823891213444,0.0027810771084863556,0.00661830037344199,0.41427430736329574,0.8501068866377858,-0.002907101633772353,0.00222983171674355,0.002050626095035556,7.3486124197325,7.3486124197325,6.999999999735572,6.999999999735572,6.999999999735534,6.999999999735534,7.448441488878763,7.448441488878763,1.2064885099719114,1.2064885099719114,1.1979074809670707,1.1979074809670707,1.1976910330560502,1.1976910330560502,1.2062736018002875,1.2062736018002875,0.02269148761609893,-0.2199882505699785,0.034973501169821036,-0.0022498748488422476,0.0011698291569659414,-5.472478605619145e-05
25.0,0.48000000000000015,0.13732383383817848,0.009996038303654795,0.24856947675266294,0.13102756131519142,0.010002371411802463,0.24858416458402444,-0.006296272522987062,6.333108147668631e-06,1.4687831361492876e-05,0.006296292839788408,-0.006392197264310448,-0.0001826171131517609,0.0024879270077120402,min_task,none,false,false,7.342678797979867,7.342678797979867,6.999999999759986,6.999999999759986,6.999999999759942,6.999999999759942,7.44051408506289,7.44051408506289,0.018921397223366988,-0.16104762293143732,0.020501210957867534,-0.0016469836135423596,0.0009209451212702099,-2.2975699964986085e-05,0.17897595570777697,-0.019261426607278528,-0.3788290104776445,0.0020492828805238252,-0.7446279996492235,-1.1434867538628088,0.03874589817387598,0.05180203909661963,-0.04089908575776657,-0.006392197264310448,-0.0001826171131517609,0.0024879270077120402,0.006669706089213989,0.3997510509304486,0.8420135332165745,-0.00351013651726485,0.002567189327996723,0.002413907939726791,7.342678797979867,7.342678797979867,6.999999999759986,6.999999999759986,6.999999999759942,6.999999999759942,7.44051408506289,7.44051408506289,1.206741304383092,1.206741304383092,1.1977025364163736,1.1977025364163736,1.1974393200626523,1.1974393200626523,1.206480060008494,1.206480060008494,0.018921397223366988,-0.16104762293143732,0.020501210957867534,-0.0016469836135423596,0.0009209451212702099,-2.2975699964986085e-05
26.0,0.5000000000000001,0.1433116857667151,0.010000409812771182,0.24857579960496062,0.13702116438719142,0.010002371411802463,0.24858416458402444,-0.006290521379523684,1.9615990312811526e-06,8.36497906381295e-06,0.006290527247138354,-0.006683999714724749,-0.00021952752937020876,0.002153352544025159,min_task,none,false,false,7.334299184543156,7.334299184543156,6.999999999791491,6.999999999791491,6.999999999791445,6.999999999791445,7.426505658017955,7.426505658017955,0.014728542348977117,-0.09894387279864526,0.00584190025716377,-0.0010151641755538955,0.0006463790588628156,8.875732413579362e-06,0.17554522099046618,-0.01800187688771088,-0.3384131097335467,4.4604898557268754e-05,-0.5384331326866737,-1.0435055191152396,0.04980151960380129,0.04835133140276566,-0.04841793304619969,-0.006683999714724749,-0.00021952752937020876,0.002153352544025159,0.006695923615721856,0.38508274422657374,0.833557256196345,-0.004202318358867077,0.00293274795380584,0.002835264237157855,7.334299184543156,7.334299184543156,6.999999999791491,6.999999999791491,6.999999999791445,6.999999999791445,7.426505658017955,7.426505658017955,1.2069740230517936,1.2069740230517936,1.197522846389865,1.197522846389865,1.1972075584135133,1.1972075584135133,1.206661204571769,1.206661204571769,0.014728542348977117,-0.09894387279864526,0.00584190025716377,-0.0010151641755538955,0.0006463790588628156,8.875732413579362e-06
27.0,0.5200000000000001,0.14925699515763385,0.010005674951733278,0.24858210521614021,0.1430147674591914,0.010002371411802463,0.24858416458402444,-0.00624222769844246,-3.303539930814975e-06,2.0593678842217855e-06,0.006242228912301631,-0.006937826612222231,-0.00025975942382089036,0.0017825733137100531,min_task,none,false,false,7.322612317597503,7.322612317597503,6.999999999827888,6.999999999827888,6.999999999827843,6.999999999827843,7.405559058976171,7.405559058976171,0.01014907663427825,-0.034133159213087794,-0.008906028874599473,-0.0003602138460242082,0.0003466191573688099,4.0592867844787834e-05,0.16992559976231542,-0.015998393670748356,-0.29237071803475967,-0.0018106009086892223,-0.31844134940828034,-0.91795002744499,0.06084371387257415,0.04334897754697957,-0.055718031537025106,-0.006937826612222231,-0.00025975942382089036,0.0017825733137100531,0.006696188434160757,0.3703750006274588,0.8248007722882074,-0.0049718718126076766,0.0033229501790116053,0.003307828364876662,7.322612317597503,7.322612317597503,6.999999999827888,6.999999999827888,6.999999999827843,6.999999999827843,7.405559058976171,7.405559058976171,1.207182101058661,1.207182101058661,1.1973722419720645,1.1973722419720645,1.1970002854008774,1.1970002854008774,1.2068131680260108,1.2068131680260108,0.01014907663427825,-0.034133159213087794,-0.008906028874599473,-0.0003602138460242082,0.0003466191573688099,4.0592867844787834e-05
28.0,0.5400000000000001,0.15512228352444118,0.010011722499224822,0.248588346520593,0.1489700626911914,0.010002371411802463,0.24858416458402444,-0.0061522208332497885,-9.35108742235874e-06,-4.1819365685646925e-06,0.006152229361174872,-0.007147989204036819,-0.00030266082638553585,0.0013808695976981105,min_task,none,false,false,7.30675415742574,7.30675415742574,6.999999999866723,6.999999999866723,6.999999999866681,6.999999999866681,7.3769952069971705,7.3769952069971705,0.005227783876498127,0.032855516564161795,-0.023640724542830262,0.00031163263770748735,2.3361109750586503e-05,7.19345507367359e-05,0.161782884903921,-0.013290985373881077,-0.24147729985173477,-0.0032514814249710393,-0.08645938193187977,-0.7674621976791018,0.07132866444972488,0.036826199351392364,-0.062375947688782137,-0.007147989204036819,-0.00030266082638553585,0.0013808695976981105,0.006668783653212212,0.35573778443733256,0.8158169512372315,-0.005801685693547985,0.003733125958230589,0.0038208751584645076,7.30675415742574,7.30675415742574,6.999999999866723,6.999999999866723,6.999999999866681,6.999999999866681,7.3769952069971705,7.3769952069971705,1.207361048041142,1.207361048041142,1.1972542686101992,1.1972542686101992,1.1968219643956217,1.1968219643956217,1.206932363921631,1.206932363921631,0.005227783876498127,0.032855516564161795,-0.023640724542830262,0.00031163263770748735,2.3361109750586503e-05,7.19345507367359e-05
29.0,0.5600000000000002,0.1608708786448661,0.010018421030376395,0.2485944793069458,0.15484911088319142,0.010002371411802463,0.24858416458402444,-0.006021767761674679,-1.604961857393228e-05,-1.031472292137292e-05,0.006021797983933851,-0.007309218020696745,-0.0003474521265540874,0.0009534574326261018,min_task,none,false,false,7.285927142034494,7.285927142034494,6.999999999905476,6.999999999905476,6.999999999905442,6.999999999905442,7.340377816610769,7.340377816610769,1.8365134066516357e-05,0.10140934867463852,-0.038253407984660356,0.000993770403262203,-0.0003202338509055928,0.00010264775455121671,0.15084668630347628,-0.009955692387471762,-0.18653218900974808,-0.004078358811169297,0.15531099939133985,-0.5934271650821591,0.08071482597521047,0.0289127415136329,-0.0679731115419956,-0.007309218020696745,-0.0003474521265540874,0.0009534574326261018,0.006611354287077989,0.3412840438480281,0.8066878956371275,-0.006670007364703762,0.004157668483589631,0.00436018196597875,7.285927142034494,7.285927142034494,6.999999999905476,6.999999999905476,6.999999999905442,6.999999999905442,7.340377816610769,7.340377816610769,1.2075065837227108,1.2075065837227108,1.1971720867270415,1.1971720867270415,1.1966768513249602,1.1966768513249602,1.2070155885457046,1.2070155885457046,1.8365134066516357e-05,0.10140934867463852,-0.038253407984660356,0.000993770403262203,-0.0003202338509055928,0.00010264775455121671
30.0,0.5800000000000002,0.16646725111996707,0.010025621794538057,0.2486004626469884,0.16061471011519143,0.010002371411802463,0.24858416458402444,-0.005852541004775641,-2.325038273559392e-05,-1.62980629639653e-05,0.0058526098810474285,-0.007416823439247163,-0.00039325534467393394,0.0005054069766422108,min_task,none,false,false,7.259460673020945,7.259460673020945,6.99999999994172,6.99999999994172,6.999999999941696,6.999999999941696,7.29555758666397,7.29555758666397,-0.005415848923575019,0.17082162429442024,-0.05262510858372489,0.0016792271822459613,-0.0006794280051657555,0.00013246214663792283,0.13693244369785812,-0.006101147946258158,-0.12833746241177532,-0.00417977490802917,0.4042349261639098,-0.3980309695652059,0.08849804751639932,0.01983205826945309,-0.07212390524061728,-0.007416823439247163,-0.00039325534467393394,0.0005054069766422108,0.00652130141565856,0.32712819285218575,0.7975036806696405,-0.0075514709485605,0.004590279947639958,0.004908642825253878,7.259460673020945,7.259460673020945,6.99999999994172,6.99999999994172,6.999999999941696,6.999999999941696,7.29555758666397,7.29555758666397,1.2076147728934583,1.2076147728934583,1.197128380208703,1.197128380208703,1.1965688619509516,1.1965688619509516,1.2070601154872118,1.2070601154872118,-0.005415848923575019,0.17082162429442024,-0.05262510858372489,0.0016792271822459613,-0.0006794280051657555,0.00013246214663792283
31.0,0.6000000000000002,0.17187734912859826,0.01003316086915864,0.2486062590903959,0.16623076438719142,0.010002371411802463,0.24858416458402444,-0.005646584741406835,-3.078945735617705e-05,-2.209450637147281e-05,0.0056467119104647604,-0.0074668450519678005,-0.00043912660860075846,4.160937737553329e-05,min_task,none,false,false,7.226859950684548,7.226859950684548,6.999999999973249,6.999999999973249,6.9999999999732365,6.9999999999732365,7.242693935280271,7.242693935280271,-0.011000977305097064,0.24028356312329976,-0.0666239069077016,0.002360602512523096,-0.0010479577047965176,0.0001610871466817276,0.11995648117013974,-0.0018629490798019728,-0.06768081083044052,-0.003542584346049083,0.6572133014887375,-0.18430284205376984,0.09424449395459637,0.009886052607274069,-0.07450198437929875,-0.0074668450519678005,-0.00043912660860075846,4.160937737553329e-05,0.006396217695641481,0.3133844452846595,0.7883607522691375,-0.008418381315075751,0.005024265928857553,0.005447093528292368,7.226859950684548,7.226859950684548,6.999999999973249,6.999999999973249,6.9999999999732365,6.9999999999732365,7.242693935280271,7.242693935280271,1.2076821546571461,1.2076821546571461,1.197125275173751,1.197125275173751,1.1965014448699567,1.1965014448699567,1.2070637803336626,1.2070637803336626,-0.011000977305097064,0.24028356312329976,-0.0666239069077016,0.002360602512523096,-0.0010479577047965176,0.0001610871466817276
32.0,0.6200000000000002,0.17706893447973604,0.010040861026772886,0.248611834283973,0.17166265225919147,0.010002371411802463,0.24858416458402444,-0.005406282220544567,-3.8489614970422734e-05,-2.7669699948551507e-05,0.005406490036144717,-0.007456186008992486,-0.000484090108641316,-0.00043320494618534933,min_task,none,false,false,7.187841598655015,7.187841598655015,6.999999993755532,6.999999993755532,6.99999999982854,6.99999999982854,7.182255146613616,7.182255146613616,-0.016651772922705043,0.30887933495262804,-0.08010295624091271,0.003029956782888285,-0.0014182379092015133,0.00018821164232446253,0.0999439122887035,0.002603657207987723,-0.0053238314342496824,-0.0022482787540161015,0.9106637569797971,0.043864780205323986,0.09761777077278377,-0.0005679351786095718,-0.07486224523471292,-0.007456186008992486,-0.000484090108641316,-0.00043320494618534933,0.006234325077079866,0.3001650028145395,0.7793599886577,-0.00924214931784284,0.0054528517281361676,0.00595528358645953,7.187841598655015,7.187841598655015,6.999999993755532,6.999999993755532,6.99999999982854,6.99999999982854,7.182255146613616,7.182255146613616,1.2077058619020553,1.2077058619020553,1.1971642703472634,1.1971642703472634,1.1964774639889357,1.1964774639889357,1.2070250538037255,1.2070250538037255,-0.016651772922705043,0.30887933495262804,-0.08010295624091271,0.003029956782888285,-0.0014182379092015133,0.00018821164232446253
33.0,0.6400000000000002,0.18201259800140474,0.010049311457286677,0.24861714555483605,0.1768775954911914,0.010002371411802463,0.24858416458402444,-0.005135002510213343,-4.694004548421414e-05,-3.298097081161355e-05,0.005135322958899769,-0.00738323048759012,-0.0005248901969536764,-0.0008626642183139306,min_task,none,false,false,29.955767537349427,29.955767537352497,30.035485536528437,30.035485536535226,29.994179800826647,29.994179800825325,29.91459716646688,29.91459716646908,-0.022271404241092606,0.37558570145967346,-0.09289950660833567,0.00367866168432273,-0.0017817103896543632,0.0002135058889234409,0.07406304185441016,0.023557851216403632,0.24526407770604036,-0.00046442403369353734,1.160519377770364,0.28172656844544247,0.09840285290592138,-0.011149070101593926,-0.07305697461842062,-0.00738323048759012,-0.0005248901969536764,-0.0008626642183139306,0.006074957468620925,0.28757468605678604,0.7706018244618286,-0.009941761271177532,0.005866460032387305,0.006371800861765814,29.955767537349427,29.955767537352497,30.035485536528437,30.035485536535226,29.994179800826647,29.994179800825325,29.91459716646688,29.91459716646908,1.2076825087630811,1.2076825087630811,1.1972442461685775,1.1972442461685775,1.1965003049501148,1.1965003049501148,1.2069450015366243,1.2069450015366243,-0.022271404241092606,0.37558570145967346,-0.09289950660833567,0.00367866168432273,-0.0017817103896543632,0.0002135058889234409
34.0,0.6600000000000003,0.18668090510534263,0.01005785286651781,0.24862218463041313,0.1818450276831914,0.010002371411802463,0.24858416458402444,-0.004835877422151219,-5.548145471534656e-05,-3.802004638869816e-05,0.0048363451239357026,-0.007247369077733747,-0.0005596328474083421,-0.0012288343002971266,min_task,none,false,false,12.472334692585285,12.472334692585306,12.461423417864626,12.461423417864658,12.415829356894234,12.415829356894225,12.427079407872942,12.42707940787295,-0.027783973502107935,0.44015749234128837,-0.10502119509132779,0.00435592911346908,-0.0022259598241061293,0.00023719871343093587,0.048151346847151395,0.021460297589816383,0.20255612015644858,0.0023641003725234466,1.4053741565682536,0.525456649925369,0.08967273213914347,-0.031502591425025386,-0.061645882141562004,-0.007247369077733747,-0.0005596328474083421,-0.0012288343002971266,0.005926296987369346,0.2757139816340508,0.762187524805576,-0.010460502919877997,0.00625490610135979,0.00665292766996593,12.472334692585285,12.472334692585306,12.461423417864626,12.461423417864658,12.415829356894234,12.415829356894225,12.427079407872942,12.42707940787295,1.2076103387116737,1.2076103387116737,1.197364296861393,1.197364296861393,1.1965717074006685,1.1965717074006685,1.2068244784212392,1.2068244784212392,-0.027783973502107935,0.44015749234128837,-0.10502119509132779,0.00435592911346908,-0.0022259598241061293,0.00023719871343093587
35.0,0.6800000000000003,0.1910484087564447,0.0100651345325783,0.24862693436201097,0.18653696291519145,0.010002371411802463,0.24858416458402444,-0.0045114458412532366,-6.276312077583765e-05,-4.276977798653436e-05,0.004512085110212313,-0.007048495676738767,-0.0005890503141695246,-0.0015848173878098642,min_task,none,false,false,8.4530610679642,8.453061067964196,8.472584649719765,8.472584649719742,8.429495914412175,8.42949591441217,8.410280535576845,8.410280535576849,-0.033044018314593325,0.5000143636541268,-0.11598915905184215,0.00492504423665091,-0.00256031101347925,0.0002578336210720868,0.02125257535822117,0.019592438351480262,0.19570686837959964,0.004458510659537745,1.6354491389313623,0.7660466290362259,0.07770152743919832,-0.04206345882116129,-0.049301321735595115,-0.007048495676738767,-0.0005890503141695246,-0.0015848173878098642,0.005739825206386203,0.26467945063101755,0.7542184534529025,-0.0108067325096115,0.006612360919541671,0.006805263142865147,8.4530610679642,8.453061067964196,8.472584649719765,8.472584649719742,8.429495914412175,8.42949591441217,8.410280535576845,8.410280535576849,1.2074897687832054,1.2074897687832054,1.1975249855356407,1.1975249855356407,1.196691280913508,1.196691280913508,1.2066629490244551,1.2066629490244551,-0.033044018314593325,0.5000143636541268,-0.11598915905184215,0.00492504423665091,-0.00256031101347925,0.0002578336210720868
36.0,0.7000000000000003,0.19509304682339423,0.010070854677435298,0.24863135190928054,0.1909283643871914,0.010002371411802463,0.24858416458402444,-0.004164682436202827,-6.848326563283456e-05,-4.718732525610392e-05,0.004165512741038355,-0.006787376256415845,-0.0006137209588050619,-0.0019514227556049514,min_task,none,false,false,6.999999999993373,6.999999999993373,7.114228907730645,7.114228907730645,7.0324991168974975,7.0324991168974975,6.999999999993368,6.999999999993368,-0.037906402031616764,0.5538957097992583,-0.1255983407598552,0.005425444388122397,-0.002824345557888278,0.00027529781941839737,-0.006063884163826375,0.018542434993156887,0.2104668790859862,0.006029684452813153,1.8456150545536858,0.996882185344999,0.06562021253500189,-0.04808757234910043,-0.03757640627472486,-0.006787376256415845,-0.0006137209588050619,-0.0019514227556049514,0.005500032413783456,0.2545576213288944,0.7467902995415234,-0.01099614307176888,0.006936632452389174,0.006841293384673891,6.999999999993373,6.999999999993373,7.114228907730645,7.114228907730645,7.0324991168974975,7.0324991168974975,6.999999999993368,6.999999999993368,1.2073217644095675,1.2073217644095675,1.1977261945930078,1.1977261945930078,1.1968581086630232,1.1968581086630232,1.2064605828104014,1.2064605828104014,-0.037906402031616764,0.5538957097992583,-0.1255983407598552,0.005425444388122397,-0.002824345557888278,0.00027529781941839737
37.0,0.7200000000000003,0.1987966093063273,0.01007517400853941,0.24863541589443494,0.19499751305919139,0.010002371411802463,0.24858416458402444,-0.0037990962471359246,-7.28025967369466e-05,-5.125131041050501e-05,0.0038001393671696707,-0.00646551291019408,-0.0006337811389867467,-0.0023318392746894006,min_task,none,false,false,6.999999999996056,6.999999999996056,7.180636421641531,7.180636421641531,7.092792614309049,7.092792614309049,6.999999999996052,6.999999999996052,-0.042229915508207753,0.6005906396144605,-0.1336666430154893,0.005861559462859399,-0.00303372145372711,0.00028942029745670665,-0.03243292415215048,0.019861046401024565,0.26045311004764865,0.007357407045734609,2.0308297057018,1.211020461831106,0.05408484770556112,-0.051767522707908305,-0.026646116475511475,-0.00646551291019408,-0.0006337811389867467,-0.0023318392746894006,0.005207452257765444,0.24542302327776722,0.739990383935829,-0.011037861489729564,0.0072267559178203,0.006768226840238521,6.999999999996056,6.999999999996056,7.180636421641531,7.180636421641531,7.092792614309049,7.092792614309049,6.999999999996052,6.999999999996052,1.2071075187640028,1.2071075187640028,1.1979669948251772,1.1979669948251772,1.1970710545736307,1.1970710545736307,1.2062183678190883,1.2062183678190883,-0.042229915508207753,0.6005906396144605,-0.1336666430154893,0.005861559462859399,-0.00303372145372711,0.00028942029745670665
38.0,0.7400000000000003,0.20214503922975205,0.010078334055781993,0.24863912371187014,0.19872637629119144,0.010002371411802463,0.24858416458402444,-0.003418662938560607,-7.596264397953002e-05,-5.495912784569956e-05,0.0034199484084561516,-0.0060851448383002086,-0.0006490778572018169,-0.0027193444650940547,min_task,none,false,false,6.999999999963104,6.999999999963104,7.244397011314444,7.244397011314444,7.150513641621591,7.150513641621591,6.9999999999630775,6.9999999999630775,-0.04587558303486579,0.6388976288247095,-0.14002135319650777,0.006230525534077142,-0.0032013102842542163,0.0003000145882441214,-0.05796475510009795,0.021145217561224266,0.3127076527726232,0.008696192588816437,2.186015152324223,1.4013012556934286,0.04232241857115336,-0.05491213773304112,-0.015577084907751398,-0.0060851448383002086,-0.0006490778572018169,-0.0027193444650940547,0.004871429488423885,0.23733618087370503,0.7338948040060158,-0.010934993146022228,0.007482135291044087,0.006588274349428691,6.999999999963104,6.999999999963104,7.244397011314444,7.244397011314444,7.150513641621591,7.150513641621591,6.9999999999630775,6.9999999999630775,1.206848548921812,1.206848548921812,1.1982457406752662,1.1982457406752662,1.1973286589081171,1.1973286589081171,1.2059380093648993,1.2059380093648993,-0.04587558303486579,0.6388976288247095,-0.14002135319650777,0.006230525534077142,-0.0032013102842542163,0.0003000145882441214
39.0,0.7600000000000003,0.20512872083286599,0.010080461675255064,0.24864246717143268,0.20210097648319136,0.010002371411802463,0.24858416458402444,-0.0030277443496746215,-7.809026345260116e-05,-5.8302587408243234e-05,0.0030293123193112967,-0.005649332440649569,-0.0006594506082001633,-0.0031046500457893016,min_task,none,false,false,6.99999999993238,6.99999999993238,7.303941345955059,7.303941345955059,7.204629366039044,7.204629366039044,6.999999999932329,6.999999999932329,-0.04872455536368261,0.6675464425684583,-0.14446025861427592,0.0065173866037810625,-0.003319844471623489,0.0003067325984799493,-0.08212998556142369,0.022285529200754314,0.36629992417929125,0.009791982497951357,2.3059014207878503,1.5607084685416626,0.030079891090112797,-0.057297116929689446,-0.004258956575976039,-0.005649332440649569,-0.0006594506082001633,-0.0031046500457893016,0.004503869706761882,0.23034139948712626,0.7285654347241874,-0.010690155331409146,0.007702463579138606,0.006303056516447615,6.99999999993238,6.99999999993238,7.303941345955059,7.303941345955059,7.204629366039044,7.204629366039044,6.999999999932329,6.999999999932329,1.2065469465570906,1.2065469465570906,1.1985602025747712,1.1985602025747712,1.1976288860596676,1.1976288860596676,1.2056217996431062,1.2056217996431062,-0.04872455536368261,0.6675464425684583,-0.14446025861427592,0.0065173866037810625,-0.003319844471623489,0.0003067325984799493
40.0,0.7800000000000004,0.20774284251497782,0.010081608024627006,0.24864542479663243,0.2051117597151914,0.010002371411802463,0.24858416458402444,-0.0026310827997864106,-7.923661282454274e-05,-6.126021260799419e-05,0.002632988407455031,-0.00516196646402805,-0.00066476413985228,-0.0034762126076067087,min_task,none,false,false,6.999999999999781,6.999999999999781,7.357673594967108,7.357673594967108,7.254296522684508,7.254296522684508,6.999999999999779,6.999999999999779,-0.050665917582789044,0.6853161563165296,-0.14678311064581165,0.006706750089817829,-0.003383733785970514,0.0003092383696084787,-0.10442831635811303,0.023129182534147447,0.4199174080602896,0.0104861824279414,2.385475641514309,1.682742596221555,0.01721631155907583,-0.058769140730264756,0.007342031262246747,-0.00516196646402805,-0.00066476413985228,-0.0034762126076067087,0.004118959359680089,0.22446469550517442,0.7240472159180993,-0.010306330768823271,0.007887834904270438,0.005914286175598062,6.999999999999781,6.999999999999781,7.357673594967108,7.357673594967108,7.254296522684508,7.254296522684508,6.999999999999779,6.999999999999779,1.2062054035900769,1.2062054035900769,1.1989075796094046,1.1989075796094046,1.1979690940894634,1.1979690940894634,1.2052726005342314,1.2052726005342314,-0.050665917582789044,0.6853161563165296,-0.14678311064581165,0.006706750089817829,-0.003383733785970514,0.0003092383696084787
41.0,0.8000000000000004,0.20998776567293537,0.010081779702791279,0.24864795272024445,0.20775396438719135,0.010002371411802463,0.24858416458402444,-0.0022338012857440193,-7.940829098881594e-05,-6.378813622001656e-05,0.002236122265707272,-0.004627780085396789,-0.0006649506760172718,-0.00382068413300752,min_task,none,false,false,6.999999999841018,6.999999999841018,7.404127999010441,7.404127999010441,7.2989370175456445,7.2989370175456445,6.999999999840894,6.999999999840894,-0.051602326994034144,0.6910762572312145,-0.14679607931586186,0.006783199008130687,-0.0033889714972399954,0.00030720351496335384,-0.12443511210252245,0.023496626755986193,0.4719065110056296,0.010668486663550213,2.420176727021832,1.7617587973590882,0.0037132245569600807,-0.0592479367587473,0.019173516708678895,-0.004627780085396789,-0.0006649506760172718,-0.00382068413300752,0.003732803674572471,0.21971187806372316,0.7203657558258028,-0.009788056033688333,0.00803882268099187,0.005424778842767987,6.999999999841018,6.999999999841018,7.404127999010441,7.404127999010441,7.2989370175456445,7.2989370175456445,6.999999999840894,6.999999999840894,1.2058272469427658,1.2058272469427658,1.1992845169419446,1.1992845169419446,1.1983459959927945,1.1983459959927945,1.2048938222950847,1.2048938222950847,-0.051602326994034144,0.6910762572312145,-0.14679607931586186,0.006783199008130687,-0.0033889714972399954,0.00030720351496335384
42.0,0.8200000000000004,0.2118693995347285,0.010080964168577277,0.24864997521698812,0.2100279898591914,0.010002371411802463,0.24858416458402444,-0.0018414096755370868,-7.859275677481355e-05,-6.581063296368095e-05,0.0018442606795109374,-0.004052371962907737,-0.0006600564364006629,-0.004123482088098965,min_task,none,false,false,6.999999999783053,6.999999999783053,7.442130901999996,7.442130901999996,7.338287112225081,7.338287112225081,6.999999999782884,6.999999999782884,-0.05145391501919355,0.6838254170814823,-0.14431626412498755,0.00673195824694991,-0.0033329268201337304,0.00030030773181056206,-0.14184389228529712,0.023204606168241795,0.5203395241956408,0.010264556821357487,2.406080569774575,1.7932785668253433,-0.010292269018999349,-0.05871038215607323,0.031065916913690397,-0.004052371962907737,-0.0006600564364006629,-0.004123482088098965,0.003362973245644798,0.21606682600446972,0.7175253505134516,-0.00914279264743096,0.008156523169320124,0.004839660630932191,6.999999999783053,6.999999999783053,7.442130901999996,7.442130901999996,7.338287112225081,7.338287112225081,6.999999999782884,6.999999999782884,1.2054164849466136,1.2054164849466136,1.1996871191283225,1.1996871191283225,1.1987556108120052,1.1987556108120052,1.2044894075216683,1.2044894075216683,-0.05145391501919355,0.6838254170814823,-0.14431626412498755,0.00673195824694991,-0.0033329268201337304,0.00030030773181056206
43.0,0.8400000000000004,0.2133995810879088,0.01007915014921842,0.24865137649550306,0.21193976509119145,0.010002371411802463,0.24858416458402444,-0.0014598159967173507,-7.677873741595599e-05,-6.721191147862626e-05,0.00146337799622506,-0.003442246323935987,-0.0006502861052118275,-0.004369446432768912,min_task,none,false,false,7.000000000000461,7.000000000000461,7.470939806660174,7.470939806660174,7.372402860081903,7.372402860081903,7.000000000000461,7.000000000000461,-0.05016070923072146,0.662722911432722,-0.1391755684372418,0.006539585032514542,-0.0032141395594956655,0.00028824021908021284,-0.15649552237878647,0.02209332823003021,0.5631037051393144,0.009230085317990864,2.340049310932468,1.7742336976039905,-0.02448843347082139,-0.05717898127876768,0.04271433335222377,-0.003442246323935987,-0.0006502861052118275,-0.004369446432768912,0.0030279813928679646,0.21349000127301668,0.7155075039769777,-0.008382304593066651,0.008242573091384495,0.0041676084893518565,7.000000000000461,7.000000000000461,7.470939806660174,7.470939806660174,7.372402860081903,7.372402860081903,7.000000000000461,7.000000000000461,1.2049778656085448,1.2049778656085448,1.20011095093768,1.20011095093768,1.1991932048156686,1.1991932048156686,1.2040638290896608,1.2040638290896608,-0.05016070923072146,0.662722911432722,-0.1391755684372418,0.006539585032514542,-0.0032141395594956655,0.00028824021908021284
44.0,0.8600000000000004,0.21459645833942548,0.01007634298788679,0.24865199560904003,0.21350111728319132,0.010002371411802463,0.24858416458402444,-0.001095341056234156,-7.397157608432688e-05,-6.783102501559113e-05,0.0010999294847831025,-0.0028048721454599877,-0.0006360383561965103,-0.004543542029241311,min_task,none,false,false,6.999999999660816,6.999999999660816,7.490329850307458,7.490329850307458,7.4016084114418765,7.4016084114418765,6.999999999660559,6.999999999660559,-0.04768333111871232,0.6271076629829622,-0.1312233883712333,0.006194606677425238,-0.0030320756996889474,0.0002707010835018442,-0.16838539488055537,0.02005444540184406,0.598005623307951,0.0075469301011102385,2.2198199534524092,1.7031035463607795,-0.03838867345059771,-0.054712662573730295,0.053677704456380676,-0.0028048721454599877,-0.0006360383561965103,-0.004543542029241311,0.0027467321058934555,0.21191723451427544,0.714270009414326,-0.007523859213514519,0.008299153637864688,0.003421942665568792,6.999999999660816,6.999999999660816,7.490329850307458,7.490329850307458,7.4016084114418765,7.4016084114418765,6.999999999660559,6.999999999660559,1.204516943523782,1.204516943523782,1.2005510195973177,1.2005510195973177,1.1996532260250905,1.1996532260250905,1.2036221081768652,1.2036221081768652,-0.04768333111871232,0.6271076629829622,-0.1312233883712333,0.006194606677425238,-0.0030320756996889474,0.0002707010835018442
45.0,0.8800000000000004,0.21548487451863507,0.010072574654989088,0.24865162620811843,0.21473014051519163,0.010002371411802463,0.24858416458402444,-0.0007547340034434469,-7.020324318662494e-05,-6.746162409398959e-05,0.0007609881615590955,-0.002148757930044473,-0.0006179258045177269,-0.004631559614124498,min_task,none,false,false,6.999999999596236,6.999999999596236,7.500604136518185,7.500604136518185,7.4263817091172974,7.4263817091172974,6.999999999595935,6.999999999595935,-0.04400181477232341,0.576500763405277,-0.12032764986382016,0.005688030445920589,-0.002786826556917809,0.00024740218104049393,-0.17764265911032368,0.017056182506741055,0.6228815649194546,0.005219730315551705,2.0440122762041457,1.5799141275017277,-0.05135233216049375,-0.05139796907982915,0.06339686540328678,-0.002148757930044473,-0.0006179258045177269,-0.004631559614124498,0.002537983442430291,0.2112588090563137,0.7137466179692781,-0.006591069824884987,0.008328993328260183,0.002621390620544471,6.999999999596236,6.999999999596236,7.500604136518185,7.500604136518185,7.4263817091172974,7.4263817091172974,6.999999999595935,6.999999999595935,1.2040401482514644,1.2040401482514644,1.2010017363189684,1.2010017363189684,1.2001292389439326,1.2001292389439326,1.2031698542302223,1.2031698542302223,-0.04400181477232341,0.576500763405277,-0.12032764986382016,0.005688030445920589,-0.002786826556917809,0.00024740218104049393
46.0,0.9000000000000005,0.21609675047845653,0.010067908304898975,0.2486500223794122,0.2156515643871914,0.010002371411802463,0.24858416458402444,-0.00044518609126512065,-6.55368930965114e-05,-6.585779538775816e-05,0.00045477795617861216,-0.0014835325287710314,-0.0005967738899853061,-0.0046207671490822375,min_task,none,false,false,6.999999999539481,6.999999999539481,7.502515872352556,7.502515872352556,7.447184117749827,7.447184117749827,6.999999999539148,6.999999999539148,-0.0391125239396203,0.5105888114298047,-0.10637387632056344,0.005013657604299501,-0.0024787563342156932,0.00021806704350454525,-0.18448031477307564,0.013161845543818785,0.6357032478128826,0.0022729237084139417,1.812043535393495,1.406079376676237,-0.06262750817237046,-0.047339159562730285,0.07123173451462136,-0.0014835325287710314,-0.0005967738899853061,-0.0046207671490822375,0.002419863113324434,0.21139885443362008,0.7138472773871207,-0.005614207513988998,0.00833537797954737,0.001790355771590081,6.999999999539481,6.999999999539481,7.502515872352556,7.502515872352556,7.447184117749827,7.447184117749827,6.999999999539148,6.999999999539148,1.2035548432749106,1.2035548432749106,1.2014568598763657,1.2014568598763657,1.2006138696999207,1.2006138696999207,1.2027133235905951,1.2027133235905951,-0.0391125239396203,0.5105888114298047,-0.10637387632056344,0.005013657604299501,-0.0024787563342156932,0.00021806704350454525
47.0,0.9200000000000005,0.21647146264884487,0.01006243888153071,0.24864691156584667,0.21629712265919154,0.010002371411802463,0.24858416458402444,-0.0001743399896533271,-6.0067469728246337e-05,-6.274698182223704e-05,0.000194781201966915,-0.0008200133397208549,-0.0005735918081583437,-0.004500502105495868,task_stack_only,none,false,false,6.999999999059802,6.999999999059802,7.497104867190643,7.497104867190643,7.464251144892785,7.464251144892785,6.999999999059145,6.999999999059145,-0.033041505270008514,0.42923776352030096,-0.0892714507790898,0.004175331693921614,-0.002101821651059762,0.0001823778183890886,-0.18912003054059154,0.00853878849035542,0.6346713663592081,-0.0030072783179427645,1.5238956405990611,1.1840179444230459,-0.06566719141781507,-0.04288701901538425,0.0719407187975469,-0.0008200133397208549,-0.0005735918081583437,-0.004500502105495868,0.0024090223142266844,0.21219503974937515,0.7144588681300437,-0.0046284952378217534,0.00832211502943149,0.0009574877845134173,6.999999999059802,6.999999999059802,7.497104867190643,7.497104867190643,7.464251144892785,7.464251144892785,6.999999999059145,6.999999999059145,1.2030693571258844,1.2030693571258844,1.2019094303865403,1.2019094303865403,1.2010987792411578,1.2010987792411578,1.202259488088071,1.202259488088071,-0.033041505270008514,0.42923776352030096,-0.0892714507790898,0.004175331693921614,-0.002101821651059762,0.0001823778183890886
48.0,0.9400000000000005,0.21665621316718742,0.010056285753000185,0.24864201243368905,0.21670592189119153,0.010002371411802463,0.24858416458402444,4.970872400411608e-05,-5.391434119772151e-05,-5.78478496646162e-05,9.340282190448934e-05,-0.00017025748387669218,-0.0005495247897466569,-0.004262530403698355,task_stack_only,none,false,false,6.999999999017455,6.999999999017455,7.485470766549071,7.485470766549071,7.477391640504777,7.477391640504777,6.999999999016794,6.999999999016794,-0.025759450568150512,0.3322312152035424,-0.06891227236558438,0.003159502587697903,-0.0016665952332313052,0.0001402129441801104,-0.1917057403610852,0.003452783154217479,0.6182967126010843,-0.006818219338182695,1.180046169463348,0.9169186771728322,-0.07111354206352041,-0.037409891380611626,0.07398715492838753,-0.00017025748387669218,-0.0005495247897466569,-0.004262530403698355,0.002520870400083472,0.21347852169481843,0.7154463118941501,-0.003674501443556634,0.008293668770486233,0.00015585120003880614,6.999999999017455,6.999999999017455,7.485470766549071,7.485470766549071,7.477391640504777,7.477391640504777,6.999999999016794,6.999999999016794,1.2025929895535632,1.2025929895535632,1.2023517025956871,1.2023517025956871,1.20157466055572,1.20157466055572,1.2018161035192625,1.2018161035192625,-0.025759450568150512,0.3322312152035424,-0.06891227236558438,0.003159502587697903,-0.0016665952332313052,0.0001402129441801104
49.0,0.9600000000000005,0.2167063897126692,0.010049581723899132,0.24863505821818946,0.21692481008319142,0.010002371411802463,0.24858416458402444,0.00021842037052222096,-4.721031209666861e-05,-5.089363416502235e-05,0.00022918646082579195,0.0004524323581581783,-0.0005257846559564869,-0.0039012596548201823,min_task,none,false,false,6.999999999476229,6.999999999476229,7.468473520292499,7.468473520292499,7.485723407257646,7.485723407257646,6.99999999947589,6.99999999947589,-0.017291375440463535,0.21946340063744263,-0.04520507611937902,0.0019630099995237844,-0.0011771984744326056,9.122094057946425e-05,-0.19218950169653326,-0.0017394779619722637,0.585445810770311,-0.009696064084258913,0.7808418776690229,0.6078158672342271,-0.07888129374722144,-0.03169318359634082,0.07726983601913562,0.0004524323581581783,-0.0005257846559564869,-0.0039012596548201823,0.0027698679301534673,0.21505408297050171,0.7166538655453748,-0.002798419227493117,0.00825513633349989,-0.0005770663173377704,6.999999999476229,6.999999999476229,7.468473520292499,7.468473520292499,7.485723407257646,7.485723407257646,6.99999999947589,6.99999999947589,1.2021359702800702,1.2021359702800702,1.2027750963477613,1.2027750963477613,1.202031282093954,1.202031282093954,1.201391760326029,1.201391760326029,-0.017291375440463535,0.21946340063744263,-0.04520507611937902,0.0019630099995237844,-0.0011771984744326056,9.122094057946425e-05
50.0,0.9800000000000005,0.21668591542817167,0.010042466705602148,0.24862582605733186,0.21700874531519126,0.010002371411802463,0.24858416458402444,0.00032282988701959336,-4.009529379968464e-05,-4.166147330741943e-05,0.00032796714301300256,0.0010335775667765195,-0.0005035433847964682,-0.003413865644125775,task_stack_only,none,false,false,6.999999999077328,6.999999999077328,7.4464894150304985,7.4464894150304985,7.487603133859011,7.487603133859011,6.999999999076756,6.999999999076756,-0.007658195605934282,0.09086895933746891,-0.018089114552829782,0.0006188630344302827,-0.0006015481577052196,3.518841465436565e-05,-0.1902677088328189,-0.006625977480590684,0.5353757204694901,-0.01551184082362944,0.3260781681161907,0.25881743949887737,-0.07056630444272302,-0.024988463633288438,0.06724922181407068,0.0010335775667765195,-0.0005035433847964682,-0.003413865644125775,0.003168160294985466,0.21670034167488772,0.7179063229573849,-0.0020451295597989838,0.00821225764800394,-0.0012051243847210887,6.999999999077328,6.999999999077328,7.4464894150304985,7.4464894150304985,7.487603133859011,7.487603133859011,6.999999999076756,6.999999999076756,1.2017093381500497,1.2017093381500497,1.2031701747143402,1.2031701747143402,1.2024576096313806,1.2024576096313806,1.200995906335783,1.200995906335783,-0.007658195605934282,0.09086895933746891,-0.018089114552829782,0.0006188630344302827,-0.0006015481577052196,3.518841465436565e-05
51.0,1.0000000000000004,0.21666758336919156,0.010035069109106162,0.2486141645459204,0.21702116438719138,0.010002371411802463,0.24858416458402444,0.00035358101799981556,-3.269769730369909e-05,-2.9999961895954552e-05,0.0003563547016843035,0.0015576404408791365,-0.00048383377900997044,-0.0028001114292174212,min_task,none,false,false,6.999999999564177,6.999999999564177,7.419150066440986,7.419150066440986,7.480608486333369,7.480608486333369,6.999999999563919,6.999999999563919,0.0031856127737767766,-0.05411476608711317,0.012591058299536174,-0.000912212480065887,2.27799216945932e-05,-2.829516296118277e-05,-0.18532456645621317,-0.010788997726002945,0.46776480453872693,-0.01951878603505958,-0.18511615705165377,-0.12921739090255335,-0.0697198491625282,-0.01872214852713727,0.062421473519028554,0.0015576404408791365,-0.00048383377900997044,-0.0028001114292174212,0.003725660527060677,0.2181698430754136,0.7190098090695716,-0.0014568428230875387,0.008171157320644341,-0.0016948881684864141,6.999999999564177,6.999999999564177,7.419150066440986,7.419150066440986,7.480608486333369,7.480608486333369,6.999999999563919,6.999999999563919,1.2013247915700442,1.2013247915700442,1.2035266607481634,1.2035266607481634,1.2028419556235403,1.2028419556235403,1.200638830755298,1.200638830755298,0.0031856127737767766,-0.05411476608711317,0.012591058299536174,-0.000912212480065887,2.27799216945932e-05,-2.829516296118277e-05
52.0,1.0200000000000005,0.2166773895094416,0.010080671180038957,0.2486010167361947,0.21702116438719138,0.010014790483802464,0.24858416458402444,0.00034377487774978066,-6.588069623649287e-05,-1.685215217026026e-05,0.0003504360537120164,0.0020217465123266885,-0.000467702739305375,-0.002119441336566514,min_task,none,false,false,6.999999999647819,6.999999999647819,7.385147698675379,7.385147698675379,7.461487072536758,7.461487072536758,6.999999999647617,6.999999999647617,-0.013554611335483472,-0.019052863506537777,0.008457557628767223,-0.0028776694320532563,0.006446839355426458,-9.539680994455571e-05,-0.17638247116927877,-0.013834571693347479,0.38271251287563046,-0.5045644315079711,-0.08744242895943703,-0.03939913044672172,-0.17659402557576664,0.465860574444673,0.04932124565995654,0.0020217465123266885,-0.000467702739305375,-0.002119441336566514,0.004279507762430727,0.21938282810296636,0.7199059485272286,-0.0011021951128227145,0.008257897277231694,-0.0020090068847366184,6.999999999647819,6.999999999647819,7.385147698675379,7.385147698675379,7.461487072536758,7.461487072536758,6.999999999647617,6.999999999647617,1.2009851627825523,1.2009851627825523,1.2038433068010146,1.2038433068010146,1.2031815932783088,1.2031815932783088,1.2003218736230552,1.2003218736230552,-0.013554611335483472,-0.019052863506537777,0.008457557628767223,-0.0028776694320532563,0.006446839355426458,-9.539680994455571e-05
53.0,1.0400000000000005,0.2167028967459247,0.010264164338385881,0.24858778446879765,0.21702116438719138,0.010098725715802467,0.24858416458402444,0.0003182676412666896,-0.00016543862258341403,-3.619884773209403e-06,0.000358716228912954,0.002431832923793077,-0.0004558315200047221,-0.0014645341275303977,min_task,none,false,false,6.999999999761642,6.999999999761642,7.3722320643259165,7.3722320643259165,7.450916524495035,7.450916524495035,6.99999999976151,6.99999999976151,-0.026071034349699655,0.003461215256361667,0.006009039370694621,-0.004388158545183692,0.011520598028691223,-0.00014927997321713228,-0.17322447843046218,-0.014337858992230407,0.2891013596345362,-0.8804910009514028,-0.02989998565430009,0.012038198760379362,-0.2532524751239032,0.8476243342343971,0.031280879336146,0.002431832923793077,-0.0004558315200047221,-0.0014645341275303977,0.004564615156346739,0.22039060961204054,0.7206397647253933,-0.0010529781792790736,0.00867035217713795,-0.002118810098700692,6.999999999761642,6.999999999761642,7.3722320643259165,7.3722320643259165,7.450916524495035,7.450916524495035,6.99999999976151,6.99999999976151,1.2006868162655904,1.2006868162655904,1.2041248538716118,1.2041248538716118,1.2034802446859627,1.2034802446859627,1.2000403603179575,1.2000403603179575,-0.026071034349699655,0.003461215256361667,0.006009039370694621,-0.004388158545183692,0.011520598028691223,-0.00014927997321713228
54.0,1.0600000000000005,0.21673623353094848,0.010651704246515582,0.24857531981107184,0.21702116438719138,0.01031761390780247,0.24858416458402444,0.0002849308562428987,-0.0003340903387131118,8.844772952598667e-06,0.00043918125787576157,0.0027916710540103204,-0.00044817068224244875,-0.0009053169541803793,min_task,none,false,false,6.999999999865437,6.999999999865437,7.3646752955984125,7.3646752955984125,7.433924237075568,7.433924237075568,6.9999999998653655,6.9999999998653655,-0.035429948452818626,0.017029117374174983,0.004732706682697342,-0.005562650029060881,0.015546280360926347,-0.00019260785369064123,-0.16966400821056948,-0.012451978486924715,0.19922637877520682,-1.17250436267772,-0.00046760674554149407,0.037193269193424576,-0.3080707933543771,1.1501743702071825,0.010537429227253339,0.0027916710540103204,-0.00044817068224244875,-0.0009053169541803793,0.004376070019892416,0.2212232006671465,0.7212373417447604,-0.0013493473800043326,0.009564542059098124,-0.0020170238521557914,6.999999999865437,6.999999999865437,7.3646752955984125,7.3646752955984125,7.433924237075568,7.433924237075568,6.9999999998653655,6.9999999998653655,1.2004270778221868,1.2004270778221868,1.2043739485711602,1.2043739485711602,1.2037405497693399,1.2037405497693399,1.1997915953743048,1.1997915953743048,-0.035429948452818626,0.017029117374174983,0.004732706682697342,-0.005562650029060881,0.015546280360926347,-0.00019260785369064123
55.0,1.0800000000000005,0.2167723136416339,0.011294968014490467,0.24856419162545257,0.21702116438719138,0.010726413139802476,0.24858416458402444,0.0002488507455574718,-0.0005685548746879911,1.997295857186776e-05,0.0006209510916087517,0.0031044984210715307,-0.00044408833051987436,-0.0004904735004214411,min_task,none,false,false,6.999999999938703,6.999999999938703,7.354068248049165,7.354068248049165,7.40501684140005,7.40501684140005,6.99999999993867,6.99999999993867,-0.04228582151463344,0.02328417826541986,0.004369826065961555,-0.0064907591780890865,0.018730079684586613,-0.00022728416964040861,-0.16290013113900714,-0.00876898399545488,0.12261954892161878,-1.3980238385997246,0.005571933080933575,0.040598116921262584,-0.34708636464621095,1.3891267977508894,-0.010944824342625588,0.0031044984210715307,-0.00044408833051987436,-0.0004904735004214411,0.0035586660965916507,0.22189822428802874,0.7217137214696778,-0.0020060658655270407,0.011063434874841736,-0.0017134365960229966,6.999999999938703,6.999999999938703,7.354068248049165,7.354068248049165,7.40501684140005,7.40501684140005,6.99999999993867,6.99999999993867,1.2002032045410218,1.2002032045410218,1.2045924191850539,1.2045924191850539,1.2039651499930535,1.2039651499930535,1.1995736401864758,1.1995736401864758,-0.04228582151463344,0.02328417826541986,0.004369826065961555,-0.0064907591780890865,0.018730079684586613,-0.00022728416964040861
56.0,1.1000000000000005,0.2168078023405903,0.012234000708836144,0.24855476851002112,0.21702116438719138,0.011371971411802483,0.24858416458402444,0.00021336204660107883,-0.0008620292970336618,2.939607400331834e-05,0.0008885279967682272,0.003373575781646669,-0.00044257921357031163,-0.00024871867133216167,min_task,none,false,false,6.99999999997886,6.99999999997886,7.3379205251499044,7.3379205251499044,7.365674606651802,7.365674606651802,6.999999999978849,6.999999999978849,-0.04705719770901046,0.022926071855362228,0.004794851118308437,-0.00724002602672474,0.02121490462632703,-0.0002547129131787832,-0.15273800003657792,-0.004094329369613628,0.0659760242979734,-1.569317738688435,-0.010292334285244132,0.02355781898883049,-0.3746551046115379,1.5750183766900272,-0.03163904135179657,0.003373575781646669,-0.00044257921357031163,-0.00024871867133216167,0.002000006570901447,0.22242411759051986,0.7220755382653327,-0.0030198238369465746,0.013262944298982783,-0.0012292570121931535,6.99999999997886,6.99999999997886,7.3379205251499044,7.3379205251499044,7.365674606651802,7.365674606651802,6.999999999978849,6.999999999978849,1.2000121607717056,1.2000121607717056,1.2047818382070492,1.2047818382070492,1.2041569685453961,1.2041569685453961,1.199384806149744,1.199384806149744,-0.04705719770901046,0.022926071855362228,0.004794851118308437,-0.00724002602672474,0.02121490462632703,-0.0002547129131787832
57.0,1.1200000000000006,0.21684053026162134,0.013499160525822241,0.2485472299911149,0.21702116438719138,0.012293395283802492,0.24858416458402444,0.00018063412557003944,-0.001205765242019749,3.693459290954326e-05,0.0012197797630460962,0.0036020750058929725,-0.0004424937090311233,-0.0001903714175157901,min_task,none,false,false,6.999999999999201,6.999999999999201,7.317242433942427,7.317242433942427,7.321042445760228,7.321042445760228,6.9999999999992,6.9999999999992,-0.05003535206789475,0.01630966458973781,0.005943879597325983,-0.007861579577797652,0.023101707451668667,-0.0002759735167982646,-0.1404341744558831,0.0007344710407649255,0.0331575908562728,-1.695411374824214,-0.04755422198529144,-0.013516389516159969,-0.3937600137828242,1.715081146214902,-0.050570431991154,0.0036020750058929725,-0.0004424937090311233,-0.0001903714175157901,-0.0003745829647839024,0.22280024434731058,0.7223209356838183,-0.0043767289874149734,0.01623612874948243,-0.0005911585379472147,6.999999999999201,6.999999999999201,7.317242433942427,7.317242433942427,7.321042445760228,7.321042445760228,6.9999999999992,6.9999999999992,1.1998508758952735,1.1998508758952735,1.2049436206325015,1.2049436206325015,1.2043189938086056,1.2043189938086056,1.1992235964705937,1.1992235964705937,-0.05003535206789475,0.01630966458973781,0.005943879597325983,-0.007861579577797652,0.023101707451668667,-0.0002759735167982646
58.0,1.1400000000000006,0.21686915268924553,0.015112494259281413,0.24854156902614505,0.21702116438719138,0.013522418515802503,0.24858416458402444,0.00015201169794584746,-0.0015900757434789102,4.259555787938796e-05,0.0015978932404461335,0.0037926969878864527,-0.00044275418980475417,-0.0003094356910889011,min_task,none,false,false,7.000000001367786,7.000000001367786,7.294102884749657,7.294102884749657,7.276829945981469,7.276829945981469,6.9999999973129166,6.9999999973129166,-0.05144573970521811,0.003746846930954656,0.007775313712761558,-0.008394678023834404,0.024463193938946477,-0.00029192913131405486,-0.12757489549598422,0.0049808884331383,0.025402457401635648,-1.7832589545399828,-0.10558622728711888,-0.07000266511893329,-0.4062749828173872,1.8143843546248726,-0.0673277560954183,0.0037926969878864527,-0.00044275418980475417,-0.0003094356910889011,-0.003606471886033605,0.22301592110995058,0.7224386237278947,-0.006058986826437222,0.020036190227540693,0.00017404027707785513,7.000000001367786,7.000000001367786,7.294102884749657,7.294102884749657,7.276829945981469,7.276829945981469,6.9999999973129166,6.9999999973129166,1.1997166747536345,1.1997166747536345,1.2050789133277995,1.2050789133277995,1.204453867498369,1.204453867498369,1.1990888337677017,1.1990888337677017,-0.05144573970521811,0.003746846930954656,0.007775313712761558,-0.008394678023834404,0.024463193938946477,-0.00029192913131405486
59.0,1.1600000000000006,0.216892827529427,0.017088624522853757,0.24853757809682028,0.21702116438719138,0.015083770707802514,0.24858416458402444,0.0001283368577643662,-0.0020048538150512427,4.658648720415326e-05,0.002009497317633536,0.003947310656937159,-0.00044290389248953624,-0.0005706428400044061,min_task,none,false,false,17.30340904053675,17.30340904053723,17.510705152697614,17.510705152698833,17.506391441295733,17.506391441271127,17.29910879939213,17.299108799392048,-0.051479786137174216,-0.014368040941448166,0.010250715345845695,-0.008870347090632317,0.0253524688941463,-0.00030329148044649907,-0.11513688433699774,0.0053989051466407,0.10204799956515989,-1.8384250226634344,-0.1832265963353751,-0.14469658018675716,-0.4132224337833313,1.8765598248880484,-0.0819867531373511,0.003947310656937159,-0.00044290389248953624,-0.0005706428400044061,-0.007691479895509673,0.22304980209600345,0.7224072974908409,-0.00805777617323919,0.02469875230251094,0.0010498996960605156,17.30340904053675,17.30340904053723,17.510705152697614,17.510705152698833,17.506391441295733,17.506391441271127,17.29910879939213,17.299108799392048,1.199607908867655,1.199607908867655,1.2051887155101788,1.2051887155101788,1.2045632466635687,1.2045632466635687,1.1989795286982308,1.1989795286982308,-0.051479786137174216,-0.014368040941448166,0.010250715345845695,-0.008870347090632317,0.0253524688941463,-0.00030329148044649907
60.0,1.1800000000000006,0.21691114188484767,0.019435671152597374,0.2485349505086708,0.21702116438719138,0.016995545939802528,0.24858416458402444,0.00011002250234370958,-0.0024401252127948456,4.921407535363187e-05,0.0024431000860284,0.00406696068717692,-0.00044303374165177603,-0.000924763708700797,min_task,none,false,false,15.034849384451308,15.034849384451528,15.219072778356242,15.21907277835679,15.213721715715211,15.213721715714891,15.029412542313944,15.029412542314025,-0.05035435597813928,-0.037654996428978724,0.013405702706765598,-0.009322728824716414,0.025810762839236327,-0.0003110966714390282,-0.10283409397603979,0.0053563031186286796,0.16381927326697132,-1.867922433930855,-0.2791257968816914,-0.23570232680222988,-0.4134513645497873,1.9034783364578873,-0.09613734133278976,0.00406696068717692,-0.00044303374165177603,-0.000924763708700797,-0.012597949700247375,0.222870373368341,0.7221963778027616,-0.010371713637310393,0.030243215518420137,0.0020286004009399954,15.034849384451308,15.034849384451528,15.219072778356242,15.21907277835679,15.213721715715211,15.213721715714891,15.029412542313944,15.029412542314025,1.1995238921904785,1.1995238921904785,1.2052738234503892,1.2052738234503892,1.2046478398574305,1.2046478398574305,1.19889490636763,1.19889490636763,-0.05035435597813928,-0.037654996428978724,0.013405702706765598,-0.009322728824716414,0.025810762839236327,-0.0003110966714390282
61.0,1.2000000000000006,0.21692412640264508,0.022156070203846585,0.24853339871653168,0.21702116438719138,0.019269571411802543,0.24858416458402444,9.703798454629986e-05,-0.0028864987920440427,5.076586749275247e-05,0.002888575569414589,0.004152125318392302,-0.0004433614450956806,-0.0013365643123931835,min_task,none,false,false,11.683723156432093,11.683723156432098,11.851199918753776,11.85119991875378,11.844029611497758,11.844029611497756,11.676458342030903,11.676458342030907,-0.048188110028069324,-0.06549821478536652,0.017148946576069465,-0.009764945957686143,0.02586811378627422,-0.00031557197391482883,-0.09043300625985515,0.005382839924790474,0.20664159836518586,-1.8738262541560682,-0.39110565035819167,-0.34121915397205266,-0.4077112269977626,1.8978407592454742,-0.1099601857915535,0.004152125318392302,-0.0004433614450956806,-0.0013365643123931835,-0.01829779558268678,0.2224373579554296,0.7217674891466365,-0.012997555366629884,0.036673747310912226,0.0031027046552415003,11.683723156432093,11.683723156432098,11.851199918753776,11.85119991875378,11.844029611497758,11.844029611497756,11.676458342030903,11.676458342030907,1.199464428695293,1.199464428695293,1.205334720509007,1.205334720509007,1.204707860672069,1.204707860672069,1.1988344993392008,1.1988344993392008,-0.048188110028069324,-0.06549821478536652,0.017148946576069465,-0.009764945957686143,0.02586811378627422,-0.00031557197391482883
62.0,1.2200000000000006,0.2169321428933263,0.02524705469643468,0.2485326626408414,0.21702116438719138,0.021911776083802556,0.24858416458402444,8.90214938650824e-05,-0.0033352786126321227,5.150194318304102e-05,0.0033368639019898394,0.0042027828754709695,-0.00044420236226599486,-0.0017796226435233978,min_task,none,false,false,9.212483886344984,9.212483886344984,9.359398929393926,9.359398929393926,9.3506073943013,9.3506073943013,9.203594090210151,9.203594090210151,-0.04510434622352477,-0.09709912407419699,0.021359385982087822,-0.010208263926386353,0.025545813651041686,-0.000316847212228058,-0.0777026384221505,0.005514379988568558,0.23574654389218094,-1.8577846658581323,-0.5162712302847913,-0.4588589485471614,-0.39692056564687184,1.8617651319814916,-0.12338563559279171,0.0042027828754709695,-0.00044420236226599486,-0.0017796226435233978,-0.024762225457378873,0.22170294428159948,0.7210754870310152,-0.015929641184173973,0.043980351523593954,0.004264395466868625,9.212483886344984,9.212483886344984,9.359398929393926,9.359398929393926,9.3506073943013,9.3506073943013,9.203594090210151,9.203594090210151,1.1994297408023342,1.1994297408023342,1.2053716002061736,1.2053716002061736,1.2047430923278495,1.2047430923278495,1.1987981177200908,1.1987981177200908,-0.04510434622352477,-0.09709912407419699,0.021359385982087822,-0.010208263926386353,0.025545813651041686,-0.000316847212228058
63.0,1.2400000000000007,0.2169357684165255,0.028701059315437306,0.24853251279571892,0.21702116438719138,0.02492255931580257,0.24858416458402444,8.539597066586913e-05,-0.0037784999996347372,5.1651788305517865e-05,0.0037798178033181485,0.004218581720264274,-0.0004459937428796192,-0.00223211214565908,min_task,none,false,false,7.434026876436049,7.434026876436049,7.556498804799365,7.556498804799365,7.546072971164541,7.546072971164541,7.4235024634657565,7.4235024634657565,-0.041239809486132255,-0.13153744516010465,0.025908508203083234,-0.010663241839722847,0.0248600479104473,-0.00031507078875950804,-0.06447107887733565,0.005798684531314446,0.25340284755219733,-1.8216058925725171,-0.6512323364857678,-0.5857638694827282,-0.38185413963087883,1.7968746701045482,-0.13635687387124237,0.004218581720264274,-0.0004459937428796192,-0.00223211214565908,-0.0319582809839574,0.2206136299941551,0.7200699967712875,-0.019160443955271663,0.05213970784151973,0.005505699418368115,7.434026876436049,7.434026876436049,7.556498804799365,7.556498804799365,7.546072971164541,7.546072971164541,7.4235024634657565,7.4235024634657565,1.1994203646812056,1.1994203646812056,1.2053845021660354,1.2053845021660354,1.204752990810083,1.204752990810083,1.1987857114663047,1.1987857114663047,-0.041239809486132255,-0.13153744516010465,0.025908508203083234,-0.010663241839722847,0.0248600479104473,-0.00031507078875950804
64.0,1.2600000000000007,0.21693557604306377,0.03250599635080003,0.2485327320709822,0.21702116438719138,0.028297159507802584,0.24858416458402444,8.558834412761285e-05,-0.004208836842997447,5.1432513042237726e-05,0.004210021168476598,0.004199308061075603,-0.00044956441867124595,-0.0026672284935196286,min_task,none,false,false,6.999999999984257,6.999999999984257,7.0932486005810205,7.0932486005810205,7.078660376632152,7.078660376632152,6.999999999984249,6.999999999984249,-0.03674088704335127,-0.1677796935283819,0.030657408732457647,-0.011137799518379059,0.02382481758622529,-0.0003103810062069851,-0.04885481416785767,0.004419454280374893,0.29888533906021036,-1.7670906322537752,-0.7921414501158269,-0.7186559549641043,-0.36318152044706176,1.7046323221657596,-0.14883720278446144,0.004199308061075603,-0.00044956441867124595,-0.0026672284935196286,-0.03983951095590045,0.21911336737538267,0.7186980564586147,-0.022685992155620695,0.06111588975985094,0.006822785166119252,6.999999999984257,6.999999999984257,7.0932486005810205,7.0932486005810205,7.078660376632152,7.078660376632152,6.999999999984249,6.999999999984249,1.1994370021852245,1.1994370021852245,1.2053738254696202,1.2053738254696202,1.2047368255531203,1.2047368255531203,1.198796847646682,1.198796847646682,-0.03674088704335127,-0.1677796935283819,0.030657408732457647,-0.011137799518379059,0.02382481758622529,-0.0003103810062069851
65.0,1.2800000000000007,0.21693205637553872,0.036645598667275764,0.24853313030335894,0.21702116438719138,0.032026022739802595,0.24858416458402444,8.910801165265547e-05,-0.0046195759274731685,5.10342806654962e-05,0.004620717096429224,0.004145344154329426,-0.0004562506207282661,-0.0030507713357445262,min_task,none,false,false,6.99999999994857,6.99999999994857,7.042212408715096,7.042212408715096,7.039051312777461,7.039051312777461,6.9999999999485425,6.9999999999485425,-0.031776454340059664,-0.20492659630584623,0.03554528689772049,-0.011639828877359412,0.022459593158539667,-0.00030325911228632494,-0.03043185462941952,0.0021296072228232325,0.3559874707888997,-1.6974508082362672,-0.935490439789373,-0.8541239718754821,-0.340556181682462,1.5863555646967824,-0.16154093429032762,0.004145344154329426,-0.0004562506207282661,-0.0030507713357445262,-0.04834456092038798,0.21714660985355705,0.7169068713062992,-0.026507802258683644,0.07086099188131417,0.008217250144150257,6.99999999994857,6.99999999994857,7.042212408715096,7.042212408715096,7.039051312777461,7.039051312777461,6.9999999999485425,6.9999999999485425,1.1994802756037517,1.1994802756037517,1.2053407311267383,1.2053407311267383,1.2046939183220924,1.2046939183220924,1.1988303008731251,1.1988303008731251,-0.031776454340059664,-0.20492659630584623,0.03554528689772049,-0.011639828877359412,0.022459593158539667,-0.00030325911228632494
66.0,1.3000000000000007,0.21692593688178685,0.041099981494445714,0.24853358375663015,0.21702116438719138,0.036095171411802615,0.24858416458402444,9.522750540452707e-05,-0.005004810082643099,5.058082739428649e-05,0.005005971500239637,0.004057118727096761,-0.00046747752296485105,-0.0033501732786830303,min_task,none,false,false,6.999999999904093,6.999999999904093,6.999999999913217,6.999999999913217,6.999999999991153,6.999999999991153,6.999999999982404,6.999999999982404,-0.026507260039516343,-0.24192642169811962,0.04046063277858679,-0.012168048163946624,0.02078365823928451,-0.0002939809390454524,-0.013793993034585006,0.0015181687608819307,0.4060628883130035,-1.6150623298807922,-1.0772745222119375,-0.9885743427761967,-0.3139453985689775,1.4436541084153627,-0.1748621791400419,0.004057118727096761,-0.00046747752296485105,-0.0033501732786830303,-0.057408273528843555,0.2146577475190542,0.7146435781698653,-0.030624199234228003,0.08131584957902767,0.009688607715317,6.999999999904093,6.999999999904093,6.999999999913217,6.999999999913217,6.999999999991153,6.999999999991153,6.999999999982404,6.999999999982404,1.1995508314358019,1.1995508314358019,1.2052864700370993,1.2052864700370993,1.2046235488679342,1.2046235488679342,1.1988847387597392,1.1988847387597392,-0.026507260039516343,-0.24192642169811962,0.04046063277858679,-0.012168048163946624,0.02078365823928451,-0.0002939809390454524
67.0,1.3200000000000007,0.2169185885426233,0.04584605829110332,0.24853385952116996,0.21702116438719138,0.04048657288380263,0.24858416458402444,0.00010257584456807578,-0.00535948540730069,5.0305062854472116e-05,0.005360702960835145,0.003932292133243155,-0.0004846548447131437,-0.0035390407790492637,min_task,none,false,false,6.999999999853717,6.999999999853717,6.999999999866699,6.999999999866699,6.9999999999782085,6.9999999999782085,6.999999999965752,6.999999999965752,-0.02109911555524448,-0.277229630162934,0.04515939041113726,-0.012710458378526189,0.018805285784038357,-0.00028237205797586583,-0.013500407323898794,0.001555527193055755,0.4459136188232164,-1.5207641643608594,-1.211741768599504,-1.1173999720373788,-0.28428379717643704,1.2778510022531304,-0.1881666637133063,0.003932292133243155,-0.0004846548447131437,-0.0035390407790492637,-0.06696603265808002,0.21158328871408827,0.711848537874862,-0.03502829592405197,0.09241116182748828,0.011232391449506274,6.999999999853717,6.999999999853717,6.999999999866699,6.999999999866699,6.9999999999782085,6.9999999999782085,6.999999999965752,6.999999999965752,1.1996512638679282,1.1996512638679282,1.2052103276202393,1.2052103276202393,1.2045230407100977,1.2045230407100977,1.1989607903092296,1.1989607903092296,-0.02109911555524448,-0.277229630162934,0.04515939041113726,-0.012710458378526189,0.018805285784038357,-0.00028237205797586583
68.0,1.3400000000000007,0.21691154494139436,0.05085775427960308,0.24853370848508363,0.21702116438719138,0.045178508115802644,0.24858416458402444,0.00010961944579701566,-0.005679246163800437,5.045609894080427e-05,0.005680528076672023,0.0037667634666379065,-0.0005093730962637139,-0.003598636474269703,min_task,none,false,false,6.999999999804241,6.999999999804241,6.999999999821339,6.999999999821339,6.999999999963033,6.999999999963033,6.999999999946581,6.999999999946581,-0.01577424919114957,-0.3087363888137226,0.049357928104778445,-0.013251959347583817,0.016526339055132927,-0.000268095004523326,-0.013085027422740552,0.0016126863197159361,0.4710521056784875,-1.4151941634112712,-1.3306454484060604,-1.2328970661158452,-0.2516950698477125,1.0903496825865298,-0.20123375791989917,0.0037667634666379065,-0.0005093730962637139,-0.003598636474269703,-0.07695565724264535,0.20785818099682307,0.7084607258248952,-0.03971067076424378,0.10406801678584843,0.012842501417685979,6.999999999804241,6.999999999804241,6.999999999821339,6.999999999821339,6.999999999963033,6.999999999963033,6.999999999946581,6.999999999946581,1.1997855556432788,1.1997855556432788,1.2051104887619646,1.2051104887619646,1.2043883453886364,1.2043883453886364,1.1990602052916808,1.1990602052916808,-0.01577424919114957,-0.3087363888137226,0.049357928104778445,-0.013251959347583817,0.016526339055132927,-0.000268095004523326
69.0,1.3600000000000008,0.21690577559577753,0.0561060908217904,0.2485329591522524,0.21702116438719138,0.05014594030780266,0.24858416458402444,0.00011538879141384517,-0.005960150513987739,5.1205431772033405e-05,0.005961487290837347,0.003557538647041343,-0.0005437988073314887,-0.003518878467749913,min_task,none,false,false,6.9999999997633235,6.9999999997633235,6.999999999713832,6.999999999713832,6.999999999949431,6.999999999949431,7.014184678309032,7.014184678309032,-0.010660079928419058,-0.33553095798902266,0.05291446244010414,-0.01377674590406672,0.01397315723734728,-0.0002511937928187232,-0.009672152696876466,-0.0011744772862779134,0.4791170797783853,-1.2995426696531143,-1.430713551250077,-1.3326618902727314,-0.21656528550860094,0.8837939965942025,-0.2139281398482628,0.003557538647041343,-0.0005437988073314887,-0.003518878467749913,-0.08731920201974612,0.2034279470528459,0.7044280814367032,-0.04466665759933662,0.1161983543237693,0.014517424132807506,6.9999999997633235,6.9999999997633235,6.999999999713832,6.999999999713832,6.999999999949431,6.999999999949431,7.014184678309032,7.014184678309032,1.1999573462605115,1.1999573462605115,1.2049863606386133,1.2049863606386133,1.2042158030219927,1.2042158030219927,1.1991835571618643,1.1991835571618643,-0.010660079928419058,-0.33553095798902266,0.05291446244010414,-0.01377674590406672,0.01397315723734728,-0.0002511937928187232
70.0,1.3800000000000008,0.21690196718566251,0.06155998549852895,0.24853181011584463,0.21702116438719138,0.05536088353980269,0.24858416458402444,0.00011919720152886448,-0.006199101958726264,5.2354468179804936e-05,0.006200468857906997,0.0033046999159806675,-0.0005897248135155633,-0.0032982853379641976,min_task,none,false,false,7.043912798743136,7.043912798743136,6.999999999684548,6.999999999684548,6.999999999684346,6.999999999684346,7.043188625393302,7.043188625393302,-0.005883437048639875,-0.35707450252572076,0.05580514315692685,-0.014268086819152892,0.011190711543172043,-0.00023201688406168316,0.005722078342392064,0.001972650229050808,0.4699448558763415,-1.17596306139928,-1.509781772155013,-1.4141623962505219,-0.17819886254352615,0.6622293241461407,-0.22713212738393204,0.0033046999159806675,-0.0005897248135155633,-0.0032982853379641976,-0.09800630711983659,0.1982564353091611,0.699714238734512,-0.04988024839736458,0.12870618916259996,0.016247256023423327,7.043912798743136,7.043912798743136,6.999999999684548,6.999999999684548,6.999999999684346,6.999999999684346,7.043188625393302,7.043188625393302,1.200167873168375,1.200167873168375,1.204839303491862,1.204839303491862,1.2040042113938245,1.2040042113938245,1.1993295283619136,1.1993295283619136,-0.005883437048639875,-0.35707450252572076,0.05580514315692685,-0.014268086819152892,0.011190711543172043,-0.00023201688406168316
71.0,1.4000000000000008,0.21690083807747437,0.06718673766593204,0.2485307738915788,0.21702116438719138,0.060792771411802685,0.24858416458402444,0.00012032630971700597,-0.006393966254129357,5.339069244564287e-05,0.006395321215216241,0.0030112520867433194,-0.0006480769298254662,-0.00294364846967092,min_task,none,false,false,7.099820058477942,7.099820058477942,6.999999999675848,6.999999999675848,6.999999999675623,6.999999999675623,7.075026171591206,7.075026171591206,-0.001495513308847808,-0.37244027868011703,0.057712041244352356,-0.014688323652460294,0.008197118097549404,-0.00021006771614306773,0.024254096419920896,0.007013972736684329,0.44219003416194347,-1.0436140063772852,-1.5654131043439616,-1.477807621896544,-0.1390506319827699,0.4274295391292932,-0.23870317719502396,0.0030112520867433194,-0.0006480769298254662,-0.00294364846967092,-0.10897454061440616,0.19232627937183203,0.6942984915408545,-0.055318466239767376,0.14148897841218436,0.0180093834117884,7.099820058477942,7.099820058477942,6.999999999675848,6.999999999675848,6.999999999675623,6.999999999675623,7.075026171591206,7.075026171591206,1.2004157270926377,1.2004157270926377,1.2046721704054315,1.2046721704054315,1.2037550649822253,1.2037550649822253,1.1994953672992548,1.1994953672992548,-0.001495513308847808,-0.37244027868011703,0.057712041244352356,-0.014688323652460294,0.008197118097549404,-0.00021006771614306773
