LordTarzan10086/HCDR_ML/results/tracking/routeb_trajectory_suite_20260416_105416/square/square_platform_only_detailed.csv
step,time_s,tip_x,tip_y,tip_z,des_x,des_y,des_z,err_x,err_y,err_z,err_norm,q_platform_x,q_platform_y,q_platform_psi,solver_status,fail_reason,fallback_applied,hold_active,u_a_1,u_a_2,u_a_3,u_a_4,u_a_5,u_a_6,u_a_7,u_a_8,u_a_9,u_a_10,u_a_11,u_a_12,u_a_13,u_a_14,qdd_1,qdd_2,qdd_3,qdd_4,qdd_5,qdd_6,qdd_7,qdd_8,qdd_9,q_1,q_2,q_3,q_4,q_5,q_6,q_7,q_8,q_9,cable_force_1,cable_force_2,cable_force_3,cable_force_4,cable_force_5,cable_force_6,cable_force_7,cable_force_8,cable_length_1,cable_length_2,cable_length_3,cable_length_4,cable_length_5,cable_length_6,cable_length_7,cable_length_8,arm_torque_1,arm_torque_2,arm_torque_3,arm_torque_4,arm_torque_5,arm_torque_6
1.0,0.0,0.057021164387191264,0.010002371411802219,0.24858416458402482,0.05702116438719139,0.010002371411802463,0.24858416458402444,1.249000902703301e-16,2.445960101127298e-16,-3.885780586188048e-16,4.75836262124444e-16,-7.479730696657616e-22,-3.933705483971411e-20,1.0043331443545022e-21,min_task,none,false,false,6.999999999999999,6.999999999999999,6.999999999999999,6.999999999999999,6.999999999999999,6.999999999999999,6.999999999999999,6.999999999999999,0.0,0.0,0.0,0.0,0.0,0.0,5.491327355124636e-17,-5.662033291799804e-17,2.2096142193548935e-17,0.0,0.0,0.0,0.0,0.0,0.0,-7.479730696657616e-22,-3.933705483971411e-20,1.0043331443545022e-21,0.0,0.58,0.92,0.0,0.0,0.0,6.999999999999999,6.999999999999999,6.999999999999999,6.999999999999999,6.999999999999999,6.999999999999999,6.999999999999999,6.999999999999999,1.2020815280171306,1.2020815280171306,1.2020815280171306,1.2020815280171306,1.2020815280171306,1.2020815280171306,1.2020815280171306,1.2020815280171306,0.0,0.0,0.0,0.0,0.0,0.0
2.0,0.02,0.05705521402191409,0.010003012069573639,0.24858416458402463,0.05703358345919139,0.010002371411802463,0.24858416458402444,-2.1630562722696478e-05,-6.406577711757372e-07,-1.942890293094024e-16,2.1640048199582976e-05,3.404891964323786e-05,6.447342720981677e-07,-7.149101127919293e-08,min_task,none,false,false,7.541390674913242,7.541390674913242,7.0,7.0,7.0,7.0,7.541390674913121,7.541390674913121,0.0,0.0,0.0,0.0,0.0,0.0,0.21875486714415537,2.453097896986303e-14,-6.338891901696888e-21,0.0,0.0,0.0,0.0,0.0,0.0,3.404891964323786e-05,6.447342720981677e-07,-7.149101127919293e-08,0.0,0.58,0.92,0.0,0.0,0.0,7.541390674913242,7.541390674913242,7.0,7.0,7.0,7.0,7.541390674913121,7.541390674913121,1.2020569961315504,1.2020569961315504,1.2021051485937582,1.2021051485937582,1.2021060603668405,1.2021060603668405,1.202057907941157,1.202057907941157,0.0,0.0,0.0,0.0,0.0,0.0
3.0,0.04,0.05718309087997555,0.010005225405862989,0.24858416458402488,0.05711751869119139,0.010002371411802463,0.24858416458402444,-6.557218878416177e-05,-2.8539940605254444e-06,-4.440892098500626e-16,6.563426867150471e-05,0.00016192324757586109,2.8724942473923973e-06,-3.2444420080746423e-07,min_task,none,false,false,8.049265687168301,8.049265687168301,7.0,7.0,7.0,7.0,8.055332067647493,8.055332067647493,0.0,0.0,0.0,0.0,0.0,0.0,0.42507113878928177,-0.0012279197649284596,6.5147780926841125e-06,0.0,0.0,0.0,0.0,0.0,0.0,0.00016192324757586109,2.8724942473923973e-06,-3.2444420080746423e-07,0.0,0.58,0.92,0.0,0.0,0.0,8.049265687168301,8.049265687168301,7.0,7.0,7.0,7.0,8.055332067647493,8.055332067647493,1.201965005098652,1.201965005098652,1.202193999537562,1.202193999537562,1.2021980614578611,1.2021980614578611,1.2019690677928123,1.2019690677928123,0.0,0.0,0.0,0.0,0.0,0.0
4.0,0.06,0.05746022133322118,0.010009563951375457,0.2485841645840249,0.05733640688319139,0.010002371411802463,0.24858416458402444,-0.00012381445002979108,-7.192539572993539e-06,-4.718447854656915e-16,0.00012402318598426953,0.0004390485536335909,7.240382766554278e-06,-8.390426665551008e-07,min_task,none,false,false,8.516182018125917,8.516182018125917,6.999999999999998,6.999999999999998,6.999999999999998,6.999999999999998,8.532741175020146,8.532741175020146,0.0,0.0,0.0,0.0,0.0,0.0,0.6153780099208058,-0.0033563374098045614,2.0696795369293064e-05,0.0,0.0,0.0,0.0,0.0,0.0,0.0004390485536335909,7.240382766554278e-06,-8.390426665551008e-07,0.0,0.58,0.92,0.0,0.0,0.0,8.516182018125917,8.516182018125917,6.999999999999998,6.999999999999998,6.999999999999998,6.999999999999998,8.532741175020146,8.532741175020146,1.2017659929175388,1.2017659929175388,1.2023869039618975,1.2023869039618975,1.2023971406733531,1.2023971406733531,1.2017762349179053,1.2017762349179053,0.0,0.0,0.0,0.0,0.0,0.0
5.0,0.08,0.0579368377248952,0.010016272489710164,0.2485841645840248,0.05774520611519139,0.010002371411802463,0.24858416458402444,-0.00019163160970380594,-1.3901077907701315e-05,-3.608224830031759e-16,0.00019213514463696586,0.0009156565998426543,1.3996496983148822e-05,-1.6733972766097466e-06,min_task,none,false,false,8.936968085906186,8.936968085906186,7.000000000000002,7.000000000000002,7.000000000000002,7.000000000000002,8.966988041320672,8.966988041320672,0.0,0.0,0.0,0.0,0.0,0.0,0.7870534807376272,-0.006093847778950393,2.8731256375022736e-05,0.0,0.0,0.0,0.0,0.0,0.0,0.0009156565998426543,1.3996496983148822e-05,-1.6733972766097466e-06,0.0,0.58,0.92,0.0,0.0,0.0,8.936968085906186,8.936968085906186,7.000000000000002,7.000000000000002,7.000000000000002,7.000000000000002,8.966988041320672,8.966988041320672,1.2014243333692711,1.2014243333692711,1.2027192778305817,1.2027192778305817,1.2027390608256243,1.2027390608256243,1.2014441376868863,1.2014441376868863,0.0,0.0,0.0,0.0,0.0,0.0
6.0,0.1,0.058657384609718984,0.010025353567432525,0.2485841645840246,0.05839076438719139,0.010002371411802463,0.24858416458402444,-0.0002666202225275957,-2.2982155630062173e-05,-1.6653345369377348e-16,0.00026760889846578166,0.001636191466005144,2.3146091178971164e-05,-2.874994031708344e-06,min_task,none,false,false,9.30831190987053,9.30831190987053,7.0,7.0,7.0,7.0,9.353492958609936,9.353492958609936,0.0,0.0,0.0,0.0,0.0,0.0,0.9382721344734432,-0.009186914226890617,6.351116241963734e-06,0.0,0.0,0.0,0.0,0.0,0.0,0.001636191466005144,2.3146091178971164e-05,-2.874994031708344e-06,0.0,0.58,0.92,0.0,0.0,0.0,9.30831190987053,9.30831190987053,7.0,7.0,7.0,7.0,9.353492958609936,9.353492958609936,1.2009087414140878,1.2009087414140878,1.2032226960247703,1.2032226960247703,1.2032553968782775,1.2032553968782775,1.2009415052750707,1.2009415052750707,0.0,0.0,0.0,0.0,0.0,0.0
7.0,0.12000000000000001,0.0596601328417144,0.010036625929029822,0.24858416458402469,0.05931218825919139,0.010002371411802463,0.24858416458402444,-0.00034794458252300486,-3.425451722735909e-05,-2.498001805406602e-16,0.00034962666439730764,0.0026389235136298687,3.4510718060695736e-05,-4.49308138072381e-06,min_task,none,false,false,9.62840367689575,9.62840367689575,7.0,7.0,7.0,7.0,9.68937017914702,9.68937017914702,0.0,0.0,0.0,0.0,0.0,0.0,1.06787234029758,-0.012420042222986514,-7.452113867632975e-05,0.0,0.0,0.0,0.0,0.0,0.0,0.0026389235136298687,3.4510718060695736e-05,-4.49308138072381e-06,0.0,0.58,0.92,0.0,0.0,0.0,9.62840367689575,9.62840367689575,7.0,7.0,7.0,7.0,9.68937017914702,9.68937017914702,1.200192538899916,1.200192538899916,1.2039246116225133,1.2039246116225133,1.2039733384912172,1.2039733384912172,1.2002414172816627,1.2002414172816627,0.0,0.0,0.0,0.0,0.0,0.0
8.0,0.14,0.06097696569450706,0.010049775543701652,0.24858416458402469,0.06054121149119139,0.010002371411802463,0.24858416458402444,-0.0004357542033156664,-4.740413189918864e-05,-2.498001805406602e-16,0.00043832508190655347,0.003955735401451323,4.777985298875618e-05,-6.589147665488185e-06,min_task,none,false,false,9.896629914232333,9.896629914232333,6.999999999999999,6.999999999999999,6.999999999999999,6.999999999999999,9.97311720783628,9.97311720783628,0.0,0.0,0.0,0.0,0.0,0.0,1.1752413597686753,-0.015614704230047054,-0.0002385257842722851,0.0,0.0,0.0,0.0,0.0,0.0,0.003955735401451323,4.777985298875618e-05,-6.589147665488185e-06,0.0,0.58,0.92,0.0,0.0,0.0,9.896629914232333,9.896629914232333,6.999999999999999,6.999999999999999,6.999999999999999,6.999999999999999,9.97311720783628,9.97311720783628,1.19925380213321,1.19925380213321,1.2048481989382909,1.2048481989382909,1.2049156063169117,1.2049156063169117,1.1993215239426698,1.1993215239426698,0.0,0.0,0.0,0.0,0.0,0.0
9.0,0.16,0.06263330614474738,0.010064399255857727,0.2485841645840246,0.06210256368319139,0.010002371411802463,0.24858416458402444,-0.0005307424615559886,-6.202784405526414e-05,-1.6653345369377348e-16,0.0005343547641189832,0.00561204930696138,6.255489744166715e-05,-9.24311112574503e-06,min_task,none,false,false,10.113315500061303,10.113315500061303,6.999999999999998,6.999999999999998,6.999999999999998,6.999999999999998,10.204347322619043,10.204347322619043,0.0,0.0,0.0,0.0,0.0,0.0,1.2602167220902287,-0.01862734187988021,-0.0005003541141132669,0.0,0.0,0.0,0.0,0.0,0.0,0.00561204930696138,6.255489744166715e-05,-9.24311112574503e-06,0.0,0.58,0.92,0.0,0.0,0.0,10.113315500061303,10.113315500061303,6.999999999999998,6.999999999999998,6.999999999999998,6.999999999999998,10.204347322619043,10.204347322619043,1.1980754096787853,1.1980754096787853,1.2060122948244445,1.2060122948244445,1.206100456344889,1.206100456344889,1.1981641551993683,1.1981641551993683,0.0,0.0,0.0,0.0,0.0,0.0
10.0,0.18,0.06464815892788213,0.010080041345510191,0.24858416458402455,0.06401433891519138,0.010002371411802463,0.24858416458402444,-0.0006338200126907445,-7.766993370772815e-05,-1.1102230246251565e-16,0.0006385612163993821,0.007626868978549891,7.838576031262261e-05,-1.2553686408581765e-05,min_task,none,false,false,10.279509126006488,10.279509126006488,6.999999999999999,6.999999999999999,6.999999999999999,6.999999999999999,10.383562054492947,10.383562054492947,0.0,0.0,0.0,0.0,0.0,0.0,1.3230022025764174,-0.02134669798402006,-0.0008600084631985504,0.0,0.0,0.0,0.0,0.0,0.0,0.007626868978549891,7.838576031262261e-05,-1.2553686408581765e-05,0.0,0.58,0.92,0.0,0.0,0.0,10.279509126006488,10.279509126006488,6.999999999999999,6.999999999999999,6.999999999999999,6.999999999999999,10.383562054492947,10.383562054492947,1.1966450061292868,1.1966450061292868,1.2074314166080031,1.2074314166080031,1.2075417508102497,1.2075417508102497,1.1967563347783186,1.1967563347783186,0.0,0.0,0.0,0.0,0.0,0.0
11.0,0.19999999999999998,0.06703424498253505,0.010096223455850704,0.24858416458402469,0.06628836438719139,0.010002371411802463,0.24858416458402444,-0.0007458805953436537,-9.385204404824092e-05,-2.498001805406602e-16,0.0007517619760816826,0.010012914239591861,9.480044536810985e-05,-1.6632419670635418e-05,min_task,none,false,false,10.396807515630837,10.396807515630837,6.999999999999999,6.999999999999999,6.999999999999999,6.999999999999999,10.511959867753985,10.511959867753985,0.0,0.0,0.0,0.0,0.0,0.0,1.3640967695404929,-0.02369068229496899,-0.001300471946656247,0.0,0.0,0.0,0.0,0.0,0.0,0.010012914239591861,9.480044536810985e-05,-1.6632419670635418e-05,0.0,0.58,0.92,0.0,0.0,0.0,10.396807515630837,10.396807515630837,6.999999999999999,6.999999999999999,6.999999999999999,6.999999999999999,10.511959867753985,10.511959867753985,1.1949548954021247,1.1949548954021247,1.2091158387048788,1.2091158387048788,1.209249078146379,1.209249078146379,1.1950897136350758,1.1950897136350758,0.0,0.0,0.0,0.0,0.0,0.0
12.0,0.21999999999999997,0.06979820944631256,0.010112468454746809,0.2485841645840249,0.06893056905919138,0.010002371411802463,0.24858416458402444,-0.0008676403871211713,-0.00011009704294434597,-4.718447854656915e-16,0.0008745977362358453,0.01277682910203732,0.00011132824153925209,-2.159191725626704e-05,min_task,none,false,false,10.467213639615576,10.467213639615576,6.999999999999999,6.999999999999999,6.999999999999999,6.999999999999999,10.591277120034388,10.591277120034388,0.0,0.0,0.0,0.0,0.0,0.0,1.3842349391641395,-0.025602944647149205,-0.0017879912068880265,0.0,0.0,0.0,0.0,0.0,0.0,0.01277682910203732,0.00011132824153925209,-2.159191725626704e-05,0.0,0.58,0.92,0.0,0.0,0.0,10.467213639615576,10.467213639615576,6.999999999999999,6.999999999999999,6.999999999999999,6.999999999999999,10.591277120034388,10.591277120034388,1.1930018752929503,1.1930018752929503,1.2110717133363673,1.2110717133363673,1.2112279080912027,1.2112279080912027,1.1931604355441907,1.1931604355441907,0.0,0.0,0.0,0.0,0.0,0.0
13.0,0.23999999999999996,0.07294088747411807,0.010128318860927306,0.24858416458402463,0.07194135229119138,0.010002371411802463,0.24858416458402444,-0.0009995351829266974,-0.00012594744912484274,-1.942890293094024e-16,0.0010074390015526306,0.01591944774652482,0.0001275172268992845,-2.7529672554438004e-05,min_task,none,false,false,10.493024293856246,10.493024293856246,6.999999999999999,6.999999999999999,6.999999999999999,6.999999999999999,10.623657455236122,10.623657455236122,0.0,0.0,0.0,0.0,0.0,0.0,1.3843370807779076,-0.027049310131071074,-0.002274765892130436,0.0,0.0,0.0,0.0,0.0,0.0,0.01591944774652482,0.0001275172268992845,-2.7529672554438004e-05,0.0,0.58,0.92,0.0,0.0,0.0,10.493024293856246,10.493024293856246,6.999999999999999,6.999999999999999,6.999999999999999,6.999999999999999,10.623657455236122,10.623657455236122,1.1907870234730977,1.1907870234730977,1.2133012238187302,1.2133012238187302,1.213479771292956,1.213479771292956,1.190968946232057,1.190968946232057,0.0,0.0,0.0,0.0,0.0,0.0
14.0,0.25999999999999995,0.07645761484971356,0.010143350495957685,0.24858416458402455,0.07531595248319138,0.010002371411802463,0.24858416458402444,-0.0011416623665221753,-0.00014097908415522213,-1.1102230246251565e-16,0.0011503338912256123,0.019436105319570452,0.00014294686237698853,-3.450950690019305e-05,min_task,none,false,false,10.476742669406805,10.476742669406805,7.0,7.0,7.0,7.0,10.611546004613059,10.611546004613059,0.0,0.0,0.0,0.0,0.0,0.0,1.3654683342771257,-0.028014216766382903,-0.002703509671164819,0.0,0.0,0.0,0.0,0.0,0.0,0.019436105319570452,0.00014294686237698853,-3.450950690019305e-05,0.0,0.58,0.92,0.0,0.0,0.0,10.476742669406805,10.476742669406805,7.0,7.0,7.0,7.0,10.611546004613059,10.611546004613059,1.1883154438142585,1.1883154438142585,1.2158027615780351,1.2158027615780351,1.216002455570984,1.216002455570984,1.1885197562099523,1.1885197562099523,0.0,0.0,0.0,0.0,0.0,0.0
15.0,0.27999999999999997,0.08033857268646659,0.010157182027930704,0.24858416458402494,0.07904481571519138,0.010002371411802463,0.24858416458402444,-0.0012937569712752062,-0.00015481061612824046,-4.996003610813204e-16,0.0013029863497324905,0.023316982820764425,0.0001572364721606124,-4.254292256432051e-05,min_task,none,false,false,10.421011899391708,10.421011899391708,6.999999999999998,6.999999999999998,6.999999999999998,6.999999999999998,10.55760507244415,10.55760507244415,0.0,0.0,0.0,0.0,0.0,0.0,1.3288049279639038,-0.02849728165445447,-0.0030131380537377636,0.0,0.0,0.0,0.0,0.0,0.0,0.023316982820764425,0.0001572364721606124,-4.254292256432051e-05,0.0,0.58,0.92,0.0,0.0,0.0,10.421011899391708,10.421011899391708,6.999999999999998,6.999999999999998,6.999999999999998,6.999999999999998,10.55760507244415,10.55760507244415,1.1855959808192609,1.1855959808192609,1.2185711203502338,1.2185711203502338,1.2187902133564656,1.2187902133564656,1.1858211663470424,1.1858211663470424,0.0,0.0,0.0,0.0,0.0,0.0
16.0,0.3,0.08456915750023797,0.010169481057658402,0.24858416458402488,0.08311396438719139,0.010002371411802463,0.24858416458402444,-0.0014551931130465795,-0.00016710964585593853,-4.440892098500626e-16,0.0014647568501277926,0.027547477340431555,0.00017005038969242258,-5.157261461498548e-05,min_task,none,false,false,10.328565979985607,10.328565979985607,7.0,7.0,7.0,7.0,10.464648309853208,10.464648309853208,0.0,0.0,0.0,0.0,0.0,0.0,1.27560681170406,-0.028510103557823657,-0.0031447641205701498,0.0,0.0,0.0,0.0,0.0,0.0,0.027547477340431555,0.00017005038969242258,-5.157261461498548e-05,0.0,0.58,0.92,0.0,0.0,0.0,10.328565979985607,10.328565979985607,7.0,7.0,7.0,7.0,10.464648309853208,10.464648309853208,1.1826409090033436,1.1826409090033436,1.2215977029651246,1.2215977029651246,1.2218339767732356,1.2218339767732356,1.1828849642108423,1.1828849642108423,0.0,0.0,0.0,0.0,0.0,0.0
17.0,0.32,0.08913036962271464,0.010179967367021203,0.2485841645840249,0.0875053658591914,0.010002371411802463,0.24858416458402444,-0.0016250037635232445,-0.00017759595521874005,-4.718447854656915e-16,0.001634679648975531,0.032108590596982636,0.0001811004976549955,-6.146004882103967e-05,min_task,none,false,false,10.202194901244974,10.202194901244974,7.0,7.0,7.0,7.0,10.335590701155526,10.335590701155526,0.0,0.0,0.0,0.0,0.0,0.0,1.2071956429590271,-0.02807338722878027,-0.00304723716612921,0.0,0.0,0.0,0.0,0.0,0.0,0.032108590596982636,0.0001811004976549955,-6.146004882103967e-05,0.0,0.58,0.92,0.0,0.0,0.0,10.202194901244974,10.202194901244974,7.0,7.0,7.0,7.0,10.335590701155526,10.335590701155526,1.179465603280175,1.179465603280175,1.2248707376966192,1.2248707376966192,1.2251215783424785,1.2251215783424785,1.1797260982855182,1.1797260982855182,0.0,0.0,0.0,0.0,0.0,0.0
18.0,0.34,0.09399921434272102,0.010188413905086582,0.2485841645840248,0.0921973010911914,0.010002371411802463,0.24858416458402444,-0.0018019132515296188,-0.00018604249328411926,-3.608224830031759e-16,0.0018114919749602576,0.03697733014789481,0.00019014681510816058,-7.197846555456892e-05,min_task,none,false,false,10.044721261909302,10.044721261909302,6.999999999999998,6.999999999999998,6.999999999999998,6.999999999999998,10.173411980777388,10.173411980777388,0.0,0.0,0.0,0.0,0.0,0.0,1.1249372783604372,-0.02721444822495604,-0.002681614656629103,0.0,0.0,0.0,0.0,0.0,0.0,0.03697733014789481,0.00019014681510816058,-7.197846555456892e-05,0.0,0.58,0.92,0.0,0.0,0.0,10.044721261909302,10.044721261909302,6.999999999999998,6.999999999999998,6.999999999999998,6.999999999999998,10.173411980777388,10.173411980777388,1.1760881957380833,1.1760881957380833,1.2283755024122962,1.2283755024122962,1.2286379764419764,1.2286379764419764,1.1763623363501716,1.1763623363501716,0.0,0.0,0.0,0.0,0.0,0.0
19.0,0.36000000000000004,0.0991491113496015,0.01019464603347296,0.24858416458402482,0.09716473328319139,0.010002371411802463,0.24858416458402444,-0.0019843780664101085,-0.0001922746216704973,-3.885780586188048e-16,0.0019936714475028362,0.04212711884141166,0.00019699669342001779,-8.28120138902216e-05,min_task,none,false,false,9.858986060337239,9.858986060337239,6.999999999999999,6.999999999999999,6.999999999999999,6.999999999999999,9.981131358873302,9.981131358873302,0.0,0.0,0.0,0.0,0.0,0.0,1.0302280297816429,-0.025965128425984738,-0.0020241762439412846,0.0,0.0,0.0,0.0,0.0,0.0,0.04212711884141166,0.00019699669342001779,-8.28120138902216e-05,0.0,0.58,0.92,0.0,0.0,0.0,9.858986060337239,9.858986060337239,6.999999999999999,6.999999999999999,6.999999999999999,6.999999999999999,9.981131358873302,9.981131358873302,1.1725292236228184,1.1725292236228184,1.2320945556998515,1.2320945556998515,1.2323654854645678,1.2323654854645678,1.1728139135551874,1.1728139135551874,0.0,0.0,0.0,0.0,0.0,0.0
20.0,0.38000000000000006,0.10455030903767773,0.010198539491107115,0.24858416458402477,0.1023796765151914,0.010002371411802463,0.24858416458402444,-0.0021706325224863238,-0.00019616807930465142,-3.3306690738754696e-16,0.0021794787135949313,0.04752820906763247,0.00020150308340621478,-9.356105557975714e-05,min_task,none,false,false,9.647841736029882,9.647841736029882,7.000000000000001,7.000000000000001,7.000000000000001,7.000000000000001,9.761791661051053,9.761791661051053,0.0,0.0,0.0,0.0,0.0,0.0,0.9244840408847217,-0.02436012461199745,-0.0010678276426442485,0.0,0.0,0.0,0.0,0.0,0.0,0.04752820906763247,0.00020150308340621478,-9.356105557975714e-05,0.0,0.58,0.92,0.0,0.0,0.0,9.647841736029882,9.647841736029882,7.000000000000001,7.000000000000001,7.000000000000001,7.000000000000001,9.761791661051053,9.761791661051053,1.1688112728530222,1.1688112728530222,1.2360079748184358,1.2360079748184358,1.2362840111500428,1.2362840111500428,1.1691031750700063,1.1691031750700063,0.0,0.0,0.0,0.0,0.0,0.0
21.0,0.4000000000000001,0.11017030104217529,0.010200017472967515,0.2485841645840249,0.10781156438719142,0.010002371411802463,0.24858416458402444,-0.002358736654983873,-0.00019764606116505143,-4.718447854656915e-16,0.0023670028671420253,0.053148099184942024,0.00020356223705141754,-0.00010375309104986389,min_task,none,false,false,9.41415087066496,9.41415087066496,7.000000000000001,7.000000000000001,7.000000000000001,7.000000000000001,9.518451185546471,9.518451185546471,0.0,0.0,0.0,0.0,0.0,0.0,0.8091332275203786,-0.022435707872164163,0.00017803622390597665,0.0,0.0,0.0,0.0,0.0,0.0,0.053148099184942024,0.00020356223705141754,-0.00010375309104986389,0.0,0.58,0.92,0.0,0.0,0.0,9.41415087066496,9.41415087066496,7.000000000000001,7.000000000000001,7.000000000000001,7.000000000000001,9.518451185546471,9.518451185546471,1.1649586209639542,1.1649586209639542,1.2400936007539127,1.2400936007539127,1.240371291859699,1.240371291859699,1.1652542175839278,1.1652542175839278,0.0,0.0,0.0,0.0,0.0,0.0
22.0,0.4200000000000001,0.1159742430400929,0.010199047150756568,0.24858416458402477,0.1134276186591914,0.010002371411802463,0.24858416458402444,-0.002546624380901502,-0.00019667573895410483,-3.3306690738754696e-16,0.0025542077213286905,0.05895195016530271,0.00020311111492751142,-0.00011285831069599998,min_task,none,false,false,9.160789238853685,9.160789238853685,7.000000000000002,7.000000000000002,7.000000000000002,7.000000000000002,9.254181756244979,9.254181756244979,0.0,0.0,0.0,0.0,0.0,0.0,0.6856093038754386,-0.02022879233538707,0.0016889638577729704,0.0,0.0,0.0,0.0,0.0,0.0,0.05895195016530271,0.00020311111492751142,-0.00011285831069599998,0.0,0.58,0.92,0.0,0.0,0.0,9.160789238853685,9.160789238853685,7.000000000000002,7.000000000000002,7.000000000000002,7.000000000000002,9.254181756244979,9.254181756244979,1.1609968829857045,1.1609968829857045,1.2443272908859142,1.2443272908859142,1.2446031466714649,1.2446031466714649,1.1612925334141933,1.1612925334141933,0.0,0.0,0.0,0.0,0.0,0.0
23.0,0.4400000000000001,0.1219253683865949,0.010195635898590419,0.24858416458402477,0.1191932178911914,0.010002371411802463,0.24858416458402444,-0.0027321504954034986,-0.00019326448678795571,-3.3306690738754696e-16,0.0027389774536105615,0.06490300104179572,0.0002001246897772462,-0.00012030849758080878,min_task,none,false,false,8.890652124793112,8.890652124793112,6.999999999999998,6.999999999999998,6.999999999999998,6.999999999999998,8.972071606530475,8.972071606530475,0.0,0.0,0.0,0.0,0.0,0.0,0.5553474862662102,-0.017776298960584934,0.0034278173420894185,0.0,0.0,0.0,0.0,0.0,0.0,0.06490300104179572,0.0002001246897772462,-0.00012030849758080878,0.0,0.58,0.92,0.0,0.0,0.0,8.890652124793112,8.890652124793112,6.999999999999998,6.999999999999998,6.999999999999998,6.999999999999998,8.972071606530475,8.972071606530475,1.1569526633977252,1.1569526633977252,1.2486831798390816,1.2486831798390816,1.2489537311404442,1.2489537311404442,1.1572446605016964,1.1572446605016964,0.0,0.0,0.0,0.0,0.0,0.0
24.0,0.46000000000000013,0.12798540158826976,0.010189827426389115,0.2485841645840246,0.12507226608319144,0.010002371411802463,0.24858416458402444,-0.0029131355050783236,-0.0001874560145866521,-1.6653345369377348e-16,0.0029191605348717377,0.0709629821735312,0.00019461327058511763,-0.00012551790728157822,min_task,none,false,false,8.606662994627964,8.606662994627964,6.999999999999997,6.999999999999997,6.999999999999997,6.999999999999997,8.675231870960467,8.675231870960467,0.0,0.0,0.0,0.0,0.0,0.0,0.4197815288068054,-0.015114754144972308,0.005347674382285844,0.0,0.0,0.0,0.0,0.0,0.0,0.0709629821735312,0.00019461327058511763,-0.00012551790728157822,0.0,0.58,0.92,0.0,0.0,0.0,8.606662994627964,8.606662994627964,6.999999999999997,6.999999999999997,6.999999999999997,6.999999999999997,8.675231870960467,8.675231870960467,1.152853216947333,1.152853216947333,1.2531339490284712,1.2531339490284712,1.2533958014344888,1.2533958014344888,1.1531378411411741,1.1531378411411741,0.0,0.0,0.0,0.0,0.0,0.0
25.0,0.48000000000000015,0.13411496895609873,0.010181697969687077,0.24858416458402463,0.13102756131519142,0.010002371411802463,0.24858416458402444,-0.0030874076409073137,-0.000179326557884614,-1.942890293094024e-16,0.0030926111872486665,0.07709252568393042,0.00018661992081324177,-0.0001279048088407188,min_task,none,false,false,8.31178374063909,8.31178374063909,7.000000000000002,7.000000000000002,7.000000000000002,7.000000000000002,8.366805590274286,8.366805590274286,0.0,0.0,0.0,0.0,0.0,0.0,0.2803418001614633,-0.012280063118354074,0.007394868444230509,0.0,0.0,0.0,0.0,0.0,0.0,0.07709252568393042,0.00018661992081324177,-0.0001279048088407188,0.0,0.58,0.92,0.0,0.0,0.0,8.31178374063909,8.31178374063909,7.000000000000002,7.000000000000002,7.000000000000002,7.000000000000002,8.366805590274286,8.366805590274286,1.148726120763368,1.148726120763368,1.2576511052551627,1.2576511052551627,1.2579009873509015,1.2579009873509015,1.1489996918854661,1.1489996918854661,0.0,0.0,0.0,0.0,0.0,0.0
26.0,0.5000000000000001,0.14027400604804302,0.010171352638451866,0.24858416458402455,0.13702116438719142,0.010002371411802463,0.24858416458402444,-0.003252841660851602,-0.0001689812266494027,-1.1102230246251565e-16,0.003257227889714158,0.08325157269357651,0.0001762180087352184,-0.00012691255307751182,min_task,none,false,false,8.009025801251894,8.009025801251894,7.000000000000001,7.000000000000001,7.000000000000001,7.000000000000001,8.049978251780368,8.049978251780368,0.0,0.0,0.0,0.0,0.0,0.0,0.1384541591174696,-0.009307403268492605,0.009511830570139039,0.0,0.0,0.0,0.0,0.0,0.0,0.08325157269357651,0.0001762180087352184,-0.00012691255307751182,0.0,0.58,0.92,0.0,0.0,0.0,8.009025801251894,8.009025801251894,7.000000000000001,7.000000000000001,7.000000000000001,7.000000000000001,8.049978251780368,8.049978251780368,1.1445989598269282,1.1445989598269282,1.2622052684947433,1.2622052684947433,1.2624400744766748,1.2624400744766748,1.1448578866678918,1.1448578866678918,0.0,0.0,0.0,0.0,0.0,0.0
27.0,0.5200000000000001,0.14642216171651642,0.010158921989833146,0.24858416458402466,0.1430147674591914,0.010002371411802463,0.24858416458402444,-0.0034073942573250304,-0.00015655057803068244,-2.220446049250313e-16,0.0034109886702147424,0.08939977717152164,0.0001635089051492682,-0.00012202929801659176,min_task,none,false,false,7.70146151909469,7.70146151909469,7.000000000000001,7.000000000000001,7.000000000000001,7.000000000000001,7.727988991565519,7.727988991565519,0.0,0.0,0.0,0.0,0.0,0.0,-0.004460570929375568,-0.006231191141598848,0.011639482398017147,0.0,0.0,0.0,0.0,0.0,0.0,0.08939977717152164,0.0001635089051492682,-0.00012202929801659176,0.0,0.58,0.92,0.0,0.0,0.0,7.70146151909469,7.70146151909469,7.000000000000001,7.000000000000001,7.000000000000001,7.000000000000001,7.727988991565519,7.727988991565519,1.140499027470946,1.140499027470946,1.266766468776488,1.266766468776488,1.2669832954934632,1.2669832954934632,1.140739854789512,1.140739854789512,0.0,0.0,0.0,0.0,0.0,0.0
28.0,0.5400000000000001,0.15251919873059272,0.010144558860509438,0.24858416458402496,0.1489700626911914,0.010002371411802463,0.24858416458402444,-0.003549136039401324,-0.00014218744870697457,-5.273559366969494e-16,0.0035519830935334014,0.09549690638047865,0.00014861983164107185,-0.00011280582176165052,min_task,none,false,false,7.392235138281615,7.392235138281615,7.000000000000001,7.000000000000001,7.000000000000001,7.000000000000001,7.404141678512549,7.404141678512549,0.0,0.0,0.0,0.0,0.0,0.0,-0.1469866916638002,-0.0030850872646460466,0.013719027645611264,0.0,0.0,0.0,0.0,0.0,0.0,0.09549690638047865,0.00014861983164107185,-0.00011280582176165052,0.0,0.58,0.92,0.0,0.0,0.0,7.392235138281615,7.392235138281615,7.000000000000001,7.000000000000001,7.000000000000001,7.000000000000001,7.404141678512549,7.404141678512549,1.1364530421636487,1.1364530421636487,1.271304451797567,1.271304451797567,1.2715006303672338,1.2715006303672338,1.1366724950076748,1.1366724950076748,0.0,0.0,0.0,0.0,0.0,0.0
29.0,0.5600000000000002,0.15852539105584773,0.010128435472898057,0.2485841645840249,0.15484911088319142,0.010002371411802463,0.24858416458402444,-0.00367628017265631,-0.00012606406109559425,-4.718447854656915e-16,0.0036784409816341787,0.10150323800138827,0.00013170185813551202,-9.887115109611336e-05,min_task,none,false,false,7.08457287159504,7.08457287159504,7.0,7.0,7.0,7.0,7.081815184874693,7.081815184874693,0.0,0.0,0.0,0.0,0.0,0.0,-0.2877134150292615,9.798629540293475e-05,0.015693084719068662,0.0,0.0,0.0,0.0,0.0,0.0,0.10150323800138827,0.00013170185813551202,-9.887115109611336e-05,0.0,0.58,0.92,0.0,0.0,0.0,7.08457287159504,7.08457287159504,7.0,7.0,7.0,7.0,7.081815184874693,7.081815184874693,1.1324868813848186,1.1324868813848186,1.2757889926723833,1.2757889926723833,1.2759621149144211,1.2759621149144211,1.1326819065305052,1.1326819065305052,0.0,0.0,0.0,0.0,0.0,0.0
30.0,0.5800000000000002,0.16440188886481277,0.010110739959281443,0.248584164584025,0.16061471011519143,0.010002371411802463,0.24858416458402444,-0.0037871787496213394,-0.00010836854747897987,-5.551115123125783e-16,0.003788728892869765,0.10737992573427779,0.00011292306404769852,-7.987358230484433e-05,min_task,none,false,false,7.0,7.0,7.210766838075426,7.210766838075426,7.19130068809907,7.19130068809907,7.0,7.0,0.0,0.0,0.0,0.0,0.0,0.0,-0.4252306902209461,0.0032643962136053224,0.017882083772840163,0.0,0.0,0.0,0.0,0.0,0.0,0.10737992573427779,0.00011292306404769852,-7.987358230484433e-05,0.0,0.58,0.92,0.0,0.0,0.0,7.0,7.0,7.210766838075426,7.210766838075426,7.19130068809907,7.19130068809907,7.0,7.0,1.1286253543121212,1.1286253543121212,1.2801901981775854,1.2801901981775854,1.280338133399278,1.280338133399278,1.1287931532050248,1.1287931532050248,0.0,0.0,0.0,0.0,0.0,0.0
31.0,0.6000000000000002,0.17011109432421861,0.01009167236129662,0.24858416458402466,0.16623076438719142,0.010002371411802463,0.24858416458402444,-0.0038803299370271938,-8.93009494941574e-05,-2.220446049250313e-16,0.003881357375940796,0.11308937452752729,9.246772500915866e-05,-5.553657356991177e-05,min_task,none,false,false,7.0,7.0,7.482710475759654,7.482710475759654,7.446878140338024,7.446878140338024,7.0,7.0,0.0,0.0,0.0,0.0,0.0,0.0,-0.5580586477445538,0.0064107926922689976,0.019802403039609378,0.0,0.0,0.0,0.0,0.0,0.0,0.11308937452752729,9.246772500915866e-05,-5.553657356991177e-05,0.0,0.58,0.92,0.0,0.0,0.0,7.0,7.0,7.482710475759654,7.482710475759654,7.446878140338024,7.446878140338024,7.0,7.0,1.1248919800866362,1.1248919800866362,1.2844788217182372,1.2844788217182372,1.2845997296239668,1.2845997296239668,1.125030039052527,1.125030039052527,0.0,0.0,0.0,0.0,0.0,0.0
32.0,0.6200000000000002,0.17561711007255892,0.010071444763655235,0.24858416458402455,0.17166265225919147,0.010002371411802463,0.24858416458402444,-0.003954457813367451,-6.907335185277197e-05,-1.1102230246251565e-16,0.003955061026790744,0.1185956877592106,7.054383956278873e-05,-2.5788396288587033e-05,min_task,none,false,false,6.999999999999999,6.999999999999999,7.740250241013615,7.740250241013615,7.688190580946478,7.688190580946478,6.999999999999999,6.999999999999999,0.0,0.0,0.0,0.0,0.0,0.0,-0.6847963425456652,0.009520147893847182,0.02116308162362708,0.0,0.0,0.0,0.0,0.0,0.0,0.1185956877592106,7.054383956278873e-05,-2.5788396288587033e-05,0.0,0.58,0.92,0.0,0.0,0.0,6.999999999999999,6.999999999999999,7.740250241013615,7.740250241013615,7.688190580946478,7.688190580946478,6.999999999999999,6.999999999999999,1.1213087289294095,1.1213087289294095,1.2886266352476938,1.2886266352476938,1.2887189837543187,1.2887189837543187,1.1214148561492572,1.1214148561492572,0.0,0.0,0.0,0.0,0.0,0.0
33.0,0.6400000000000002,0.18088614215181475,0.010050279546829317,0.24858416458402488,0.1768775954911914,0.010002371411802463,0.24858416458402444,-0.004008546660623363,-4.7908135026853566e-05,-4.440892098500626e-16,0.004008832937376721,0.12386506969480031,4.7384076884819914e-05,9.190597394585682e-06,min_task,none,false,false,7.0,7.0,7.980626127089016,7.980626127089016,7.91262208684518,7.91262208684518,7.0,7.0,0.0,0.0,0.0,0.0,0.0,0.0,-0.8040789914437737,0.012566469029739076,0.02185626511085995,0.0,0.0,0.0,0.0,0.0,0.0,0.12386506969480031,4.7384076884819914e-05,9.190597394585682e-06,0.0,0.58,0.92,0.0,0.0,0.0,7.0,7.0,7.980626127089016,7.980626127089016,7.91262208684518,7.91262208684518,7.0,7.0,1.1178958113170048,1.1178958113170048,1.2926067776645267,1.2926067776645267,1.292669358560832,1.292669358560832,1.1179681721131,1.1179681721131,0.0,0.0,0.0,0.0,0.0,0.0
34.0,0.6600000000000003,0.18588687750474903,0.010028408485675717,0.24858416458402496,0.1818450276831914,0.010002371411802463,0.24858416458402444,-0.004041849821557614,-2.6037073873254324e-05,-5.273559366969494e-16,0.00404193368441903,0.12886620292828327,2.324517988620342e-05,4.896262655997739e-05,min_task,none,false,false,7.000000000000001,7.000000000000001,8.201081798253966,8.201081798253966,8.117571739114819,8.117571739114819,7.000000000000001,7.000000000000001,0.0,0.0,0.0,0.0,0.0,0.0,-0.9145403336699129,0.015521861186631852,0.02180776400255776,0.0,0.0,0.0,0.0,0.0,0.0,0.12886620292828327,2.324517988620342e-05,4.896262655997739e-05,0.0,0.58,0.92,0.0,0.0,0.0,7.000000000000001,7.000000000000001,8.201081798253966,8.201081798253966,8.117571739114819,8.117571739114819,7.000000000000001,7.000000000000001,1.114671496513466,1.114671496513466,1.2963940891972343,1.2963940891972343,1.2964260310151972,1.2964260310151972,1.1147086455786823,1.1147086455786823,0.0,0.0,0.0,0.0,0.0,0.0
35.0,0.6800000000000003,0.190590859938212,0.010006072052478932,0.248584164584025,0.18653696291519145,0.010002371411802463,0.24858416458402444,-0.004053897023020558,-3.7006406764690525e-06,-5.551115123125783e-16,0.00405389871210374,0.13357062443646042,-1.5932724364438017e-06,9.284195238725203e-05,min_task,none,false,false,7.0,7.0,8.398851175660123,8.398851175660123,8.300442194881407,8.300442194881407,7.0,7.0,0.0,0.0,0.0,0.0,0.0,0.0,-1.014811811395614,0.01835607899682889,0.020981886843772495,0.0,0.0,0.0,0.0,0.0,0.0,0.13357062443646042,-1.5932724364438017e-06,9.284195238725203e-05,0.0,0.58,0.92,0.0,0.0,0.0,7.0,7.0,8.398851175660123,8.398851175660123,8.300442194881407,8.300442194881407,7.0,7.0,1.111651942299206,1.111651942299206,1.2999654473622424,1.2999654473622424,1.2999662256320157,1.2999662256320157,1.111652852407545,1.111652852407545,0.0,0.0,0.0,0.0,0.0,0.0
36.0,0.7000000000000003,0.19497286476593592,0.009983518815530078,0.24858416458402469,0.1909283643871914,0.010002371411802463,0.24858416458402444,-0.004044500378744514,1.885259627238539e-05,-2.498001805406602e-16,0.004044544317231637,0.13795310045555578,-2.6830824688757146e-05,0.00013991868524318077,min_task,none,false,false,7.0,7.0,8.571145690143021,8.571145690143021,8.45862767426002,8.45862767426002,7.0,7.0,0.0,0.0,0.0,0.0,0.0,0.0,-1.1035218412284402,0.021036316907586398,0.01938374146581495,0.0,0.0,0.0,0.0,0.0,0.0,0.13795310045555578,-2.6830824688757146e-05,0.00013991868524318077,0.0,0.58,0.92,0.0,0.0,0.0,7.0,7.0,8.571145690143021,8.571145690143021,8.45862767426002,8.45862767426002,7.0,7.0,1.1088510332545602,1.1088510332545602,1.3033001030312619,1.3033001030312619,1.3032695481315542,1.3032695481315542,1.108815120060794,1.108815120060794,0.0,0.0,0.0,0.0,0.0,0.0
37.0,0.7200000000000003,0.1990112723324547,0.009961004837691719,0.24858416458402494,0.19499751305919139,0.010002371411802463,0.24858416458402444,-0.0040137592732633065,4.1366574110744334e-05,-4.996003610813204e-16,0.004013972433532752,0.141992000367778,-5.214883879616551e-05,0.00018909546470578654,min_task,none,false,false,6.999999999999998,6.999999999999998,8.715142405152672,8.715142405152672,8.589501498766474,8.589501498766474,6.999999999999998,6.999999999999998,0.0,0.0,0.0,0.0,0.0,0.0,-1.179295190334706,0.02352724946609281,0.01705881127195919,0.0,0.0,0.0,0.0,0.0,0.0,0.141992000367778,-5.214883879616551e-05,0.00018909546470578654,0.0,0.58,0.92,0.0,0.0,0.0,6.999999999999998,6.999999999999998,8.715142405152672,8.715142405152672,8.589501498766474,8.589501498766474,6.999999999999998,6.999999999999998,1.1062802245738768,1.1062802245738768,1.3063800151462455,1.3063800151462455,1.3063183180017488,1.3063183180017488,1.1062073672041068,1.1062073672041068,0.0,0.0,0.0,0.0,0.0,0.0
38.0,0.7400000000000003,0.20268844060467445,0.009938792998109857,0.24858416458402466,0.19872637629119144,0.010002371411802463,0.24858416458402444,-0.003962064313483005,6.357841369260611e-05,-2.220446049250313e-16,0.003962574395372688,0.14566966976156645,-7.721386450107108e-05,0.00023913466306432098,min_task,none,false,false,6.999999999999999,6.999999999999999,8.827973144739266,8.827973144739266,8.6904033504567,8.6904033504567,6.999999999999999,6.999999999999999,0.0,0.0,0.0,0.0,0.0,0.0,-1.2407524638729952,0.0257913143368981,0.014089813462009349,0.0,0.0,0.0,0.0,0.0,0.0,0.14566966976156645,-7.721386450107108e-05,0.00023913466306432098,0.0,0.58,0.92,0.0,0.0,0.0,6.999999999999999,6.999999999999999,8.827973144739266,8.827973144739266,8.6904033504567,8.6904033504567,6.999999999999999,6.999999999999999,1.103948388101859,1.103948388101859,1.3091901826548267,1.3091901826548267,1.309097898561979,1.309097898561979,1.1038389453413497,1.1038389453413497,0.0,0.0,0.0,0.0,0.0,0.0
39.0,0.7600000000000003,0.20599107700040015,0.009917152182977836,0.248584164584025,0.20210097648319136,0.010002371411802463,0.24858416458402444,-0.0038901005172087832,8.521922882462687e-05,-5.551115123125783e-16,0.0038910338408897844,0.14897280280471487,-0.00010168156533716123,0.0002887130382804882,min_task,none,false,false,7.0,7.0,8.906714701366148,8.906714701366148,8.758626461710783,8.758626461710783,7.0,7.0,0.0,0.0,0.0,0.0,0.0,0.0,-1.2865097043298592,0.027789212645421096,0.010591046063005661,0.0,0.0,0.0,0.0,0.0,0.0,0.14897280280471487,-0.00010168156533716123,0.0002887130382804882,0.0,0.58,0.92,0.0,0.0,0.0,7.0,7.0,8.906714701366148,8.906714701366148,8.758626461710783,8.758626461710783,7.0,7.0,1.1018616571189255,1.1018616571189255,1.311718972304765,1.311718972304765,1.3115970231795788,1.3115970231795788,1.101716479108,1.101716479108,0.0,0.0,0.0,0.0,0.0,0.0
40.0,0.7800000000000004,0.20891060960482058,0.009896356316435479,0.2485841645840249,0.2051117597151914,0.010002371411802463,0.24858416458402444,-0.003798849889629169,0.00010601509536698438,-4.718447854656915e-16,0.0038003288916067805,0.1518928140459734,-0.00012520102462845514,0.0003364802535874903,min_task,none,false,false,7.0,7.0,8.948380151626656,8.948380151626656,8.79140499054134,8.79140499054134,7.0,7.0,0.0,0.0,0.0,0.0,0.0,0.0,-1.315178098236295,0.029480585212059405,0.006700613536276193,0.0,0.0,0.0,0.0,0.0,0.0,0.1518928140459734,-0.00012520102462845514,0.0003364802535874903,0.0,0.58,0.92,0.0,0.0,0.0,7.0,7.0,8.948380151626656,8.948380151626656,8.79140499054134,8.79140499054134,7.0,7.0,1.1000232663758838,1.1000232663758838,1.3139584410324112,1.3139584410324112,1.3138081163668116,1.3138081163668116,1.0998437018227878,1.0998437018227878,0.0,0.0,0.0,0.0,0.0,0.0
41.0,0.8000000000000004,0.21144355790746053,0.009876683228422875,0.24858416458402496,0.20775396438719135,0.010002371411802463,0.24858416458402444,-0.00368959352026918,0.0001256881833795881,-5.273559366969494e-16,0.003691733720659384,0.1544262097393797,-0.0001474192157154641,0.00038111742403809434,min_task,none,false,false,6.999999999999999,6.999999999999999,8.949911279711873,8.949911279711873,8.785901882438699,8.785901882438699,6.999999999999999,6.999999999999999,0.0,0.0,0.0,0.0,0.0,0.0,-1.3253637817473614,0.03082481064463331,0.002571070695818669,0.0,0.0,0.0,0.0,0.0,0.0,0.1544262097393797,-0.0001474192157154641,0.00038111742403809434,0.0,0.58,0.92,0.0,0.0,0.0,6.999999999999999,6.999999999999999,8.949911279711873,8.949911279711873,8.785901882438699,8.785901882438699,6.999999999999999,6.999999999999999,1.0984333840064646,1.0984333840064646,1.3159046518092972,1.3159046518092972,1.3157276085969283,1.3157276085969283,1.0982212830166507,1.0982212830166507,0.0,0.0,0.0,0.0,0.0,0.0
42.0,0.8200000000000004,0.213591903174255,0.00985841338073968,0.2485841645840248,0.2100279898591914,0.010002371411802463,0.24858416458402444,-0.003563913315063588,0.00014395803106278388,-3.608224830031759e-16,0.0035668195962222436,0.1565749587674918,-0.00016798539682682162,0.0004213918603660449,min_task,none,false,false,7.0,7.0,8.908172103052852,8.908172103052852,8.73919756449284,8.73919756449284,7.0,7.0,0.0,0.0,0.0,0.0,0.0,0.0,-1.3156677338222464,0.03178186318420303,-0.001640871584137348,0.0,0.0,0.0,0.0,0.0,0.0,0.1565749587674918,-0.00016798539682682162,0.0004213918603660449,0.0,0.58,0.92,0.0,0.0,0.0,7.0,7.0,8.908172103052852,8.908172103052852,8.73919756449284,8.73919756449284,7.0,7.0,1.0970889322418966,1.0970889322418966,1.3175579819767702,1.3175579819767702,1.317356243830523,1.317356243830523,1.0968466449491607,1.0968466449491607,0.0,0.0,0.0,0.0,0.0,0.0
43.0,0.8400000000000004,0.2153634585529146,0.009841828493803328,0.24858416458402496,0.21193976509119145,0.010002371411802463,0.24858416458402444,-0.003423693461723165,0.00016054291799913467,-5.273559366969494e-16,0.00342745546263779,0.15834686322560423,-0.00018655518515807093,0.0004562044497059977,min_task,none,false,false,6.999999999999997,6.999999999999997,8.819943515183686,8.819943515183686,8.648279859216872,8.648279859216872,6.999999999999997,6.999999999999997,0.0,0.0,0.0,0.0,0.0,0.0,-1.2846857443726551,0.03231316537971156,-0.005784887556814181,0.0,0.0,0.0,0.0,0.0,0.0,0.15834686322560423,-0.00018655518515807093,0.0004562044497059977,0.0,0.58,0.92,0.0,0.0,0.0,6.999999999999997,6.999999999999997,8.819943515183686,8.819943515183686,8.648279859216872,8.648279859216872,6.999999999999997,6.999999999999997,1.0959833943231936,1.0959833943231936,1.318923423307922,1.318923423307922,1.3186993789464525,1.3186993789464525,1.0957137655955866,1.0957137655955866,0.0,0.0,0.0,0.0,0.0,0.0
44.0,0.8600000000000004,0.21677223899526032,0.009827210133132916,0.24858416458402496,0.21350111728319132,0.010002371411802463,0.24858416458402444,-0.003271121712069003,0.00017516127866954757,-5.273559366969494e-16,0.0032758081031578137,0.15975592871931568,-0.00020279407663403124,0.00048462661078018694,min_task,none,false,false,7.0,7.0,8.681919109242541,8.681919109242541,8.51003554354907,8.51003554354907,7.0,7.0,0.0,0.0,0.0,0.0,0.0,0.0,-1.23100844482177,0.03238237339714072,-0.009727146784794147,0.0,0.0,0.0,0.0,0.0,0.0,0.15975592871931568,-0.00020279407663403124,0.00048462661078018694,0.0,0.58,0.92,0.0,0.0,0.0,7.0,7.0,8.681919109242541,8.681919109242541,8.51003554354907,8.51003554354907,7.0,7.0,1.0951066056583572,1.0951066056583572,1.320010873298439,1.320010873298439,1.31976727453518,1.31976727453518,1.0948129662478785,1.0948129662478785,0.0,0.0,0.0,0.0,0.0,0.0
45.0,0.8800000000000004,0.21783883106825552,0.009814838325161985,0.2485841645840249,0.21473014051519163,0.010002371411802463,0.24858416458402444,-0.0031086905530638975,0.00018753308664047792,-4.718447854656915e-16,0.0031143419229900924,0.16082273442253392,-0.00021638020582752688,0.0005059244375162472,min_task,none,false,false,6.999999999999998,6.999999999999998,8.490702321623262,8.490702321623262,8.321244013275065,8.321244013275065,6.999999999999998,6.999999999999998,0.0,0.0,0.0,0.0,0.0,0.0,-1.153221390034759,0.03195604092212131,-0.013359390650459702,0.0,0.0,0.0,0.0,0.0,0.0,0.16082273442253392,-0.00021638020582752688,0.0005059244375162472,0.0,0.58,0.92,0.0,0.0,0.0,6.999999999999998,6.999999999999998,8.490702321623262,8.490702321623262,8.321244013275065,8.321244013275065,6.999999999999998,6.999999999999998,1.0944445281030375,1.0944445281030375,1.320835417515652,1.320835417515652,1.320575376847572,1.320575376847572,1.0941306827189523,1.0941306827189523,0.0,0.0,0.0,0.0,0.0,0.0
46.0,0.9000000000000005,0.21859076271637373,0.009804990275920217,0.2485841645840247,0.2156515643871914,0.010002371411802463,0.24858416458402444,-0.0029391983291823243,0.00019738113588224637,-2.7755575615628914e-16,0.0029458184144767535,0.1615748029418542,-0.00022700618147049426,0.0005195684324721371,min_task,none,false,false,6.999999999999998,6.999999999999998,8.242805137017381,8.242805137017381,8.078573545655887,8.078573545655887,6.999999999999998,6.999999999999998,0.0,0.0,0.0,0.0,0.0,0.0,-1.0499051834454518,0.031004120627580314,-0.01660650545577313,0.0,0.0,0.0,0.0,0.0,0.0,0.1615748029418542,-0.00022700618147049426,0.0005195684324721371,0.0,0.58,0.92,0.0,0.0,0.0,6.999999999999998,6.999999999999998,8.242805137017381,8.242805137017381,8.078573545655887,8.078573545655887,6.999999999999998,6.999999999999998,1.0939790072502689,1.0939790072502689,1.3214176032424167,1.3214176032424167,1.3211445911108812,1.3211445911108812,1.0936492201647146,1.0936492201647146,0.0,0.0,0.0,0.0,0.0,0.0
47.0,0.9200000000000005,0.2190628730319405,0.009797939263201813,0.24858416458402466,0.21629712265919154,0.010002371411802463,0.24858416458402444,-0.002765750372748954,0.00020443214860065007,-2.220446049250313e-16,0.0027732954454479705,0.16204697003560645,-0.00023437988260645732,0.0005252280509288165,min_task,none,false,false,7.0,7.0,7.934648719079333,7.934648719079333,7.77858068466759,7.77858068466759,7.0,7.0,0.0,0.0,0.0,0.0,0.0,0.0,-0.9196356411915222,0.029500279101094908,-0.019432304621452415,0.0,0.0,0.0,0.0,0.0,0.0,0.16204697003560645,-0.00023437988260645732,0.0005252280509288165,0.0,0.58,0.92,0.0,0.0,0.0,7.0,7.0,7.934648719079333,7.934648719079333,7.77858068466759,7.77858068466759,7.0,7.0,1.0936875137904736,1.0936875137904736,1.3217837051556056,1.3217837051556056,1.3215015469384865,1.3215015469384865,1.0933464927309726,1.0933464927309726,0.0,0.0,0.0,0.0,0.0,0.0
48.0,0.9400000000000005,0.21929768208707973,0.009793953763449478,0.2485841645840247,0.21670592189119153,0.010002371411802463,0.24858416458402444,-0.002591760195888193,0.00020841764835298482,-2.7755575615628914e-16,0.0026001266948238104,0.16228175424078636,-0.00023822415348339382,0.0005227510429879524,min_task,none,false,false,6.999999999999999,6.999999999999999,7.562566468667975,7.562566468667975,7.417713304685966,7.417713304685966,6.999999999999999,6.999999999999999,0.0,0.0,0.0,0.0,0.0,0.0,-0.760983995868111,0.02742202077502747,-0.02184345226068823,0.0,0.0,0.0,0.0,0.0,0.0,0.16228175424078636,-0.00023822415348339382,0.0005227510429879524,0.0,0.58,0.92,0.0,0.0,0.0,6.999999999999999,6.999999999999999,7.562566468667975,7.562566468667975,7.417713304685966,7.417713304685966,6.999999999999999,6.999999999999999,1.0935428713383295,1.0935428713383295,1.3219659843947036,1.3219659843947036,1.3216788571838236,1.3216788571838236,1.0931957505794463,1.0931957505794463,0.0,0.0,0.0,0.0,0.0,0.0
49.0,0.9600000000000005,0.21934576089476543,0.009793296775913882,0.248584164584025,0.21692481008319142,0.010002371411802463,0.24858416458402444,-0.0024209508115740075,0.00020907463588858144,-5.551115123125783e-16,0.0024299619411490355,0.16232972641742538,-0.00023827510537649223,0.0005121218188587352,min_task,none,false,false,7.007571568748792,7.007571568748792,7.121346247695864,7.121346247695864,6.999999999999999,6.999999999999999,6.999999999999999,6.999999999999999,0.0,0.0,0.0,0.0,0.0,0.0,-0.5725174542403502,0.024752391031303965,-0.023922461182915234,0.0,0.0,0.0,0.0,0.0,0.0,0.16232972641742538,-0.00023827510537649223,0.0005121218188587352,0.0,0.58,0.92,0.0,0.0,0.0,7.007571568748792,7.007571568748792,7.121346247695864,7.121346247695864,6.999999999999999,6.999999999999999,6.999999999999999,6.999999999999999,1.093512974565048,1.093512974565048,1.3220029430183107,1.3220029430183107,1.3217153723577235,1.3217153723577235,1.0931652984428932,1.0931652984428932,0.0,0.0,0.0,0.0,0.0,0.0
50.0,0.9800000000000005,0.2192661051018981,0.00979621298903293,0.2485841645840249,0.21700874531519126,0.010002371411802463,0.24858416458402444,-0.002257359786706825,0.0002061584227695326,-4.718447854656915e-16,0.002266754177655774,0.16224987413785286,-0.00023424206472162464,0.0004925338972910519,min_task,none,false,false,7.588740731057383,7.588740731057383,7.000000000000001,7.000000000000001,7.000000000000001,7.000000000000001,7.494471389884837,7.494471389884837,0.0,0.0,0.0,0.0,0.0,0.0,-0.3528412176444129,0.021716908402901414,-0.029985020594672653,0.0,0.0,0.0,0.0,0.0,0.0,0.16224987413785286,-0.00023424206472162464,0.0004925338972910519,0.0,0.58,0.92,0.0,0.0,0.0,7.588740731057383,7.588740731057383,7.000000000000001,7.000000000000001,7.000000000000001,7.000000000000001,7.494471389884837,7.494471389884837,1.0935604968197392,1.0935604968197392,1.3219395649214327,1.3219395649214327,1.3216564373555384,1.3216564373555384,1.093218224008044,1.093218224008044,0.0,0.0,0.0,0.0,0.0,0.0
51.0,1.0000000000000004,0.21912650580613524,0.009802940035448416,0.24858416458402469,0.21702116438719138,0.010002371411802463,0.24858416458402444,-0.0021053414189438624,0.0001994313763540468,-2.498001805406602e-16,0.0021147660306036283,0.16210997335347122,-0.00022580111212577067,0.00046247400697735206,min_task,none,false,false,8.281953607211001,8.281953607211001,7.0,7.0,7.0,7.0,8.203823080755233,8.203823080755233,0.0,0.0,0.0,0.0,0.0,0.0,-0.10048705611041005,0.018128529734381883,-0.03671351527423297,0.0,0.0,0.0,0.0,0.0,0.0,0.16210997335347122,-0.00022580111212577067,0.00046247400697735206,0.0,0.58,0.92,0.0,0.0,0.0,8.281953607211001,8.281953607211001,7.0,7.0,7.0,7.0,8.203823080755233,8.203823080755233,1.093642600571838,1.093642600571838,1.3218275682725606,1.3218275682725606,1.3215541530476154,1.3215541530476154,1.0933121223957878,1.0933121223957878,0.0,0.0,0.0,0.0,0.0,0.0
52.0,1.0200000000000005,0.2189661724446506,0.00984802832068359,0.24858416458402455,0.21702116438719138,0.010014790483802464,0.24858416458402444,-0.0019450080574592299,0.00016676216311887343,-1.1102230246251565e-16,0.0019521439400385957,0.16195000633164489,-0.00018279535959696836,0.0004989991919857108,min_task,none,false,false,8.841044197346323,8.841044197346323,7.000000000000001,7.000000000000001,7.000000000000001,7.000000000000001,7.894000933117409,7.894000933117409,0.0,0.0,0.0,0.0,0.0,0.0,-0.055152502294108674,0.21108429340147164,0.33517780157091387,0.0,0.0,0.0,0.0,0.0,0.0,0.16195000633164489,-0.00018279535959696836,0.0004989991919857108,0.0,0.58,0.92,0.0,0.0,0.0,8.841044197346323,8.841044197346323,7.000000000000001,7.000000000000001,7.000000000000001,7.000000000000001,7.894000933117409,7.894000933117409,1.0937090000225949,1.0937090000225949,1.3216767627088444,1.3216767627088444,1.3214599685951955,1.3214599685951955,1.0934470084304535,1.0934470084304535,0.0,0.0,0.0,0.0,0.0,0.0
53.0,1.0400000000000005,0.21879608303158044,0.00999110431096668,0.24858416458402466,0.21702116438719138,0.010098725715802467,0.24858416458402444,-0.0017749186443890563,0.00010762140483578687,-2.220446049250313e-16,0.0017781784390152506,0.16178219423106507,-5.265523280931092e-05,0.0007258843487064451,min_task,none,false,false,9.343987233983222,9.343987233983222,6.999999999999997,6.999999999999997,6.999999999999997,6.999999999999997,7.579486428820876,7.579486428820876,0.0,0.0,0.0,0.0,0.0,0.0,-0.02065194990115261,0.39244871810225723,0.6746786599798837,0.0,0.0,0.0,0.0,0.0,0.0,0.16178219423106507,-5.265523280931092e-05,0.0007258843487064451,0.0,0.58,0.92,0.0,0.0,0.0,9.343987233983222,9.343987233983222,6.999999999999997,6.999999999999997,6.999999999999997,6.999999999999997,7.579486428820876,7.579486428820876,1.0937084474957168,1.0937084474957168,1.3214604333900348,1.3214604333900348,1.321419354446926,1.321419354446926,1.093658813988642,1.093658813988642,0.0,0.0,0.0,0.0,0.0,0.0
54.0,1.0600000000000005,0.21862458172846921,0.010286345134763425,0.2485841645840248,0.21702116438719138,0.01031761390780247,0.24858416458402444,-0.0016034173412778352,3.12687730390452e-05,-3.608224830031759e-16,0.0016037222036493256,0.1616158275238577,0.00021348228605391593,0.0012363672411342906,min_task,none,false,false,9.793445643640563,9.793445643640563,7.000000000000001,7.000000000000001,7.000000000000001,7.000000000000001,7.26673664457617,7.26673664457617,0.0,0.0,0.0,0.0,0.0,0.0,0.004650321792242331,0.5611790303664329,0.9614335042135357,0.0,0.0,0.0,0.0,0.0,0.0,0.1616158275238577,0.00021348228605391593,0.0012363672411342906,0.0,0.58,0.92,0.0,0.0,0.0,9.793445643640563,9.793445643640563,7.000000000000001,7.000000000000001,7.000000000000001,7.000000000000001,7.26673664457617,7.26673664457617,1.0935951949066052,1.0935951949066052,1.3211525951427558,1.3211525951427558,1.3214726290775969,1.3214726290775969,1.0939818006126216,1.0939818006126216,0.0,0.0,0.0,0.0,0.0,0.0
55.0,1.0800000000000005,0.21845784454912756,0.010782078316604268,0.24858416458402455,0.21702116438719138,0.010726413139802476,0.24858416458402444,-0.0014366801619361824,-5.566517680179184e-05,-1.1102230246251565e-16,0.0014377581505974329,0.16145770884825023,0.0006605590624460874,0.0020899217759569513,min_task,none,false,false,10.199589135789974,10.199589135789974,7.038273110644384,7.038273110644384,7.000000000000002,7.000000000000002,7.000000000000002,7.000000000000002,0.0,0.0,0.0,0.0,0.0,0.0,0.02219780768432031,0.7165589902239068,1.179650038330987,0.0,0.0,0.0,0.0,0.0,0.0,0.16145770884825023,0.0006605590624460874,0.0020899217759569513,0.0,0.58,0.92,0.0,0.0,0.0,10.199589135789974,10.199589135789974,7.038273110644384,7.038273110644384,7.000000000000002,7.000000000000002,7.000000000000002,7.000000000000002,1.0933290267744904,1.0933290267744904,1.3207285694363384,1.3207285694363384,1.3216551426316974,1.3216551426316974,1.0944481361431018,1.0944481361431018,0.0,0.0,0.0,0.0,0.0,0.0
56.0,1.1000000000000005,0.2183002783812281,0.011520546531568403,0.2485841645840246,0.21702116438719138,0.011371971411802483,0.24858416458402444,-0.0012791139940367124,-0.0001485751197659209,-1.6653345369377348e-16,0.0012877139340529047,0.16131253547426003,0.0013294827843413246,0.003310130192666641,min_task,none,false,false,10.606788164864396,10.606788164864396,7.327249245947708,7.327249245947708,6.999999999999999,6.999999999999999,6.999999999999999,6.999999999999999,0.0,0.0,0.0,0.0,0.0,0.0,0.03321578348690939,0.8582749640557966,1.3142607963607427,0.0,0.0,0.0,0.0,0.0,0.0,0.16131253547426003,0.0013294827843413246,0.003310130192666641,0.0,0.58,0.92,0.0,0.0,0.0,10.606788164864396,10.606788164864396,7.327249245947708,7.327249245947708,6.999999999999999,6.999999999999999,6.999999999999999,6.999999999999999,1.092875208444519,1.092875208444519,1.3201654182871936,1.3201654182871936,1.3219974872100546,1.3219974872100546,1.0950875973094338,1.0950875973094338,0.0,0.0,0.0,0.0,0.0,0.0
57.0,1.1200000000000006,0.2181548554089274,0.012537833612976957,0.2485841645840248,0.21702116438719138,0.012293395283802492,0.24858416458402444,-0.0011336910217360219,-0.00024443832917446506,-3.608224830031759e-16,0.001159743691310485,0.16118323285037947,0.002257033791120822,0.004885008320763424,min_task,none,false,false,10.965889963911074,10.965889963911074,7.602354722739172,7.602354722739172,7.0,7.0,7.0,7.0,0.0,0.0,0.0,0.0,0.0,0.0,0.03881026889618002,0.985830976471703,1.3602083975028005,0.0,0.0,0.0,0.0,0.0,0.0,0.16118323285037947,0.002257033791120822,0.004885008320763424,0.0,0.58,0.92,0.0,0.0,0.0,10.965889963911074,10.965889963911074,7.602354722739172,7.602354722739172,7.0,7.0,7.0,7.0,1.0922043506565102,1.0922043506565102,1.319442258623113,1.319442258623113,1.322525701780333,1.322525701780333,1.095927324972833,1.095927324972833,0.0,0.0,0.0,0.0,0.0,0.0
58.0,1.1400000000000006,0.21802339020095984,0.01386393172699461,0.24858416458402496,0.21702116438719138,0.013522418515802503,0.24858416458402444,-0.0010022258137684648,-0.0003415132111921071,-5.273559366969494e-16,0.001058814362956324,0.16107125040346737,0.003475746398574277,0.006770224759180388,min_task,none,false,false,11.278093452948303,11.278093452948303,7.860255055459998,7.860255055459998,7.0,7.0,7.0,7.0,0.0,0.0,0.0,0.0,0.0,0.0,0.03994179306197104,1.0987119729293606,1.3164203592158157,0.0,0.0,0.0,0.0,0.0,0.0,0.16107125040346737,0.003475746398574277,0.006770224759180388,0.0,0.58,0.92,0.0,0.0,0.0,11.278093452948303,11.278093452948303,7.860255055459998,7.860255055459998,7.0,7.0,7.0,7.0,1.09129220134488,1.09129220134488,1.3185404870888713,1.3185404870888713,1.3232614593435041,1.3232614593435041,1.0969915872090803,1.0969915872090803,0.0,0.0,0.0,0.0,0.0,0.0
59.0,1.1600000000000006,0.21791245858280905,0.015492226059929209,0.248584164584025,0.21702116438719138,0.015083770707802514,0.24858416458402444,-0.0008912941956176756,-0.0004084553521266944,-5.551115123125783e-16,0.000980429047826869,0.16097683129320792,0.0050139166986657435,0.00835290596078398,min_task,none,false,false,11.543942856663833,11.543942856663833,8.097506672905325,8.097506672905325,7.0,7.0,7.0,7.0,0.0,0.0,0.0,0.0,0.0,0.0,0.037464750875214545,1.1962592669078282,1.1875912289058008,0.0,0.0,0.0,0.0,0.0,0.0,0.16097683129320792,0.0050139166986657435,0.00835290596078398,0.0,0.58,0.92,0.0,0.0,0.0,11.543942856663833,11.543942856663833,8.097506672905325,8.097506672905325,7.0,7.0,7.0,7.0,1.0901297094669227,1.0901297094669227,1.3174529407623388,1.3174529407623388,1.324211628881382,1.324211628881382,1.098288200065805,1.098288200065805,0.0,0.0,0.0,0.0,0.0,0.0
60.0,1.1800000000000006,0.21783299615643786,0.01738445675788002,0.24858416458402458,0.21702116438719138,0.016995545939802528,0.24858416458402444,-0.0008118317692464849,-0.0003889108180774904,-1.3877787807814457e-16,0.0009001791188289033,0.16089699435384075,0.006908182579270988,0.00831716075066551,min_task,none,false,false,11.948701299451281,11.948701299451281,8.536347190372162,8.536347190372162,7.0,7.0,7.0,7.0,0.0,0.0,0.0,0.0,0.0,0.0,0.01608659847481749,1.3601687419533937,1.2119261969160506,0.0,0.0,0.0,0.0,0.0,0.0,0.16089699435384075,0.006908182579270988,0.00831716075066551,0.0,0.58,0.92,0.0,0.0,0.0,11.948701299451281,11.948701299451281,8.536347190372162,8.536347190372162,7.0,7.0,7.0,7.0,1.0887155531903048,1.0887155531903048,1.3161763567559908,1.3161763567559908,1.3253720536729818,1.3253720536729818,1.099814727275615,1.099814727275615,0.0,0.0,0.0,0.0,0.0,0.0
61.0,1.2000000000000006,0.2177665187489301,0.019647913514007846,0.2485841645840247,0.21702116438719138,0.019269571411802543,0.24858416458402444,-0.0007453543617387259,-0.0003783421022053035,-2.7755575615628914e-16,0.0008358802969708473,0.16082765677806146,0.009187195594424468,0.008043944021117461,min_task,none,false,false,12.112393395764109,12.112393395764109,8.731323502073302,8.731323502073302,7.0,7.0,7.0,7.0,0.0,0.0,0.0,0.0,0.0,0.0,0.004259075677391096,1.424570219102825,1.3248494164340514,0.0,0.0,0.0,0.0,0.0,0.0,0.16082765677806146,0.009187195594424468,0.008043944021117461,0.0,0.58,0.92,0.0,0.0,0.0,12.112393395764109,12.112393395764109,8.731323502073302,8.731323502073302,7.0,7.0,7.0,7.0,1.0870034589359228,1.0870034589359228,1.3146670051313136,1.3146670051313136,1.3267864118118171,1.3267864118118171,1.1016303227154738,1.1016303227154738,0.0,0.0,0.0,0.0,0.0,0.0
62.0,1.2200000000000006,0.2177078786407387,0.022307260699902322,0.24858416458402488,0.21702116438719138,0.021911776083802556,0.24858416458402444,-0.000686714253547327,-0.00039548461609976646,-4.440892098500626e-16,0.0007924547605993935,0.16076711668209231,0.011856889917031179,0.007862223423056439,min_task,none,false,false,12.123809381006904,12.123809381006904,8.755227831051238,8.755227831051238,7.000000000000001,7.000000000000001,7.000000000000001,7.000000000000001,0.0,0.0,0.0,0.0,0.0,0.0,0.0024215770308157,1.4223761122955545,1.3633116378929289,0.0,0.0,0.0,0.0,0.0,0.0,0.16076711668209231,0.011856889917031179,0.007862223423056439,0.0,0.58,0.92,0.0,0.0,0.0,12.123809381006904,12.123809381006904,8.755227831051238,8.755227831051238,7.000000000000001,7.000000000000001,7.000000000000001,7.000000000000001,1.0849845888681184,1.0849845888681184,1.3129153833264269,1.3129153833264269,1.3284648409918407,1.3284648409918407,1.1037497850770432,1.1037497850770432,0.0,0.0,0.0,0.0,0.0,0.0
63.0,1.2400000000000007,0.2176566391145711,0.025359902024059428,0.2485841645840246,0.21702116438719138,0.02492255931580257,0.24858416458402444,-0.000635474727379709,-0.0004373427082568597,-1.6653345369377348e-16,0.0007714251574869465,0.16071487639028084,0.014914985567649966,0.0077664347764155595,min_task,none,false,false,12.14235335593895,12.14235335593895,8.783579065690075,8.783579065690075,7.0,7.0,7.0,7.0,0.0,0.0,0.0,0.0,0.0,0.0,0.0010844876577950106,1.420967767427999,1.3879814028608795,0.0,0.0,0.0,0.0,0.0,0.0,0.16071487639028084,0.014914985567649966,0.0077664347764155595,0.0,0.58,0.92,0.0,0.0,0.0,12.14235335593895,12.14235335593895,8.783579065690075,8.783579065690075,7.0,7.0,7.0,7.0,1.082662352216888,1.082662352216888,1.3109240083763745,1.3109240083763745,1.33040665887954,1.33040665887954,1.1061726317176919,1.1061726317176919,0.0,0.0,0.0,0.0,0.0,0.0
64.0,1.2600000000000007,0.21761263544204146,0.02880166484557496,0.24858416458402474,0.21702116438719138,0.028297159507802584,0.24858416458402444,-0.000591471054850079,-0.0005045053377723749,-3.0531133177191805e-16,0.0007774082869163946,0.1606703801701733,0.018359433930481416,0.007719272033780944,min_task,none,false,false,12.164934938694206,12.164934938694206,8.819887200579034,8.819887200579034,6.999999999999999,6.999999999999999,6.999999999999999,6.999999999999999,0.0,0.0,0.0,0.0,0.0,0.0,-0.0010790480919566849,1.4202915385809045,1.3998264319925895,0.0,0.0,0.0,0.0,0.0,0.0,0.1606703801701733,0.018359433930481416,0.007719272033780944,0.0,0.58,0.92,0.0,0.0,0.0,12.164934938694206,12.164934938694206,8.819887200579034,8.819887200579034,6.999999999999999,6.999999999999999,6.999999999999999,6.999999999999999,1.080040774227306,1.080040774227306,1.308695994756198,1.308695994756198,1.3326108801454162,1.3326108801454162,1.1088979327172295,1.1088979327172295,0.0,0.0,0.0,0.0,0.0,0.0
65.0,1.2800000000000007,0.21757519018445626,0.03262360791841932,0.24858416458402455,0.21702116438719138,0.032026022739802595,0.24858416458402444,-0.0005540257972648788,-0.0005975851786167233,-1.1102230246251565e-16,0.0008148942445111301,0.16063269011196732,0.02218271200737175,0.00769582720937732,min_task,none,false,false,12.09197754331068,12.09197754331068,8.78293675200664,8.78293675200664,7.000000000000002,7.000000000000002,7.000000000000002,7.000000000000002,0.0,0.0,0.0,0.0,0.0,0.0,-0.004364271442633834,1.3836882642940014,1.3424661224198084,0.0,0.0,0.0,0.0,0.0,0.0,0.16063269011196732,0.02218271200737175,0.00769582720937732,0.0,0.58,0.92,0.0,0.0,0.0,12.09197754331068,12.09197754331068,8.78293675200664,8.78293675200664,7.000000000000002,7.000000000000002,7.000000000000002,7.000000000000002,1.077128242506216,1.077128242506216,1.3062376597192358,1.3062376597192358,1.335073088697082,1.335073088697082,1.1119211209878652,1.1119211209878652,0.0,0.0,0.0,0.0,0.0,0.0
66.0,1.3000000000000007,0.2175432011494256,0.0368097302236384,0.24858416458402469,0.21702116438719138,0.036095171411802615,0.24858416458402444,-0.0005220367622342237,-0.0007145588118357832,-2.498001805406602e-16,0.0008849387982771225,0.16060056658595256,0.026369567825404946,0.007682945584108032,min_task,none,false,false,11.966346535847466,11.966346535847466,8.703384676927898,8.703384676927898,6.999999999999999,6.999999999999999,6.999999999999999,6.999999999999999,0.0,0.0,0.0,0.0,0.0,0.0,-0.007743689221671447,1.3263617394445477,1.2459405890106605,0.0,0.0,0.0,0.0,0.0,0.0,0.16060056658595256,0.026369567825404946,0.007682945584108032,0.0,0.58,0.92,0.0,0.0,0.0,11.966346535847466,11.966346535847466,8.703384676927898,8.703384676927898,6.999999999999999,6.999999999999999,6.999999999999999,6.999999999999999,1.0739391679966563,1.0739391679966563,1.3035599527912065,1.3035599527912065,1.3377839407206982,1.3377839407206982,1.1152321095119788,1.1152321095119788,0.0,0.0,0.0,0.0,0.0,0.0
67.0,1.3200000000000007,0.21751545908942455,0.04133977354605283,0.24858416458402485,0.21702116438719138,0.04048657288380263,0.24858416458402444,-0.0004942947022331667,-0.0008532006622502045,-4.163336342344337e-16,0.0009860418970408724,0.16057273551080095,0.030900096665076513,0.007674419163063309,min_task,none,false,false,11.808064936095699,11.808064936095699,8.595473800588861,8.595473800588861,7.0,7.0,7.0,7.0,0.0,0.0,0.0,0.0,0.0,0.0,-0.010724345569165326,1.2554799324345518,1.1246239429027445,0.0,0.0,0.0,0.0,0.0,0.0,0.16057273551080095,0.030900096665076513,0.007674419163063309,0.0,0.58,0.92,0.0,0.0,0.0,11.808064936095699,11.808064936095699,8.595473800588861,8.595473800588861,7.0,7.0,7.0,7.0,1.0704914928695322,1.0704914928695322,1.3006767051849766,1.3006767051849766,1.340731196128769,1.340731196128769,1.118817360058411,1.118817360058411,0.0,0.0,0.0,0.0,0.0,0.0
68.0,1.3400000000000007,0.21749079042121894,0.0461900434923932,0.24858416458402463,0.21702116438719138,0.045178508115802644,0.24858416458402444,-0.0004696260340275593,-0.0010115353765905583,-1.942890293094024e-16,0.0011152364905842422,0.16054799363061217,0.03575076595060961,0.007667406169814459,min_task,none,false,false,11.618610362395424,11.618610362395424,8.459656055651818,8.459656055651818,7.000000000000001,7.000000000000001,7.000000000000001,7.000000000000001,0.0,0.0,0.0,0.0,0.0,0.0,-0.013158143459176349,1.171645460914032,0.9805221886214779,0.0,0.0,0.0,0.0,0.0,0.0,0.16054799363061217,0.03575076595060961,0.007667406169814459,0.0,0.58,0.92,0.0,0.0,0.0,11.618610362395424,11.618610362395424,8.459656055651818,8.459656055651818,7.000000000000001,7.000000000000001,7.000000000000001,7.000000000000001,1.0668058545780879,1.0668058545780879,1.2976040511111961,1.2976040511111961,1.3439003285159479,1.3439003285159479,1.1226604789014214,1.1226604789014214,0.0,0.0,0.0,0.0,0.0,0.0
69.0,1.3600000000000008,0.21746811015398906,0.05133354763854921,0.24858416458402452,0.21702116438719138,0.05014594030780266,0.24858416458402444,-0.00044694576679768505,-0.0011876073307465485,-8.326672684688674e-17,0.001268925407776719,0.16052524245034627,0.04089465691126555,0.007660613137492077,min_task,none,false,false,11.400173585721275,11.400173585721275,8.297319088198735,8.297319088198735,6.999999999999999,6.999999999999999,6.999999999999999,6.999999999999999,0.0,0.0,0.0,0.0,0.0,0.0,-0.014973716692368301,1.075808078588601,0.8156594770812139,0.0,0.0,0.0,0.0,0.0,0.0,0.16052524245034627,0.04089465691126555,0.007660613137492077,0.0,0.58,0.92,0.0,0.0,0.0,11.400173585721275,11.400173585721275,8.297319088198735,8.297319088198735,6.999999999999999,6.999999999999999,6.999999999999999,6.999999999999999,1.0629053577262793,1.0629053577262793,1.2943602608541065,1.2943602608541065,1.347274606082971,1.347274606082971,1.1267422858848175,1.1267422858848175,0.0,0.0,0.0,0.0,0.0,0.0
70.0,1.3800000000000008,0.21744644871157948,0.05674026114434558,0.2485841645840249,0.21702116438719138,0.05536088353980269,0.24858416458402444,-0.0004252843243880977,-0.001379377604542889,-4.718447854656915e-16,0.0014434504953356453,0.16050350644568936,0.046301777153160195,0.007653470261685348,min_task,none,false,false,11.155310166484936,11.155310166484936,8.110356819739657,8.110356819739657,7.0,7.0,7.0,7.0,0.0,0.0,0.0,0.0,0.0,0.0,-0.016145675444873227,0.9691038594930242,0.6321121416678456,0.0,0.0,0.0,0.0,0.0,0.0,0.16050350644568936,0.046301777153160195,0.007653470261685348,0.0,0.58,0.92,0.0,0.0,0.0,11.155310166484936,11.155310166484936,8.110356819739657,8.110356819739657,7.0,7.0,7.0,7.0,1.0588152786357405,1.0588152786357405,1.2909654980525949,1.2909654980525949,1.3508352272642277,1.3508352272642277,1.1310409755301944,1.1310409755301944,0.0,0.0,0.0,0.0,0.0,0.0
71.0,1.4000000000000008,0.21742496434012537,0.062377455914389084,0.24858416458402482,0.21702116438719138,0.060792771411802685,0.24858416458402444,-0.00040379995293399196,-0.001584684502586399,-3.885780586188048e-16,0.0016353224069665885,0.16048194149942221,0.05193941147618716,0.007645751084297453,min_task,none,false,false,10.886780115566987,10.886780115566987,7.900962535519522,7.900962535519522,7.000000000000001,7.000000000000001,7.000000000000001,7.000000000000001,0.0,0.0,0.0,0.0,0.0,0.0,-0.016678131219363946,0.8527762829030447,0.4320173942427198,0.0,0.0,0.0,0.0,0.0,0.0,0.16048194149942221,0.05193941147618716,0.007645751084297453,0.0,0.58,0.92,0.0,0.0,0.0,10.886780115566987,10.886780115566987,7.900962535519522,7.900962535519522,7.000000000000001,7.000000000000001,7.000000000000001,7.000000000000001,1.0545627369493447,1.0545627369493447,1.2874415382817492,1.2874415382817492,1.3545614863108515,1.3545614863108515,1.1355323297315136,1.1355323297315136,0.0,0.0,0.0,0.0,0.0,0.0
72.0,1.4200000000000008,0.2174029469791171,0.0682100630712198,0.2485841645840249,0.21702116438719138,0.06640882568380269,0.24858416458402444,-0.00038178259192572783,-0.0018012373874171095,-4.718447854656915e-16,0.0018412533973700472,0.160459836915674,0.05777249447344107,0.007637394660014191,min_task,none,false,false,10.59747312113994,10.59747312113994,7.671524735167977,7.671524735167977,7.0,7.0,7.0,7.0,0.0,0.0,0.0,0.0,0.0,0.0,-0.016594998532706885,0.7281348083575971,0.2175714804292747,0.0,0.0,0.0,0.0,0.0,0.0,0.160459836915674,0.05777249447344107,0.007637394660014191,0.0,0.58,0.92,0.0,0.0,0.0,10.59747312113994,10.59747312113994,7.671524735167977,7.671524735167977,7.0,7.0,7.0,7.0,1.0501763516783615,1.0501763516783615,1.2838114685460065,1.2838114685460065,1.3584309584388532,1.3584309584388532,1.1401899629883265,1.1401899629883265,0.0,0.0,0.0,0.0,0.0,0.0
73.0,1.4400000000000008,0.21737987055783448,0.07420076236128739,0.2485841645840248,0.21702116438719138,0.07217442491580273,0.24858416458402444,-0.0003587061706430972,-0.002026337445484666,-3.608224830031759e-16,0.0020578419666803273,0.1604366131849119,0.06376399745582845,0.007623280726311584,min_task,none,false,false,10.290374079236852,10.290374079236852,7.424572711697098,7.424572711697098,7.0,7.0,7.0,7.0,0.0,0.0,0.0,0.0,0.0,0.0,-0.015933741024571457,0.5965313687870636,-0.008976156124740666,0.0,0.0,0.0,0.0,0.0,0.0,0.1604366131849119,0.06376399745582845,0.007623280726311584,0.0,0.58,0.92,0.0,0.0,0.0,10.290374079236852,10.290374079236852,7.424572711697098,7.424572711697098,7.0,7.0,7.0,7.0,1.0456859516041626,1.0456859516041626,1.280099503794265,1.280099503794265,1.3624196370934458,1.3624196370934458,1.1449854310452232,1.1449854310452232,0.0,0.0,0.0,0.0,0.0,0.0
74.0,1.4600000000000009,0.21735584248898676,0.0803079186810401,0.248584164584025,0.21702116438719138,0.07805347310780271,0.24858416458402444,-0.0003346781017953826,-0.002254445573237396,-5.551115123125783e-16,0.0022791520955195268,0.16041180093718935,0.06987543318246851,0.0075481291172097955,min_task,none,false,false,9.970062800554754,9.970062800554754,7.16453733095481,7.16453733095481,7.0,7.0,7.0,7.0,0.0,0.0,0.0,0.0,0.0,0.0,-0.014859104139484892,0.45998585226030164,-0.2433955187033086,0.0,0.0,0.0,0.0,0.0,0.0,0.16041180093718935,0.06987543318246851,0.0075481291172097955,0.0,0.58,0.92,0.0,0.0,0.0,9.970062800554754,9.970062800554754,7.16453733095481,7.16453733095481,7.0,7.0,7.0,7.0,1.041122632577576,1.041122632577576,1.2763317541969108,1.2763317541969108,1.3665016986484273,1.3665016986484273,1.1498871604218108,1.1498871604218108,0.0,0.0,0.0,0.0,0.0,0.0
75.0,1.4800000000000009,0.21733120863533614,0.08648809707001646,0.24858416458402496,0.21702116438719138,0.08400876833980274,0.24858416458402444,-0.00031004424814476406,-0.0024793287302137257,-5.273559366969494e-16,0.002498639307357278,0.1603849156312481,0.07606790825103234,0.007332190168784966,min_task,none,false,false,9.674699536750746,9.674699536750746,7.0,7.0,7.0,7.0,7.09691101344184,7.09691101344184,0.0,0.0,0.0,0.0,0.0,0.0,-0.014127327518891964,0.32371377514973904,-0.47605911865816836,0.0,0.0,0.0,0.0,0.0,0.0,0.1603849156312481,0.07606790825103234,0.007332190168784966,0.0,0.58,0.92,0.0,0.0,0.0,9.674699536750746,9.674699536750746,7.0,7.0,7.0,7.0,7.09691101344184,7.09691101344184,1.036517535712013,1.036517535712013,1.2725349732274012,1.2725349732274012,1.3706505573194236,1.3706505573194236,1.1548620238070382,1.1548620238070382,0.0,0.0,0.0,0.0,0.0,0.0
76.0,1.5000000000000009,0.21730612154647563,0.09269867404216837,0.24858416458402466,0.21702116438719138,0.09000237141180273,0.24858416458402444,-0.0002849571592842548,-0.002696302630365646,-2.220446049250313e-16,0.002711318582746051,0.16035539878269436,0.08230272297390878,0.006906581996435645,min_task,none,false,false,9.425521501669788,9.425521501669788,6.999999999999999,6.999999999999999,6.999999999999999,6.999999999999999,7.362479600079204,7.362479600079204,0.0,0.0,0.0,0.0,0.0,0.0,-0.013485099320392952,0.1875117835086835,-0.7016346643786189,0.0,0.0,0.0,0.0,0.0,0.0,0.16035539878269436,0.08230272297390878,0.006906581996435645,0.0,0.58,0.92,0.0,0.0,0.0,9.425521501669788,9.425521501669788,6.999999999999999,6.999999999999999,6.999999999999999,6.999999999999999,7.362479600079204,7.362479600079204,1.0319009822784795,1.0319009822784795,1.268735288472651,1.268735288472651,1.3748396879051823,1.3748396879051823,1.1598769643590343,1.1598769643590343,0.0,0.0,0.0,0.0,0.0,0.0
77.0,1.520000000000001,0.21728058551153007,0.09889792035563569,0.24858416458402463,0.21702116438719138,0.09599597448380273,0.24858416458402444,-0.0002594211243386879,-0.002901945871832956,-1.942890293094024e-16,0.0029135183477715537,0.16032271235367632,0.08854121686154183,0.006217475572199706,min_task,none,false,false,9.177894157098057,9.177894157098057,6.999999999999998,6.999999999999998,6.999999999999998,6.999999999999998,7.632458354088455,7.632458354088455,0.0,0.0,0.0,0.0,0.0,0.0,-0.012531627648753239,0.05053231071501197,-0.8985931159857691,0.0,0.0,0.0,0.0,0.0,0.0,0.16032271235367632,0.08854121686154183,0.006217475572199706,0.0,0.58,0.92,0.0,0.0,0.0,9.177894157098057,9.177894157098057,6.999999999999998,6.999999999999998,6.999999999999998,6.999999999999998,7.632458354088455,7.632458354088455,1.0273025379536935,1.0273025379536935,1.2649582151903478,1.2649582151903478,1.3790426128297129,1.3790426128297129,1.1648990283748848,1.1648990283748848,0.0,0.0,0.0,0.0,0.0,0.0
78.0,1.540000000000001,0.21725451373093385,0.10504512047502705,0.248584164584025,0.21702116438719138,0.10195126971580276,0.24858416458402444,-0.00023334934374247274,-0.0030938507592242898,-5.551115123125783e-16,0.003102638302570533,0.16028643709146184,0.09474469009906838,0.0052295862693883385,min_task,none,false,false,8.932235450199586,8.932235450199586,6.999999999999999,6.999999999999999,6.999999999999999,6.999999999999999,7.907690401937103,7.907690401937103,0.0,0.0,0.0,0.0,0.0,0.0,-0.01105448959413165,-0.0871866972514052,-1.0592594234071422,0.0,0.0,0.0,0.0,0.0,0.0,0.16028643709146184,0.09474469009906838,0.0052295862693883385,0.0,0.58,0.92,0.0,0.0,0.0,8.932235450199586,8.932235450199586,6.999999999999999,6.999999999999999,6.999999999999999,6.999999999999999,7.907690401937103,7.907690401937103,1.022751051791711,1.022751051791711,1.2612286197067484,1.2612286197067484,1.3832329129976513,1.3832329129976513,1.1698954544631883,1.1698954544631883,0.0,0.0,0.0,0.0,0.0,0.0
79.0,1.560000000000001,0.2172277741019764,0.11110066086600276,0.24858416458402496,0.21702116438719138,0.1078303179078027,0.24858416458402444,-0.0002066097147850332,-0.0032703429582000565,-5.273559366969494e-16,0.003276862926411822,0.16024632387171742,0.10087447137102235,0.003926537937149087,min_task,none,false,false,8.689487716441551,8.689487716441551,6.999999999999999,6.999999999999999,6.999999999999999,6.999999999999999,8.187947398900965,8.187947398900965,0.0,0.0,0.0,0.0,0.0,0.0,-0.00890747657793488,-0.22525372201301916,-1.1778854736519082,0.0,0.0,0.0,0.0,0.0,0.0,0.16024632387171742,0.10087447137102235,0.003926537937149087,0.0,0.58,0.92,0.0,0.0,0.0,8.689487716441551,8.689487716441551,6.999999999999999,6.999999999999999,6.999999999999999,6.999999999999999,8.187947398900965,8.187947398900965,1.0182746560869669,1.0182746560869669,1.2575706205729715,1.2575706205729715,1.3873842517330057,1.3873842517330057,1.1748338058880903,1.1748338058880903,0.0,0.0,0.0,0.0,0.0,0.0
80.0,1.580000000000001,0.21720022984260606,0.11702617017788314,0.24858416458402466,0.21702116438719138,0.1135959171398027,0.24858416458402444,-0.00017906545541468422,-0.003430253038080436,-2.220446049250313e-16,0.003434923629803569,0.16020232758198652,0.10689208117987299,0.0023104473924662563,min_task,none,false,false,8.451044359153567,8.451044359153567,6.999999999999998,6.999999999999998,6.999999999999998,6.999999999999998,8.471963744400083,8.471963744400083,0.0,0.0,0.0,0.0,0.0,0.0,-0.006015341315200634,-0.3629466213749428,-1.2507120086969552,0.0,0.0,0.0,0.0,0.0,0.0,0.16020232758198652,0.10689208117987299,0.0023104473924662563,0.0,0.58,0.92,0.0,0.0,0.0,8.451044359153567,8.451044359153567,6.999999999999998,6.999999999999998,6.999999999999998,6.999999999999998,8.471963744400083,8.471963744400083,1.0139007073396122,1.0139007073396122,1.2540074296798007,1.2540074296798007,1.391470432355069,1.391470432355069,1.1796821498903964,1.1796821498903964,0.0,0.0,0.0,0.0,0.0,0.0
81.0,1.600000000000001,0.21717177368713259,0.12278470786168016,0.2485841645840246,0.21702116438719138,0.11921197141180269,0.24858416458402444,-0.00015060929994120675,-0.0035727364498774755,-1.6653345369377348e-16,0.0035759095208788335,0.16015462292896335,0.11275948260980016,0.00040080984610690743,min_task,none,false,false,8.21868251413018,8.21868251413018,6.999999999999999,6.999999999999999,6.999999999999999,6.999999999999999,8.757500840147358,8.757500840147358,0.0,0.0,0.0,0.0,0.0,0.0,-0.002373505627858552,-0.49924151179736137,-1.2759534561078087,0.0,0.0,0.0,0.0,0.0,0.0,0.16015462292896335,0.11275948260980016,0.00040080984610690743,0.0,0.58,0.92,0.0,0.0,0.0,8.21868251413018,8.21868251413018,6.999999999999999,6.999999999999999,6.999999999999999,6.999999999999999,8.757500840147358,8.757500840147358,1.0096556677573822,1.0096556677573822,1.2505611444651017,1.2505611444651017,1.3954654912545883,1.3954654912545883,1.1844092741409744,1.1844092741409744,0.0,0.0,0.0,0.0,0.0,0.0
82.0,1.620000000000001,0.2171423545698572,0.12834099724013687,0.24858416458402488,0.21702116438719138,0.12464385928380273,0.24858416458402444,-0.00012119018266582016,-0.00369713795633414,-4.440892098500626e-16,0.003699123697383092,0.16010360287003395,0.11843941017256832,-0.001767217116434453,min_task,none,false,false,7.994506094566871,7.994506094566871,7.0,7.0,7.0,7.0,9.04143764188458,9.04143764188458,0.0,0.0,0.0,0.0,0.0,0.0,0.001957337349554104,-0.6328459076565104,-1.2537179782101133,0.0,0.0,0.0,0.0,0.0,0.0,0.16010360287003395,0.11843941017256832,-0.001767217116434453,0.0,0.58,0.92,0.0,0.0,0.0,7.994506094566871,7.994506094566871,7.0,7.0,7.0,7.0,9.04143764188458,9.04143764188458,1.0055649311124948,1.0055649311124948,1.2472525066206546,1.2472525066206546,1.3993438313073814,1.3993438313073814,1.1889849341475236,1.1889849341475236,0.0,0.0,0.0,0.0,0.0,0.0
83.0,1.640000000000001,0.21711199609203644,0.13366169868167346,0.2485841645840249,0.21702116438719138,0.12985880251580273,0.24858416458402444,-9.083170484505687e-05,-0.003802896165870734,-4.718447854656915e-16,0.003803980763226779,0.1600498616217249,0.12389576648741683,-0.004145021775972226,min_task,none,false,false,7.780900377248977,7.780900377248977,7.0,7.0,7.0,7.0,9.319882679326534,9.319882679326534,0.0,0.0,0.0,0.0,0.0,0.0,0.006861145282951135,-0.7622348303665215,-1.185871830174893,0.0,0.0,0.0,0.0,0.0,0.0,0.1600498616217249,0.12389576648741683,-0.004145021775972226,0.0,0.58,0.92,0.0,0.0,0.0,7.780900377248977,7.780900377248977,7.0,7.0,7.0,7.0,9.319882679326534,9.319882679326534,1.001652600293106,1.001652600293106,1.244100645305346,1.244100645305346,1.403080402311959,1.403080402311959,1.1933801286164656,1.1933801286164656,0.0,0.0,0.0,0.0,0.0,0.0
84.0,1.660000000000001,0.2170808065784771,0.1387157183340039,0.2485841645840247,0.21702116438719138,0.13482623470780267,0.24858416458402444,-5.9642191285708135e-05,-0.003889483626201229,-2.7755575615628914e-16,0.003889940882515931,0.1599941652323371,0.12909407597170916,-0.006673121689091168,min_task,none,false,false,7.580496528416277,7.580496528416277,6.999999999999999,6.999999999999999,6.999999999999999,6.999999999999999,9.588302159617749,9.588302159617749,0.0,0.0,0.0,0.0,0.0,0.0,0.012179876599510045,-0.8856889926429794,-1.075854026504626,0.0,0.0,0.0,0.0,0.0,0.0,0.1599941652323371,0.12909407597170916,-0.006673121689091168,0.0,0.58,0.92,0.0,0.0,0.0,7.580496528416277,7.580496528416277,6.999999999999999,6.999999999999999,6.999999999999999,6.999999999999999,9.588302159617749,9.588302159617749,0.9979412262276623,0.9979412262276623,1.2411228233443468,1.2411228233443468,1.4066509353591214,1.4066509353591214,1.197567401996739,1.197567401996739,0.0,0.0,0.0,0.0,0.0,0.0
85.0,1.680000000000001,0.21704102179752763,0.14352203994823617,0.24858416458402469,0.21702116438719138,0.13951816993980265,0.24858416458402444,-1.9857410336249215e-05,-0.004003870008433524,-2.498001805406602e-16,0.00400391925008219,0.15993739094655518,0.13400174764355355,-0.008448229656682606,min_task,none,false,false,7.39614257378527,7.39614257378527,6.999999999999998,6.999999999999998,6.999999999999998,6.999999999999998,9.84165854074708,9.84165854074708,0.0,0.0,0.0,0.0,0.0,0.0,0.01772883483264334,-1.0013344449905968,-0.9284454834252875,0.0,0.0,0.0,0.0,0.0,0.0,0.15993739094655518,0.13400174764355355,-0.008448229656682606,0.0,0.58,0.92,0.0,0.0,0.0,7.39614257378527,7.39614257378527,6.999999999999998,6.999999999999998,6.999999999999998,6.999999999999998,9.84165854074708,9.84165854074708,0.9944465289183524,0.9944465289183524,1.238302746125659,1.238302746125659,1.4100325525344348,1.4100325525344348,1.201549835430135,1.201549835430135,0.0,0.0,0.0,0.0,0.0,0.0
86.0,1.700000000000001,0.21698563572965834,0.14809745726399812,0.2485841645840245,0.21702116438719138,0.14390957141180266,0.24858416458402444,3.552865753303491e-05,-0.004187885852195455,-5.551115123125783e-17,0.004188036556254608,0.15988277937564005,0.13857252061627756,-0.008366897270946576,min_task,none,false,false,7.064043481733004,7.064043481733004,6.999999999999999,6.999999999999999,6.999999999999999,6.999999999999999,10.376552210418467,10.376552210418467,0.0,0.0,0.0,0.0,0.0,0.0,0.03985204640284306,-1.212221381996768,-1.0913407024840427,0.0,0.0,0.0,0.0,0.0,0.0,0.15988277937564005,0.13857252061627756,-0.008366897270946576,0.0,0.58,0.92,0.0,0.0,0.0,7.064043481733004,7.064043481733004,6.999999999999999,6.999999999999999,6.999999999999999,6.999999999999999,10.376552210418467,10.376552210418467,0.9911923090943722,0.9911923090943722,1.2356223720669726,1.2356223720669726,1.4131912476203474,1.4131912476203474,1.2053252878813152,1.2053252878813152,0.0,0.0,0.0,0.0,0.0,0.0
87.0,1.720000000000001,0.2169334600673979,0.15230823506917202,0.24858416458402469,0.21702116438719138,0.1479787200838027,0.24858416458402444,8.770431979349125e-05,-0.0043295149853693204,-2.498001805406602e-16,0.004330403220976996,0.15983346545263666,0.14276615788833932,-0.008066720299216519,min_task,none,false,false,7.0,7.0,7.0,7.0,7.084859496161257,7.084859496161257,10.605909907163282,10.605909907163282,0.0,0.0,0.0,0.0,0.0,0.0,0.046728889100031805,-1.3124709270363795,-1.2949920591914417,0.0,0.0,0.0,0.0,0.0,0.0,0.15983346545263666,0.14276615788833932,-0.008066720299216519,0.0,0.58,0.92,0.0,0.0,0.0,7.0,7.0,7.0,7.0,7.084859496161257,7.084859496161257,10.605909907163282,10.605909907163282,0.9882142598838825,0.9882142598838825,1.2331647543893107,1.2331647543893107,1.4160965519941988,1.4160965519941988,1.208801702736913,1.208801702736913,0.0,0.0,0.0,0.0,0.0,0.0
88.0,1.740000000000001,0.21688781792136455,0.15611963924857197,0.2485841645840246,0.21702116438719138,0.15170758331580278,0.24858416458402444,0.00013334646582682796,-0.004412055932769193,-1.6653345369377348e-16,0.004414070551524108,0.1597896751349836,0.14656648729349483,-0.007872763121598014,min_task,none,false,false,7.0,7.0,7.0,7.0,7.1268646293804885,7.1268646293804885,10.64968876425314,10.64968876425314,0.0,0.0,0.0,0.0,0.0,0.0,0.04458749564635209,-1.3463458871542748,-1.3984682502614094,0.0,0.0,0.0,0.0,0.0,0.0,0.1597896751349836,0.14656648729349483,-0.007872763121598014,0.0,0.58,0.92,0.0,0.0,0.0,7.0,7.0,7.0,7.0,7.1268646293804885,7.1268646293804885,10.64968876425314,10.64968876425314,0.9855231989967471,0.9855231989967471,1.2309492943019864,1.2309492943019864,1.4187354098778377,1.4187354098778377,1.211952958600069,1.211952958600069,0.0,0.0,0.0,0.0,0.0,0.0
89.0,1.7600000000000011,0.21684783451005285,0.15952667630779843,0.248584164584025,0.21702116438719138,0.15508218350780265,0.24858416458402444,0.00017332987713852832,-0.004444492799995786,-5.551115123125783e-16,0.004447871344308785,0.1597506490220332,0.14996780444562777,-0.007772585519323557,min_task,none,false,false,7.0,7.0,7.0,7.0,7.1451721887673365,7.1451721887673365,10.661994805703719,10.661994805703719,0.0,0.0,0.0,0.0,0.0,0.0,0.04222733597106699,-1.3667135761616895,-1.46212469701928,0.0,0.0,0.0,0.0,0.0,0.0,0.1597506490220332,0.14996780444562777,-0.007772585519323557,0.0,0.58,0.92,0.0,0.0,0.0,7.0,7.0,7.0,7.0,7.1451721887673365,7.1451721887673365,10.661994805703719,10.661994805703719,0.9831212385554426,0.9831212385554426,1.2289759343360558,1.2289759343360558,1.4211017213544304,1.4211017213544304,1.2147738986980792,1.2147738986980792,0.0,0.0,0.0,0.0,0.0,0.0
90.0,1.7800000000000011,0.21681252150336855,0.16252911703114561,0.2485841645840246,0.21702116438719138,0.15809296673980275,0.24858416458402444,0.00020864288382282936,-0.004436150291342866,-1.6653345369377348e-16,0.004441054070865531,0.15971579751320178,0.15296748895212856,-0.007724312947545467,min_task,none,false,false,6.999999999999998,6.999999999999998,6.999999999999998,6.999999999999998,7.146455883127729,7.146455883127729,10.65787175630806,10.65787175630806,0.0,0.0,0.0,0.0,0.0,0.0,0.0407488316883776,-1.3783694437038592,-1.4978077346220946,0.0,0.0,0.0,0.0,0.0,0.0,0.15971579751320178,0.15296748895212856,-0.007724312947545467,0.0,0.58,0.92,0.0,0.0,0.0,6.999999999999998,6.999999999999998,6.999999999999998,6.999999999999998,7.146455883127729,7.146455883127729,10.65787175630806,10.65787175630806,0.9810083283588997,0.9810083283588997,1.2272419667193122,1.2272419667193122,1.4231917775977994,1.4231917775977994,1.2172630493259957,1.2172630493259957,0.0,0.0,0.0,0.0,0.0,0.0
91.0,1.8000000000000012,0.21678130214163913,0.16512885486033768,0.248584164584025,0.21702116438719138,0.16073517141180257,0.24858416458402444,0.00023986224555225255,-0.004393683448535107,-5.551115123125783e-16,0.004400225919515124,0.15968479610607683,0.1555659253687165,-0.007701519781895624,min_task,none,false,false,7.0,7.0,7.0,7.0,7.1246743080684345,7.1246743080684345,10.62811767829105,10.62811767829105,0.0,0.0,0.0,0.0,0.0,0.0,0.03987197946940119,-1.3778928520538951,-1.5054991646259195,0.0,0.0,0.0,0.0,0.0,0.0,0.15968479610607683,0.1555659253687165,-0.007701519781895624,0.0,0.58,0.92,0.0,0.0,0.0,7.0,7.0,7.0,7.0,7.1246743080684345,7.1246743080684345,10.62811767829105,10.62811767829105,0.9791824499398597,0.9791824499398597,1.2257439650172943,1.2257439650172943,1.4250043158126118,1.4250043158126118,1.2194208882000004,1.2194208882000004,0.0,0.0,0.0,0.0,0.0,0.0
92.0,1.8200000000000012,0.21675391861997784,0.16733101726751348,0.2485841645840249,0.21702116438719138,0.1630091968838025,0.24858416458402444,0.000267245767213542,-0.004321820383710984,-4.718447854656915e-16,0.0043300752567540105,0.15965751837300388,0.1577674561751128,-0.00769045778513842,min_task,none,false,false,6.999999999999999,6.999999999999999,6.999999999999999,6.999999999999999,7.073807603396504,7.073807603396504,10.563330617589603,10.563330617589603,0.0,0.0,0.0,0.0,0.0,0.0,0.03928492206749411,-1.361823878087408,-1.482719785181552,0.0,0.0,0.0,0.0,0.0,0.0,0.15965751837300388,0.1577674561751128,-0.00769045778513842,0.0,0.58,0.92,0.0,0.0,0.0,6.999999999999999,6.999999999999999,6.999999999999999,6.999999999999999,7.073807603396504,7.073807603396504,10.563330617589603,10.563330617589603,0.9776389538584719,0.9776389538584719,1.2244771515022168,1.2244771515022168,1.4265411835661,1.4265411835661,1.2212507432794764,1.2212507432794764,0.0,0.0,0.0,0.0,0.0,0.0
93.0,1.8400000000000012,0.21673032175674004,0.16914512498155,0.24858416458402482,0.21702116438719138,0.16492097211580256,0.24858416458402444,0.0002908426304513434,-0.004224152865747427,-3.885780586188048e-16,0.004234153618952677,0.15963398021711367,0.15958121340097456,-0.007684319248325259,min_task,none,false,false,7.01093583762744,7.01093583762744,7.0,7.0,7.0,7.0,10.456350387435814,10.456350387435814,0.0,0.0,0.0,0.0,0.0,0.0,0.038787606328490466,-1.3274847566495773,-1.425809598516446,0.0,0.0,0.0,0.0,0.0,0.0,0.15963398021711367,0.15958121340097456,-0.007684319248325259,0.0,0.58,0.92,0.0,0.0,0.0,7.01093583762744,7.01093583762744,7.0,7.0,7.0,7.0,10.456350387435814,10.456350387435814,0.9763699867200852,0.9763699867200852,1.2234347012005393,1.2234347012005393,1.427807907505852,1.427807907505852,1.2227597080384869,1.2227597080384869,0.0,0.0,0.0,0.0,0.0,0.0
94.0,1.8600000000000012,0.2167106125456276,0.17058589598432855,0.2485841645840245,0.21702116438719138,0.16648232430780235,0.24858416458402444,0.0003105518415637831,-0.0041035716765261965,-5.551115123125783e-17,0.004115305936462887,0.15961431542417234,0.16102171923202876,-0.007679674960786392,min_task,none,false,false,7.133093844779505,7.133093844779505,6.999999999999999,6.999999999999999,6.999999999999999,6.999999999999999,10.302297998450376,10.302297998450376,0.0,0.0,0.0,0.0,0.0,0.0,0.03830517918999405,-1.273020565788962,-1.325175014708242,0.0,0.0,0.0,0.0,0.0,0.0,0.15961431542417234,0.16102171923202876,-0.007679674960786392,0.0,0.58,0.92,0.0,0.0,0.0,7.133093844779505,7.133093844779505,6.999999999999999,6.999999999999999,6.999999999999999,6.999999999999999,10.302297998450376,10.302297998450376,0.9753640750790874,0.9753640750790874,1.222607265175883,1.222607265175883,1.4288141078605128,1.4288141078605128,1.2239592758401991,1.2239592758401991,0.0,0.0,0.0,0.0,0.0,0.0
95.0,1.8800000000000012,0.21669500215730214,0.17167390718978348,0.24858416458402482,0.21702116438719138,0.1677113475398026,0.24858416458402444,0.0003261622298892375,-0.003962559649980879,-3.885780586188048e-16,0.003975960359443101,0.15959875155658246,0.162109452721779,-0.007674810970794176,min_task,none,false,false,7.296845718511797,7.296845718511797,6.999999999999999,6.999999999999999,6.999999999999999,6.999999999999999,10.094364974140445,10.094364974140445,0.0,0.0,0.0,0.0,0.0,0.0,0.03767667726719218,-1.1961186653124172,-1.182198370537185,0.0,0.0,0.0,0.0,0.0,0.0,0.15959875155658246,0.162109452721779,-0.007674810970794176,0.0,0.58,0.92,0.0,0.0,0.0,7.296845718511797,7.296845718511797,6.999999999999999,6.999999999999999,6.999999999999999,6.999999999999999,10.094364974140445,10.094364974140445,0.9746057338829347,0.9746057338829347,1.2219825695776856,1.2219825695776856,1.4295738796100892,1.4295738796100892,1.224865875689764,1.224865875689764,0.0,0.0,0.0,0.0,0.0,0.0
96.0,1.9000000000000012,0.2166837766060762,0.17243619274746838,0.24858416458402485,0.21702116438719138,0.16863277141180266,0.24858416458402444,0.0003373877811151671,-0.0038034213356657187,-4.163336342344337e-16,0.003818356239462606,0.15958758298784292,0.16287139812134377,-0.007668853341591813,min_task,none,false,false,7.505754659676351,7.505754659676351,7.0,7.0,7.0,7.0,9.827640989329737,9.827640989329737,0.0,0.0,0.0,0.0,0.0,0.0,0.03682514047890228,-1.0949743048561418,-0.9936620393298693,0.0,0.0,0.0,0.0,0.0,0.0,0.15958758298784292,0.16287139812134377,-0.007668853341591813,0.0,0.58,0.92,0.0,0.0,0.0,7.505754659676351,7.505754659676351,7.0,7.0,7.0,7.0,9.827640989329737,9.827640989329737,0.9740750817647189,0.9740750817647189,1.2215450370330363,1.2215450370330363,1.4301061497801026,1.4301061497801026,1.2255013615062904,1.2255013615062904,0.0,0.0,0.0,0.0,0.0,0.0
97.0,1.9200000000000013,0.21667728006113826,0.17290673436736614,0.24858416458402477,0.21702116438719138,0.16927832968380255,0.24858416458402444,0.0003438843260531177,-0.0036284046835635964,-3.3306690738754696e-16,0.003644664178962343,0.15958115856935493,0.16334150919875498,-0.007661312685528616,min_task,none,false,false,7.763326500956029,7.763326500956029,6.999999999999999,6.999999999999999,6.999999999999999,6.999999999999999,9.497471050174703,9.497471050174703,0.0,0.0,0.0,0.0,0.0,0.0,0.03568643802329777,-0.967875177233524,-0.7564120184489509,0.0,0.0,0.0,0.0,0.0,0.0,0.15958115856935493,0.16334150919875498,-0.007661312685528616,0.0,0.58,0.92,0.0,0.0,0.0,7.763326500956029,7.763326500956029,6.999999999999999,6.999999999999999,6.999999999999999,6.999999999999999,9.497471050174703,9.497471050174703,0.9737474941815462,0.9737474941815462,1.2212754686992204,1.2212754686992204,1.4304349773497114,1.4304349773497114,1.2258934033609155,1.2258934033609155,0.0,0.0,0.0,0.0,0.0,0.0
98.0,1.9400000000000013,0.21667590326469396,0.173126915102267,0.24858416458402496,0.21702116438719138,0.1696871289158025,0.24858416458402444,0.0003452611224974145,-0.003439786186464483,-5.273559366969494e-16,0.0034570701831608867,0.15957987200741974,0.16356115132726728,-0.007651879351006622,min_task,none,false,false,8.073067530796115,8.073067530796115,6.999999999999999,6.999999999999999,6.999999999999999,6.999999999999999,9.099337637056733,9.099337637056733,0.0,0.0,0.0,0.0,0.0,0.0,0.034203911754516064,-0.8131640180899266,-0.4673470919083544,0.0,0.0,0.0,0.0,0.0,0.0,0.15957987200741974,0.16356115132726728,-0.007651879351006622,0.0,0.58,0.92,0.0,0.0,0.0,8.073067530796115,8.073067530796115,6.999999999999999,6.999999999999999,6.999999999999999,6.999999999999999,9.099337637056733,9.099337637056733,0.9735932591032794,0.9735932591032794,1.221150737973602,1.221150737973602,1.4305898321876243,1.4305898321876243,1.226075844830363,1.226075844830363,0.0,0.0,0.0,0.0,0.0,0.0
99.0,1.9600000000000013,0.2166800749456722,0.17314595211393602,0.24858416458402485,0.21702116438719138,0.16990601710780237,0.24858416458402444,0.0003410894415191712,-0.0032399350061336485,-4.163336342344337e-16,0.0032578399056869115,0.15958415417512734,0.16357952889026525,-0.0076403295235540755,min_task,none,false,false,8.43850486604356,8.43850486604356,6.999999999999999,6.999999999999999,6.999999999999999,6.999999999999999,8.628791801598615,8.628791801598615,0.0,0.0,0.0,0.0,0.0,0.0,0.03232578467821706,-0.629220568701091,-0.12341021107925657,0.0,0.0,0.0,0.0,0.0,0.0,0.15958415417512734,0.16357952889026525,-0.0076403295235540755,0.0,0.58,0.92,0.0,0.0,0.0,8.43850486604356,8.43850486604356,6.999999999999999,6.999999999999999,6.999999999999999,6.999999999999999,8.628791801598615,8.628791801598615,0.9735772328144745,0.9735772328144745,1.2211434890066493,1.2211434890066493,1.4306058595670479,1.4306058595670479,1.2260890395639825,1.2260890395639825,0.0,0.0,0.0,0.0,0.0,0.0
100.0,1.9800000000000013,0.2166897118107917,0.17302453448154803,0.24858416458402488,0.21702116438719138,0.16998995233980235,0.24858416458402444,0.00033145257639968784,-0.0030345821417456786,-4.440892098500626e-16,0.0030526299457031766,0.1595944656737588,0.1634540856685426,-0.007569823381233211,min_task,none,false,false,8.863186166489236,8.863186166489236,6.999999999999998,6.999999999999998,6.999999999999998,6.999999999999998,8.081399992029214,8.081399992029214,0.0,0.0,0.0,0.0,0.0,0.0,0.030003609920774246,-0.41445177221333285,0.2784205631967418,0.0,0.0,0.0,0.0,0.0,0.0,0.1595944656737588,0.1634540856685426,-0.007569823381233211,0.0,0.58,0.92,0.0,0.0,0.0,8.863186166489236,8.863186166489236,6.999999999999998,6.999999999999998,6.999999999999998,6.999999999999998,8.081399992029214,8.081399992029214,0.9736584325591476,0.9736584325591476,1.2212194946659831,1.2212194946659831,1.4305239952789204,1.4305239952789204,1.2259822960426718,1.2259822960426718,0.0,0.0,0.0,0.0,0.0,0.0
101.0,2.0000000000000013,0.21670415005051458,0.17283552148839376,0.24858416458402463,0.21702116438719138,0.17000237141180247,0.24858416458402444,0.0003170143366768019,-0.0028331500765912954,-1.942890293094024e-16,0.0028508310097492442,0.15961141275714008,0.16325011746558624,-0.007307883214371506,min_task,none,false,false,9.342957653287955,9.342957653287955,7.000000000000001,7.000000000000001,7.000000000000001,7.000000000000001,7.467721704429009,7.467721704429009,0.0,0.0,0.0,0.0,0.0,0.0,0.028059616230267644,-0.1723937697980848,0.721907742113302,0.0,0.0,0.0,0.0,0.0,0.0,0.15961141275714008,0.16325011746558624,-0.007307883214371506,0.0,0.58,0.92,0.0,0.0,0.0,9.342957653287955,9.342957653287955,7.000000000000001,7.000000000000001,7.000000000000001,7.000000000000001,7.467721704429009,7.467721704429009,0.9737901521247944,0.9737901521247944,1.221337145207871,1.221337145207871,1.430390712513936,1.430390712513936,1.2258141900617903,1.2258141900617903,0.0,0.0,0.0,0.0,0.0,0.0
102.0,2.0200000000000014,0.21668808686111518,0.1726214465519147,0.248584164584025,0.21700874531519138,0.17000237141180247,0.24858416458402444,0.00032065845407619475,-0.002619075140112226,-5.551115123125783e-16,0.002638631545654757,0.15960101917626796,0.16300233406289602,-0.006717437903339726,min_task,none,false,false,8.808628727989035,8.808628727989035,7.1570443007283115,7.1570443007283115,7.0,7.0,7.0,7.0,0.0,0.0,0.0,0.0,0.0,0.0,-0.19266195817972087,-0.1439593939306582,1.132025969037351,0.0,0.0,0.0,0.0,0.0,0.0,0.15960101917626796,0.16300233406289602,-0.006717437903339726,0.0,0.58,0.92,0.0,0.0,0.0,8.808628727989035,8.808628727989035,7.1570443007283115,7.1570443007283115,7.0,7.0,7.0,7.0,0.9739717885635937,0.9739717885635937,1.221443261290492,1.221443261290492,1.4302064612592573,1.4302064612592573,1.2256377630415687,1.2256377630415687,0.0,0.0,0.0,0.0,0.0,0.0
103.0,2.0400000000000014,0.2165803525589195,0.1723940386856062,0.24858416458402477,0.21692481008319137,0.17000237141180247,0.24858416458402444,0.0003444575242718684,-0.0023916672738037437,-3.3306690738754696e-16,0.002416345036333043,0.1595031704658453,0.1627164405205254,-0.005692849714666203,min_task,none,false,false,8.449628499674239,8.449628499674239,7.727161195287293,7.727161195287293,7.0,7.0,7.0,7.0,0.0,0.0,0.0,0.0,0.0,0.0,-0.4000588685822494,-0.12407969913260748,1.4895420315267185,0.0,0.0,0.0,0.0,0.0,0.0,0.1595031704658453,0.1627164405205254,-0.005692849714666203,0.0,0.58,0.92,0.0,0.0,0.0,8.449628499674239,8.449628499674239,7.727161195287293,7.727161195287293,7.0,7.0,7.0,7.0,0.9742418750482083,0.9742418750482083,1.2214808023868515,1.2214808023868515,1.4299328714248836,1.4299328714248836,1.2254957761164398,1.2254957761164398,0.0,0.0,0.0,0.0,0.0,0.0
104.0,2.0600000000000014,0.21632459035383836,0.17216119178082182,0.24858416458402469,0.21670592189119137,0.17000237141180247,0.24858416458402444,0.00038133153735300795,-0.0021588203690193486,-2.498001805406602e-16,0.0021922406635843713,0.15926220559972676,0.1623967221022134,-0.004170651950065162,min_task,none,false,false,8.113762290895288,8.113762290895288,8.250545650608844,8.250545650608844,7.0,7.0,7.0,7.0,0.0,0.0,0.0,0.0,0.0,0.0,-0.5913291889413006,-0.10684706257713777,1.745950075836997,0.0,0.0,0.0,0.0,0.0,0.0,0.15926220559972676,0.1623967221022134,-0.004170651950065162,0.0,0.58,0.92,0.0,0.0,0.0,8.113762290895288,8.113762290895288,8.250545650608844,8.250545650608844,7.0,7.0,7.0,7.0,0.9746370737588702,0.9746370737588702,1.2213992527452313,1.2213992527452313,1.4295339457341676,1.4295339457341676,1.2254258822731556,1.2254258822731556,0.0,0.0,0.0,0.0,0.0,0.0
105.0,2.0800000000000014,0.21587000700941483,0.17192793440502957,0.24858416458402463,0.21629712265919135,0.17000237141180247,0.24858416458402444,0.00042711564977651606,-0.0019255629932271034,-1.942890293094024e-16,0.0019723642207183077,0.15882762311631154,0.16204729365037382,-0.002134434931520374,min_task,none,false,false,7.814069405261111,7.814069405261111,8.729821005871353,8.729821005871353,7.0,7.0,7.0,7.0,0.0,0.0,0.0,0.0,0.0,0.0,-0.764246983374588,-0.08916722741669282,1.893160294647137,0.0,0.0,0.0,0.0,0.0,0.0,0.15882762311631154,0.16204729365037382,-0.002134434931520374,0.0,0.58,0.92,0.0,0.0,0.0,7.814069405261111,7.814069405261111,8.729821005871353,8.729821005871353,7.0,7.0,7.0,7.0,0.9751908872398399,0.9751908872398399,1.221154752565195,1.221154752565195,1.4289774474844583,1.4289774474844583,1.2254610896565672,1.2254610896565672,0.0,0.0,0.0,0.0,0.0,0.0
