LordTarzan10086/HCDR_ML/results/tracking/routeb_trajectory_suite_20260416_105416/triangle/triangle_arm_only_detailed.csv
step,time_s,tip_x,tip_y,tip_z,des_x,des_y,des_z,err_x,err_y,err_z,err_norm,q_platform_x,q_platform_y,q_platform_psi,solver_status,fail_reason,fallback_applied,hold_active,u_a_1,u_a_2,u_a_3,u_a_4,u_a_5,u_a_6,u_a_7,u_a_8,u_a_9,u_a_10,u_a_11,u_a_12,u_a_13,u_a_14,qdd_1,qdd_2,qdd_3,qdd_4,qdd_5,qdd_6,qdd_7,qdd_8,qdd_9,q_1,q_2,q_3,q_4,q_5,q_6,q_7,q_8,q_9,cable_force_1,cable_force_2,cable_force_3,cable_force_4,cable_force_5,cable_force_6,cable_force_7,cable_force_8,cable_length_1,cable_length_2,cable_length_3,cable_length_4,cable_length_5,cable_length_6,cable_length_7,cable_length_8,arm_torque_1,arm_torque_2,arm_torque_3,arm_torque_4,arm_torque_5,arm_torque_6
1.0,0.0,0.057021164387191264,0.010002371411802225,0.24858416458402482,0.05702116438719139,0.010002371411802463,0.24858416458402444,1.249000902703301e-16,2.3765711620882257e-16,-3.885780586188048e-16,4.723069394728281e-16,-2.1968387758494882e-18,5.1000505964409524e-20,4.156707148478315e-18,min_task,none,false,false,6.999999999999999,6.999999999999999,6.999999999999999,6.999999999999999,6.999999999999999,6.999999999999999,6.999999999999999,6.999999999999999,2.073564292072696e-15,-3.313529154518867e-14,-8.363079298052082e-16,-1.881621165774564e-16,1.2955960422100785e-15,-6.164207810760031e-18,0.0,-6.428432399757374e-17,0.0,-2.0469680235663737e-14,-1.674351508494452e-13,-2.299887257921962e-13,-2.4679099464202682e-14,9.732223044449413e-14,-1.5024353660199816e-17,-2.1968387758494882e-18,5.1000505964409524e-20,4.156707148478315e-18,7.33441312021563e-19,0.58,0.92,-8.00704860315717e-18,2.3806532736642853e-17,2.714616468699326e-18,6.999999999999999,6.999999999999999,6.999999999999999,6.999999999999999,6.999999999999999,6.999999999999999,6.999999999999999,6.999999999999999,1.2020815280171306,1.2020815280171306,1.2020815280171306,1.2020815280171306,1.2020815280171306,1.2020815280171306,1.2020815280171306,1.2020815280171306,2.073564292072696e-15,-3.313529154518867e-14,-8.363079298052082e-16,-1.881621165774564e-16,1.2955960422100785e-15,-6.164207810760031e-18
2.0,0.02,0.05703999705490462,0.010002463074312924,0.24858375938131605,0.05702578371256639,0.010002371411802463,0.24858416458402444,-1.4213342338226242e-05,-9.166251046036078e-08,4.0520270838673156e-07,1.4219412493992938e-05,-2.764139116652325e-06,-6.923425804857933e-08,5.92163278583375e-06,min_task,none,false,false,7.0,7.0,7.0,7.0,7.0,7.0,7.0,7.0,0.00296642354394633,-0.04891656451108518,0.0135805378526784,-0.0005464591864403687,0.00016744041475560376,-2.8452883126517486e-05,8.11835442777437e-17,-1.4679080818353197e-16,-2.833264187099015e-22,0.002780719992454786,-0.15075247697499963,-0.040842745437443324,-0.00015932853855469948,0.0006652358621613362,4.6303286229459244e-07,-2.764139116652325e-06,-6.923425804857933e-08,5.92163278583375e-06,8.713226912628938e-06,0.5799587969961014,0.9199869100501832,-2.546132197670928e-06,7.783216031187466e-07,2.005467374304076e-06,7.0,7.0,7.0,7.0,7.0,7.0,7.0,7.0,1.202083531522535,1.202083531522535,1.2020796224397696,1.2020796224397696,1.2020795245234985,1.2020795245234985,1.2020834336065824,1.2020834336065824,0.00296642354394633,-0.04891656451108518,0.0135805378526784,-0.0005464591864403687,0.00016744041475560376,-2.8452883126517486e-05
3.0,0.04,0.05710862592359203,0.010002746915321263,0.24858250472552526,0.05705728379919139,0.010002371411802463,0.24858416458402444,-5.1342124400645395e-05,-3.755035187999467e-07,1.6598584991756038e-06,5.137032091686078e-05,-1.2476170226924513e-05,-2.979162776404483e-07,2.4730846364005846e-05,min_task,none,false,false,45.378991660153616,45.37899166015568,45.37408527430553,45.37408527430698,45.373962475706065,45.37396247570644,45.37886886248505,45.378868862485604,0.0053277811388266995,-0.08908029955869926,0.024938797482537765,-0.0009969840304669066,0.0002984116798289765,-5.233536805361286e-05,0.0020421031689459935,5.1109280315019814e-05,-0.005109286620911006,0.0038593273146378996,-0.27333442657390583,-0.07041755756169986,0.0003521419416654679,0.0002941836997964091,-0.0003570093085760958,-1.2476170226924513e-05,-2.979162776404483e-07,2.4730846364005846e-05,3.704401512758652e-05,0.5798101013313883,0.9199406277974413,-1.1127496432443292e-05,3.3021903141440605e-06,8.836525057093315e-06,45.378991660153616,45.37899166015568,45.37408527430553,45.37408527430698,45.373962475706065,45.37396247570644,45.37886886248505,45.378868862485604,1.202090560805067,1.202090560805067,1.2020729168408575,1.2020729168408575,1.2020724954435218,1.2020724954435218,1.2020901394139163,1.2020901394139163,0.0053277811388266995,-0.08908029955869926,0.024938797482537765,-0.0009969840304669066,0.0002984116798289765,-5.233536805361286e-05
4.0,0.06,0.057252798840987586,0.010003234135876261,0.24858035005346396,0.05714028307831639,0.010002371411802463,0.24858416458402444,-0.00011251576267119756,-8.627240737982267e-07,3.8145305604753155e-06,0.00011258371012586842,-3.202241085076058e-05,-7.248079005209227e-07,5.8849328374953936e-05,min_task,none,false,false,26.86316659523282,26.863166595316414,26.849790656361773,26.849790656565652,26.8494823690778,26.849482367016865,26.862858224796614,26.862858224818726,0.007260691266191501,-0.12269590556391952,0.03454711147063854,-0.0013741486373362029,0.0004053800529984761,-7.259558868119189e-05,0.005563957453746295,0.00012836369271977178,-0.01262913340768789,0.004001839276233712,-0.3753781749342973,-0.09333740087788589,0.0012337350057941513,-0.0004789732696596443,-0.0009527271817771864,-3.202241085076058e-05,-7.248079005209227e-07,5.8849328374953936e-05,8.9680848451317e-05,0.5795009517041616,0.9198464121284116,-2.754422314516328e-05,7.932970159763548e-06,2.2068497254764318e-05,26.86316659523282,26.863166595316414,26.849790656361773,26.849790656565652,26.8494823690778,26.849482367016865,26.862858224796614,26.862858224818726,1.2021046846632701,1.2021046846632701,1.2020593981655179,1.2020593981655179,1.2020583726427292,1.2020583726427292,1.2021036591791157,1.2021036591791157,0.007260691266191501,-0.12269590556391952,0.03454711147063854,-0.0013741486373362029,0.0004053800529984761,-7.259558868119189e-05
5.0,0.08,0.057494161448327474,0.010003889786547092,0.24857744264828002,0.057297001571191386,0.010002371411802463,0.24858416458402444,-0.0001971598771360883,-1.5183747446283896e-06,6.7219357444137096e-06,0.00019728027533013682,-6.334503148038267e-05,-1.3553522860425633e-06,0.00010983250353038159,min_task,none,false,false,19.09472073855973,19.094720742232848,19.070284218881397,19.070284227785997,19.06976665011652,19.069766560307013,19.09419858284238,19.094198583814148,0.008871416739018112,-0.1512362083464822,0.04273011481405977,-0.001692960484277329,0.0004965819067374689,-8.991525070909821e-05,0.010163405934826095,0.00021653852838798924,-0.021352996919327332,0.003441299980438453,-0.46196429580314546,-0.11260098169601693,0.00228675436839264,-0.0013379811723083373,-0.00169035700755152,-6.334503148038267e-05,-1.3553522860425633e-06,0.00010983250353038159,0.00016929282589551623,0.5789882020153876,0.9196928701345162,-5.244291487611474e-05,1.470759938668715e-05,4.2396723737489717e-05,19.09472073855973,19.094720742232848,19.070284218881397,19.070284227785997,19.06976665011652,19.069766560307013,19.09419858284238,19.094198583814148,1.2021272812512194,1.2021272812512194,1.2020376979573073,1.2020376979573073,1.202035779391911,1.202035779391911,1.2021253628287962,1.2021253628287962,0.008871416739018112,-0.1512362083464822,0.04273011481405977,-0.001692960484277329,0.0004965819067374689,-8.991525070909821e-05
6.0,0.1,0.05785101083392741,0.010004657293140838,0.248574014529578,0.05754733743406639,0.010002371411802463,0.24858416458402444,-0.00030367339986101666,-2.2858813383749843e-06,1.015005444643391e-05,0.0003038515799562471,-0.0001076664368658053,-2.1714963127866946e-06,0.00017782759218018114,min_task,none,false,false,14.742788972989906,14.742788973011226,14.705446622010683,14.705446622062624,14.704716667564686,14.704716667039587,14.74205910361461,14.742059103620225,0.010237540457506146,-0.17570445669909762,0.049713552636518575,-0.001963863448210031,0.0005769753825271443,-0.00010474969617049725,0.015531973912798548,0.00030412290128024844,-0.030749433715017576,0.0024594032637153007,-0.5365219705757271,-0.13018692496387024,0.0033640456484998133,-0.00206999987857576,-0.002494202643374899,-0.0001076664368658053,-2.1714963127866946e-06,0.00017782759218018114,0.0002762876519251778,0.5782362021380265,0.9194706499737686,-8.562461336504648e-05,2.349882986230845e-05,6.985049670522021e-05,14.742788972989906,14.742788973011226,14.705446622010683,14.705446622062624,14.704716667564686,14.704716667039587,14.74205910361461,14.742059103620225,1.2021592037656539,1.2021592037656539,1.2020069407219731,1.2020069407219731,1.2020038647894087,1.2020038647894087,1.2021561282226818,1.2021561282226818,0.010237540457506146,-0.17570445669909762,0.049713552636518575,-0.001963863448210031,0.0005769753825271443,-0.00010474969617049725
7.0,0.12000000000000001,0.05833881854104251,0.010005472855796449,0.24857031648869748,0.05790894350319139,0.010002371411802463,0.24858416458402444,-0.00042987503785112124,-3.1014439939858196e-06,1.3848095326951526e-05,0.00043010921504489424,-0.00016565817984016954,-3.139990240453459e-06,0.0002621623591167659,min_task,none,false,false,11.933543333220166,11.93354333321996,11.882009480220182,11.882009480220908,11.881089614747504,11.881089614744306,11.93262371192204,11.932623711922174,0.011412558369511824,-0.19678473172567174,0.055656046604046175,-0.0021941735952582067,0.0006495672430859912,-0.00011741505501986966,0.021432309763064962,0.00038327039507539754,-0.04026246793531584,0.00125439543799212,-0.6013668029398992,-0.14738566530809807,0.0043644734391695165,-0.0025554290066238995,-0.0033059689679352145,-0.00016565817984016954,-3.139990240453459e-06,0.0002621623591167659,0.00040964907353417766,0.5772151836723334,0.9191715548347743,-0.0001262863434272582,3.4122203557786454e-05,0.00010396147949983563,11.933543333220166,11.93354333321996,11.882009480220182,11.882009480220908,11.881089614747504,11.881089614744306,11.93262371192204,11.932623711922174,1.2022009057324592,1.2022009057324592,1.2019666303283905,1.2019666303283905,1.2019621784392802,1.2019621784392802,1.2021964547109012,1.2021964547109012,0.011412558369511824,-0.19678473172567174,0.055656046604046175,-0.0021941735952582067,0.0006495672430859912,-0.00011741505501986966
8.0,0.14,0.05897059625252005,0.010006273897226189,0.2485665824863743,0.05839730383981639,0.010002371411802463,0.24858416458402444,-0.000573292412703659,-3.9024854237255935e-06,1.7582097650126194e-05,0.000573575234833098,-0.00023756385664606288,-4.218355504986247e-06,0.0003617165636048136,min_task,none,false,false,9.978860965701717,9.978860965693082,9.912297483443497,9.912297483473282,9.911222684674417,9.911222684543668,9.97778176685505,9.977781766860861,0.012433566085091656,-0.21494839477655228,0.060671140367005945,-0.0023891358650256667,0.0007160954967880357,-0.00012813544193512503,0.027677993732248905,0.00044877331638138547,-0.04957510198382445,-4.0316577857122976e-05,-0.6580734550758167,-0.16502991981364754,0.005219226992843864,-0.0027391704946596192,-0.004079843941432117,-0.00023756385664606288,-4.218355504986247e-06,0.0003617165636048136,0.0005674866733705297,0.5759001432982056,0.918787951546567,-0.0001731958926764725,4.6399986175223596e-05,0.0001438884795209739,9.978860965701717,9.978860965693082,9.912297483443497,9.912297483473282,9.911222684674417,9.911222684543668,9.97778176685505,9.977781766860861,1.2022525320384745,1.2022525320384745,1.2019165672318985,1.2019165672318985,1.201910579294134,1.201910579294134,1.2022465457740241,1.2022465457740241,0.012433566085091656,-0.21494839477655228,0.060671140367005945,-0.0023891358650256667,0.0007160954967880357,-0.00012813544193512503
9.0,0.16,0.059757156731663916,0.010007003892819413,0.24856301238719355,0.05902581027519139,0.010002371411802463,0.24858416458402444,-0.0007313464564725272,-4.632481016949436e-06,2.115219683088143e-05,0.0007316669424718236,-0.0003232902739265546,-5.359152654883399e-06,0.0004751375876090398,min_task,none,false,false,8.547718588932037,8.547718588932083,8.465654294408775,8.465654294408623,8.46446002360609,8.464460023606767,8.54652507552317,8.54652507552314,0.013326125102888076,-0.23052473638913373,0.06484227882035501,-0.002552599887039731,0.0007774957143709841,-0.00013707481537969448,0.03411975578074657,0.0004973456109264006,-0.05850380222548529,-0.0013471452579820772,-0.707721143507357,-0.18364172862623246,0.005888684101397089,-0.0026112613942291083,-0.004781088894348496,-0.0003232902739265546,-5.359152654883399e-06,0.0004751375876090398,0.0007473772452965969,0.5742700610884065,0.918312378404109,-0.0002248190797711744,6.019550153399369e-05,0.00018851196844849678,8.547718588932037,8.547718588932083,8.465654294408775,8.465654294408623,8.46446002360609,8.464460023606767,8.54652507552317,8.54652507552314,1.2023139862892147,1.2023139862892147,1.2018567868931878,1.2018567868931878,1.2018491681227785,1.2018491681227785,1.202306370415985,1.202306370415985,0.013326125102888076,-0.23052473638913373,0.06484227882035501,-0.002552599887039731,0.0007774957143709841,-0.00013707481537969448
10.0,0.18,0.06070730534826112,0.010007614874015454,0.24855976550993955,0.05980583895556639,0.010002371411802463,0.24858416458402444,-0.0009014663926947275,-5.243462212990366e-06,2.4399074084885397e-05,0.0009018117685361084,-0.0004224765934518531,-6.513464112471422e-06,0.0006009764721537476,min_task,none,false,false,7.459562054584636,7.459562054584637,7.361812076494157,7.3618120764941555,7.360545591488112,7.360545591488116,7.458296653316235,7.458296653316235,0.014110895234039843,-0.2437489310981073,0.0682328303757812,-0.0026875978668151803,0.0008339862932322036,-0.00014435094393866124,0.04063600103709568,0.0005270841720007295,-0.06694604069708768,-0.0025544643954272654,-0.75105287012729,-0.20352440941106992,0.006326483643312081,-0.0021803098434568283,-0.005376772927985819,-0.0004224765934518531,-6.513464112471422e-06,0.0006009764721537476,0.0009466068002145751,0.5723073466264357,0.9177372911190527,-0.00027942543397862276,7.543056477221358e-05,0.0002365125211886993,7.459562054584636,7.459562054584637,7.361812076494157,7.3618120764941555,7.360545591488112,7.360545591488116,7.458296653316235,7.458296653316235,1.2023849820240695,1.2023849820240695,1.2017875131994726,1.2017875131994726,1.2017782361003206,1.2017782361003206,1.2023757095347725,1.2023757095347725,0.014110895234039843,-0.2437489310981073,0.0682328303757812,-0.0026875978668151803,0.0008339862932322036,-0.00014435094393866124
11.0,0.19999999999999998,0.06182798874394748,0.010008068176674682,0.24855695910826806,0.060746826887191394,0.010002371411802463,0.24858416458402444,-0.0010811618567560868,-5.69676487221886e-06,2.7205475756381103e-05,0.0010815190943970474,-0.0005345591467655073,-7.637577052004923e-06,0.0007364741056219571,min_task,none,false,false,7.114140132329131,7.114140132329131,6.999999999990201,6.999999999990201,6.999999999990201,6.999999999990201,7.111705819888922,7.111705819888922,0.014799430393377834,-0.25479082596113467,0.07089323253398566,-0.0027963970430098743,0.0008856690793970678,-0.00015006395142368637,0.047044974519374956,0.0005086929529755925,-0.08063555427322044,-0.0036620269823530757,-0.7885836722724497,-0.2248213324940151,0.006533998316795055,-0.0014879377435837815,-0.0058484801412936405,-0.0005345591467655073,-7.637577052004923e-06,0.0007364741056219571,0.0011610635582548216,0.5699974114985621,0.9170548931830599,-0.00033523514554403274,9.209731083175959e-05,0.00028647511847178356,7.114140132329131,7.114140132329131,6.999999999990201,6.999999999990201,6.999999999990201,6.999999999990201,7.111705819888922,7.111705819888922,1.2024650928088758,1.2024650928088758,1.2017091168884422,1.2017091168884422,1.201698214043867,1.201698214043867,1.2024541968188556,1.2024541968188556,0.014799430393377834,-0.25479082596113467,0.07089323253398566,-0.0027963970430098743,0.0008856690793970678,-0.00015006395142368637
12.0,0.21999999999999997,0.06312441330378185,0.010008337055690961,0.2485546703313505,0.06185634848131639,0.010002371411802463,0.24858416458402444,-0.001268064822465463,-5.965643888498212e-06,2.9494252673928356e-05,0.0012684218122620582,-0.0006588309874404154,-8.703562832264213e-06,0.0008768417113496972,min_task,none,false,false,7.128224816436886,7.128224816436886,6.999999999996491,6.999999999996491,6.999999999996491,6.999999999996491,7.126244546960108,7.126244546960108,0.015411797137892525,-0.2637758704445722,0.07286416772645037,-0.0028814357007718385,0.0009320060475403562,-0.00015426360933600794,0.05320556149177033,0.0004189129828060352,-0.09891522618212764,-0.004412325973746077,-0.8206460816335824,-0.2475363010259785,0.006495101775608282,-0.0005153069204171231,-0.006185015499248017,-0.0006588309874404154,-8.703562832264213e-06,0.0008768417113496972,0.001384695047740119,0.5673283429770326,0.9162570376057267,-0.0003906632502770728,0.00011029102986794586,0.0003370554859029933,7.128224816436886,7.128224816436886,6.999999999996491,6.999999999996491,6.999999999996491,6.999999999996491,7.126244546960108,7.126244546960108,1.202553801133032,1.202553801133032,1.2016220802270698,1.2016220802270698,1.2016096225311046,1.2016096225311046,1.202541353089205,1.202541353089205,0.015411797137892525,-0.2637758704445722,0.07286416772645037,-0.0028814357007718385,0.0009320060475403562,-0.00015426360933600794
13.0,0.23999999999999996,0.06460013994042393,0.010008411132665622,0.24855294163322394,0.06314019209919139,0.010002371411802463,0.24858416458402444,-0.001459947841232545,-6.039720863158446e-06,3.122295080049131e-05,0.0014602941655722532,-0.0007944822934391419,-9.706617186206098e-06,0.0010165876062748066,min_task,none,false,false,7.141271248499638,7.141271248499638,6.999999999994465,6.999999999994465,6.999999999994465,6.999999999994465,7.14009229943391,7.14009229943391,0.01596210561198112,-0.270797441773158,0.0741809397061584,-0.002944771778866132,0.0009724032432230707,-0.0001569968112512226,0.05905837351535479,0.0002585482978863754,-0.11787848484757867,-0.004631087881104299,-0.8474549055418275,-0.2715698411268125,0.006233836419404188,0.00072853672562203,-0.006396284982532759,-0.0007944822934391419,-9.706617186206098e-06,0.0010165876062748066,0.001611019422004175,0.5642906916970003,0.9153352041770145,-0.0004445510602490768,0.00013024768522448466,0.00038714179433168346,7.141271248499638,7.141271248499638,6.999999999994465,6.999999999994465,6.999999999994465,6.999999999994465,7.14009229943391,7.14009229943391,1.2026505319260736,1.2026505319260736,1.2015269734045224,1.2015269734045224,1.2015130380985308,1.2015130380985308,1.2026366096390868,1.2026366096390868,0.01596210561198112,-0.270797441773158,0.0741809397061584,-0.002944771778866132,0.0009724032432230707,-0.0001569968112512226
14.0,0.25999999999999995,0.06625716592326034,0.010008297436016592,0.24855178707223302,0.06460243659706638,0.010002371411802463,0.24858416458402444,-0.0016547293261939544,-5.926024214128814e-06,3.2377511791414904e-05,0.0016550566648906883,-0.0009406268314274735,-1.0668014344199048e-05,0.0011505208601304908,min_task,none,false,false,7.15312642186571,7.15312642186571,6.999999999997182,6.999999999997182,6.999999999997182,6.999999999997182,7.15311779724646,7.15311779724646,0.01645412020608306,-0.2759294612216778,0.07487655201611483,-0.0029878125404282493,0.001006380322843874,-0.00015832700777732549,0.06454325842185746,2.3294937581863002e-05,-0.1367830254460348,-0.004324915105691683,-0.869157946621654,-0.29675047041716773,0.0058074429944010904,0.0021790857287321006,-0.0065064690840237705,-0.0009406268314274735,-1.0668014344199048e-05,0.0011505208601304908,0.0018342198713468816,0.5608773322935431,0.9142805288616787,-0.0004963028629943529,0.00015235205173691143,0.0004359594658205668,7.15312642186571,7.15312642186571,6.999999999997182,6.999999999997182,6.999999999997182,6.999999999997182,7.15311779724646,7.15311779724646,1.2027546734100867,1.2027546734100867,1.2014244379792185,1.2014244379792185,1.2014090725453772,1.2014090725453772,1.2027393249704885,1.2027393249704885,0.01645412020608306,-0.2759294612216778,0.07487655201611483,-0.0029878125404282493,0.001006380322843874,-0.00015832700777732549
15.0,0.27999999999999997,0.06809600003023819,0.010008018246637374,0.2485511983194561,0.0662455278711914,0.010002371411802463,0.24858416458402444,-0.0018504721590467954,-5.6468348349110464e-06,3.2966264568334847e-05,0.0018507743981238099,-0.0010963201132011835,-1.1635966458193412e-05,0.001273994695661727,min_task,none,false,false,7.163723443597056,7.163723443597056,6.999999999986057,6.999999999986057,6.999999999986057,6.999999999986057,7.16524985556352,7.16524985556352,0.016887808134894464,-0.27923235422347054,0.07498244705199146,-0.0030116420352418274,0.0010335745038407707,-0.00015832018006905894,0.06962931950784038,-0.00028578955355445,-0.15492437862191713,-0.003543147094179363,-0.8858471690169554,-0.3228390583880368,0.005285871576406123,0.0037718044382535148,-0.006549582307492773,-0.0010963201132011835,-1.1635966458193412e-05,0.001273994695661727,0.002049412560458182,0.5570833702207996,0.913083871573261,-0.0005459574688644299,0.00017712643628173985,0.0004831339121339617,7.163723443597056,7.163723443597056,6.999999999986057,6.999999999986057,6.999999999986057,6.999999999986057,7.16524985556352,7.16524985556352,1.2028655906382357,1.2028655906382357,1.2013151747635848,1.2013151747635848,1.2012983596102427,1.2012983596102427,1.2028487971588406,1.2028487971588406,0.016887808134894464,-0.27923235422347054,0.07498244705199146,-0.0030116420352418274,0.0010335745038407707,-0.00015832018006905894
16.0,0.3,0.07011573317403477,0.010007607976904101,0.24855115046940485,0.06807035540281639,0.010002371411802463,0.24858416458402444,-0.002045377771218382,-5.236565101637836e-06,3.3014114619589474e-05,0.002045650894060972,-0.001260567948325187,-1.2684047067888265e-05,0.0013830892341892705,min_task,none,false,false,7.173074863034895,7.173074863034895,6.999999999977772,6.999999999977772,6.999999999977771,6.999999999977771,7.1764684518755555,7.1764684518755555,0.017260202590683987,-0.28075804960379286,0.07452943561384284,-0.003017067374368421,0.0010537645245462489,-0.00015704556250246282,0.07431183426127988,-0.0006618400333235068,-0.1716698738941418,-0.0023641063211709483,-0.8975760300261757,-0.3495399149321951,0.004745034273047379,0.0054481734614194016,-0.00656600214111873,-0.001260567948325187,-1.2684047067888265e-05,0.0013830892341892705,0.0022528146719464496,0.5529060929296759,0.9117359213956484,-0.000594201779224572,0.0002052124361652508,0.000528714882621409,7.173074863034895,7.173074863034895,6.999999999977772,6.999999999977772,6.999999999977771,6.999999999977771,7.1764684518755555,7.1764684518755555,1.2029826306355724,1.2029826306355724,1.201199936891881,1.201199936891881,1.2011815501976824,1.2011815501976824,1.2029642711889372,1.2029642711889372,0.017260202590683987,-0.28075804960379286,0.07452943561384284,-0.003017067374368421,0.0010537645245462489,-0.00015704556250246282
17.0,0.32,0.07231410708389292,0.010007109390387531,0.2485516072615957,0.0700763288031914,0.010002371411802463,0.24858416458402444,-0.0022377782807015273,-4.737978585068331e-06,3.255732242873899e-05,0.0022380201208354418,-0.001432327254822707,-1.390732155090458e-05,0.0014747320577965445,min_task,none,false,false,7.181256442256076,7.181256442256076,7.0000000000001155,7.0000000000001155,7.0000000000001155,7.0000000000001155,7.186789176035546,7.186789176035546,0.017566063676843918,-0.2805532324263945,0.07354823069188875,-0.003004666840890413,0.0010668773773970096,-0.0001545760061454901,0.0786058718419029,-0.001092338885199505,-0.18648429475252634,-0.0008861021745341027,-0.9043713961905127,-0.37650933593381325,0.004260370965486175,0.007158550556484167,-0.006598599719432303,-0.001432327254822707,-1.390732155090458e-05,0.0014747320577965445,0.002441816129312722,0.548344954313553,0.9102273329598434,-0.0006423257161751058,0.00023734714991070373,0.0005731610889093168,7.181256442256076,7.181256442256076,7.0000000000001155,7.0000000000001155,7.0000000000001155,7.0000000000001155,7.186789176035546,7.186789176035546,1.203105120508288,1.203105120508288,1.2010795267999879,1.2010795267999879,1.201059314695508,1.201059314695508,1.2030849424342502,1.2030849424342502,0.017566063676843918,-0.2805532324263945,0.07354823069188875,-0.003004666840890413,0.0010668773773970096,-0.0001545760061454901
18.0,0.34,0.07468758284926708,0.010006569533202673,0.24855252543883183,0.0722614543585664,0.010002371411802463,0.24858416458402444,-0.002426128490700674,-4.1981214002097256e-06,3.163914519260791e-05,0.0024263384168580733,-0.0016105015936256194,-1.5416521577821954e-05,0.0015467581228385803,min_task,none,false,false,7.188384218775077,7.188384218775077,6.999999999962833,6.999999999962833,6.999999999962833,6.999999999962833,7.196243817227803,7.196243817227803,0.01779854010297452,-0.27866129460173805,0.07206967075828147,-0.0029748442993586164,0.0010729705105433358,-0.00015098757271855395,0.08253774518626165,-0.0015598505695806632,-0.19894685350808855,0.0007816077949150951,-0.9062411526064286,-0.4033621126631317,0.0039008004747348186,0.008862984404516648,-0.006688707543234583,-0.0016105015936256194,-1.5416521577821954e-05,0.0015467581228385803,0.0026149628837445035,0.5434015816630395,0.9085488877873941,-0.0006921226446376445,0.00027433499908882723,0.0006172870940161004,7.188384218775077,7.188384218775077,6.999999999962833,6.999999999962833,6.999999999962833,6.999999999962833,7.196243817227803,7.196243817227803,1.2032323604497164,1.2032323604497164,1.200954795554988,1.200954795554988,1.200932350363182,1.200932350363182,1.203209957744578,1.203209957744578,0.01779854010297452,-0.27866129460173805,0.07206967075828147,-0.0029748442993586164,0.0010729705105433358,-0.00015098757271855395
19.0,0.36000000000000004,0.07723141047220783,0.010006035750105976,0.24855385809976835,0.0746224115751914,0.010002371411802463,0.24858416458402444,-0.0026089988970164346,-3.664338303512385e-06,3.0306484256087396e-05,0.0026091774862964266,-0.0017939341673803354,-1.7330779068391845e-05,0.0015979135933580724,min_task,none,false,false,7.194588790203665,7.194588790203665,7.000000000000142,7.000000000000142,7.000000000000142,7.000000000000142,7.204860492678028,7.204860492678028,0.017949815823835792,-0.27512334879513295,0.07012471896062383,-0.002927888012466695,0.0010721948135876188,-0.0001463585773546778,0.08613578482460021,-0.0020432282754979853,-0.20875979081811388,0.002527573535751084,-0.9031787414823931,-0.4296767210356218,0.003723507816686719,0.01053029686129228,-0.006872281913750039,-0.0017939341673803354,-1.7330779068391845e-05,0.0015979135933580724,0.0027718644987601176,0.538079795132841,0.9066916746299651,-0.0007457441311841676,0.00031701630373474904,0.0006621777031233949,7.194588790203665,7.194588790203665,7.000000000000142,7.000000000000142,7.000000000000142,7.000000000000142,7.204860492678028,7.204860492678028,1.2033636138999175,1.2033636138999175,1.2008266429134855,1.2008266429134855,1.2008013914625602,1.2008013914625602,1.2033384156860527,1.2033384156860527,0.017949815823835792,-0.27512334879513295,0.07012471896062383,-0.002927888012466695,0.0010721948135876188,-0.0001463585773546778
20.0,0.38000000000000006,0.07993970000928394,0.010005552115734357,0.24855555703722104,0.07715462972431641,0.010002371411802463,0.24858416458402444,-0.0027850702849675224,-3.1807039318938746e-06,2.8607546803394168e-05,0.00278521902205566,-0.0019814009152424737,-1.976955036408344e-05,0.001627810602088011,min_task,none,false,false,7.199990880971289,7.199990880971289,7.000000000000116,7.000000000000116,7.000000000000116,7.000000000000116,7.212646608662961,7.212646608662961,0.018011715000674288,-0.26997865737538,0.06774431689775039,-0.0028640304657791132,0.0010647461403408076,-0.00014076831531334712,0.08942193224635965,-0.0025191342535572617,-0.21574891894687934,0.004246131991419383,-0.8951658739554074,-0.45500000636041876,0.003769914185487761,0.012135932498187351,-0.007176584432229175,-0.0019814009152424737,-1.976955036408344e-05,0.001627810602088011,0.0029130422314767347,0.5323856310333109,0.9046472831989069,-0.00080552151003499,0.00036623373970845734,0.0007090776577861106,7.199990880971289,7.199990880971289,7.000000000000116,7.000000000000116,7.000000000000116,7.000000000000116,7.212646608662961,7.212646608662961,1.203498097134456,1.203498097134456,1.2006960166620022,1.2006960166620022,1.2006672198134878,1.2006672198134878,1.2034693673346688,1.2034693673346688,0.018011715000674288,-0.26997865737538,0.06774431689775039,-0.0028640304657791132,0.0010647461403408076,-0.00014076831531334712
21.0,0.4000000000000001,0.08280549441887686,0.010005156536830791,0.2485575741730569,0.07985236438719141,0.010002371411802463,0.24858416458402444,-0.002953130031685444,-2.785125028327909e-06,2.6590410967530786e-05,0.0029532510545023627,-0.0021716058919765617,-2.2844408158967396e-05,0.0016368416793570045,min_task,none,false,false,7.204681387026979,7.204681387026979,7.000000000000071,7.000000000000071,7.000000000000071,7.000000000000071,7.219577118485279,7.219577118485279,0.017976240924425225,-0.26326480709099737,0.06495916564658617,-0.0027835053544023876,0.001050813961073321,-0.00013429569591882567,0.09240530218437017,-0.0029637265598450226,-0.219857635386869,0.005844194171739952,-0.8821745924842674,-0.4788521492458916,0.00406303363033266,0.01365919175469747,-0.007617636570864408,-0.0021716058919765617,-2.2844408158967396e-05,0.0016368416793570045,0.0030397357131177897,0.5263273620056627,0.9024080061588539,-0.0008737690536587037,0.0004227978160904017,0.0007592661627567697,7.204681387026979,7.204681387026979,7.000000000000071,7.000000000000071,7.000000000000071,7.000000000000071,7.219577118485279,7.219577118485279,1.203634970294329,1.203634970294329,1.2005639101575665,1.2005639101575665,1.2005306737533423,1.2005306737533423,1.203601818694729,1.203601818694729,0.017976240924425225,-0.26326480709099737,0.06495916564658617,-0.0027835053544023876,0.001050813961073321,-0.00013429569591882567
22.0,0.4200000000000001,0.085820843881527,0.010004878689376656,0.24855986228748272,0.08270877400006642,0.010002371411802463,0.24858416458402444,-0.00311206988146058,-2.507277574193348e-06,2.4302296541711677e-05,0.003112165778867203,-0.0023631804477091843,-2.665135895820006e-05,0.001626063598145367,min_task,none,false,false,7.208708073832755,7.208708073832755,6.999999999940017,6.999999999940017,6.999999999940015,6.999999999940015,7.225589422213358,7.225589422213358,0.01783602955164074,-0.25501790915404254,0.06179949336835403,-0.002686597889308756,0.0010305354511068352,-0.0001270179729410773,0.09507843884869857,-0.0033543413975611926,-0.22113529993299058,0.007246520265584417,-0.8641696897537962,-0.5007326113669293,0.004606293524198944,0.015080475023832739,-0.008198622845720944,-0.0023631804477091843,-2.665135895820006e-05,0.001626063598145367,0.0031536867221602424,0.5199155090891955,0.8999670447818455,-0.0009525844969146425,0.0004874525548400136,0.0008139266044077355,7.208708073832755,7.208708073832755,6.999999999940017,6.999999999940017,6.999999999940015,6.999999999940015,7.225589422213358,7.225589422213358,1.2037733313954644,1.2037733313954644,1.200431357464583,1.200431357464583,1.200392653982295,1.200392653982295,1.203734735367112,1.203734735367112,0.01783602955164074,-0.25501790915404254,0.06179949336835403,-0.002686597889308756,0.0010305354511068352,-0.0001270179729410773
23.0,0.4400000000000001,0.08897688114269212,0.010004738858430054,0.24856237528471592,0.08571599639919142,0.010002371411802463,0.24858416458402444,-0.003260884743500697,-2.367446627590461e-06,2.1789299308516696e-05,0.0032609584003423743,-0.0025546869578717767,-3.126426640064308e-05,0.0015970607122440732,min_task,none,false,false,7.212069646752266,7.212069646752266,6.999999999937887,6.999999999937887,6.999999999937885,6.999999999937885,7.2305849716389785,7.2305849716389785,0.017584704462515793,-0.2452730295422295,0.05829485745100505,-0.002573685193316458,0.0010039618140591329,-0.00011900972344100137,0.09741642889533182,-0.0036710385870073695,-0.21972167227058492,0.008399275283323106,-0.8411121853384023,-0.5201274745052757,0.005383778867558619,0.01637907085400678,-0.008909328088624293,-0.0025546869578717767,-3.126426640064308e-05,0.0015970607122440732,0.0032569176090944656,0.5131628425708475,0.8973187141518721,-0.0010436623007969766,0.0005608426244986217,0.0008740217834447675,7.212069646752266,7.212069646752266,6.999999999937887,6.999999999937887,6.999999999937885,6.999999999937885,7.2305849716389785,7.2305849716389785,1.2039122142712488,1.2039122142712488,1.2002994259844026,1.2002994259844026,1.2002541253816785,1.2002541253816785,1.203867049615012,1.203867049615012,0.017584704462515793,-0.2452730295422295,0.05829485745100505,-0.002573685193316458,0.0010039618140591329,-0.00011900972344100137
24.0,0.46000000000000013,0.09226389733978577,0.010004747659325307,0.24856506823730873,0.08886522536581642,0.010002371411802463,0.24858416458402444,-0.0033986719739693416,-2.376247522844349e-06,1.9096346715707924e-05,0.0033987264531960847,-0.0027446271194142757,-3.672983758165686e-05,0.0015517976032871721,min_task,none,false,false,7.214716848147499,7.214716848147499,6.9999999999374385,6.9999999999374385,6.999999999937435,6.999999999937435,7.234436592118406,7.234436592118406,0.01721712720163693,-0.23406496422327408,0.054474012495012256,-0.0024452644160687475,0.0009710414644276018,-0.00011034217501118227,0.09937860972213351,-0.0038978772453619284,-0.21582850595978761,0.009271768368670958,-0.8129642161256839,-0.5365183119831345,0.00636177441872103,0.01753186112558962,-0.00972661254870486,-0.0027446271194142757,-3.672983758165686e-05,0.0015517976032871721,0.003351519930814068,0.5060843700917446,0.8944586442231824,-0.0011481334937401674,0.0006434832451105122,0.0009401841588827427,7.214716848147499,7.214716848147499,6.9999999999374385,6.9999999999374385,6.999999999937435,6.999999999937435,7.234436592118406,7.234436592118406,1.204050590803102,1.204050590803102,1.2001692069132839,1.2001692069132839,1.200116114501469,1.200116114501469,1.2039976695478034,1.2039976695478034,0.01721712720163693,-0.23406496422327408,0.054474012495012256,-0.0024452644160687475,0.0009710414644276018,-0.00011034217501118227
25.0,0.48000000000000015,0.0956714177995941,0.010004906544607131,0.24856789741348367,0.09214678717119143,0.010002371411802463,0.24858416458402444,-0.003524630628402664,-2.5351328046679944e-06,1.6267170540762432e-05,0.0035246690787093613,-0.0029314542311260038,-4.306447526467559e-05,0.0014924701144355824,min_task,none,false,false,7.2165592189961,7.2165592189961,6.999999999938574,6.999999999938574,6.999999999938572,6.999999999938572,7.236999746178701,7.236999746178701,0.01672954416407252,-0.22142937350294462,0.05036485675953414,-0.002301967259324732,0.0009316219910295001,-0.00010108292123382809,0.10091223772524446,-0.0040238386241842165,-0.20971988337568545,0.009856396821398878,-0.7796953143452717,-0.5493924353990695,0.007491406625511937,0.018513113895876836,-0.010615847674486825,-0.0029314542311260038,-4.306447526467559e-05,0.0014924701144355824,0.0034394660828329427,0.49869731162474373,0.8913839733362912,-0.0012664433951240098,0.0007357342034235235,0.001012629106077614,7.2165592189961,7.2165592189961,6.999999999938574,6.999999999938574,6.999999999938572,6.999999999938572,7.236999746178701,7.236999746178701,1.2041873772645577,1.2041873772645577,1.200041804181005,1.200041804181005,1.1999797029423456,1.1999797029423456,1.2041254898285694,1.2041254898285694,0.01672954416407252,-0.22142937350294462,0.05036485675953414,-0.002301967259324732,0.0009316219910295001,-0.00010108292123382809
26.0,0.5000000000000001,0.09918827740127928,0.010005208946597373,0.24857082042830944,0.09555021712156642,0.010002371411802463,0.24858416458402444,-0.0036380602797128625,-2.837534794910071e-06,1.334415571499492e-05,0.0036380858589263516,-0.003113588473962449,-5.025312879312853e-05,0.0014213627552144721,min_task,none,false,false,7.21747576633891,7.21747576633891,7.000000000000073,7.000000000000073,7.000000000000073,7.000000000000073,7.2381256530190266,7.2381256530190266,0.016119639288009406,-0.20740422173764028,0.04599445841122493,-0.002144560984484717,0.0008854702184459408,-9.129601982354066e-05,0.10195734069927197,-0.00404332790163067,-0.20169226352772215,0.010166928339251674,-0.7412897788303617,-0.5582541308164278,0.008712142283782484,0.019295334279337956,-0.011533170479541069,-0.003113588473962449,-5.025312879312853e-05,0.0014213627552144721,0.0035224534771423053,0.49102106157614334,0.8880935309794682,-0.0013982752417630656,0.0008377792550955229,0.0010910971700719904,7.21747576633891,7.21747576633891,7.000000000000073,7.000000000000073,7.000000000000073,7.000000000000073,7.2381256530190266,7.2381256530190266,1.2043214441984882,1.2043214441984882,1.19991832268472,1.19991832268472,1.19984601725548,1.19984601725548,1.204249403141084,1.204249403141084,0.016119639288009406,-0.20740422173764028,0.04599445841122493,-0.002144560984484717,0.0008854702184459408,-9.129601982354066e-05
27.0,0.5200000000000001,0.10280269526054472,0.01000564187283444,0.24857379658544027,0.09906433610319143,0.010002371411802463,0.24858416458402444,-0.0037383591573532937,-3.2704610319761462e-06,1.0367998584170923e-05,0.003738374965232518,-0.0032894340190649145,-5.8250104796115985e-05,0.0013407191307925213,min_task,none,false,false,7.217327604642379,7.217327604642379,7.000000000000099,7.000000000000099,7.000000000000099,7.000000000000099,7.237674209327383,7.237674209327383,0.015386508770053452,-0.19203141096695722,0.04138915058132979,-0.001973937230833776,0.000832307322722053,-8.104242120591261e-05,0.10245194530536951,-0.003956229438137313,-0.19205525143552007,0.01023536486076821,-0.6977546368945469,-0.562636361389278,0.009955865493344176,0.0198509694642427,-0.01242835771484454,-0.0032894340190649145,-5.8250104796115985e-05,0.0013407191307925213,0.003601787376078145,0.4830771384378499,0.8845880066663262,-0.0015425239502188653,0.000949612011304208,0.0011748288935137228,7.217327604642379,7.217327604642379,7.000000000000099,7.000000000000099,7.000000000000099,7.000000000000099,7.237674209327383,7.237674209327383,1.2044516289886158,1.2044516289886158,1.1997998566397894,1.1997998566397894,1.1997162162285138,1.1997162162285138,1.2043683116315096,1.2043683116315096,0.015386508770053452,-0.19203141096695722,0.04138915058132979,-0.001973937230833776,0.000832307322722053,-8.104242120591261e-05
28.0,0.5400000000000001,0.1065023486619507,0.010006187759563726,0.24857678740611924,0.10267732712731643,0.010002371411802463,0.24858416458402444,-0.0038250215346342653,-3.816347761262731e-06,7.377177905193433e-06,0.0038250305525158817,-0.003457396801706184,-6.69816425594043e-05,0.0012526305836517628,min_task,none,false,false,7.215970755167087,7.215970755167087,7.000000000000095,7.000000000000095,7.000000000000095,7.000000000000095,7.235525021611298,7.235525021611298,0.014530578635190288,-0.17535845844046374,0.03657467511495341,-0.001791091002363565,0.0007718541459987462,-7.038063851950405e-05,0.1023369638290629,-0.0037675431591222717,-0.1811141733692095,0.010107725073319224,-0.6491275620635315,-0.5621123367008599,0.01115123602301904,0.020154640431288874,-0.01324808127204378,-0.003457396801706184,-6.69816425594043e-05,0.0012526305836517628,0.0036783051295153197,0.47488912222784724,0.8808701018148548,-0.0016973202968180855,0.001071029104349636,0.0012625732243483087,7.215970755167087,7.215970755167087,7.000000000000095,7.000000000000095,7.000000000000095,7.000000000000095,7.235525021611298,7.235525021611298,1.2045767501782016,1.2045767501782016,1.199687478745416,1.199687478745416,1.1995914765195677,1.1995914765195677,1.2044811376479672,1.2044811376479672,0.014530578635190288,-0.17535845844046374,0.03657467511495341,-0.001791091002363565,0.0007718541459987462,-7.038063851950405e-05
29.0,0.5600000000000002,0.11027444632431245,0.010006826394930413,0.24857975728627812,0.10637681187519143,0.010002371411802463,0.24858416458402444,-0.003897634449121015,-4.454983127949799e-06,4.407297746311656e-06,0.003897639486936032,-0.0036159019633100354,-7.634992912697293e-05,0.0011589467294498294,min_task,none,false,false,7.213267791670426,7.213267791670426,7.000000000000111,7.000000000000111,7.000000000000111,7.000000000000111,7.231585435779244,7.231585435779244,0.013553491361502506,-0.1574401006738684,0.03157635850777121,-0.0015970933230430606,0.0007038811245128234,-5.936756646823189e-05,0.10156024765655448,-0.003486640365827554,-0.16915484343781023,0.009839149413767314,-0.5954842491241682,-0.5563064771938439,0.012228031586110412,0.02018552328451147,-0.013939288336367041,-0.0036159019633100354,-7.634992912697293e-05,0.0011589467294498294,0.003752341479248919,0.46648257952867084,0.8769446614860916,-0.0018601019526792223,0.0012016310102332982,0.0013526279289184924,7.213267791670426,7.213267791670426,7.000000000000111,7.000000000000111,7.000000000000111,7.000000000000111,7.231585435779244,7.231585435779244,1.2046956226076222,1.2046956226076222,1.1995822306490636,1.1995822306490636,1.1994729775685222,1.1994729775685222,1.2045868332993184,1.2045868332993184,0.013553491361502506,-0.1574401006738684,0.03157635850777121,-0.0015970933230430606,0.0007038811245128234,-5.936756646823189e-05
30.0,0.5800000000000002,0.11410580120076216,0.010007536744519936,0.2485826741889662,0.11014992724306642,0.010002371411802463,0.24858416458402444,-0.003955873957695741,-5.165332717473048e-06,1.4903950582290104e-06,0.003955877610735054,-0.0037634102236617476,-8.623813648324498e-05,0.0010612100934489627,min_task,none,false,false,7.209097365667304,7.209097365667304,6.999999999959656,6.999999999959656,6.999999999959653,6.999999999959653,7.2257950622662594,7.2257950622662594,0.012457984839253722,-0.1383396832302557,0.026419295879552426,-0.0013930611191158646,0.000628256810907652,-4.805933432760107e-05,0.10007950307581534,-0.0031262362385030508,-0.1564312682294407,0.009488767627473242,-0.5369446859319159,-0.5449042908876096,0.013121183844775964,0.019929503518079726,-0.014452443991313766,-0.0037634102236617476,-8.623813648324498e-05,0.0010612100934489627,0.0038237319641113493,0.45788497542605666,0.8728187828230249,-0.002027724379937703,0.0013408304116010318,0.0014429080487632483,7.209097365667304,7.209097365667304,6.999999999959656,6.999999999959656,6.999999999959653,6.999999999959653,7.2257950622662594,7.2257950622662594,1.2048070725562345,1.2048070725562345,1.1994851149387655,1.1994851149387655,1.1993618865903592,1.1993618865903592,1.2046843885962188,1.2046843885962188,0.012457984839253722,-0.1383396832302557,0.026419295879552426,-0.0013930611191158646,0.000628256810907652,-4.805933432760107e-05
31.0,0.6000000000000002,0.11798290308384288,0.010008298542793777,0.2485855102683982,0.11398340188719144,0.010002371411802463,0.24858416458402444,-0.003999501196651434,-5.927130991314339e-06,-1.3456843737658097e-06,0.0039995058149432,-0.003898432745702004,-9.651601556938653e-05,0.0009606156715297918,min_task,none,false,false,7.2033611670196995,7.2033611670196995,6.999999999965056,6.999999999965056,6.999999999965053,6.999999999965053,7.218126897978991,7.218126897978991,0.011247788349215715,-0.11813028711312877,0.02112853253246771,-0.0011801284193467465,0.0005449899435594549,-3.6512110430045715e-05,0.09786399616807444,-0.0027011911885582453,-0.14315662435933496,0.009114763961635595,-0.4736781245627813,-0.5276609819338101,0.013774247366915583,0.0193808004041169,-0.014744394961320895,-0.003898432745702004,-9.651601556938653e-05,0.0009606156715297918,0.003891849422590541,0.4491255711673713,0.8685018970410981,-0.0021966018808600445,0.0014878674696977676,0.0015310364501404058,7.2033611670196995,7.2033611670196995,6.999999999965056,6.999999999965056,6.999999999965053,6.999999999965053,7.218126897978991,7.218126897978991,1.2049099522491855,1.2049099522491855,1.1993970886422043,1.1993970886422043,1.199259344273261,1.199259344273261,1.2047728381784142,1.2047728381784142,0.011247788349215715,-0.11813028711312877,0.02112853253246771,-0.0011801284193467465,0.0005449899435594549,-3.6512110430045715e-05
32.0,0.6200000000000002,0.12189199130289574,0.01000909355121407,0.24858824233247184,0.11786363276881645,0.010002371411802463,0.24858416458402444,-0.0040283585340792905,-6.7221394116061955e-06,-4.077748447406382e-06,0.004028366206575579,-0.004019544342032125,-0.00010704557816170349,0.0008579949922016596,min_task,none,false,false,7.19598832246643,7.19598832246643,7.000000000000108,7.000000000000108,7.000000000000108,7.000000000000108,7.2085855794302045,7.2085855794302045,0.009927550742131294,-0.09689553014972763,0.01572922827276863,-0.0009594220644993197,0.0004542609528909896,-2.47827748449103e-05,0.09489515389744674,-0.002227248449080245,-0.12949748884848614,0.008770022848532101,-0.40590652871177346,-0.5044086006608186,0.014142088061898227,0.018542858459113843,-0.014780651718841391,-0.004019544342032125,-0.00010704557816170349,0.0008579949922016596,0.00395566718722762,0.44023530601056354,0.8640058219002404,-0.0023628672425174816,0.0016418308947720166,0.0016144490392042833,7.19598832246643,7.19598832246643,7.000000000000108,7.000000000000108,7.000000000000108,7.000000000000108,7.2085855794302045,7.2085855794302045,1.2050031532876846,1.2050031532876846,1.1993190580030764,1.1993190580030764,1.1991664516033211,1.1991664516033211,1.2048512668353621,1.2048512668353621,0.009927550742131294,-0.09689553014972763,0.01572922827276863,-0.0009594220644993197,0.0004542609528909896,-2.47827748449103e-05
33.0,0.6400000000000002,0.125819127769844,0.010009906422986868,0.24859085207597068,0.12177676169919144,0.010002371411802463,0.24858416458402444,-0.004042366070652559,-7.535011184405319e-06,-6.687491946238966e-06,0.004042378625030699,-0.004125395111009008,-0.00011768643719534432,0.0007538231747785226,min_task,none,false,false,7.186937415703147,7.186937415703147,7.000000000000092,7.000000000000092,7.000000000000092,7.000000000000092,7.197203602320732,7.197203602320732,0.008502812562092302,-0.07473006089226449,0.010246799937050223,-0.0007320447354677194,0.00035644054809140887,-1.2929413186925447e-05,0.09116626410025232,-0.0017198432776602368,-0.11557151453844598,0.008498663292278065,-0.3339065999922116,-0.4750618315251765,0.014192631016377955,0.01742842535828061,-0.014536935189119866,-0.004125395111009008,-0.00011768643719534432,0.0007538231747785226,0.004013841826794973,0.43124666156836156,0.8593447817459549,-0.0025225376138839684,0.0018016833248986498,0.0016905063966455452,7.186937415703147,7.186937415703147,7.000000000000092,7.000000000000092,7.000000000000092,7.000000000000092,7.197203602320732,7.197203602320732,1.2050856187567582,1.2050856187567582,1.1992518741625986,1.1992518741625986,1.1990842580423995,1.1990842580423995,1.204918814168384,1.204918814168384,0.008502812562092302,-0.07473006089226449,0.010246799937050223,-0.0007320447354677194,0.00035644054809140887,-1.2929413186925447e-05
34.0,0.6600000000000003,0.12975027057401525,0.010010725152020762,0.24859332605063872,0.12570875188456646,0.010002371411802463,0.24858416458402444,-0.0040415186894487976,-8.353740218298988e-06,-9.16146661428252e-06,0.004041537706691611,-0.00421472076295169,-0.00012830045304806133,0.0006482465870277975,min_task,none,false,false,7.176196548465079,7.176196548465079,7.0000000000000515,7.0000000000000515,7.0000000000000515,7.0000000000000515,7.18403644187196,7.18403644187196,0.006980025201210901,-0.05173979397125283,0.004707046816789349,-0.0004990671821413918,0.000252094717629933,-1.0116215944823945e-06,0.08668154842782758,-0.0011930889897638435,-0.10144834409254368,0.008333653650681429,-0.2580105865823383,-0.43962251731233537,0.013907587492871513,0.016058858182767435,-0.013999904969018545,-0.00421472076295169,-0.00012830045304806133,0.0006482465870277975,0.004064808190331577,0.42219350695342206,0.8545353924398689,-0.002671674559341104,0.0019662892955310133,0.0017566035040566773,7.176196548465079,7.176196548465079,7.0000000000000515,7.0000000000000515,7.0000000000000515,7.0000000000000515,7.18403644187196,7.18403644187196,1.20515635394023,1.20515635394023,1.1991963293053103,1.1991963293053103,1.199013751112095,1.199013751112095,1.204974678812412,1.204974678812412,0.006980025201210901,-0.05173979397125283,0.004707046816789349,-0.0004990671821413918,0.000252094717629933,-1.0116215944823945e-06
35.0,0.6800000000000003,0.13367134824553206,0.010011541118287486,0.24859565537409725,0.12964546447119146,0.010002371411802463,0.24858416458402444,-0.0040258837743405995,-9.169706485023105e-06,-1.1490790072815615e-05,0.0040259106157827735,-0.004286351993754356,-0.00013875543414736295,0.0005411280051909786,min_task,none,false,false,7.16378194985366,7.16378194985366,6.999999999984252,6.999999999984252,6.99999999998425,6.99999999998425,7.169157427221638,7.169157427221638,0.005366610417943516,-0.02804191077938903,-0.0008637480710627764,-0.00026152991073142694,0.00014197691254981039,1.090939255273677e-05,0.08145488517019937,-0.0006590084860306047,-0.08715326355922122,0.008295574213250735,-0.17860603935608732,-0.3981830770066504,0.013282163485205696,0.01446279696455857,-0.013167058781186382,-0.004286351993754356,-0.00013875543414736295,0.0005411280051909786,0.004106879921267644,0.41311092322180143,0.8495966088285328,-0.0028065275295094767,0.002134444027421935,0.0018102698442767297,7.16378194985366,7.16378194985366,6.999999999984252,6.999999999984252,6.99999999998425,6.99999999998425,7.169157427221638,7.169157427221638,1.2052144357118768,1.2052144357118768,1.1991531528306396,1.1991531528306396,1.198955847300633,1.198955847300633,1.2050181226359267,1.2050181226359267,0.005366610417943516,-0.02804191077938903,-0.0008637480710627764,-0.00026152991073142694,0.00014197691254981039,1.090939255273677e-05
36.0,0.7000000000000003,0.13756833472578867,0.01001234877057001,0.2485978352100055,0.13357273509031645,0.010002371411802463,0.24858416458402444,-0.003995599635472219,-9.977358767546476e-06,-1.3670625981065943e-05,0.003995635478955559,-0.004339223294926566,-0.0001489277565553019,0.00043210567837388176,min_task,none,false,false,7.149735519880539,7.149735519880539,6.999999999999747,6.999999999999747,6.999999999999747,6.999999999999747,7.152653105765393,7.152653105765393,0.0036710524656537965,-0.003764730736239285,-0.00643872585279655,-2.0454380453831245e-05,2.7009612249595462e-05,2.277086732659822e-05,0.07550840876006465,-0.00012708507052334422,-0.07267340322209956,0.008392486287118747,-0.09613493763021354,-0.35092904657563995,0.012323830445346143,0.012674408361314431,-0.012045861453542297,-0.004339223294926566,-0.0001489277565553019,0.00043210567837388176,0.004138349456775865,0.40403500591560104,0.8445496327920677,-0.002923652210635003,0.002304901390798916,0.0018492534507953745,7.149735519880539,7.149735519880539,6.999999999999747,6.999999999999747,6.999999999999747,6.999999999999747,7.152653105765393,7.152653105765393,1.2052590207757112,1.2052590207757112,1.1991230071710461,1.1991230071710461,1.1989113841083177,1.1989113841083177,1.2050484752817274,1.2050484752817274,0.0036710524656537965,-0.003764730736239285,-0.00643872585279655,-2.0454380453831245e-05,2.7009612249595462e-05,2.277086732659822e-05
37.0,0.7200000000000003,0.14142732501031338,0.010013145010086745,0.24859986407452117,0.13747645040319145,0.010002371411802463,0.24858416458402444,-0.003950874607121929,-1.0773598284281871e-05,-1.569949049673447e-05,0.00395092048839542,-0.004372381567554118,-0.0001587038847829339,0.0003206623897400598,min_task,none,false,false,7.134121761783595,7.134121761783595,6.9999999999989795,6.9999999999989795,6.9999999999989795,6.9999999999989795,7.134619554277507,7.134619554277507,0.0019030056046333923,0.020952521347970193,-0.011990372206500653,0.00022313798112381976,-9.174189088904296e-05,3.450867734063825e-05,0.06887117329672508,0.0003958703863334905,-0.057965689952557575,0.008620749714358313,-0.011092342747522473,-0.2981408184868832,0.011050328133906787,0.010731434659269831,-0.010652236792203194,-0.004372381567554118,-0.0001587038847829339,0.0003206623897400598,0.0041575826501942656,0.3950026448911484,0.8394177803766367,-0.003019998098331744,0.0024763996951514115,0.0018715843117460952,7.134121761783595,7.134121761783595,6.9999999999989795,6.9999999999989795,6.9999999999989795,6.9999999999989795,7.134619554277507,7.134619554277507,1.2052893529953892,1.2052893529953892,1.1991064829754292,1.1991064829754292,1.1988811129822536,1.1988811129822536,1.2050651393165048,1.2050651393165048,0.0019030056046333923,0.020952521347970193,-0.011990372206500653,0.00022313798112381976,-9.174189088904296e-05,3.450867734063825e-05
38.0,0.7400000000000003,0.1452346113717335,0.010013928353455374,0.24860174303642968,0.14134262464606645,0.010002371411802463,0.24858416458402444,-0.0038919867256670404,-1.1556941652911268e-05,-1.7578452405242473e-05,0.0038920435811611595,-0.004384994849432814,-0.000167980886183226,0.00020620048118553068,min_task,none,false,false,7.1170243366076695,7.1170243366076695,6.999999999997872,6.999999999997872,6.999999999997872,6.999999999997872,7.11515994843031,7.11515994843031,7.340281194585059e-05,0.04595997503332759,-0.017490439442058414,0.00046820060583004704,-0.00021310017785665885,4.6057598546430074e-05,0.06157799049428883,0.0009055163739571271,-0.04296633438420676,0.008966571140416348,0.07597510665926484,-0.2401946959888313,0.009487126959681912,0.008673270027064781,-0.00900860396150883,-0.004384994849432814,-0.000167980886183226,0.00020620048118553068,0.0041631044274077645,0.3860512810424381,0.8342263070364577,-0.0030929629642318765,0.0026476843693201656,0.0018756147703255584,7.1170243366076695,7.1170243366076695,6.999999999997872,6.999999999997872,6.999999999997872,6.999999999997872,7.11515994843031,7.11515994843031,1.205304770088327,1.205304770088327,1.1991040934949366,1.1991040934949366,1.1988656928565113,1.1988656928565113,1.205067596141264,1.205067596141264,7.340281194585059e-05,0.04595997503332759,-0.017490439442058414,0.00046820060583004704,-0.00021310017785665885,4.6057598546430074e-05
39.0,0.7600000000000003,0.1489767600324957,0.010014697961824692,0.2486034748795054,0.14515747617519148,0.010002371411802463,0.24858416458402444,-0.0038192838573042065,-1.2326550022229155e-05,-1.9310295480967632e-05,0.00381935256476952,-0.004376361384026584,-0.00017666612232833745,8.811885339021053e-05,min_task,none,false,false,7.09854257909603,7.09854257909603,6.999999999995061,6.999999999995061,6.99999999999506,6.99999999999506,7.094383400655244,7.094383400655244,-0.0018054521679906855,0.07109739643502502,-0.022909874386040894,0.0007136331394851518,-0.00033580769118127945,5.7351612043427414e-05,0.05366851542112458,0.001399513061050388,-0.027600931471889873,0.00940800923743611,0.16447079839905937,-0.17756321084638055,0.007664637549036833,0.006539256646590441,-0.007141689625141032,-0.004376361384026584,-0.00017666612232833745,8.811885339021053e-05,0.004153673157173922,0.3772186399606542,0.8290021905867657,-0.003140415279566759,0.002817527074670789,0.0018600369642324914,7.09854257909603,7.09854257909603,6.999999999995061,6.999999999995061,6.99999999999506,6.99999999999506,7.094383400655244,7.094383400655244,1.2053047099663916,1.2053047099663916,1.199116268129097,1.199116268129097,1.1988656840078278,1.1988656840078278,1.2050554126955622,1.2050554126955622,-0.0018054521679906855,0.07109739643502502,-0.022909874386040894,0.0007136331394851518,-0.00033580769118127945,5.7351612043427414e-05
40.0,0.7800000000000004,0.15264068813922443,0.010015452625089535,0.24860506328837556,0.1489075040118165,0.010002371411802463,0.24858416458402444,-0.003733184127407946,-1.3081213287071888e-05,-2.0898704351124398e-05,0.003733265541468386,-0.0043459191677706534,-0.0001846763662697498,-3.411184598417018e-05,min_task,none,false,false,7.078788141670436,7.078788141670436,6.999999999998393,6.999999999998393,6.999999999998392,6.999999999998392,7.072405009366272,7.072405009366272,-0.0037198221513604084,0.0961944693962363,-0.028218747366012105,0.0009582516566925618,-0.0004585573883236395,6.832419670603656e-05,0.04518660243674399,0.001876833175058194,-0.011794836794364445,0.009917177027801037,0.2537497648151752,-0.1108145943430081,0.005615464576879479,0.004367324091344717,-0.0050803540591598225,-0.0043459191677706534,-0.0001846763662697498,-3.411184598417018e-05,0.004128342562414324,0.36854244300298256,0.8237738721113678,-0.0031606887987180956,0.0029847412690250153,0.0018238796801924968,7.078788141670436,7.078788141670436,6.999999999998393,6.999999999998393,6.999999999998392,6.999999999998392,7.072405009366272,7.072405009366272,1.2052887169853603,1.2052887169853603,1.199143345201268,1.199143345201268,1.198881541956294,1.198881541956294,1.2050282488785187,1.2050282488785187,-0.0037198221513604084,0.0961944693962363,-0.028218747366012105,0.0009582516566925618,-0.0004585573883236395,6.832419670603656e-05
41.0,0.8000000000000004,0.15621386857105712,0.010016319956067993,0.24860648740680158,0.15257956438719147,0.010002371411802463,0.24858416458402444,-0.00363430418386565,-1.3948544265529952e-05,-2.232282277714326e-05,0.0036343995062688463,-0.004293376336414538,-0.00019150782388324298,-0.0001363907704105913,min_task,none,false,false,96.0561915446994,96.05619154469781,96.45911958060104,96.45911958059746,96.4670777574141,96.46707775741291,96.06387861986657,96.06387861986701,-0.005654514445672852,0.121071094623605,-0.033386186408316365,0.0012007601926303669,-0.0005800201512198523,7.890858072319282e-05,0.0360082093281826,0.005288504810966076,0.06224523138631531,0.01046239252259164,0.34312038648870863,-0.040611197960542814,0.0033719871281221152,0.002193027480104835,-0.002853662754641155,-0.004293376336414538,-0.00019150782388324298,-0.0001363907704105913,0.004108334609400652,0.3600593384753573,0.8185703773444787,-0.003142947685033781,0.0031474055936245604,0.0017595425701301803,96.0561915446994,96.05619154469781,96.45911958060104,96.45911958059746,96.4670777574141,96.46707775741291,96.06387861986657,96.06387861986701,1.205256242707029,1.205256242707029,1.199185188094214,1.199185188094214,1.198913816789358,1.198913816789358,1.2049862386467887,1.2049862386467887,-0.005654514445672852,0.121071094623605,-0.033386186408316365,0.0012007601926303669,-0.0005800201512198523,7.890858072319282e-05
42.0,0.8200000000000004,0.15968420531206112,0.010017132156659928,0.24860775037129745,0.15616094728756647,0.010002371411802463,0.24858416458402444,-0.0035232580244946576,-1.4760744857464717e-05,-2.358578727301719e-05,0.003523367888273382,-0.00421856953268062,-0.00019686626041295327,-0.000212506436432794,min_task,none,false,false,15.189565739191627,15.189565739191266,15.200590426039742,15.20059042603992,15.192245083467494,15.192245083466872,15.181243414235707,15.181243414236134,-0.0076891983111869976,0.14577976916349147,-0.03840828714979485,0.001460809984167064,-0.0007209191364510759,8.886787459486256e-05,0.026553768361244255,0.004750184764901481,0.039216193200842166,0.00867406332392458,0.4325781070295545,0.032877141675861775,0.00013243591448507596,-0.0033352972923123645,0.0007619153513527025,-0.00421856953268062,-0.00019686626041295327,-0.000212506436432794,0.004097159652767263,0.3518056565005429,0.813421827666234,-0.003077684478314952,0.003302861158922564,0.0016602149387280054,15.189565739191627,15.189565739191266,15.200590426039742,15.20059042603992,15.192245083467494,15.192245083466872,15.181243414235707,15.181243414236134,1.2052069669230028,1.2052069669230028,1.1992417068924301,1.1992417068924301,1.1989628285089162,1.1989628285089162,1.2049294691871286,1.2049294691871286,-0.0076891983111869976,0.14577976916349147,-0.03840828714979485,0.001460809984167064,-0.0007209191364510759,8.886787459486256e-05
43.0,0.8400000000000004,0.16303998853301327,0.010017674864028787,0.248608890453122,0.15963945299919147,0.010002371411802463,0.24858416458402444,-0.0034005355338218024,-1.5303452226323594e-05,-2.4725869097574904e-05,0.0034006598596503894,-0.004121238420705658,-0.0002009424040976661,-0.0002947087794216538,min_task,none,false,false,10.34868622378463,10.348686223784298,10.35885675275665,10.358856752756465,10.350701146092518,10.350701146092874,10.340557671464985,10.340557671465021,-0.009616687675511281,0.16972150515246467,-0.04321358590313017,0.0016877450781504354,-0.0008355215172638925,9.846597921870852e-05,0.0166509761384304,0.004258305902980565,0.04164746627325305,0.009266945362816343,0.5201973337345278,0.10782761658821835,-0.004362579263535112,-0.0052051600095485515,0.004698717407422156,-0.004121238420705658,-0.0002009424040976661,-0.0002947087794216538,0.004063153707477103,0.34381807641777734,0.8083597912630509,-0.0029674654664402704,0.0034496621385434814,0.0015278577822324488,10.34868622378463,10.348686223784298,10.35885675275665,10.358856752756465,10.350701146092518,10.350701146092874,10.340557671464985,10.340557671465021,1.2051408265819945,1.2051408265819945,1.1993132058079143,1.1993132058079143,1.1990286444389748,1.1990286444389748,1.2048576415720829,1.2048576415720829,-0.009616687675511281,0.16972150515246467,-0.04321358590313017,0.0016877450781504354,-0.0008355215172638925,9.846597921870852e-05
44.0,0.8600000000000004,0.16627021431502753,0.010017992099512032,0.24860991534998172,0.1630034686533165,0.010002371411802463,0.24858416458402444,-0.0032667456617110346,-1.5620687709569023e-05,-2.5750765957288646e-05,0.0032668844984388066,-0.0040014578942060685,-0.00020391791675938286,-0.00038831614801036984,min_task,none,false,false,8.517373947953608,8.517373947952395,8.542718254922026,8.542718254921326,8.535244312218982,8.535244312220264,8.509924526565438,8.509924526565566,-0.011495604899089228,0.19276007077336882,-0.047763567841510056,0.0019065649515350612,-0.0009412286567290443,0.0001074839066817349,0.006468260732313336,0.0038288872565709333,0.04760910178484922,0.010124858014450544,0.6052818486754531,0.1835163519184043,-0.008541420104603702,-0.006500186386178105,0.008316284772168671,-0.0040014578942060685,-0.00020391791675938286,-0.00038831614801036984,0.0040029574415733115,0.3361313709217041,0.8034154499351176,-0.0028187392597881474,0.003587630740127025,0.0013674037085800869,8.517373947953608,8.517373947952395,8.542718254922026,8.542718254921326,8.535244312218982,8.535244312220264,8.509924526565438,8.509924526565566,1.2050580048547734,1.2050580048547734,1.1993997626031458,1.1993997626031458,1.1991110882252245,1.1991110882252245,1.2047706862456302,1.2047706862456302,-0.011495604899089228,0.19276007077336882,-0.047763567841510056,0.0019065649515350612,-0.0009412286567290443,0.0001074839066817349
45.0,0.8800000000000004,0.1693646504841928,0.010018144450626572,0.2486108257924968,0.16624204477119148,0.010002371411802463,0.24858416458402444,-0.003122605713001325,-1.5773038824109034e-05,-2.666120847236164e-05,0.003122759364353819,-0.003859485818462075,-0.0002059549137797476,-0.000496323651043334,min_task,none,false,false,7.544414739722654,7.544414739722638,7.589730576154631,7.589730576154624,7.582983573936023,7.58298357393601,7.537680970243862,7.537680970243858,-0.013312811507361985,0.21470855224204827,-0.052027361394394143,0.0021171592356014172,-0.0010389651715156378,0.00011585286852912926,-0.0039202575242874285,0.0034554592649336906,0.055675804892660954,0.01103732856142122,0.6870642718836059,0.2590164516647642,-0.012260450470594528,-0.007503316169800083,0.011554377263277762,-0.003859485818462075,-0.0002059549137797476,-0.000496323651043334,0.003915651774341217,0.32877849986518726,0.79861953270656,-0.0026381439034413607,0.003716797966851576,0.0011839843983434321,7.544414739722654,7.544414739722638,7.589730576154631,7.589730576154624,7.582983573936023,7.58298357393601,7.537680970243862,7.537680970243858,1.2049588031730678,1.2049588031730678,1.1995013146904452,1.1995013146904452,1.199209867602182,1.199209867602182,1.2046686764229446,1.2046686764229446,-0.013312811507361985,0.21470855224204827,-0.052027361394394143,0.0021171592356014172,-0.0010389651715156378,0.00011585286852912926
46.0,0.9000000000000005,0.17231390571657973,0.010018186765870258,0.24861161828544154,0.16934497180906646,0.010002371411802463,0.24858416458402444,-0.002968933907513266,-1.58153540677948e-05,-2.7453701417101684e-05,0.002969102958525988,-0.003695761997521406,-0.00020718864463795933,-0.0006201405832002684,min_task,none,false,false,6.999999999960964,6.999999999960964,7.0738115118381195,7.0738115118381195,7.061484750253806,7.061484750253806,6.999999999960955,6.999999999960955,-0.01505100110234543,0.23536644490002573,-0.055972570859842766,0.00231822763711119,-0.0011283701226825935,0.0001235050970572941,-0.014428847811900247,0.0031822669808363705,0.06620144597811475,0.011882116661925124,0.7647270480974481,0.33332186313646783,-0.015454811137178889,-0.008319632363458708,0.014365101837198784,-0.003695761997521406,-0.00020718864463795933,-0.0006201405832002684,0.0038018325878538413,0.32179027184611314,0.7940018948186988,-0.0024319305782356617,0.003837273107416845,0.0009824861012469458,6.999999999960964,6.999999999960964,7.0738115118381195,7.0738115118381195,7.061484750253806,7.061484750253806,6.999999999960955,6.999999999960955,1.2048436347722722,1.2048436347722722,1.1996176540638488,1.1996176540638488,1.1993245806123927,1.1993245806123927,1.2045518328285836,1.2045518328285836,-0.01505100110234543,0.23536644490002573,-0.055972570859842766,0.00231822763711119,-0.0011283701226825935,0.0001235050970572941
47.0,0.9200000000000005,0.1751095044376131,0.01001816857557228,0.24861228727858836,0.17230285670319148,0.010002371411802463,0.24858416458402444,-0.00280664773442163,-1.5797163769816838e-05,-2.8122694563925688e-05,0.0028068330804425787,-0.0035109024492536536,-0.000207697265356101,-0.0007588805395649994,min_task,none,false,false,6.999999999991264,6.999999999991264,7.098461037985379,7.098461037985379,7.086138588189707,7.086138588189707,6.999999999991261,6.999999999991261,-0.016690340621802774,0.2545245144433028,-0.05956568813787058,0.0025079849526506476,-0.0012089372370101283,0.0001303785344506425,-0.02491542238358589,0.003184804290715106,0.08288700417317907,0.012609310894604417,0.8374217557377936,0.40537311888787253,-0.0181604092105001,-0.009003307492600417,0.01677998450003452,-0.0035109024492536536,-0.000207697265356101,-0.0007588805395649994,0.0036640617356349697,0.31519499219392627,0.7895910753128453,-0.0022049910226978925,0.003949139584480775,0.000766794141318195,6.999999999991264,6.999999999991264,7.098461037985379,7.098461037985379,7.086138588189707,7.086138588189707,6.999999999991261,6.999999999991261,1.204712999082668,1.204712999082668,1.1997484097319224,1.1997484097319224,1.1994547405089346,1.1994547405089346,1.2044205403569948,1.2044205403569948,-0.016690340621802774,0.2545245144433028,-0.05956568813787058,0.0025079849526506476,-0.0012089372370101283,0.0001303785344506425
48.0,0.9400000000000005,0.17774395382074779,0.01001812208927906,0.2486128270538333,0.1751071994148165,0.010002371411802463,0.24858416458402444,-0.0026367544059312797,-1.575067747659753e-05,-2.8662469808871105e-05,0.0026369572272250705,-0.003305694681311572,-0.00020750637714487277,-0.0009097951967669847,min_task,none,false,false,6.999999999993937,6.999999999993937,7.122903926509911,7.122903926509911,7.11007649962754,7.11007649962754,6.999999999993936,6.999999999993936,-0.01821141872956887,0.2719725730153541,-0.0627730716681546,0.002684490757771878,-0.0012810978181802242,0.00013640882657713635,-0.03528885787911931,0.0032874395380076502,0.101627076764265,0.013141719131630213,0.9042899535468593,0.4740805574926706,-0.020509518847490443,-0.009711097744606628,0.018924686145688364,-0.003305694681311572,-0.00020750637714487277,-0.0009097951967669847,0.0035063913354565013,0.309018129589041,0.785413862482587,-0.0019607071157828173,0.004052398013740898,0.000539650428096908,6.999999999993937,6.999999999993937,7.122903926509911,7.122903926509911,7.11007649962754,7.11007649962754,6.999999999993936,6.999999999993936,1.2045674807228661,1.2045674807228661,1.1998930534029864,1.1998930534029864,1.19959977591435,1.19959977591435,1.2042753415992746,1.2042753415992746,-0.01821141872956887,0.2719725730153541,-0.0627730716681546,0.002684490757771878,-0.0012810978181802242,0.00013640882657713635
49.0,0.9600000000000005,0.18021080835716932,0.010018053518564229,0.24861323263097196,0.17775046947519155,0.010002371411802463,0.24858416458402444,-0.002460338881977775,-1.5682106761765596e-05,-2.9068046947522408e-05,0.0024605605649927575,-0.0030810932326313044,-0.0002066140563480955,-0.00106928272514008,min_task,none,false,false,6.999999999996198,6.999999999996198,7.146775020542161,7.146775020542161,7.13309444492355,7.13309444492355,6.999999999996197,6.999999999996197,-0.019593116474013534,0.28748530730861394,-0.06555812371201206,0.0028447867485281884,-0.0013437650222036849,0.00014152639069976982,-0.04543204599838887,0.0034575646687117533,0.12206072894067911,0.01343390340323709,0.9644210384501408,0.5383104073127255,-0.022615616306378965,-0.01042244928911709,0.020879334901084172,-0.0030810932326313044,-0.0002066140563480955,-0.00106928272514008,0.003333454953587084,0.30328198927152394,0.7814948620246985,-0.001701407709044274,0.004146976163995986,0.0003029753778013302,6.999999999996198,6.999999999996198,7.146775020542161,7.146775020542161,7.13309444492355,7.13309444492355,6.999999999996197,6.999999999996197,1.2044077630522514,1.2044077630522514,1.2000509193761144,1.2000509193761144,1.199759016623125,1.199759016623125,1.2041169164884105,1.2041169164884105,-0.019593116474013534,0.28748530730861394,-0.06555812371201206,0.0028447867485281884,-0.0013437650222036849,0.00014152639069976982
50.0,0.9800000000000005,0.18250474164736713,0.010017950125803497,0.24861349963017235,0.18022618253056638,0.010002371411802463,0.24858416458402444,-0.002278559116800749,-1.557871400103411e-05,-2.933504614791027e-05,0.002278801195808497,-0.002838215454744767,-0.0002050010917887912,-0.0012330681516070062,min_task,none,false,false,6.99999999998993,6.99999999998993,7.1696896888955175,7.1696896888955175,7.1550126454923175,7.1550126454923175,6.999999999989927,6.999999999989927,-0.020814036493776056,0.3008342744330413,-0.0678832307711574,0.002985777698553175,-0.0013959726138270017,0.00014566257216430776,-0.05522818492022105,0.003653682496550386,0.14370764642352493,0.013457830109407182,1.0168966625233278,0.5969304558074456,-0.024575878521933447,-0.011117669933092279,0.0227130427857383,-0.002838215454744767,-0.0002050010917887912,-0.0012330681516070062,0.0031503326445895172,0.2980053669533765,0.7778560537379416,-0.001428617261799881,0.004232760022314487,5.8041831213105245e-05,6.99999999998993,6.99999999998993,7.1696896888955175,7.1696896888955175,7.1550126454923175,7.1550126454923175,6.999999999989927,6.999999999989927,1.2042346317778205,1.2042346317778205,1.200221214136862,1.200221214136862,1.1999316892581393,1.1999316892581393,1.2039460720459165,1.2039460720459165,-0.020814036493776056,0.3008342744330413,-0.0678832307711574,0.002985777698553175,-0.0013959726138270017,0.00014566257216430776
51.0,1.0000000000000004,0.18462162002214302,0.010017786365243801,0.2486136236404785,0.1825289768871915,0.010002371411802463,0.24858416458402444,-0.0020926431349515273,-1.5414953441338086e-05,-2.9459056454073096e-05,0.002092907247599979,-0.0025783382246610635,-0.0002026428589504452,-0.0013964037136218487,min_task,none,false,false,6.999999999998863,6.999999999998863,7.1912705372015076,7.1912705372015076,7.175682278288351,7.175682278288351,6.999999999998863,6.999999999998863,-0.021853102511916744,0.3117915270670928,-0.06971016399757322,0.003104300949497998,-0.0014368449203177296,0.0001487491963526324,-0.06456751370911745,0.003829506251619962,0.16599142691575539,0.013195690835584356,1.0608065152935149,0.6488359782901891,-0.02646280774574515,-0.01177760622545021,0.024476614427620683,-0.0025783382246610635,-0.0002026428589504452,-0.0013964037136218487,0.0029624151923028433,0.2932032031879872,0.7745163573938032,-0.001143384375967697,0.004309628517552268,-0.00019428134543863674,6.999999999998863,6.999999999998863,7.1912705372015076,7.1912705372015076,7.175682278288351,7.175682278288351,6.999999999998863,6.999999999998863,1.2040489804413939,1.2040489804413939,1.2004030265069892,1.2004030265069892,1.2001169111582866,1.2001169111582866,1.203763731677827,1.203763731677827,-0.021853102511916744,0.3117915270670928,-0.06971016399757322,0.003104300949497998,-0.0014368449203177296,0.0001487491963526324
52.0,1.0200000000000005,0.18655857802900389,0.010017529366027716,0.24861359918241416,0.18465469005631646,0.010002371411802463,0.24858416458402444,-0.0019038879726874236,-1.5157954225252651e-05,-2.943459838972151e-05,0.0019041758247867993,-0.0023028969819858186,-0.00019952167933612422,-0.0015542793454376169,min_task,none,false,false,6.999999999999997,6.999999999999997,7.211174016998387,7.211174016998387,7.194990347515661,7.194990347515661,6.999999999999997,6.999999999999997,-0.022690023206752324,0.3201335101436874,-0.07100055381787632,0.0031972141637295905,-0.0014655765140646486,0.00015071884547627915,-0.07335366537515642,0.003938404305131962,0.18826622963612197,0.012637969129642117,1.09526565425917,0.6929772190119985,-0.028316722842658546,-0.01238238777697042,0.026195736906910308,-0.0023028969819858186,-0.00019952167933612422,-0.0015542793454376169,0.0027752677166748623,0.28888623889767384,0.77149121368163,-0.0008466540139867192,0.00437748941243539,-0.00045324357072841406,6.999999999999997,6.999999999999997,7.211174016998387,7.211174016998387,7.194990347515661,7.194990347515661,6.999999999999997,6.999999999999997,1.2038518180158846,1.2038518180158846,1.2005953365997337,1.2005953365997337,1.200313682341807,1.200313682341807,1.203570925825342,1.203570925825342,-0.022690023206752324,0.3201335101436874,-0.07100055381787632,0.0031972141637295905,-0.0014655765140646486,0.00015071884547627915
53.0,1.0400000000000005,0.18831409566700258,0.010017143834584375,0.24861341841841555,0.18660043529919146,0.010002371411802463,0.24858416458402444,-0.0017136603678111206,-1.4772422781911612e-05,-2.9253834391118616e-05,0.0017139737067726492,-0.002013488169569944,-0.0001956385237219262,-0.001701633206462849,min_task,none,false,false,6.99999999996833,6.99999999996833,7.229113176219832,7.229113176219832,7.2128606747226796,7.2128606747226796,6.999999999968322,6.999999999968322,-0.023305699041004952,0.3256450288518901,-0.07171639383279614,0.0032614820618474902,-0.0014814283195626874,0.00015150530079594771,-0.08150846143517576,0.003937842554561518,0.20984557081983435,0.011782733791749616,1.1194322077424552,0.7283869009860794,-0.03014132827117923,-0.01291143288595397,0.027866854848117788,-0.002013488169569944,-0.0001956385237219262,-0.001701633206462849,0.0025944951196412735,0.2850606742105782,0.7687921872169837,-0.0005396456319860953,0.0044363142173362916,-0.0007179149423559482,6.99999999996833,6.99999999996833,7.229113176219832,7.229113176219832,7.2128606747226796,7.2128606747226796,6.999999999968322,6.999999999968322,1.2036442786056214,1.2036442786056214,1.2007970220447546,1.2007970220447546,1.20052087559149,1.20052087559149,1.203368785534781,1.203368785534781,-0.023305699041004952,0.3256450288518901,-0.07171639383279614,0.0032614820618474902,-0.0014814283195626874,0.00015150530079594771
54.0,1.0600000000000005,0.18988807709142577,0.010016596354320353,0.24861306981334452,0.18836467817206654,0.010002371411802463,0.24858416458402444,-0.0015233989193592368,-1.4224942517890304e-05,-2.8905229320086434e-05,0.0015237395213016478,-0.001711875561130954,-0.00019102300440420196,-0.0018335526134060822,min_task,none,false,false,7.000000000000085,7.000000000000085,7.244873342495089,7.244873342495089,7.229249603831565,7.229249603831565,7.000000000000085,7.000000000000085,-0.023682569135056925,0.32812303008543453,-0.07182054149200633,0.0032942571948617358,-0.0014837329621114512,0.00015104402411279732,-0.08897421301377505,0.0037934550138618304,0.23003173851792916,0.01063556811315609,1.132524256908467,0.754206110736196,-0.03190273867981574,-0.01334427051965617,0.029456053217460594,-0.001711875561130954,-0.00019102300440420196,-0.0018335526134060822,0.0024256129173101898,0.281727834787832,0.7664265999386802,-0.00022420110728412813,0.004486170145702963,-0.000986906678873601,7.000000000000085,7.000000000000085,7.244873342495089,7.244873342495089,7.229249603831565,7.229249603831565,7.000000000000085,7.000000000000085,1.203427632861457,1.203427632861457,1.2010068604091366,1.2010068604091366,1.2007372250536195,1.2007372250536195,1.2031585400163127,1.2031585400163127,-0.023682569135056925,0.32812303008543453,-0.07182054149200633,0.0032942571948617358,-0.0014837329621114512,0.00015104402411279732
55.0,1.0800000000000005,0.19128193037096086,0.01001585901223274,0.24861253696809638,0.1899473130711915,0.010002371411802463,0.24858416458402444,-0.0013346172997693584,-1.3487600430276206e-05,-2.837238407193965e-05,0.001334986982852996,-0.0014000001905184719,-0.00018574076252993787,-0.0019454566788656268,min_task,none,false,false,7.0000000000000995,7.0000000000000995,7.258318641620764,7.258318641620764,7.244135964112359,7.244135964112359,7.0000000000000995,7.0000000000000995,-0.02380488573153114,0.32737988917128996,-0.07127717384820108,0.003292950195440675,-0.0014719030746223325,0.00014927257245132236,-0.09571300958564127,0.0034824079227197607,0.24814420092240988,0.009209765902313644,1.1338345198894582,0.7697067115073208,-0.03353195224030195,-0.013661747396301735,0.030900943030328983,-0.0014000001905184719,-0.00018574076252993787,-0.0019454566788656268,0.002273927539031227,0.2788838519938441,0.7643972044183809,9.692932151851794e-05,0.0045272474897505716,-0.0012581368945143161,7.0000000000000995,7.0000000000000995,7.258318641620764,7.258318641620764,7.244135964112359,7.244135964112359,7.0000000000000995,7.0000000000000995,1.2032033002674425,1.2032033002674425,1.2012235273781722,1.2012235273781722,1.2009613141588538,1.2009613141588538,1.2029415185925572,1.2029415185925572,-0.02380488573153114,0.32737988917128996,-0.07127717384820108,0.003292950195440675,-0.0014719030746223325,0.00014927257245132236
56.0,1.1000000000000005,0.19249864778842796,0.010014912271803485,0.24861179783838228,0.1913497397778165,0.010002371411802463,0.24858416458402444,-0.0011489080106114602,-1.2540860001021906e-05,-2.7633254357839476e-05,0.0011493086995072966,-0.001079992791185672,-0.00017989757756949631,-0.0020332533022868315,min_task,none,false,false,6.999999999933471,6.999999999933471,7.269388641575227,7.269388641575227,7.257505829880733,7.257505829880733,6.999999999933457,6.999999999933457,-0.023658904415726757,0.3232459327552978,-0.0700521619418593,0.0032552856274584738,-0.0014454379675944325,0.00014613087152554272,-0.10170295452894078,0.002995805823152901,0.2635458396705139,0.007526518636375852,1.122741612793823,0.7743085558834301,-0.034930479138683065,-0.013847288314599087,0.03211529751615353,-0.001079992791185672,-0.00017989757756949631,-0.0020332533022868315,0.002144430126058732,0.27651936507902247,0.762701907232967,0.00041988849958094805,0.00455988122293876,-0.001528664265628489,6.999999999933471,6.999999999933471,7.269388641575227,7.269388641575227,7.257505829880733,7.257505829880733,6.999999999933457,6.999999999933457,1.202972861021773,1.202972861021773,1.2014455909691368,1.2014455909691368,1.2011915640774227,1.2011915640774227,1.2027191567055446,1.2027191567055446,-0.023658904415726757,0.3232459327552978,-0.0700521619418593,0.0032552856274584738,-0.0014454379675944325,0.00014613087152554272
57.0,1.1200000000000006,0.19354288614301818,0.010013747027261918,0.24861082450936228,0.19257494000319147,0.010002371411802463,0.24858416458402444,-0.0009679461398267031,-1.1375615459455202e-05,-2.6659925337846335e-05,0.0009683800317290296,-0.0007541869572104364,-0.00017363979097760284,-0.0020934647960109652,min_task,none,false,false,7.000000000000106,7.000000000000106,7.278085841331985,7.278085841331985,7.269333746008642,7.269333746008642,7.000000000000106,7.000000000000106,-0.023232978058136792,0.31557095759866094,-0.06811332962875717,0.0031793401428926484,-0.0014039255247188997,0.00014156129436638195,-0.10693182944829559,0.002339946444517717,0.2756656165623125,0.005614917329748988,1.0987167940599523,0.7675899127784593,-0.03597861342821842,-0.013887958667498928,0.03299598442242126,-0.0007541869572104364,-0.00017363979097760284,-0.0020934647960109652,0.002041707280768382,0.2746192545300956,0.7613335521956766,0.0007396187696980657,0.004584566043688884,-0.0017946058415338497,7.000000000000106,7.000000000000106,7.278085841331985,7.278085841331985,7.269333746008642,7.269333746008642,7.000000000000106,7.000000000000106,1.2027380659155722,1.2027380659155722,1.2016715027207365,1.2016715027207365,1.2014262242231548,1.2014262242231548,1.2024930049702263,1.2024930049702263,-0.023232978058136792,0.31557095759866094,-0.06811332962875717,0.0031793401428926484,-0.0014039255247188997,0.00014156129436638195
58.0,1.1400000000000006,0.19442104654159936,0.010012365805655586,0.24860958363069363,0.1936275539335665,0.010002371411802463,0.24858416458402444,-0.000793492608032853,-9.994393853123007e-06,-2.5419046669195033e-05,0.0007939625525456732,-0.0004251307789082586,-0.00016715092595707195,-0.002123318231677335,min_task,none,false,false,6.999999999910567,6.999999999910567,7.284455982841223,7.284455982841223,7.279562828004839,7.279562828004839,6.999999999910548,6.999999999910548,-0.02251754592042779,0.30422457619600074,-0.06543057152739205,0.0030635607051288276,-0.0013470374473702692,0.00013550851865251262,-0.11138907619429979,0.0015363385994366012,0.2840166371380851,0.003511670046423601,1.0613254045838836,0.7492898698336761,-0.03654566529667662,-0.013775137836630784,0.03343157439928117,-0.0004251307789082586,-0.00016715092595707195,-0.002123318231677335,0.001969871243382049,0.2731624155203561,0.7602797715996351,0.0010498822960004735,0.004601964426501846,-0.0020511479054629344,6.999999999910567,6.999999999910567,7.284455982841223,7.284455982841223,7.279562828004839,7.279562828004839,6.999999999910548,6.999999999910548,1.2025008424887433,1.2025008424887433,1.2018995873259282,1.2018995873259282,1.2016633664434715,1.2016633664434715,1.20226473974086,1.20226473974086,-0.02251754592042779,0.30422457619600074,-0.06543057152739205,0.0030635607051288276,-0.0013470374473702692,0.00013550851865251262
59.0,1.1600000000000006,0.195141353248884,0.010010783122628781,0.2486080375365433,0.19451395677519157,0.010002371411802463,0.24858416458402444,-0.0006273964736924209,-8.411710826317781e-06,-2.3872952518877444e-05,0.00062790684814125,-9.559456401976138e-05,-0.0001606446769155332,-0.0021207984339300084,min_task,none,false,false,6.9999999999015685,6.9999999999015685,7.2885639049904025,7.2885639049904025,7.288086389310609,7.288086389310609,6.999999999901549,6.999999999901549,-0.02150501378126992,0.2890953041534968,-0.061975816195122366,0.002906761858782246,-0.0012745170228656167,0.00012791916236257563,-0.11505717845967138,0.0006205001767074185,0.28820956165722317,0.0012604973359399137,1.0102225796024331,0.7193019110336565,-0.03650136292230166,-0.013504664382325945,0.03331189751452977,-9.559456401976138e-05,-0.0001606446769155332,-0.0021207984339300084,0.0019325107885554695,0.2721215788155775,0.7595229106118636,0.001343395394105209,0.004612907546000633,-0.0022926510212292143,6.9999999999015685,6.9999999999015685,7.2885639049904025,7.2885639049904025,7.288086389310609,7.288086389310609,6.999999999901549,6.999999999901549,1.2022632958508777,1.2022632958508777,1.2021280324851942,1.2021280324851942,1.2019008844369978,1.2019008844369978,1.202036173363318,1.202036173363318,-0.02150501378126992,0.2890953041534968,-0.061975816195122366,0.002906761858782246,-0.0012745170228656167,0.00012791916236257563
60.0,1.1800000000000006,0.19571393128881664,0.010009025036646966,0.248606145992539,0.19524233529931645,0.010002371411802463,0.24858416458402444,-0.0004715959895001953,-6.653624844503089e-06,-2.1981408514559764e-05,0.00047215487962799205,0.00023142753122117407,-0.00015435471828303076,-0.0020846633134513,min_task,none,false,false,6.999999999895202,6.999999999895202,7.290468159985361,7.290468159985361,7.294733927137404,7.294733927137404,6.9999999998951825,6.9999999998951825,-0.020189525002859497,0.27008838390011536,-0.05772283120802271,0.0027081022396926837,-0.0011861594459378776,0.00011874121673926475,-0.11790368144354448,-0.000360385233409094,0.2879604230556326,-0.0010887868216754688,0.9451431659039489,0.6776583507108785,-0.03572758173587806,-0.013076368363662041,0.03253777116181156,0.00023142753122117407,-0.00015435471828303076,-0.0020846633134513,0.0019326629828948405,0.27146318357263255,0.7590400256470272,0.0016120683417871762,0.0046183892274004115,-0.0025128427025968396,6.999999999895202,6.999999999895202,7.290468159985361,7.290468159985361,7.294733927137404,7.294733927137404,6.9999999998951825,6.9999999998951825,1.202027702910947,1.202027702910947,1.2023548808096598,1.2023548808096598,1.2021364996099773,1.2021364996099773,1.2018092622596506,1.2018092622596506,-0.020189525002859497,0.27008838390011536,-0.05772283120802271,0.0027081022396926837,-0.0011861594459378776,0.00011874121673926475
61.0,1.2000000000000006,0.19615088263497923,0.010007127979934648,0.24860386843838023,0.19582276438719143,0.010002371411802463,0.24858416458402444,-0.0003281182477878064,-4.7565681321852515e-06,-1.9703854355790362e-05,0.00032874374723819563,0.000552723596147649,-0.0001485220240195625,-0.0020144228318573747,min_task,none,false,false,6.999999999892028,6.999999999892028,7.290197333994205,7.290197333994205,7.299263507990216,7.299263507990216,6.999999999892008,6.999999999892008,-0.018566627203740145,0.2471224227395667,-0.052646879739954494,0.0024670417588624734,-0.0010817851976950964,0.0001079233138663181,-0.11987485693728601,-0.001350766105556087,0.2830935074934768,-0.0034814931743628367,0.8658861414935515,0.6245057996028242,-0.03412954215122795,-0.012492950593984095,0.031030115092951786,0.000552723596147649,-0.0001485220240195625,-0.0020144228318573747,0.0019728050179670673,0.27114730245552715,0.7588029522512812,0.00184733421401255,0.0046195534000166485,-0.002705084054729911,6.999999999892028,6.999999999892028,7.290197333994205,7.290197333994205,7.299263507990216,7.299263507990216,6.999999999892008,6.999999999892008,1.2017964993268113,1.2017964993268113,1.2025780254030825,1.2025780254030825,1.2023677740479144,1.2023677740479144,1.2015861112216377,1.2015861112216377,-0.018566627203740145,0.2471224227395667,-0.052646879739954494,0.0024670417588624734,-0.0010817851976950964,0.0001079233138663181
62.0,1.2200000000000006,0.1964663609790464,0.010005136969672868,0.2486011665404146,0.19626728357506656,0.010002371411802463,0.24858416458402444,-0.00019907740397984153,-2.7655578704044448e-06,-1.700195639015023e-05,0.00019982123912832726,0.0008648786251861572,-0.00014338058030506846,-0.0019102842691570304,min_task,none,false,false,6.9999999998924025,6.9999999998924025,7.28773062206572,7.28773062206572,7.301361949841143,7.301361949841143,6.999999999892384,6.999999999892384,-0.016632841867768373,0.2201249826798283,-0.04672424793625064,0.0021832818756216685,-0.0009612074604165512,9.541387882272571e-05,-0.1208918251585714,-0.002290739856031543,0.2735392308701819,-0.00585954694481733,0.772294103745083,0.5600722512939706,-0.031645660135689105,-0.011758230587260443,0.028737728590315488,0.0008648786251861572,-0.00014338058030506846,-0.0019102842691570304,0.0020548647619375226,0.2711276147767782,0.7587784321714115,0.0020405434962829515,0.00461767592418596,-0.0028626907621733884,6.9999999998924025,6.9999999998924025,7.28773062206572,7.28773062206572,7.301361949841143,7.301361949841143,6.999999999892384,6.999999999892384,1.2015722591985134,1.2015722591985134,1.2027952103368982,1.2027952103368982,1.202592130600214,1.202592130600214,1.2013689727338555,1.2013689727338555,-0.016632841867768373,0.2201249826798283,-0.04672424793625064,0.0021832818756216685,-0.0009612074604165512,9.541387882272571e-05
63.0,1.2400000000000007,0.19667664520825268,0.010003103318723438,0.24859800683899935,0.19658997359919134,0.010002371411802463,0.24858416458402444,-8.667160906133953e-05,-7.319069209744261e-07,-1.3842254974916202e-05,8.777306835136411e-05,0.0011642976362698885,-0.0001391425025083066,-0.001773067590097544,min_task,none,false,false,6.999999999896432,6.999999999896432,7.282984368360543,7.282984368360543,7.30065305386091,7.30065305386091,6.999999999896414,6.999999999896414,-0.014385146128546723,0.18902730384079355,-0.039931671262431995,0.0018566921319920465,-0.0008241947869647135,8.116022735364846e-05,-0.12084953732672882,-0.003120490131081512,0.259327524873893,-0.008163225695644805,0.6642285851148898,0.4846266829478935,-0.028255318465820505,-0.01087484108916458,0.025643107413893897,0.0011642976362698885,-0.0001391425025083066,-0.001773067590097544,0.002180248505042481,0.2713514184027338,0.7589282833534106,0.0021833960033677984,0.004614142135896208,-0.0029792843730391,6.999999999896432,6.999999999896432,7.282984368360543,7.282984368360543,7.30065305386091,7.30065305386091,6.999999999896414,6.999999999896414,1.2013576683049194,1.2013576683049194,1.2030040366644974,1.2030040366644974,1.2028068793305615,1.2028068793305615,1.20116024073763,1.20116024073763,-0.014385146128546723,0.18902730384079355,-0.039931671262431995,0.0018566921319920465,-0.0008241947869647135,8.116022735364846e-05
64.0,1.2600000000000007,0.1968002118420647,0.010001081972601638,0.24859436327343032,0.1968070329408163,0.010002371411802463,0.24858416458402444,6.82109875160819e-06,1.2894392008248184e-06,-1.0198689405882533e-05,1.2337070447617424e-05,0.0014472361660490551,-0.00013598362330308008,-0.001604095568119747,min_task,none,false,false,6.9999999999039595,6.9999999999039595,7.2758053893789825,7.2758053893789825,7.296713073836094,7.296713073836094,6.999999999903944,6.999999999903944,-0.011820375282530998,0.15375835401633758,-0.032245692467486625,0.0014872264773176306,-0.0006704304495659608,6.510767632244668e-05,-0.11961862648465818,-0.003784811431973848,0.24057721302590548,-0.010333113786544302,0.5415420024611546,0.39843217943638326,-0.023983967740874693,-0.009841506489068707,0.02176583517478383,0.0014472361660490551,-0.00013598362330308008,-0.001604095568119747,0.0023498845494051655,0.2717596664120746,0.7592095910757043,0.002268378434323268,0.004610421977673552,-0.0030491473673962383,6.9999999999039595,6.9999999999039595,7.2758053893789825,7.2758053893789825,7.296713073836094,7.296713073836094,6.999999999903944,6.999999999903944,1.20115549242483,1.20115549242483,1.203201973978474,1.203201973978474,1.2030092488667827,1.2030092488667827,1.200962438902924,1.200962438902924,-0.011820375282530998,0.15375835401633758,-0.032245692467486625,0.0014872264773176306,-0.0006704304495659608,6.510767632244668e-05
65.0,1.2800000000000007,0.19685780676560685,0.009999128600053269,0.2485902193911299,0.19693685437119146,0.010002371411802463,0.24858416458402444,7.904760558460899e-05,3.242811749194427e-06,-6.054807105471127e-06,7.934545018956716e-05,0.0017098361723363264,-0.00013403059632923137,-0.0014050639206739843,min_task,none,false,false,6.999999999914577,6.999999999914577,7.265970986022857,7.265970986022857,7.28909162760745,7.28909162760745,6.9999999999145635,6.9999999999145635,-0.008934551778195894,0.11423837784001346,-0.023641984280085234,0.0010748328949397462,-0.0004994700001985427,4.7198736849486596e-05,-0.1170497469664874,-0.00423737364987354,0.21748193124326154,-0.012312224234636472,0.40404695707626065,0.30169350027167585,-0.018905162555253676,-0.008650091553474702,0.017163284356310607,0.0017098361723363264,-0.00013403059632923137,-0.0014050639206739843,0.0025642816811377142,0.2722870103500178,0.7595748936207452,0.002289175127198419,0.004608045093912455,-0.003067555291274191,6.999999999914577,6.999999999914577,7.265970986022857,7.265970986022857,7.28909162760745,7.28909162760745,6.9999999999145635,6.9999999999145635,1.200968542903733,1.200968542903733,1.2033863768757034,1.2033863768757034,1.2031964205756833,1.2031964205756833,1.2007782041161552,1.2007782041161552,-0.008934551778195894,0.11423837784001346,-0.023641984280085234,0.0010748328949397462,-0.0004994700001985427,4.7198736849486596e-05
66.0,1.3000000000000007,0.19687251664622707,0.009997296559946333,0.24858557009268034,0.19700010149656655,0.010002371411802463,0.24858416458402444,0.00012758485033947942,5.074851856129783e-06,-1.4055086559050523e-06,0.00012769347521346129,0.0019481646737660439,-0.00013335045863221596,-0.001177897031365538,min_task,none,false,false,6.999999999927657,6.999999999927657,7.253194744277707,7.253194744277707,7.277335516832574,7.277335516832574,6.999999999927646,6.999999999927646,-0.00572214145131179,0.07037206897945199,-0.014094665900289294,0.0006193594424324459,-0.00031069851886827884,2.7372457414470146e-05,-0.11297970615817779,-0.004444393500366107,0.19029319862509106,-0.014048212215876835,0.25148337373441687,0.19449969693648494,-0.01313938786297104,-0.007282634323287903,0.011928596308349932,0.0019481646737660439,-0.00013335045863221596,-0.001177897031365538,0.002823601983920971,0.27286182863315256,0.7599723320027464,0.0022410215172743424,0.004608578674905986,-0.0030310614247798812,6.999999999927657,6.999999999927657,7.253194744277707,7.253194744277707,7.277335516832574,7.277335516832574,6.999999999927646,6.999999999927646,1.2007996420551916,1.2007996420551916,1.2035545051295875,1.2035545051295875,1.203365563060851,1.203365563060851,1.200610266449071,1.200610266449071,-0.00572214145131179,0.07037206897945199,-0.014094665900289294,0.0006193594424324459,-0.00031069851886827884,2.7372457414470146e-05
67.0,1.3200000000000007,0.1968698404267587,0.009995633857707386,0.2485804228231294,0.19701978530319142,0.010002371411802463,0.24858416458402444,0.00014994487643271714,6.737554095076828e-06,3.741760895042967e-06,0.00015014280328474813,0.00215825201080717,-0.00013394342112817948,-0.0009245948695024906,min_task,none,false,false,6.999999999942402,6.999999999942402,7.237136601453027,7.237136601453027,7.261012523600689,7.261012523600689,6.999999999942393,6.999999999942393,-0.002175230728855402,0.022041409434327298,-0.0035756331010628408,0.00012045906247901871,-0.00010328879228580573,5.563974275125152e-06,-0.10723848104352077,-0.004387426422016062,0.15930129994383718,-0.015495571104705973,0.08348360979627201,0.07676186756388413,-0.006849819330693873,-0.005708576982746159,0.006186159272977845,0.00215825201080717,-0.00013394342112817948,-0.0009245948695024906,0.003127747730892012,0.27340621632012385,0.7603457302719351,0.0021209745132088316,0.004613611043466843,-0.0029377139585151416,6.999999999942402,6.999999999942402,7.237136601453027,7.237136601453027,7.261012523600689,7.261012523600689,6.999999999942393,6.999999999942393,1.200651591178216,1.200651591178216,1.2037035459293988,1.2037035459293988,1.203513864278991,1.203513864278991,1.2004614272968221,1.2004614272968221,-0.002175230728855402,0.022041409434327298,-0.0035756331010628408,0.00012045906247901871,-0.00010328879228580573,5.563974275125152e-06
68.0,1.3400000000000007,0.1968690611504891,0.00999942461236415,0.24857496429097037,0.19702107754212891,0.0100025218318631,0.24858416458402444,0.00015201639163980873,3.097219498949047e-06,9.200293054067998e-06,0.00015232603680294813,0.0023380898920321064,-0.00013571653830767402,-0.0006540830514573909,min_task,none,false,false,6.999999999957893,6.999999999957893,7.217415255750428,7.217415255750428,7.2397322365123955,7.2397322365123955,6.999999999957886,6.999999999957886,-0.00179460654551378,-0.0017054341801584873,0.0019463995210282365,-0.00031295203382311534,0.0006938997168716218,-1.3455867190249986e-05,-0.09965612383737611,-0.004065071341859983,0.1248147001588657,-0.06403785576727349,-0.0013532727560866902,0.019338192059110578,-0.012832872383167571,0.04688078873345692,7.681291383850316e-05,0.0023380898920321064,-0.00013571653830767402,-0.0006540830514573909,0.0034576498625629505,0.2738643760690736,0.7606556245059718,0.0019264916609656498,0.0046371542195995045,-0.0027877307836460512,6.999999999957893,6.999999999957893,7.217415255750428,7.217415255750428,7.2397322365123955,7.2397322365123955,6.999999999957886,6.999999999957886,1.2005257448345146,1.2005257448345146,1.2038320134809233,1.2038320134809233,1.2036399639638722,1.2036399639638722,1.2003331663250347,1.2003331663250347,-0.00179460654551378,-0.0017054341801584873,0.0019463995210282365,-0.00031295203382311534,0.0006938997168716218,-1.3455867190249986e-05
69.0,1.3600000000000008,0.19686390010645372,0.010029400362180738,0.24856984110211788,0.19701573104319142,0.010011782239665463,0.24858416458402444,0.00015183093673770687,-1.7618122515274462e-05,1.432348190655297e-05,0.00015351935944870313,0.002491758451897128,-0.00013842250860076027,-0.0003956977815129786,min_task,none,false,false,6.999999999973537,6.999999999973537,7.197597217435381,7.197597217435381,7.216509783900635,7.216509783900635,6.999999999973533,6.999999999973533,-0.00911032726637263,0.03999081714193693,-0.006073337901184086,-0.00047197500351735337,0.0026951096673925776,-2.0540688537136157e-05,-0.09155709940553013,-0.0033670303873535113,0.08810872369773468,-0.21285989221796323,0.13591699649090788,0.12044426823247273,-0.045749318160415255,0.2079616630891843,-0.006147313119414878,0.002491758451897128,-0.00013842250860076027,-0.0003956977815129786,0.003738587431974362,0.27426491579569795,0.7609249284754203,0.0016530604037720957,0.004729746867711608,-0.002585150101321548,6.999999999973537,6.999999999973537,7.197597217435381,7.197597217435381,7.216509783900635,7.216509783900635,6.999999999973533,6.999999999973533,1.2004190585217067,1.2004190585217067,1.203942632375625,1.203942632375625,1.203746914399304,1.203746914399304,1.2002227659632343,1.2002227659632343,-0.00911032726637263,0.03999081714193693,-0.006073337901184086,-0.00047197500351735337,0.0026951096673925776,-2.0540688537136157e-05
70.0,1.3800000000000008,0.19683479949645566,0.010112266176007778,0.24856567083945116,0.1969927054842539,0.010051663677617888,0.24858416458402444,0.00015790598779824583,-6.060249838989e-05,1.8493744573272464e-05,0.00017014400483701393,0.002625887302667763,-0.00014166061007765067,-0.00018445364926763567,min_task,none,false,false,6.9999999999874145,6.9999999999874145,7.185748917268756,7.185748917268756,7.198269376853701,7.198269376853701,6.999999999987413,6.999999999987413,-0.014816540379646756,0.07195709288195738,-0.012380683210045715,-0.0006042345619557869,0.004329698376118585,-2.6462027220284253e-05,-0.08598841395498233,-0.0020642950265243997,0.053190069589404816,-0.3309531985574017,0.23960286837290992,0.19371722709021263,-0.0723013349742635,0.339771619834946,-0.011976926690813018,0.002625887302667763,-0.00014166061007765067,-0.00018445364926763567,0.00387650046411487,0.27467759539155395,0.761205916520835,0.0012975391648760704,0.004956186652969271,-0.0023373632884570146,6.9999999999874145,6.9999999999874145,7.185748917268756,7.185748917268756,7.198269376853701,7.198269376853701,6.999999999987413,6.999999999987413,1.200326577775403,1.200326577775403,1.204039822635445,1.204039822635445,1.2038396727984952,1.2038396727984952,1.2001258086657436,1.2001258086657436,-0.014816540379646756,0.07195709288195738,-0.012380683210045715,-0.0006042345619557869,0.004329698376118585,-2.6462027220284253e-05
