LordTarzan10086/HCDR_ML/results/tracking/routeb_trajectory_suite_20260416_105416/triangle/triangle_cooperative_detailed.csv
step,time_s,tip_x,tip_y,tip_z,des_x,des_y,des_z,err_x,err_y,err_z,err_norm,q_platform_x,q_platform_y,q_platform_psi,solver_status,fail_reason,fallback_applied,hold_active,u_a_1,u_a_2,u_a_3,u_a_4,u_a_5,u_a_6,u_a_7,u_a_8,u_a_9,u_a_10,u_a_11,u_a_12,u_a_13,u_a_14,qdd_1,qdd_2,qdd_3,qdd_4,qdd_5,qdd_6,qdd_7,qdd_8,qdd_9,q_1,q_2,q_3,q_4,q_5,q_6,q_7,q_8,q_9,cable_force_1,cable_force_2,cable_force_3,cable_force_4,cable_force_5,cable_force_6,cable_force_7,cable_force_8,cable_length_1,cable_length_2,cable_length_3,cable_length_4,cable_length_5,cable_length_6,cable_length_7,cable_length_8,arm_torque_1,arm_torque_2,arm_torque_3,arm_torque_4,arm_torque_5,arm_torque_6
1.0,0.0,0.057021164387191264,0.010002371411802225,0.24858416458402482,0.05702116438719139,0.010002371411802463,0.24858416458402444,1.249000902703301e-16,2.3765711620882257e-16,-3.885780586188048e-16,4.723069394728281e-16,-2.1968391236329727e-18,5.09956043596355e-20,4.156773776817837e-18,min_task,none,false,false,6.999999999999999,6.999999999999999,6.999999999999999,6.999999999999999,6.999999999999999,6.999999999999999,6.999999999999999,6.999999999999999,2.0735974849677033e-15,-3.313528487868663e-14,-8.363144271006783e-16,-1.881630113489805e-16,1.2955927754417228e-15,-6.164120721898534e-18,2.978444668511691e-20,3.018528705767232e-20,6.018457163984425e-23,-2.0468876040646248e-14,-1.6743508116131942e-13,-2.299887068403821e-13,-2.4679307216601758e-14,9.732224671735393e-14,-1.503612515903958e-17,-2.1968391236329727e-18,5.09956043596355e-20,4.156773776817837e-18,7.337162378668337e-19,0.58,0.92,-8.007163875882442e-18,2.3806541987077465e-17,2.7146528757908912e-18,6.999999999999999,6.999999999999999,6.999999999999999,6.999999999999999,6.999999999999999,6.999999999999999,6.999999999999999,6.999999999999999,1.2020815280171306,1.2020815280171306,1.2020815280171306,1.2020815280171306,1.2020815280171306,1.2020815280171306,1.2020815280171306,1.2020815280171306,2.0735974849677033e-15,-3.313528487868663e-14,-8.363144271006783e-16,-1.881630113489805e-16,1.2955927754417228e-15,-6.164120721898534e-18
2.0,0.02,0.057039997054536176,0.010002463073336248,0.24858375938167673,0.05702578371256639,0.010002371411802463,0.24858416458402444,-1.4213341969784854e-05,-9.166153378502295e-08,4.0520234770302643e-07,1.4219412109134731e-05,-2.764140985479714e-06,-6.924098379462187e-08,5.921724348291527e-06,min_task,none,false,false,7.0,7.0,7.0,7.0,7.0,7.0,7.0,7.0,0.002966469373054228,-0.04891658025789867,0.01358053599500477,-0.0005464609530244142,0.00016743753227464712,-2.8452798459292317e-05,-4.1672339337409834e-17,-1.0085160842670586e-16,-1.1277601799589524e-22,0.002781808869761014,-0.1507524569078116,-0.04084273997784815,-0.0001597374841725705,0.0006654082415120114,4.415045128408998e-07,-2.764140985479714e-06,-6.924098379462187e-08,5.921724348291527e-06,8.713602044948953e-06,0.5799587969998967,0.9199869100529247,-2.546322045043656e-06,7.783709569362536e-07,2.0055203258489286e-06,7.0,7.0,7.0,7.0,7.0,7.0,7.0,7.0,1.2020835315286125,1.2020835315286125,1.202079622443204,1.202079622443204,1.2020795245174214,1.2020795245174214,1.2020834336031483,1.2020834336031483,0.002966469373054228,-0.04891658025789867,0.01358053599500477,-0.0005464609530244142,0.00016743753227464712,-2.8452798459292317e-05
3.0,0.04,0.05710871667328522,0.010002764330351209,0.24858246097749548,0.05705728379919139,0.010002371411802463,0.24858416458402444,-5.143287409383607e-05,-3.929185487458464e-07,1.7036065289577351e-06,5.146258055853641e-05,-1.2798627684179522e-05,-3.1223566917507955e-07,2.634358346691728e-05,min_task,none,false,false,7.0,7.0,7.0,7.0,7.0,7.0,7.0,7.0,0.005324529616909042,-0.08906989310594716,0.024936134109140157,-0.0009968850972864867,0.00030031463477773345,-5.234211780158624e-05,9.197848634784627e-06,2.304036199476253e-07,-0.0007881960363220755,0.0038127847690326636,-0.2733038456411103,-0.07040927347261718,0.0003078440656839946,0.000470063170634434,-0.0003576378845150128,-1.2798627684179522e-05,-3.1223566917507955e-07,2.634358346691728e-05,3.894501105881394e-05,0.579809183674294,0.9199401710042535,-1.1523241336332693e-05,3.41623175564046e-06,9.125295968746068e-06,7.0,7.0,7.0,7.0,7.0,7.0,7.0,7.0,1.2020907989575833,1.2020907989575833,1.202072698970111,1.202072698970111,1.2020722573147233,1.2020722573147233,1.2020903573088457,1.2020903573088457,0.005324529616909042,-0.08906989310594716,0.024936134109140157,-0.0009968850972864867,0.00030031463477773345,-5.234211780158624e-05
4.0,0.06,0.05725325121644406,0.010003340994008694,0.24858012866852747,0.05714028307831639,0.010002371411802463,0.24858416458402444,-0.00011296813812767398,-9.695822062311121e-07,4.035915496969356e-06,0.0001130443671112654,-3.379057206583829e-05,-7.986701167721871e-07,6.645864894396137e-05,min_task,none,false,false,7.0,7.0,7.0,7.0,7.0,7.0,7.0,7.0,0.007218591221309674,-0.12248258915998693,0.03451308412164056,-0.0013717862371710166,0.0004124451014184178,-7.261286932666365e-05,4.258821847279918e-05,1.0389833367005374e-06,-0.003506395577636731,0.0034248949122714528,-0.3746100717700401,-0.09273009690476372,0.0011557752491270835,9.353860594095718e-05,-0.001006168768251355,-3.379057206583829e-05,-7.986701167721871e-07,6.645864894396137e-05,9.873804436830244e-05,0.5794960673319105,0.9198440324899737,-2.9636322528899203e-05,8.575411316081292e-06,2.3602431740099823e-05,7.0,7.0,7.0,7.0,7.0,7.0,7.0,7.0,1.2021059873559314,1.2021059873559314,1.2020582003063567,1.2020582003063567,1.202057070233337,1.202057070233337,1.2021048573278352,1.2021048573278352,0.007218591221309674,-0.12248258915998693,0.03451308412164056,-0.0013717862371710166,0.0004124451014184178,-7.261286932666365e-05
5.0,0.08,0.0574954165396099,0.010004250481359615,0.24857681746104424,0.057297001571191386,0.010002371411802463,0.24858416458402444,-0.00019841496841851297,-1.8790695571514748e-06,7.347122980200238e-06,0.00019855984188905444,-6.879008755073277e-05,-1.5699618053990487e-06,0.0001285667486167528,min_task,none,false,false,7.0,7.0,7.0,7.0,7.0,7.0,7.0,7.0,0.008758323491018887,-0.1505794637083623,0.04262782380660403,-0.001685656822853205,0.000511360181948135,-8.990538746871857e-05,0.00011244020071089864,2.6576237864233008e-06,-0.0088458091804818,0.0020321454822922157,-0.4595541142126003,-0.11064166523028655,0.0022094807329516913,-0.00011942444999687308,-0.0018762487463661467,-6.879008755073277e-05,-1.5699618053990487e-06,0.0001285667486167528,0.00019216265453586725,0.5789736087210235,0.9196859185768856,-5.8665179069210863e-05,1.6748958547796604e-05,4.697433016263422e-05,7.0,7.0,7.0,7.0,7.0,7.0,7.0,7.0,1.202131284165804,1.202131284165804,1.2020340004314432,1.2020340004314432,1.202031777873032,1.202031777873032,1.2021290617872562,1.2021290617872562,0.008758323491018887,-0.1505794637083623,0.04262782380660403,-0.001685656822853205,0.000511360181948135,-8.990538746871857e-05
6.0,0.1,0.05785363200934407,0.01000555617959781,0.24857268303378,0.05754733743406639,0.010002371411802463,0.24858416458402444,-0.0003062945752776783,-3.1847677953462245e-06,1.1481550244440974e-05,0.0003065262396377498,-0.00012033963118716265,-2.645169778019136e-06,0.00021255669268220207,min_task,none,false,false,7.0,7.0,7.0,7.0,7.0,7.0,7.0,7.0,0.010025703561488727,-0.17437009224909036,0.04950669980174279,-0.0019488767108756674,0.0006010095316527739,-0.00010466156173582839,0.00022890323492418766,5.224144143721128e-06,-0.017112549515504085,9.931785199823667e-06,-0.5315857474205845,-0.12614915673115018,0.0033563493277698705,-2.1060902694399578e-05,-0.0029090753940259647,-0.00012033963118716265,-2.645169778019136e-06,0.00021255669268220207,0.00032006210497169965,0.5782032041771907,0.9194552743443376,-9.964176952429691e-05,2.8387675240528132e-05,8.018840864699995e-05,7.0,7.0,7.0,7.0,7.0,7.0,7.0,7.0,1.2021685030436564,1.2021685030436564,1.2019983175112634,1.2019983175112634,1.2019945700273482,1.2019945700273482,1.2021647560902575,1.2021647560902575,0.010025703561488727,-0.17437009224909036,0.04950669980174279,-0.0019488767108756674,0.0006010095316527739,-0.00010466156173582839
7.0,0.12000000000000001,0.05834342980292811,0.010007328075375403,0.2485679235980625,0.05790894350319139,0.010002371411802463,0.24858416458402444,-0.00043448629973671937,-4.9566635729400566e-06,1.6240985961923915e-05,0.00043481798812571807,-0.00019056656229657863,-4.026088600353204e-06,0.0003163819234946878,min_task,none,false,false,7.0,7.0,7.0,7.0,7.0,7.0,7.0,7.0,0.011082705860697898,-0.19457657222211602,0.05531363934657791,-0.002169085555889876,0.0006832589047730492,-0.00011719039325639389,0.00040043750351831175,8.801964450646703e-06,-0.02829181676587042,-0.002318982205218829,-0.5931632974243592,-0.14067771847281907,0.004521613426006452,0.0004271324366353005,-0.004053610567443032,-0.00019056656229657863,-4.026088600353204e-06,0.0003163819234946878,0.00048075199951778784,0.5771520525398175,0.9191427479462841,-0.00015298931612114887,4.3957209299681596e-05,0.0001236962459281785,7.0,7.0,7.0,7.0,7.0,7.0,7.0,7.0,1.2022191528901611,1.2022191528901611,1.2019496520331767,1.2019496520331767,1.201943942597251,1.201943942597251,1.2022134447341228,1.2022134447341228,0.011082705860697898,-0.19457657222211602,0.05531363934657791,-0.002169085555889876,0.0006832589047730492,-0.00011719039325639389
8.0,0.14,0.05897782200217212,0.010009638075561595,0.24856274551800872,0.05839730383981639,0.010002371411802463,0.24858416458402444,-0.0005805181623557351,-7.266663759131556e-06,2.1419066015715416e-05,0.0005809586195384776,-0.00028125009031751717,-5.701695723457392e-06,0.0004365292633091144,min_task,none,false,false,7.0,7.0,7.0,7.0,7.0,7.0,7.0,7.0,0.011976652213211354,-0.21172168496385588,0.060169460352559344,-0.002352089198574743,0.0007587893297580611,-0.00012771255815965474,0.0006341219275495174,1.3397055979768713e-05,-0.042111208674803606,-0.004689106170149457,-0.6460567414041204,-0.15524259047426198,0.005655111169691588,0.0012040347109996362,-0.005265746511019922,-0.00028125009031751717,-5.701695723457392e-06,0.0004365292633091144,0.0006706768532621819,0.5757921282584378,0.9187396083090908,-0.00021864753499755834,6.39586604147933e-05,0.00017754203583608515,7.0,7.0,7.0,7.0,7.0,7.0,7.0,7.0,1.2022844881438888,1.2022844881438888,1.2018867424186146,1.2018867424186146,1.2018786470236957,1.2018786470236957,1.202276395427147,1.202276395427147,0.011976652213211354,-0.21172168496385588,0.060169460352559344,-0.002352089198574743,0.0007587893297580611,-0.00012771255815965474
9.0,0.16,0.05976756998315795,0.010012554225055781,0.24855734399707963,0.05902581027519139,0.010002371411802463,0.24858416458402444,-0.0007417597079665619,-1.018281325331806e-05,2.6820586944809044e-05,0.00074231428514643,-0.0003938703001309994,-7.652026990099916e-06,0.0005684735964189413,min_task,none,false,false,7.0,7.0,7.0,7.0,7.0,7.0,7.0,7.0,0.012743805780112145,-0.2261893936243528,0.06416532722880587,-0.002502443296704333,0.000827634799908586,-0.00013639082146634947,0.0009358769425693804,1.8972739964974434e-05,-0.05810311193166588,-0.006893163862795804,-0.6915541248154288,-0.17056203971606193,0.0067248015826687465,0.0022564168195464266,-0.006508550489009212,-0.0003938703001309994,-7.652026990099916e-06,0.0005684735964189413,0.0008850212394676437,0.5740994382122828,0.9182373311070556,-0.0002961954111134927,8.893070889420692e-05,0.00024145209900443802,7.0,7.0,7.0,7.0,7.0,7.0,7.0,7.0,1.2023655459065128,1.2023655459065128,1.2018085328097903,1.2018085328097903,1.2017976528097398,1.2017976528097398,1.2023546709468242,1.2023546709468242,0.012743805780112145,-0.2261893936243528,0.06416532722880587,-0.002502443296704333,0.000827634799908586,-0.00013639082146634947
10.0,0.18,0.06072138692957741,0.010016135604704888,0.24855189314534662,0.05980583895556639,0.010002371411802463,0.24858416458402444,-0.0009155479740110203,-1.376419290242438e-05,3.227143867781668e-05,0.0009162199471067388,-0.0005296445085074489,-9.851486705154489e-06,0.000707107485382033,min_task,none,false,false,7.0,7.0,7.0,7.0,7.0,7.0,7.0,7.0,0.013411762279801683,-0.23826619925191855,0.06737210926066999,-0.0026238191380019787,0.0008895027759173668,-0.00014335072577719696,0.0013106276385542901,2.5462583383974264e-05,-0.07566522146358333,-0.008780509014566134,-0.7306013760933942,-0.18713121681431658,0.00771364150316501,0.0035144032947480365,-0.007752870117138414,-0.0005296445085074489,-9.851486705154489e-06,0.000707107485382033,0.001118266957074651,0.5720534787501028,0.9176273082313187,-0.0003849734197161831,0.00011944258251935961,0.0003149261455855725,7.0,7.0,7.0,7.0,7.0,7.0,7.0,7.0,1.2024631737054674,1.2024631737054674,1.2017141494087056,1.2017141494087056,1.2017001194655321,1.2017001194655321,1.2024491525017642,1.2024491525017642,0.013411762279801683,-0.23826619925191855,0.06737210926066999,-0.0026238191380019787,0.0008895027759173668,-0.00014335072577719696
11.0,0.19999999999999998,0.061846094787934264,0.010020428392528737,0.2485465417555472,0.060746826887191394,0.010002371411802463,0.24858416458402444,-0.0010992679007428702,-1.805698072627343e-05,3.7622828477246184e-05,0.0011000597480951722,-0.0006895545265705796,-1.227156489947399e-05,0.0008471334805027279,min_task,none,false,false,7.0,7.0,7.0,7.0,7.0,7.0,7.0,7.0,0.014001051667174474,-0.24816936079358526,0.06984687271846009,-0.0027192264179684506,0.0009439672359152992,-0.0001486945767892912,0.0017624247464915906,3.278141319288549e-05,-0.09411772349125123,-0.010253628179758851,-0.7638967902508977,-0.20527009949233957,0.008617742909623742,0.00490083143159014,-0.008977814808202788,-0.0006895545265705796,-1.227156489947399e-05,0.0008471334805027279,0.0013646854012444505,0.5696368362335882,0.9169006512535506,-0.0004842016737258059,0.0001560824253623511,0.00039732732809156666,7.0,7.0,7.0,7.0,7.0,7.0,7.0,7.0,1.2025780504741936,1.2025780504741936,1.201602882894723,1.201602882894723,1.2015853753981924,1.2015853753981924,1.2025605571746558,1.2025605571746558,0.014001051667174474,-0.24816936079358526,0.06984687271846009,-0.0027192264179684506,0.0009439672359152992,-0.0001486945767892912
12.0,0.21999999999999997,0.06314675038100825,0.010025462967002829,0.24854141245015834,0.06185634848131639,0.010002371411802463,0.24858416458402444,-0.0012904018996918662,-2.3091555200365974e-05,4.275213386609189e-05,0.0012913163932979604,-0.0008743672582157373,-1.4882927601037549e-05,0.0009834076154231358,min_task,none,false,false,7.0,7.0,7.0,7.0,7.0,7.0,7.0,7.0,0.014526248924965126,-0.25606617021933403,0.07163736917600198,-0.0027911462848194102,0.0009905884417118005,-0.0001525107991005914,0.002294535367781932,4.083435789999151e-05,-0.11275551304852734,-0.011263148048338742,-0.7919550203332232,-0.22515476380588387,0.00944464349104423,0.006337790287630728,-0.010170823108226118,-0.0008743672582157373,-1.4882927601037549e-05,0.0009834076154231358,0.001618754647902132,0.5668348925618855,0.9160480694844081,-0.0005930878617810034,0.00019944326277869826,0.00048796627541201654,7.0,7.0,7.0,7.0,7.0,7.0,7.0,7.0,1.202710702487767,1.202710702487767,1.2014741752233364,1.2014741752233364,1.2014529020543692,1.2014529020543692,1.2026894511904924,1.2026894511904924,0.014526248924965126,-0.25606617021933403,0.07163736917600198,-0.0027911462848194102,0.0009905884417118005,-0.0001525107991005914
13.0,0.23999999999999996,0.064626750819394,0.01003125174274795,0.24853660273508943,0.06314019209919139,0.010002371411802463,0.24858416458402444,-0.0014865587202026048,-2.8880330945486518e-05,4.7561848935007145e-05,0.001487599755176117,-0.0010846502924071872,-1.7656859072381457e-05,0.001111224718208722,min_task,none,false,false,7.0,7.0,7.0,7.0,7.0,7.0,7.0,7.0,0.014996804488828733,-0.2620871935161579,0.07278512320301249,-0.002841612352829671,0.0010289905470536678,-0.00015488008684715103,0.0029095115323559987,4.952380277446548e-05,-0.13089391428495378,-0.011801698068732807,-0.8151508582829017,-0.24683836588459387,0.01021114175881468,0.007751924721526898,-0.011327177759621955,-0.0010846502924071872,-1.7656859072381457e-05,0.001111224718208722,0.0018754929632571308,0.5636356093770337,0.9150598097148815,-0.0007109182519880167,0.00025010774972823404,0.0005861738210320451,7.0,7.0,7.0,7.0,7.0,7.0,7.0,7.0,1.2028615154233482,1.2028615154233482,1.2013276096315297,1.2013276096315297,1.2013023221327919,1.2013023221327919,1.202836260172259,1.202836260172259,0.014996804488828733,-0.2620871935161579,0.07278512320301249,-0.002841612352829671,0.0010289905470536678,-0.00015488008684715103
14.0,0.25999999999999995,0.0662879251816709,0.010037787469529215,0.24853218706109914,0.06460243659706638,0.010002371411802463,0.24858416458402444,-0.0016854885846045164,-3.541605772675212e-05,5.1977522925295006e-05,0.0016866617114485317,-0.0013207836329071033,-2.056606156541948e-05,0.0012265391948493656,min_task,none,false,false,7.0,7.0,7.0,7.0,7.0,7.0,7.0,7.0,0.015417734993502876,-0.2663354716368894,0.07332754162544744,-0.002872265618192774,0.001058913303481088,-0.00015587933082752303,0.0036092421020540275,5.875418866608843e-05,-0.14790665623588733,-0.011896966294734752,-0.8337497879763235,-0.2702660443789004,0.010940561473615077,0.009079041052644244,-0.012448949316528488,-0.0013207836329071033,-2.056606156541948e-05,0.0012265391948493656,0.0021307038633923887,0.5600293727661798,0.9139256487656533,-0.000837125869125714,0.00030863258392513376,0.000691357676464533,7.0,7.0,7.0,7.0,7.0,7.0,7.0,7.0,1.203030743341726,1.203030743341726,1.201162903028732,1.201162903028732,1.201133391009639,1.201133391009639,1.2030012771444796,1.2030012771444796,0.015417734993502876,-0.2663354716368894,0.07332754162544744,-0.002872265618192774,0.001058913303481088,-0.00015587933082752303
15.0,0.27999999999999997,0.06813061724332226,0.010045041868401045,0.24852821935414385,0.0662455278711914,0.010002371411802463,0.24858416458402444,-0.0018850893721308604,-4.267045659858172e-05,5.5945229880588476e-05,0.001886402019065248,-0.001582968371578816,-2.3584852108746285e-05,0.0013261184157201227,min_task,none,false,false,7.0,7.0,7.0,7.0,7.0,7.0,7.0,7.0,0.01579026349013928,-0.2688930562502975,0.0732993403083575,-0.002884400340331016,0.0010802452346613885,-0.00015558400307943553,0.004394991823851541,6.843467291479527e-05,-0.16325525973230895,-0.01160428288416637,-0.8479300878543288,-0.29528655631833034,0.011659569607009005,0.010267966141855675,-0.01354343911161856,-0.001582968371578816,-2.3584852108746285e-05,0.0013261184157201227,0.00238113189842775,0.5560088855856743,0.9126349323665137,-0.0009713317134009412,0.00037553344256335044,0.0008030395436834355,7.0,7.0,7.0,7.0,7.0,7.0,7.0,7.0,1.2032185151517936,1.2032185151517936,1.2009799001945702,1.2009799001945702,1.2009459907256492,1.2009459907256492,1.2031846687739742,1.2031846687739742,0.01579026349013928,-0.2688930562502975,0.0732993403083575,-0.002884400340331016,0.0010802452346613885,-0.00015558400307943553
16.0,0.3,0.07015376252116895,0.010052964640118886,0.2485247357011471,0.06807035540281639,0.010002371411802463,0.24858416458402444,-0.0020834071183525593,-5.059322831642288e-05,5.942888287732706e-05,0.002084868506087048,-0.001871232893759886,-2.668883163569295e-05,0.001407629376077998,min_task,none,false,false,7.0,7.0,7.0,7.0,7.0,7.0,7.0,7.0,0.016112456318207354,-0.2698257928084848,0.0727334937867116,-0.002879010851842717,0.0010930405174395543,-0.000154069468581095,0.0052674302145032945,7.847978388466973e-05,-0.17650945350476405,-0.010999055068074347,-0.8577995917160705,-0.32166234184100506,0.012394816720225894,0.011283344679440028,-0.014621255512616905,-0.001871232893759886,-2.668883163569295e-05,0.001407629376077998,0.0026245325235629423,0.551569097953307,0.9111766552197589,-0.0011133571569005047,0.0004512713126017812,0.0009208708247919853,7.0,7.0,7.0,7.0,7.0,7.0,7.0,7.0,1.2034248389817293,1.2034248389817293,1.2007785693740083,1.2007785693740083,1.2007401260154305,1.2007401260154305,1.203386480160826,1.203386480160826,0.016112456318207354,-0.2698257928084848,0.0727334937867116,-0.002879010851842717,0.0010930405174395543,-0.000154069468581095
17.0,0.32,0.07235496185542724,0.010061483008201892,0.2485217570154689,0.0700763288031914,0.010002371411802463,0.24858416458402444,-0.0022786330522358428,-5.911159639942869e-05,6.240756855552254e-05,0.0022802538174912755,-0.002185437066787209,-2.9854134614275072e-05,0.0014696626027825921,min_task,none,false,false,7.0,7.0,7.0,7.0,7.0,7.0,7.0,7.0,0.016379875363355296,-0.26918697137290787,0.07166185241194807,-0.002856844046196187,0.0010975197258953442,-0.00015141155595730944,0.006226652233782196,8.88083197154711e-05,-0.18735870882476785,-0.010169347085772669,-0.863409184858041,-0.34907908079738564,0.013169721805305606,0.012107023892934464,-0.01569419492489889,-0.002185437066787209,-2.9854134614275072e-05,0.0014696626027825921,0.0028596633429178253,0.546707168621146,0.9095395777614462,-0.0012632080769985456,0.000536241003105625,0.0010446269199305437,7.0,7.0,7.0,7.0,7.0,7.0,7.0,7.0,1.2036496048071574,1.2036496048071574,1.2005589989811165,1.2005589989811165,1.200515921945696,1.200515921945696,1.203606638384406,1.203606638384406,0.016379875363355296,-0.26918697137290787,0.07166185241194807,-0.002856844046196187,0.0010975197258953442,-0.00015141155595730944
18.0,0.34,0.0747305530328568,0.010070502024743164,0.24851929158800404,0.0722614543585664,0.010002371411802463,0.24858416458402444,-0.002469098674290404,-6.813061294070125e-05,6.487299602039864e-05,0.00247089023418989,-0.0025252747785985195,-3.30563934223133e-05,0.0015117001089574,min_task,none,false,false,7.0,7.0,7.0,7.0,7.0,7.0,7.0,7.0,0.0165862426284204,-0.26702024614612746,0.07011552866689985,-0.002818458284001233,0.0010940542469579794,-0.0001476866233407172,0.007272192246211225,9.934085126237249e-05,-0.1956154214372915,-0.00920885609025005,-0.8647643230128581,-0.37715528278349847,0.014001710412387696,0.01273778399786053,-0.016773113325500452,-0.0025252747785985195,-3.30563934223133e-05,0.0015117001089574,0.0030862073654201586,0.5414224512840666,0.9077123753869241,-0.0014210335785426226,0.0006307624143692789,0.001174181887922764,7.0,7.0,7.0,7.0,7.0,7.0,7.0,7.0,1.2038925856535012,1.2038925856535012,1.2003213952087095,1.2003213952087095,1.2002736227883468,1.2002736227883468,1.2038449549494121,1.2038449549494121,0.0165862426284204,-0.26702024614612746,0.07011552866689985,-0.002818458284001233,0.0010940542469579794,-0.0001476866233407172
19.0,0.36000000000000004,0.07727568145772887,0.010079905862846888,0.24851733747605875,0.0746224115751914,0.010002371411802463,0.24858416458402444,-0.0026532698825374734,-7.753445104442466e-05,6.682710796568347e-05,0.00265524359015105,-0.002890275143201536,-3.626956820684412e-05,0.0015340363954303112,min_task,none,false,false,7.0,7.0,7.0,7.0,7.0,7.0,7.0,7.0,0.016724100440379946,-0.26336207602652606,0.06812512109434953,-0.002764286606385136,0.0010831351289341212,-0.00014297128476777792,0.008403032491091911,0.00010999627597875585,-0.20121064615858023,-0.008210485091891543,-0.8618353539827129,-0.40545218651360193,0.014900153579297753,0.013189368554755679,-0.0178659680011644,-0.002890275143201536,-3.626956820684412e-05,0.0015340363954303112,0.0033046414799596333,0.535716500703458,0.9056838159307564,-0.0015870641004107609,0.0007350748116582453,0.0013094668022573708,7.0,7.0,7.0,7.0,7.0,7.0,7.0,7.0,1.2041534376783107,1.2041534376783107,1.2000660804007506,1.2000660804007506,1.2000135917978585,1.2000135917978585,1.2041011272495639,1.2041011272495639,0.016724100440379946,-0.26336207602652606,0.06812512109434953,-0.002764286606385136,0.0010831351289341212,-0.00014297128476777792
20.0,0.38000000000000006,0.0799843705341481,0.010089560251725024,0.24851588470770092,0.07715462972431641,0.010002371411802463,0.24858416458402444,-0.002829740809831685,-8.718883992256052e-05,6.827987632351817e-05,0.002831906969895847,-0.003279802660864667,-3.946479814280122e-05,0.001537662972108099,min_task,none,false,false,7.0,7.0,7.0,7.0,7.0,7.0,7.0,7.0,0.016785442704558586,-0.2582438422876535,0.06572082725044143,-0.002694700513227473,0.0010653286220734751,-0.00013734192703632165,0.009617607113813001,0.00012068792436459748,-0.20418358194170821,-0.0072606662171603555,-0.854567065111608,-0.43348398867520777,0.015865166123657088,0.013486990574613689,-0.01897618642995532,-0.003279802660864667,-3.946479814280122e-05,0.001537662972108099,0.003516065013082638,0.5295930940362028,0.9034429611080733,-0.0017615351470994878,0.0008493339657233045,0.0014504163387286343,7.0,7.0,7.0,7.0,7.0,7.0,7.0,7.0,1.204431699435984,1.204431699435984,1.1997934920822821,1.1997934920822821,1.19973631159678,1.19973631159678,1.2043747391601594,1.2043747391601594,0.016785442704558586,-0.2582438422876535,0.06572082725044143,-0.002694700513227473,0.0010653286220734751,-0.00013734192703632165
21.0,0.4000000000000001,0.08284959218798096,0.01009931609529451,0.2485149172910745,0.07985236438719141,0.010002371411802463,0.24858416458402444,-0.002997227800789551,-9.694468349204753e-05,6.924729294993659e-05,0.0029995946307899727,-0.0036930566052468675,-4.2609423204550124e-05,0.0015241276000236335,min_task,none,false,false,7.0,7.0,7.0,7.0,7.0,7.0,7.0,7.0,0.016762291313395326,-0.2516937432148049,0.06293248068345794,-0.0026100697986898035,0.001041222459619032,-0.00013087411516574522,0.010913802715044947,0.00013131973790929253,-0.20466620142238395,-0.006434547288513789,-0.8428877124035654,-0.46072840712642504,0.016887321531064634,0.013662698905517976,-0.020101484192763672,-0.0036930566052468675,-4.2609423204550124e-05,0.0015241276000236335,0.003722003932028528,0.523058263077919,0.9009793874949567,-0.0019446037480175106,0.0009736116472946617,0.0015969089003688682,7.0,7.0,7.0,7.0,7.0,7.0,7.0,7.0,1.2047267906233283,1.2047267906233283,1.1995041825601933,1.1995041825601933,1.1994423849015905,1.1994423849015905,1.204665260877312,1.204665260877312,0.016762291313395326,-0.2516937432148049,0.06293248068345794,-0.0026100697986898035,0.001041222459619032,-0.00013087411516574522
22.0,0.4200000000000001,0.08586333779330299,0.010109014174413091,0.24851441502368515,0.08270877400006642,0.010002371411802463,0.24858416458402444,-0.0031545637932365728,-0.00010664276261062797,6.974956033928281e-05,0.003157136424924312,-0.004129069900768717,-4.566630711072341e-05,0.001495379463303929,min_task,none,false,false,7.0,7.0,7.0,7.0,7.0,7.0,7.0,7.0,0.016647191329012816,-0.24373850271856864,0.05978953760212846,-0.002510813842248193,0.001011368152799353,-0.00012364196604556236,0.012288956322285237,0.00014178301472435317,-0.2028645157765648,-0.005792128986478334,-0.8267175419458875,-0.486637380815474,0.017948244724848437,0.013750138885059509,-0.021233211032425942,-0.004129069900768717,-4.566630711072341e-05,0.001495379463303929,0.003924206016575094,0.5161203333587993,0.8982834225067619,-0.0021362649979398867,0.0011078966641556995,0.0017487058850404788,7.0,7.0,7.0,7.0,7.0,7.0,7.0,7.0,1.2050380105937881,1.2050380105937881,1.199198819010552,1.199198819010552,1.1991325353467284,1.1991325353467284,1.2049720481349784,1.2049720481349784,0.016647191329012816,-0.24373850271856864,0.05978953760212846,-0.002510813842248193,0.001011368152799353,-0.00012364196604556236
23.0,0.4400000000000001,0.08901668965610751,0.010118490690374316,0.24851435509801295,0.08571599639919142,0.010002371411802463,0.24858416458402444,-0.003300693256916093,-0.00011611927857185268,6.980948601148507e-05,0.003303472873726164,-0.004586707748063377,-4.859356331703157e-05,0.001453610847851465,min_task,none,false,false,7.0,7.0,7.0,7.0,7.0,7.0,7.0,7.0,0.016433605930548267,-0.23440492863680495,0.056321032871578115,-0.002397440594792217,0.000976225635172924,-0.00011571755921187707,0.013739851658354637,0.00015195415772116576,-0.19903796683850197,-0.005375420528098793,-0.8059768462693274,-0.5106478289660498,0.01902195984840382,0.013779325639319906,-0.022356257700662133,-0.004586707748063377,-4.859356331703157e-05,0.001453610847851465,0.004124441226094858,0.5087899662162061,0.8953463907401711,-0.002336275695334055,0.0012520964584335846,0.0019053955390698572,7.0,7.0,7.0,7.0,7.0,7.0,7.0,7.0,1.2053645369090373,1.2053645369090373,1.1988781839572749,1.1988781839572749,1.1988076081887111,1.1988076081887111,1.2052943409476304,1.2052943409476304,0.016433605930548267,-0.23440492863680495,0.056321032871578115,-0.002397440594792217,0.000976225635172924,-0.00011571755921187707
24.0,0.46000000000000013,0.09229989313099798,0.010127583284647091,0.24851471349963666,0.08886522536581642,0.010002371411802463,0.24858416458402444,-0.0034346677651815594,-0.00012521187284462824,6.94510843877727e-05,0.0034376509600890525,-0.005064666250683898,-5.134474899447524e-05,0.001401104741429587,min_task,none,false,false,7.0,7.0,7.0,7.0,7.0,7.0,7.0,7.0,0.01611619734720512,-0.22372131821094624,0.052555520028318696,-0.0022705705267593436,0.0009361164682501913,-0.00010717044091794211,0.015262714563116113,0.00016169376434545599,-0.1934783542439385,-0.005206670335681162,-0.7805934439926717,-0.532192249221174,0.020076812005623626,0.013772035361748237,-0.023449510507630694,-0.005064666250683898,-5.134474899447524e-05,0.001401104741429587,0.004324319659231408,0.5010802001468354,0.8921608659915017,-0.002544091234129221,0.00140603826445558,0.0020663462587505233,7.0,7.0,7.0,7.0,7.0,7.0,7.0,7.0,1.205705424169009,1.205705424169009,1.198543176026266,1.198543176026266,1.1984685706963547,1.1984685706963547,1.2056312620442475,1.2056312620442475,0.01611619734720512,-0.22372131821094624,0.052555520028318696,-0.0022705705267593436,0.0009361164682501913,-0.00010717044091794211
25.0,0.48000000000000015,0.09570242939452189,0.010136137084509651,0.24851546619317055,0.09214678717119143,0.010002371411802463,0.24858416458402444,-0.003555642223330463,-0.0001337656727071878,6.869839085388296e-05,0.0035588206395421387,-0.005561471290984772,-5.3869549776027446e-05,0.0013400962142757714,min_task,none,false,false,7.0,7.0,7.0,7.0,7.0,7.0,7.0,7.0,0.015690991122926903,-0.2117187220685896,0.04852100748453564,-0.0021309444443831874,0.000891191313091624,-9.806726903818273e-05,0.016853208409086433,0.00017084727394650276,-0.1864895506927681,-0.005287711934840966,-0.7505095547375563,-0.550709071076239,0.02107774580231873,0.013738338809366021,-0.02448679835679207,-0.005561471290984772,-5.3869549776027446e-05,0.0013400962142757714,0.004525137107007808,0.49300648792765656,0.8887209242494456,-0.00275882061387563,0.0015694689636101418,0.002230673270291963,7.0,7.0,7.0,7.0,7.0,7.0,7.0,7.0,1.206059603327416,1.206059603327416,1.198194810832891,1.198194810832891,1.1981165120579762,1.1981165120579762,1.205981815176907,1.205981815176907,0.015690991122926903,-0.2117187220685896,0.04852100748453564,-0.0021309444443831874,0.000891191313091624,-9.806726903818273e-05
26.0,0.5000000000000001,0.0992130888640674,0.010144010287464913,0.2485165900917145,0.09555021712156642,0.010002371411802463,0.24858416458402444,-0.0036628717425009893,-0.00014163887566245002,6.757449230992973e-05,0.0036662320282712744,-0.0060754778960457785,-5.6114934160734205e-05,0.0012726536363569265,min_task,none,false,false,7.0,7.0,7.0,7.0,7.0,7.0,7.0,7.0,0.01515542870528272,-0.19843205498330554,0.044244900797748024,-0.001979415586583108,0.0008414157414670205,-8.847163272722484e-05,0.018506430334074935,0.000179247248533889,-0.17836905139201148,-0.0056004421338505545,-0.7156879444170681,-0.5656525700432558,0.021988716413984758,0.013674642953829115,-0.02543824169535903,-0.0060754778960457785,-5.6114934160734205e-05,0.0012726536363569265,0.004727755423993649,0.48458672620189147,0.885022392989226,-0.0029792028293798667,0.0017420530363040062,0.002397221426533299,7.0,7.0,7.0,7.0,7.0,7.0,7.0,7.0,1.206425881662152,1.206425881662152,1.1978342218331466,1.1978342218331466,1.1977526426625145,1.1977526426625145,1.206344883503353,1.206344883503353,0.01515542870528272,-0.19843205498330554,0.044244900797748024,-0.001979415586583108,0.0008414157414670205,-8.847163272722484e-05
27.0,0.5200000000000001,0.10282004522686755,0.010151078813449513,0.24851806380561503,0.09906433610319143,0.010002371411802463,0.24858416458402444,-0.003755709123676121,-0.00014870740164705035,6.610077840940587e-05,0.0037592331965275844,-0.006604870325299052,-5.802671460777888e-05,0.0012005838842535765,min_task,none,false,false,7.0,7.0,7.0,7.0,7.0,7.0,7.0,7.0,0.01450832477969246,-0.18390106063748252,0.03975395707237451,-0.0018169280666703396,0.0007865766561649427,-7.844406265982562e-05,0.020216909090749333,0.00018671721658758053,-0.16939216377068195,-0.006108407541201642,-0.6761173336409075,-0.5765023317073746,0.02277502117055122,0.013563416489484502,-0.026271885721733796,-0.006604870325299052,-5.802671460777888e-05,0.0012005838842535765,0.00493252199069129,0.47584127445131474,0.8810630921514712,-0.0032036061142772434,0.0019233683575889007,0.002564565506186713,7.0,7.0,7.0,7.0,7.0,7.0,7.0,7.0,1.2068029435321668,1.2068029435321668,1.1974626609441137,1.1974626609441137,1.1973782926382202,1.1973782926382202,1.2067192282564179,1.2067192282564179,0.01450832477969246,-0.18390106063748252,0.03975395707237451,-0.0018169280666703396,0.0007865766561649427,-7.844406265982562e-05
28.0,0.5400000000000001,0.10651093002791605,0.01015723962045138,0.2485198681686649,0.10267732712731643,0.010002371411802463,0.24858416458402444,-0.003833602900599614,-0.00015486820864891657,6.429641535954378e-05,0.003837268480386014,-0.007147663099868322,-5.955141624469888e-05,0.0011253638211313813,min_task,none,false,false,7.0,7.0,7.0,7.0,7.0,7.0,7.0,7.0,0.013749751498272504,-0.16817112665531023,0.03507426007694304,-0.001644485059760645,0.0007263091364479007,-6.804223835712959e-05,0.02197860528268967,0.00019307687020596445,-0.1597993902598793,-0.006759424101556625,-0.6318169929440222,-0.5827721127922892,0.023405371383978125,0.013374564262191956,-0.02695548310314214,-0.007147663099868322,-5.955141624469888e-05,0.0011253638211313813,0.005139229615621419,0.46679296052032054,0.8768430622775685,-0.003430049679081678,0.0021128999572218796,0.0027310279931951026,7.0,7.0,7.0,7.0,7.0,7.0,7.0,7.0,1.207189352017566,1.207189352017566,1.1970814987207854,1.1970814987207854,1.196994909558887,1.196994909558887,1.2071034879225877,1.2071034879225877,0.013749751498272504,-0.16817112665531023,0.03507426007694304,-0.001644485059760645,0.0007263091364479007,-6.804223835712959e-05
29.0,0.5600000000000002,0.11027290775469273,0.010162412388126534,0.248521986543223,0.10637681187519143,0.010002371411802463,0.24858416458402444,-0.0038960958795012934,-0.00016004097632407038,6.217804080144163e-05,0.0038998772192375014,-0.007701703179710036,-6.063832703374343e-05,0.0010480986114965486,min_task,none,false,false,7.0,7.0,7.0,7.0,7.0,7.0,7.0,7.0,0.012880879068251968,-0.15129396387282287,0.030231218595431226,-0.0014631111046690577,0.0006601414728682555,-5.732137337616339e-05,0.023784914718295826,0.00019814828576747876,-0.14978730809682714,-0.007489088537165981,-0.5828405743728582,-0.5840181572889742,0.023853563431933587,0.013068231047617203,-0.02745828451139752,-0.007701703179710036,-6.063832703374343e-05,0.0010480986114965486,0.0053471155178464,0.45746707011214083,0.8723647753803747,-0.0036562458372418347,0.0023100322122257336,0.0028947129529955117,7.0,7.0,7.0,7.0,7.0,7.0,7.0,7.0,1.2075835515106068,1.2075835515106068,1.1966922238666031,1.1966922238666031,1.196604055251836,1.196604055251836,1.2074961781559863,1.2074961781559863,0.012880879068251968,-0.15129396387282287,0.030231218595431226,-0.0014631111046690577,0.0006601414728682555,-5.732137337616339e-05
30.0,0.5800000000000002,0.11409275134807129,0.010166539413011613,0.24852440491077055,0.11014992724306642,0.010002371411802463,0.24858416458402444,-0.0039428241050048635,-0.0001641680012091501,5.9759673253889645e-05,0.0039466928274412005,-0.008264673478476732,-6.12415876435794e-05,0.0009695059431825682,min_task,none,false,false,7.0,7.0,7.0,7.0,7.0,7.0,7.0,7.0,0.011903802321160716,-0.13332815593317093,0.025249592889440342,-0.001273813369997935,0.0005875540823653345,-4.633475014032718e-05,0.025628675568304383,0.0002017627480222876,-0.13950302093815503,-0.008224977174483524,-0.5292791747854882,-0.5798468974024014,0.024099654041848568,0.012598665026922268,-0.027752698880618747,-0.008264673478476732,-6.12415876435794e-05,0.0009695059431825682,0.0055548957003976355,0.4478913179405221,0.867633324254019,-0.0038796588771577087,0.002514040214828097,0.0030535534040278763,7.0,7.0,7.0,7.0,7.0,7.0,7.0,7.0,1.2079838713035254,1.2079838713035254,1.196296441855689,1.196296441855689,1.196207401662456,1.196207401662456,1.2078956926510311,1.2078956926510311,0.011903802321160716,-0.13332815593317093,0.025249592889440342,-0.001273813369997935,0.0005875540823653345,-4.633475014032718e-05
31.0,0.6000000000000002,0.11795691806301539,0.010169583713202587,0.24852711176048797,0.11398340188719144,0.010002371411802463,0.24858416458402444,-0.003973516175823949,-0.00016721230140012353,5.7052823536463126e-05,0.003977442114971328,-0.008834097888395506,-6.132217650528644e-05,0.0008899240276670593,min_task,none,false,false,7.0,7.0,7.0,7.0,7.0,7.0,7.0,7.0,0.01082138365578772,-0.11433960848296443,0.020153550733205218,-0.0010775467747130188,0.0005080468137355562,-3.513436001811083e-05,0.027502179959706982,0.00020376770574349076,-0.12904205883515305,-0.00889126752295093,-0.47126376048296453,-0.5699221568231041,0.02413058770587916,0.011918685323653104,-0.02781569842626916,-0.008834097888395506,-6.132217650528644e-05,0.0008899240276670593,0.005760829196742126,0.4380957984765869,0.8626565860588308,-0.004097575823751676,0.0027240812315207368,0.0032053685901337033,7.0,7.0,7.0,7.0,7.0,7.0,7.0,7.0,1.2083885302059298,1.2083885302059298,1.1958958724558997,1.1958958724558997,1.19580672574518,1.19580672574518,1.2083003051864212,1.2083003051864212,0.01082138365578772,-0.11433960848296443,0.020153550733205218,-0.0010775467747130188,0.0005080468137355562,-3.513436001811083e-05
32.0,0.6200000000000002,0.12185162559814625,0.010171525494569771,0.24853009779559485,0.11786363276881645,0.010002371411802463,0.24858416458402444,-0.003987992829329795,-0.00016915408276730812,5.4066788429590895e-05,0.003991944780193459,-0.009407347968603813,-6.084965560383346e-05,0.000809340358323139,min_task,none,false,false,7.0,7.0,7.0,7.0,7.0,7.0,7.0,7.0,0.009637135992498304,-0.09440191484517946,0.014966754619012222,-0.0008751872407920553,0.0004212083723544082,-2.3771598773774622e-05,0.029397190581221876,0.00020403337773777983,-0.11844944320801679,-0.009413482645975118,-0.4089670201166251,-0.5539718584364076,0.02394026479932427,0.010984272199331136,-0.027629865527038534,-0.009407347968603813,-6.084965560383346e-05,0.000809340358323139,0.005962805420382364,0.42811291447611727,0.8574453561572896,-0.004307183426776177,0.002939187229623626,0.003347926858954029,7.0,7.0,7.0,7.0,7.0,7.0,7.0,7.0,1.208795642219439,1.208795642219439,1.195492345962811,1.195492345962811,1.1954039033595834,1.1954039033595834,1.2087081730344875,1.2087081730344875,0.009637135992498304,-0.09440191484517946,0.014966754619012222,-0.0008751872407920553,0.0004212083723544082,-2.3771598773774622e-05
33.0,0.6400000000000002,0.1257629284086372,0.010172357270815039,0.2485333554845974,0.12177676169919144,0.010002371411802463,0.24858416458402444,-0.003986166709445765,-0.00016998585901257558,5.080909942703493e-05,0.0039901130049589464,-0.009981651430712295,-5.980356414233648e-05,0.0007274376192158636,min_task,none,false,false,7.0,7.0,7.0,7.0,7.0,7.0,7.0,7.0,0.008355163672522307,-0.07359667159615713,0.00971247844602253,-0.0006675164426828863,0.00032678184759906803,-1.2297961964669245e-05,0.03130496281373234,0.00020245856170057945,-0.10772351478135299,-0.009723045607760121,-0.3426048140191525,-0.5317943823692232,0.02352907196229872,0.009758838641373297,-0.027184007537525534,-0.009981651430712295,-5.980356414233648e-05,0.0007274376192158636,0.0061584471966807325,0.41797728169987375,0.8520134483207304,-0.004505645374377958,0.0031582594052570125,0.003479009490414331,7.0,7.0,7.0,7.0,7.0,7.0,7.0,7.0,1.2092032232991725,1.2092032232991725,1.1950877979839465,1.1950877979839465,1.1950009021526606,1.1950009021526606,1.209117341903863,1.209117341903863,0.008355163672522307,-0.07359667159615713,0.00971247844602253,-0.0006675164426828863,0.00032678184759906803,-1.2297961964669245e-05
34.0,0.6600000000000003,0.12967679411584782,0.010172078044156908,0.24853687849100353,0.12570875188456646,0.010002371411802463,0.24858416458402444,-0.00396804223128136,-0.00016970663235444522,4.728609302090403e-05,0.003971951090445428,-0.010554102536062896,-5.817437780760338e-05,0.0006436528288497244,min_task,none,false,false,7.0,7.0,7.0,7.0,7.0,7.0,7.0,7.0,0.006980169895214354,-0.05201378088671456,0.004413754963282841,-0.0004552202444080991,0.00022472102073998784,-7.656964655844438e-07,0.03321627283475514,0.00019897527017040013,-0.0968220443001822,-0.009761350117235331,-0.2724373846422375,-0.5032646554633384,0.022902926134204468,0.008216822951981338,-0.02647330003910239,-0.010554102536062896,-5.817437780760338e-05,0.0006436528288497244,0.006345221984927448,0.4077256084303668,0.8463777575661248,-0.004690173888442329,0.003380065524564757,0.0035964708242633464,7.0,7.0,7.0,7.0,7.0,7.0,7.0,7.0,1.209609199239309,1.209609199239309,1.1946842626470284,1.1946842626470284,1.1945997734045521,1.1945997734045521,1.2095257525518401,1.2095257525518401,0.006980169895214354,-0.05201378088671456,0.004413754963282841,-0.0004552202444080991,0.00022472102073998784,-7.656964655844438e-07
35.0,0.6800000000000003,0.13357917992770418,0.010170687033811764,0.24854066102100553,0.12964546447119146,0.010002371411802463,0.24858416458402444,-0.003933715456512721,-0.00016831562200930045,4.3503563018909563e-05,0.003937555079159503,-0.011121674499954347,-5.596398754166479e-05,0.0005572457300256427,min_task,none,false,false,7.0,7.0,7.0,7.0,7.0,7.0,7.0,7.0,0.0055175295882491995,-0.02975176549942609,-0.0009064503087830855,-0.00023890147463642204,0.00011523341147109863,1.0771636018448071e-05,0.0351214520827428,0.00019355191980554727,-0.0856701048139507,-0.009483102775776076,-0.19877047652640478,-0.4683400719105262,0.0220719076515937,0.0063463575006836494,-0.025498956537026597,-0.011121674499954347,-5.596398754166479e-05,0.0005572457300256427,0.006520554238954708,0.39739654854802414,0.8405582820293042,-0.0048580905049770045,0.003603240719939139,0.003698290407909922,7.0,7.0,7.0,7.0,7.0,7.0,7.0,7.0,1.2100114147303542,1.2100114147303542,1.1942838641433884,1.1942838641433884,1.194202642807001,1.194202642807001,1.2099312491673713,1.2099312491673713,0.0055175295882491995,-0.02975176549942609,-0.0009064503087830855,-0.00023890147463642204,0.00011523341147109863,1.0771636018448071e-05
36.0,0.7000000000000003,0.137456108986092,0.010168177481019438,0.2485446971315372,0.13357273509031645,0.010002371411802463,0.24858416458402444,-0.0038833738957755604,-0.00016580606921697515,3.9467452487229604e-05,0.003887112314660598,-0.01168123397950928,-5.318568961591459e-05,0.000467372550916572,min_task,none,false,false,7.0,7.0,7.0,7.0,7.0,7.0,7.0,7.0,0.003973419144231472,-0.006918131074847171,-0.006225041409353586,-1.91064201263537e-05,-1.1923944475160028e-06,2.225871042417711e-05,0.037010428404121644,0.00018619492061731604,-0.07416917456260129,-0.008858760798348617,-0.12195654600465357,-0.42706634987283226,0.021048579286279515,0.004150891161975082,-0.024267460668693886,-0.01168123397950928,-5.318568961591459e-05,0.000467372550916572,0.006681932709372145,0.3870305270501122,0.834578100430769,-0.00500687193544255,0.0038262921981768376,0.0037826136035865577,7.0,7.0,7.0,7.0,7.0,7.0,7.0,7.0,1.2104076436466544,1.2104076436466544,1.1938888065548436,1.1938888065548436,1.1938117001336581,1.1938117001336581,1.2103315895891145,1.2103315895891145,0.003973419144231472,-0.006918131074847171,-0.006225041409353586,-1.91064201263537e-05,-1.1923944475160028e-06,2.225871042417711e-05
37.0,0.7200000000000003,0.14129374656296145,0.010164531060865161,0.24854898004223858,0.13747645040319145,0.010002371411802463,0.24858416458402444,-0.0038172961597700006,-0.00016215964906269795,3.5184541785859835e-05,0.0038209008983693376,-0.012229557703589394,-4.9863714539874704e-05,0.0003731615138729677,min_task,none,false,false,7.0,7.0,7.0,7.0,7.0,7.0,7.0,7.0,0.0023549867677999095,0.016370208871929685,-0.011518574967490012,0.00020363690515383317,-0.0001237760565668094,3.363812005044075e-05,0.03887277414482852,0.00017694863800608014,-0.06220695466750049,-0.00787597413354054,-0.04239616083623918,-0.3795833244578141,0.019846107362048695,0.0016497578182783938,-0.022789433236670126,-0.012229557703589394,-4.9863714539874704e-05,0.0003731615138729677,0.006827007639495468,0.3766695369852763,0.8284633018634109,-0.0051341783634090464,0.004047608145072444,0.0038477781097550337,7.0,7.0,7.0,7.0,7.0,7.0,7.0,7.0,1.2107956006312781,1.2107956006312781,1.1935013619469803,1.1935013619469803,1.1934291877516998,1.1934291877516998,1.2107244573875768,1.2107244573875768,0.0023549867677999095,0.016370208871929685,-0.011518574967490012,0.00020363690515383317,-0.0001237760565668094,3.363812005044075e-05
38.0,0.7400000000000003,0.14507847603562962,0.010159713394513843,0.24855350149234962,0.14134262464606645,0.010002371411802463,0.24858416458402444,-0.0037358513895631718,-0.00015734198271137936,3.066309167482073e-05,0.0037392890139190484,-0.012763351285198512,-4.60323525203857e-05,0.00027378681512832664,min_task,none,false,false,7.0,7.0,7.0,7.0,7.0,7.0,7.0,7.0,0.0006705446562332618,0.039986427094356604,-0.0167630297762686,0.0004287715731026875,-0.00025145082519978514,4.4850191769661165e-05,0.04069776138791585,0.00016589381943648817,-0.04966741929967786,-0.0065400214495655185,0.03946028890901068,-0.3261307095978494,0.018476317242262695,-0.0011222244533493435,-0.02107823780410714,-0.012763351285198512,-4.60323525203857e-05,0.00027378681512832664,0.0069536741250086,0.36635690683854627,0.8222428648353269,-0.005237863242228439,0.004265470967573311,0.0038923250947237795,7.0,7.0,7.0,7.0,7.0,7.0,7.0,7.0,1.2111729540495788,1.2111729540495788,1.193123856741755,1.193123856741755,1.1930573879174304,1.1930573879174304,1.2111074758084956,1.2111074758084956,0.0006705446562332618,0.039986427094356604,-0.0167630297762686,0.0004287715731026875,-0.00025145082519978514,4.4850191769661165e-05
39.0,0.7600000000000003,0.1487969745850384,0.010153671084973481,0.24855825117816502,0.14515747617519148,0.010002371411802463,0.24858416458402444,-0.003639498409846925,-0.00015129967317101777,2.5913405859417926e-05,0.003642734106544587,-0.013279270238476379,-4.173475526122075e-05,0.00016853820513391122,min_task,none,false,false,7.0,7.0,7.0,7.0,7.0,7.0,7.0,7.0,-0.0010702384778175473,0.06379320251616269,-0.021933568767321537,0.0006556592101332536,-0.0003828832417591051,5.583292547791662e-05,0.04247442447924013,0.00015314467809952412,-0.03644066215160645,-0.004873306595419177,0.12311057004062302,-0.2670536861078949,0.01694782789868453,-0.004115975288207083,-0.019148452870760734,-0.013279270238476379,-4.173475526122075e-05,0.00016853820513391122,0.007060139270031906,0.3561370374535863,0.8159484827629198,-0.005315965481112362,0.004478074903891923,0.00391499501700719,7.0,7.0,7.0,7.0,7.0,7.0,7.0,7.0,1.2115373403806604,1.2115373403806604,1.1927586564066532,1.1927586564066532,1.1926986087969353,1.1926986087969353,1.2114782235474906,1.2114782235474906,-0.0010702384778175473,0.06379320251616269,-0.021933568767321537,0.0006556592101332536,-0.0003828832417591051,5.583292547791662e-05
40.0,0.7800000000000004,0.15243628857700686,0.010146330601677252,0.2485632162983288,0.1489075040118165,0.010002371411802463,0.24858416458402444,-0.0035287845651903738,-0.00014395918987478856,2.0948285695626678e-05,0.003531781927943571,-0.013773943202526052,-3.702150640506151e-05,5.688373953567689e-05,min_task,none,false,false,7.0,7.0,7.0,7.0,7.0,7.0,7.0,7.0,-0.0028561640927138397,0.08764208460273433,-0.027004302751920554,0.0008835260391040495,-0.0005165046683567689,6.652204582803181e-05,0.044191629922171564,0.00013884489941754562,-0.02243215716903519,-0.002914037588190272,0.20799831710546673,-0.2028081524271944,0.015264414924396074,-0.007270012593785159,-0.017014352922545887,-0.013773943202526052,-3.702150640506151e-05,5.688373953567689e-05,0.007144972067826979,0.346055107646959,0.8096143334603985,-0.005366686676690189,0.004683547945821901,0.003914709605353354,7.0,7.0,7.0,7.0,7.0,7.0,7.0,7.0,1.211886380106153,1.211886380106153,1.1924081485164335,1.1924081485164335,1.192355169158308,1.192355169158308,1.2118342523038965,1.2118342523038965,-0.0028561640927138397,0.08764208460273433,-0.027004302751920554,0.0008835260391040495,-0.0005165046683567689,6.652204582803181e-05
41.0,0.8000000000000004,0.15598390860506353,0.010137599221261622,0.24856838122393388,0.15257956438719147,0.010002371411802463,0.24858416458402444,-0.0034043442178720573,-0.00013522780945915934,1.5783360090559917e-05,0.003407065486407002,-0.01424399735147901,-3.194905563472228e-05,-6.147627337498356e-05,min_task,none,false,false,7.0,7.0,7.0,7.0,7.0,7.0,7.0,7.0,-0.00467436736162633,0.1113728473419443,-0.031948065032183434,0.001111411453318749,-0.0006505518463553982,7.685114815868234e-05,0.04583815365565795,0.00012316287789389363,-0.007571110121314469,-0.0007142444572227259,0.29351065597503406,-0.13396527722743357,0.013423748222072528,-0.010512767272840461,-0.014688543204522193,-0.01424399735147901,-3.194905563472228e-05,-6.147627337498356e-05,0.007207136071901824,0.3361567477874754,0.8032767906534561,-0.005388357595011735,0.004879977938222007,0.0038905427690834994,7.0,7.0,7.0,7.0,7.0,7.0,7.0,7.0,1.212217695137366,1.212217695137366,1.1920747242578813,1.1920747242578813,1.1920293816957843,1.1920293816957843,1.2121731060437193,1.2121731060437193,-0.00467436736162633,0.1113728473419443,-0.031948065032183434,0.001111411453318749,-0.0006505518463553982,7.685114815868234e-05
42.0,0.8200000000000004,0.15942784419962336,0.010127368102274869,0.2485737272977535,0.15616094728756647,0.010002371411802463,0.24858416458402444,-0.0032668969120568936,-0.00012499669047240543,1.0437286270925661e-05,0.0032693039845784638,-0.014686085944363792,-2.6578105287743356e-05,-0.00018656563985483345,min_task,none,false,false,7.0,7.0,7.0,7.0,7.0,7.0,7.0,7.0,-0.006510228776612259,0.13481287139141246,-0.03673620497427465,0.0013381226176001114,-0.0007831134304576999,8.675191478658971e-05,0.047402765652948604,0.00010628650088981083,0.00818236172121322,0.0016626960597032501,0.3789759054708374,-0.0612150040145507,0.011416632048956639,-0.013765175728935874,-0.012180882502256794,-0.014686085944363792,-2.6578105287743356e-05,-0.00018656563985483345,0.007246005842625821,0.32648768079649887,0.7969740761817465,-0.005379399277402981,0.005065442629088019,0.003841684285092581,7.0,7.0,7.0,7.0,7.0,7.0,7.0,7.0,1.2125289277958986,1.2125289277958986,1.1917607584589054,1.1917607584589054,1.1917235349676085,1.1917235349676085,1.2124923418871638,1.2124923418871638,-0.006510228776612259,0.13481287139141246,-0.03673620497427465,0.0013381226176001114,-0.0007831134304576999,8.675191478658971e-05
43.0,0.8400000000000004,0.16275669823126102,0.01011551743812476,0.2485792327555637,0.15963945299919147,0.010002371411802463,0.24858416458402444,-0.0031172452320695487,-0.0001131460263222965,4.931828460730259e-06,0.003119301874308549,-0.01509691793549691,-2.097202515489042e-05,-0.00031810001836531554,min_task,none,false,false,7.0,7.0,7.0,7.0,7.0,7.0,7.0,7.0,-0.008347345725952797,0.15777667094486333,-0.041338417632281355,0.001562198639673021,-0.0009121800662319096,9.615439743301796e-05,0.048874321690864385,8.841777533216131e-05,0.024831422881753065,0.0041448658710776095,0.463661858877666,0.014632198578388812,0.009226849364513958,-0.016943410724471537,-0.009497804995323102,-0.01509691793549691,-2.097202515489042e-05,-0.00031810001836531554,0.0072613688112046736,0.3170933303511534,0.7907458524257005,-0.005338284797411599,0.005238043320464174,0.003767400848344018,7.0,7.0,7.0,7.0,7.0,7.0,7.0,7.0,1.2128177613278328,1.2128177613278328,1.1914685882349392,1.1914685882349392,1.191439873960189,1.191439873960189,1.2127895525209507,1.2127895525209507,-0.008347345725952797,0.15777667094486333,-0.041338417632281355,0.001562198639673021,-0.0009121800662319096,9.615439743301796e-05
44.0,0.8600000000000004,0.16595974106328107,0.010101923503287837,0.24858487275121482,0.1630034686533165,0.010002371411802463,0.24858416458402444,-0.002956272409964572,-9.955209148537411e-05,-7.081671903885756e-07,0.0029579482217134264,-0.015473289527070902,-1.5195353447114015e-05,-0.0004554666375020367,min_task,none,false,false,7.0,7.0,7.0,7.0,7.0,7.0,7.0,7.0,-0.010167565130901118,0.1800656178132571,-0.04572261566145222,0.0017818865326192364,-0.0010356954657832983,0.00010498733968033174,0.050241862028114155,6.97675494825251e-05,0.04233822640638724,0.006654803058223519,0.5467749173565443,0.09264584616007386,0.006831665988291865,-0.019961630200557443,-0.006642116745613053,-0.015473289527070902,-1.5195353447114015e-05,-0.0004554666375020367,0.007253414600026676,0.3080183965461605,0.7846327556107633,-0.0052635077569443325,0.0053959416079950116,0.0036669993978745074,7.0,7.0,7.0,7.0,7.0,7.0,7.0,7.0,1.2130819418900387,1.2130819418900387,1.191200490359243,1.191200490359243,1.1911805793285837,1.1911805793285837,1.2130623900184139,1.2130623900184139,-0.010167565130901118,0.1800656178132571,-0.04572261566145222,0.0017818865326192364,-0.0010356954657832983,0.00010498733968033174
45.0,0.8800000000000004,0.16902698453418186,0.010086467289614324,0.24859061945760919,0.16624204477119148,0.010002371411802463,0.24858416458402444,-0.0027849397629903794,-8.40958778118607e-05,-6.454873584749166e-06,0.002786216658040586,-0.01581211749819504,-9.312422462743406e-06,-0.0005977161787318667,min_task,none,false,false,7.0,7.0,7.0,7.0,7.0,7.0,7.0,7.0,-0.011951081825185285,0.20146800897931608,-0.04985486263565871,0.001995131236934682,-0.0011516068728125001,0.0001131785440921171,0.05149471659880098,5.055052301971128e-05,0.06062121511462193,0.00911257464795564,0.6274607340257947,0.17177908082707075,0.0042030037348385445,-0.022734663562048816,-0.0036132994932525924,-0.01581211749819504,-9.312422462743406e-06,-0.0005977161787318667,0.0072227139942032245,0.29930639994237557,0.7786758720524808,-0.00515356305713626,0.005537398497396892,0.0035397974961589016,7.0,7.0,7.0,7.0,7.0,7.0,7.0,7.0,1.2133193018992805,1.2133193018992805,1.1909586574827231,1.1909586574827231,1.1909477454071653,1.1909477454071653,1.2133085909275998,1.2133085909275998,-0.011951081825185285,0.20146800897931608,-0.04985486263565871,0.001995131236934682,-0.0011516068728125001,0.0001131785440921171
46.0,0.9000000000000005,0.17194925587181284,0.010069044328394436,0.24859644221043464,0.16934497180906646,0.010002371411802463,0.24858416458402444,-0.002604284062746376,-6.667291659197272e-05,-1.2277626410206466e-05,0.0026051663089699125,-0.016110474087962002,-3.3861288693653385e-06,-0.0007435666141008076,min_task,none,false,false,7.0,7.0,7.0,7.0,7.0,7.0,7.0,7.0,-0.013676599910374935,0.22175956483634504,-0.053699375500713464,0.0021995806436754537,-0.0012579133689320475,0.00012065526808674989,0.052622616166557556,3.098067381529352e-05,0.0795540418481048,0.011438836365671712,0.7048068204540567,0.250876136575699,0.0013092331696310207,-0.02518056935926254,-0.0004083064549708664,-0.016110474087962002,-3.3861288693653385e-06,-0.0007435666141008076,0.007170189719109602,0.2909991958311794,0.7729161611361363,-0.005006944367775276,0.0056608149652847654,0.0033851049539719504,7.0,7.0,7.0,7.0,7.0,7.0,7.0,7.0,1.213527784581655,1.213527784581655,1.1907451733556174,1.1907451733556174,1.1907433571331485,1.1907433571331485,1.2135260024567587,1.2135260024567587,-0.013676599910374935,0.22175956483634504,-0.053699375500713464,0.0021995806436754537,-0.0012579133689320475,0.00012065526808674989
47.0,0.9200000000000005,0.1747182716575103,0.010049575214429646,0.2486023076597505,0.17230285670319148,0.010002371411802463,0.24858416458402444,-0.002415414954318823,-4.72038026271826e-05,-1.8143075726062552e-05,0.0024159442815856226,-0.016365623145130116,2.523147158733009e-06,-0.000891418434138587,min_task,none,false,false,7.0,7.0,7.0,7.0,7.0,7.0,7.0,7.0,-0.01532155604347506,0.24070448220744314,-0.05721861039882481,0.002392606226453402,-0.0013527110496170018,0.00012734465092798972,0.05361580869301313,1.1267167844973823e-05,0.09896608070434915,0.013557807423148322,0.7778477053683731,0.32868438999353794,-0.0018825136981340876,-0.02722301979740607,0.0029772109798651917,-0.016365623145130116,2.523147158733009e-06,-0.000891418434138587,0.007097081007181263,0.2831364616689939,0.7673938308541931,-0.004822161172767295,0.005764772816667945,0.0032022199163668553,7.0,7.0,7.0,7.0,7.0,7.0,7.0,7.0,1.2137054695034704,1.2137054695034704,1.190561987238521,1.190561987238521,1.1905692660773721,1.1905692660773721,1.2137126095469701,1.2137126095469701,-0.01532155604347506,0.24070448220744314,-0.05721861039882481,0.002392606226453402,-0.0013527110496170018,0.00012734465092798972
48.0,0.9400000000000005,0.17732671196562338,0.010028016293965296,0.24860817989734346,0.1751071994148165,0.010002371411802463,0.24858416458402444,-0.002219512550806879,-2.564488216283238e-05,-2.4015313319025733e-05,0.0022197906113965377,-0.016575057184580504,8.358481049748889e-06,-0.0010393803963876312,min_task,none,false,false,7.0,7.0,7.0,7.0,7.0,7.0,7.0,7.0,-0.01686240051287782,0.2580571219828623,-0.060373437958838844,0.00257133887601883,-0.001434234176899384,0.00013317416213200754,0.054465179954811586,-8.38923365733963e-06,0.11864445400928868,0.015400097474025995,0.8455730630136028,0.40387154928219987,-0.005403656097468594,-0.028793472179836764,0.0065473463638990115,-0.016575057184580504,8.358481049748889e-06,-0.0010393803963876312,0.007004903700481578,0.27575516197616395,0.7621476740176727,-0.004597776465020754,0.005848074514394245,0.0029904413636263156,7.0,7.0,7.0,7.0,7.0,7.0,7.0,7.0,1.2138505988062773,1.2138505988062773,1.1904108877339372,1.1904108877339372,1.1904271658298216,1.1904271658298216,1.2138665625728715,1.2138665625728715,-0.01686240051287782,0.2580571219828623,-0.060373437958838844,0.00257133887601883,-0.001434234176899384,0.00013317416213200754
49.0,0.9600000000000005,0.179768294801815,0.010004369951187598,0.24861402053398374,0.17775046947519155,0.010002371411802463,0.24858416458402444,-0.0020178253266234514,-1.998539385135098e-06,-2.9855949959300965e-05,0.0020180471799912617,-0.01673653491438787,1.4067214725925096e-05,-0.0011853046753420315,min_task,none,false,false,7.0,7.0,7.0,7.0,7.0,7.0,7.0,7.0,-0.018274931567005916,0.2735643910999601,-0.06312341305272567,0.0027327189089643208,-0.0015008916034162402,0.00013807206585462315,0.055162377199279695,-2.779929347843885e-05,0.13833745922985194,0.01690532251591511,0.906939116437172,0.47504830461947223,-0.009281277124692008,-0.02983309410103765,0.010304179824425863,-0.01673653491438787,1.4067214725925096e-05,-0.0011853046753420315,0.0068954073997170235,0.26888899648812303,0.75721437571326,-0.004332464308809123,0.00590978054933914,0.0027490985717883868,7.0,7.0,7.0,7.0,7.0,7.0,7.0,7.0,1.2139616038111631,1.2139616038111631,1.1902934763196125,1.1902934763196125,1.19031856703913,1.19031856703913,1.2139862053568942,1.2139862053568942,-0.018274931567005916,0.2735643910999601,-0.06312341305272567,0.0027327189089643208,-0.0015008916034162402,0.00013807206585462315
50.0,0.9800000000000005,0.18203785094858452,0.009978693928683486,0.24861978871146068,0.18022618253056638,0.010002371411802463,0.24858416458402444,-0.0018116684180181364,2.367748311897684e-05,-3.5624127436240105e-05,0.0018121733246317195,-0.016848118720611798,1.9601654505756962e-05,-0.0013268301050931757,min_task,none,false,false,7.0,7.0,7.0,7.0,7.0,7.0,7.0,7.0,-0.019534677509761834,0.28696883559988984,-0.0654271368707276,0.002873558456963061,-0.0015512978589204106,0.00014196788921891213,0.05569993437216557,-4.678798940105174e-05,0.15775924682343004,0.018024438919689446,0.9608834266156278,0.5407964664468126,-0.01353522348567371,-0.03029441273862109,0.0142459609633823,-0.016848118720611798,1.9601654505756962e-05,-0.0013268301050931757,0.006770530982282208,0.2625678389243986,0.7526278050749674,-0.0040250847813722785,0.005949242908080083,0.0024775966669127875,7.0,7.0,7.0,7.0,7.0,7.0,7.0,7.0,1.2140371316028744,1.2140371316028744,1.190211140918731,1.190211140918731,1.1902447724537522,1.1902447724537522,1.2140701031229422,1.2140701031229422,-0.019534677509761834,0.28696883559988984,-0.0654271368707276,0.002873558456963061,-0.0015512978589204106,0.00014196788921891213
51.0,1.0000000000000004,0.18413139930324518,0.009951109145624212,0.24862544104668607,0.1825289768871915,0.010002371411802463,0.24858416458402444,-0.0016024224160536837,5.126226617825115e-05,-4.127646266163798e-05,0.0016037734147238232,-0.016908211527135952,2.491966894498651e-05,-0.0014614320701469728,min_task,none,false,false,7.0,7.0,7.0,7.0,7.0,7.0,7.0,7.0,-0.020617316537039708,0.29801238064759505,-0.06724270101341098,0.002990613526445116,-0.0015842981708658415,0.00014479287575785196,0.056071397193430614,-6.519682785150494e-05,0.17659557482832733,0.018721719754300477,1.00634279203405,0.599702041319862,-0.01817537645412529,-0.030142659913447625,0.018365375150782712,-0.016908211527135952,2.491966894498651e-05,-0.0014614320701469728,0.006632357706369883,0.256817175259807,0.7484183067679565,-0.003674772417136534,0.005966133289865939,0.002175476132244351,7.0,7.0,7.0,7.0,7.0,7.0,7.0,7.0,1.2140760711574718,1.2140760711574718,1.1901650298938597,1.1901650298938597,1.1902068523533624,1.1902068523533624,1.2141170699581691,1.2141170699581691,-0.020617316537039708,0.29801238064759505,-0.06724270101341098,0.002990613526445116,-0.0015842981708658415,0.00014479287575785196
52.0,1.0200000000000005,0.1860462227581025,0.00992180553206759,0.24863093151902232,0.18465469005631646,0.010002371411802463,0.24858416458402444,-0.0013915327017860468,8.056587973487295e-05,-4.676693499788831e-05,0.0013946473630730193,-0.016915592390860403,2.9985194340597433e-05,-0.0015864775134616209,min_task,none,false,false,7.0,7.0,7.0,7.0,7.0,7.0,7.0,7.0,-0.02149912477598417,0.3064406241927169,-0.0685282001002196,0.003080662613877256,-0.0015989869511916905,0.00014648041070791583,0.05627144612369586,-8.288582369686495e-05,0.19451044795393657,0.018976289632777858,1.042273813357092,0.6503923542382148,-0.023199257017134288,-0.029356793964811688,0.02264802133429223,-0.016915592390860403,2.9985194340597433e-05,-0.0015864775134616209,0.0064830710968753966,0.25165755171428944,0.74461200953548,-0.0032810333134556673,0.005960464922695264,0.001842483090099891,7.0,7.0,7.0,7.0,7.0,7.0,7.0,7.0,1.2140775785415119,1.2140775785415119,1.1901560268965898,1.1901560268965898,1.1902056207895735,1.1902056207895735,1.2141261953018057,1.2141261953018057,-0.02149912477598417,0.3064406241927169,-0.0685282001002196,0.003080662613877256,-0.0015989869511916905,0.00014648041070791583
53.0,1.0400000000000005,0.1877809446315326,0.009891045476545441,0.248636211325994,0.18660043529919146,0.010002371411802463,0.24858416458402444,-0.0011805093323411509,0.0001113259352570218,-5.2046741969569155e-05,0.0011868886261798314,-0.016869450156977266,3.476864871322419e-05,-0.0016992834796503292,min_task,none,false,false,7.0,7.0,7.0,7.0,7.0,7.0,7.0,7.0,-0.022157435590422634,0.31200747733919465,-0.06924228531074862,0.0031405877298488934,-0.001594719124888367,0.00014696638902183154,0.05629601507410973,-9.97351724301257e-05,0.21115343746082943,0.018783142399789628,1.0676751604789334,0.6915756173804631,-0.02859010103599951,-0.02793018233414302,0.027071206277567678,-0.016869450156977266,3.476864871322419e-05,-0.0016992834796503292,0.006324912859885745,0.24710404364502178,0.7412301704825291,-0.0028438455563436103,0.005932607111485962,0.0014786464428402251,7.0,7.0,7.0,7.0,7.0,7.0,7.0,7.0,1.2140411006916139,1.2140411006916139,1.1901847270362513,1.1901847270362513,1.1902416130704725,1.1902416130704725,1.214096868945287,1.214096868945287,-0.022157435590422634,0.31200747733919465,-0.06924228531074862,0.0031405877298488934,-0.001594719124888367,0.00014696638902183154
54.0,1.0600000000000005,0.18933560561570414,0.00985916458382308,0.24864122874352657,0.18836467817206654,0.010002371411802463,0.24858416458402444,-0.0009709274436376092,0.00014320682797938286,-5.7064159502129286e-05,0.0009830893218259792,-0.01676941449307941,3.9247247603425934e-05,-0.0017971775805885925,min_task,none,false,false,7.0,7.0,7.0,7.0,7.0,7.0,7.0,7.0,-0.022571091920632124,0.31447991123973773,-0.06934473051412704,0.003167453499815813,-0.0015711139749872457,0.00014618950874209114,0.05614240359519274,-0.00011564661809639078,0.22616747135349086,0.01815357837649089,1.0816103727170794,0.7220809349092918,-0.03431550415609816,-0.025870940296349995,0.03160313103594616,-0.01676941449307941,3.9247247603425934e-05,-0.0017971775805885925,0.0061601441662043985,0.24316575695385484,0.7382885742073408,-0.0023637575605087524,0.005883291989893484,0.0010843575360158751,7.0,7.0,7.0,7.0,7.0,7.0,7.0,7.0,1.21396639728588,1.21396639728588,1.1902514148424863,1.1902514148424863,1.19031506491943,1.19031506491943,1.2140288040153189,1.2140288040153189,-0.022571091920632124,0.31447991123973773,-0.06934473051412704,0.003167453499815813,-0.0015711139749872457,0.00014618950874209114
55.0,1.0800000000000005,0.19071174116196626,0.00982656955671731,0.24864592903573496,0.1899473130711915,0.010002371411802463,0.24858416458402444,-0.0007644280907747603,0.00017580185508515346,-6.176445171052203e-05,0.0007868109339047264,-0.0166155836496491,4.340520792561105e-05,-0.0018775587512398725,min_task,none,false,false,7.0,7.0,7.0,7.0,7.0,7.0,7.0,7.0,-0.02272087003044205,0.31364251386385633,-0.0687969748024898,0.0031585796479274837,-0.0015280513207942966,0.00014409146730033805,0.05580938026287718,-0.00013054449542359756,0.23919688035145922,0.017115019120378758,1.0832297604753522,0.7408963575588766,-0.040326702535724415,-0.02320192474904371,0.03620251571473976,-0.0166155836496491,4.340520792561105e-05,-0.0018775587512398725,0.005991011734551101,0.23984537339511702,0.7357970052637116,-0.0018419792091136828,0.005813613305261549,0.0006604478787357754,7.0,7.0,7.0,7.0,7.0,7.0,7.0,7.0,1.2138535602461393,1.2138535602461393,1.1903560444836594,1.1903560444836594,1.190425893712553,1.190425893712553,1.2139220574257537,1.2139220574257537,-0.02272087003044205,0.31364251386385633,-0.0687969748024898,0.0031585796479274837,-0.0015280513207942966,0.00014409146730033805
56.0,1.1000000000000005,0.19191245918796612,0.009793733145537609,0.2486502544632807,0.1913497397778165,0.010002371411802463,0.24858416458402444,-0.0005627194101496258,0.0002086382662648545,-6.60898792562703e-05,0.0006037805336786335,-0.01640854836402639,4.723382020996412e-05,-0.0019379566421927558,min_task,none,false,false,7.0,7.0,7.0,7.0,7.0,7.0,7.0,7.0,-0.022589849146029028,0.30930151618917084,-0.06756260221841892,0.003111602102941344,-0.0014656599702652536,0.00014061704013316217,0.0552972750795652,-0.0001443764010202925,0.24989548254229696,0.015710191363988494,1.0717897591130328,0.7472022776274895,-0.04655852504041566,-0.019960384935816346,0.040818681089433796,-0.01640854836402639,4.723382020996412e-05,-0.0019379566421927558,0.005819720194505146,0.23713875016154334,0.733758810583661,-0.0012804612201841533,0.0057250174088298925,0.00020826057686591868,7.0,7.0,7.0,7.0,7.0,7.0,7.0,7.0,1.2137030304661873,1.2137030304661873,1.1904982226613312,1.1904982226613312,1.1905736821477924,1.1905736821477924,1.2137770473303453,1.2137770473303453,-0.022589849146029028,0.30930151618917084,-0.06756260221841892,0.003111602102941344,-0.0014656599702652536,0.00014061704013316217
57.0,1.1200000000000006,0.19294251796229067,0.009761186245870267,0.24865414443766706,0.19257494000319147,0.010002371411802463,0.24858416458402444,-0.00036757795909919677,0.00024118516593219647,-6.99798536426266e-05,0.00044517526907625424,-0.016149411436154247,5.073136547955965e-05,-0.0019760879704791194,min_task,none,false,false,7.0,7.0,7.0,7.0,7.0,7.0,7.0,7.0,-0.022163703077922477,0.3012879702427741,-0.06560772301635491,0.0030245185400947835,-0.0013842986826299788,0.00013571403061177602,0.05460805894446577,-0.00015711342872666751,0.25793448679380554,0.013995699685375363,1.0466681759744776,0.7403975553960658,-0.052930026127754715,-0.01619727042790484,0.045392082357334974,-0.016149411436154247,5.073136547955965e-05,-0.0019760879704791194,0.00564841217837057,0.2350345823133148,0.7321705653772689,-0.0006819588481623568,0.005619286921203944,-0.00027028855168499417,7.0,7.0,7.0,7.0,7.0,7.0,7.0,7.0,1.213515611446323,1.213515611446323,1.190677194529275,1.190677194529275,1.1907576646221119,1.1907576646221119,1.213594567187965,1.213594567187965,-0.022163703077922477,0.3012879702427741,-0.06560772301635491,0.0030245185400947835,-0.0013842986826299788,0.00013571403061177602
58.0,1.1400000000000006,0.19380840400624585,0.009729507364505504,0.24865753586188433,0.1936275539335665,0.010002371411802463,0.24858416458402444,-0.00018085007267934494,0.00027286404729695915,-7.33712778598905e-05,0.0003354770953585278,-0.015839802655092824,5.3902851341695545e-05,-0.0019899081259255754,min_task,none,false,false,7.0,7.0,7.0,7.0,7.0,7.0,7.0,7.0,-0.021430889958249322,0.2894597759924551,-0.06290122230607728,0.002895714777888435,-0.001284529941194122,0.00012933307985799197,0.053745408623227395,-0.00016874989046855774,0.2630099916860288,0.012040038393819938,1.007373857201168,0.7201159511572102,-0.059345788953228895,-0.011976188277983501,0.049855272009074726,-0.015839802655092824,5.3902851341695545e-05,-0.0019899081259255754,0.0054791574524166884,0.23351413403881183,0.7310218517324827,-5.007676142117333e-05,0.005498517778024978,-0.0007726637527022029,7.0,7.0,7.0,7.0,7.0,7.0,7.0,7.0,1.2132924796265294,1.2132924796265294,1.1908918328847293,1.1908918328847293,1.1909767164931786,1.1909767164931786,1.2133757961635856,1.2133757961635856,-0.021430889958249322,0.2894597759924551,-0.06290122230607728,0.002895714777888435,-0.001284529941194122,0.00012933307985799197
59.0,1.1600000000000006,0.19451840984963284,0.009699309808010583,0.24866036368513325,0.19451395677519157,0.010002371411802463,0.24858416458402444,-4.453074441274074e-06,0.00030306160379187964,-7.619910110881478e-05,0.0003125259486421522,-0.015481888939985462,5.675954318655133e-05,-0.0019776563167204215,min_task,none,false,false,7.0,7.0,7.0,7.0,7.0,7.0,7.0,7.0,-0.020382720681598646,0.2737023284472269,-0.059414852291911825,0.002723969695035015,-0.0011670870035069773,0.0001214273368237353,0.0527147561545643,-0.00017930243823228472,0.26484985347042816,0.009921116652312276,0.9535496447951244,0.6862309504299747,-0.0656978703322603,-0.007371993538203611,0.054134254210312135,-0.015481888939985462,5.675954318655133e-05,-0.0019776563167204215,0.0053139521400170225,0.2325510415087134,0.7302951538453514,0.0006107073353633609,0.005365090527076593,-0.0012956790081543469,7.0,7.0,7.0,7.0,7.0,7.0,7.0,7.0,1.2130351913451944,1.2130351913451944,1.1911406307531143,1.1911406307531143,1.1912293462829306,1.1912293462829306,1.2131223057287357,1.2131223057287357,-0.020382720681598646,0.2737023284472269,-0.059414852291911825,0.002723969695035015,-0.0011670870035069773,0.0001214273368237353
60.0,1.1800000000000006,0.1950827114885958,0.009671227072589104,0.2486625616827926,0.19524233529931645,0.010002371411802463,0.24858416458402444,0.0001596238107206549,0.000331144339213359,-7.839709876816814e-05,0.00037587556376718817,-0.015078379769006726,5.931827122964679e-05,-0.0019378925511341326,min_task,none,false,false,7.0,7.0,7.0,7.0,7.0,7.0,7.0,7.0,-0.019013291286658886,0.25392763057425577,-0.05512315132413979,0.002508437572268563,-0.0010328346508990175,0.00011195198834699446,0.05152332225226612,-0.00018880850689240766,0.26321969472739404,0.007723383379282738,0.8849678781720925,0.6388477299815466,-0.07186834461536737,-0.0024689825573957543,0.05815018092967547,-0.015078379769006726,5.931827122964679e-05,-0.0019378925511341326,0.005154728715328818,0.23211118639061779,0.7299658678107845,0.0012950420575354377,0.005221636853899325,-0.001835486951110469,7.0,7.0,7.0,7.0,7.0,7.0,7.0,7.0,1.2127456865004795,1.2127456865004795,1.1914216973408664,1.1914216973408664,1.191513690748256,1.191513690748256,1.212836062488026,1.212836062488026,-0.019013291286658886,0.25392763057425577,-0.05512315132413979,0.002508437572268563,-0.0010328346508990175,0.00011195198834699446
61.0,1.2000000000000006,0.1955134454171935,0.009645897021124525,0.24866406345339231,0.19582276438719143,0.010002371411802463,0.24858416458402444,0.0003093189699979182,0.00035647439067793864,-7.989886936787816e-05,0.00047868157029077885,-0.014632528194217885,6.160050297922849e-05,-0.0018695248093399525,min_task,none,false,false,7.0,7.0,7.0,7.0,7.0,7.0,7.0,7.0,-0.017319270828812593,0.23007181994024878,-0.05000318722504073,0.002248608353631694,-0.0008827240376501246,0.00010086366046298287,0.050180133964779654,-0.00019732401353515124,0.2579278271109118,0.005534645473770862,0.801518176453366,0.5782817592978672,-0.07773238723372934,0.0026413500416304606,0.0618213284906654,-0.014632528194217885,6.160050297922849e-05,-0.0018695248093399525,0.005003376977512847,0.23215263514976966,0.7300024175387652,0.0019967256952070256,0.005071002377914992,-0.002387588620212183,7.0,7.0,7.0,7.0,7.0,7.0,7.0,7.0,1.212426289149205,1.212426289149205,1.1917327571713343,1.1917327571713343,1.1918275126061817,1.1918275126061817,1.2125194274360966,1.2125194274360966,-0.017319270828812593,0.23007181994024878,-0.05000318722504073,0.002248608353631694,-0.0008827240376501246,0.00010086366046298287
62.0,1.2200000000000006,0.19582478513610632,0.009623945517718042,0.24866480360485108,0.19626728357506656,0.010002371411802463,0.24858416458402444,0.00044249843896024266,0.000378425894084421,-8.063902082663943e-05,0.0005878041148849881,-0.014148127967444989,6.363118384399241e-05,-0.001771824876363537,min_task,none,false,false,7.0,7.0,7.0,7.0,7.0,7.0,7.0,7.0,-0.015299542839440839,0.20209115163174457,-0.04403413219021355,0.001944247747188113,-0.0007177419393803418,8.811970391905926e-05,0.04869602760575652,-0.00020492027811362602,0.24882886910126242,0.0034426688387951894,0.7031877125876602,0.5050243229064443,-0.0831618217151343,0.007863037225937518,0.06506528152232703,-0.014148127967444989,6.363118384399241e-05,-0.001771824876363537,0.0048617756859719715,0.2326256353141756,0.730366462001318,0.0027087538517290787,0.0049162068119509945,-0.0029468648157943565,7.0,7.0,7.0,7.0,7.0,7.0,7.0,7.0,1.2120797054347074,1.2120797054347074,1.1920711520536418,1.1920711520536418,1.1921682005651202,1.1921682005651202,1.2121751520332644,1.2121751520332644,-0.015299542839440839,0.20209115163174457,-0.04403413219021355,0.001944247747188113,-0.0007177419393803418,8.811970391905926e-05
63.0,1.2400000000000007,0.19603301707941423,0.009605970246328505,0.24866471908537321,0.19658997359919134,0.010002371411802463,0.24858416458402444,0.0005569565197771076,0.00039640116547395854,-8.05545013487785e-05,0.0006883483686324031,-0.013629507522228293,6.543736600473613e-05,-0.001644431492963642,min_task,none,false,false,7.0,7.0,7.0,7.0,7.0,7.0,7.0,7.0,-0.012954703208882251,0.16995655461021986,-0.03719668674208823,0.0015953203075379505,-0.0005388545408914531,7.367738180958786e-05,0.04708363872786473,-0.00021168017379521363,0.23582585520588634,0.001531645869046154,0.5900345518853818,0.4196958468332971,-0.08802903631233444,0.013098894929583625,0.06780123966004219,-0.013629507522228293,6.543736600473613e-05,-0.001644431492963642,0.004731833993234567,0.2334726561380412,0.7310131729865801,0.0034233908527088307,0.004760402644797311,-0.0035076289098214387,7.0,7.0,7.0,7.0,7.0,7.0,7.0,7.0,1.2117090193831892,1.2117090193831892,1.19243384537107,1.19243384537107,1.1925327711860667,1.1925327711860667,1.2118063716703478,1.2118063716703478,-0.012954703208882251,0.16995655461021986,-0.03719668674208823,0.0015953203075379505,-0.0005388545408914531,7.367738180958786e-05
64.0,1.2600000000000007,0.19615661593852285,0.009592525464344009,0.24866375060222512,0.1968070329408163,0.010002371411802463,0.24858416458402444,0.0006504170022934574,0.0004098459474584544,-7.958601820068356e-05,0.0007728841516123649,-0.013081521761675345,6.704666692140522e-05,-0.0014873397360917558,min_task,none,false,false,7.0,7.0,7.0,7.0,7.0,7.0,7.0,7.0,-0.010286421490116831,0.1336469366117198,-0.029472378111453854,0.0012018995557569162,-0.00034694578173048436,5.749298204850872e-05,0.045357381645246206,-0.00021769357323301466,0.21887065771347863,-0.00012139831580707144,0.46215490315540214,0.32298836121320973,-0.09221116009315977,0.018254347615128265,0.06995235237844565,-0.013081521761675345,6.704666692140522e-05,-0.0014873397360917558,0.004615541303473904,0.23462845771568208,0.7318915570802397,0.004132263539780579,0.004606833615827396,-0.004063700011469123,7.0,7.0,7.0,7.0,7.0,7.0,7.0,7.0,1.2113176872422404,1.2113176872422404,1.1928174280195918,1.1928174280195918,1.192917871982507,1.192917871982507,1.2114165972669722,1.2114165972669722,-0.010286421490116831,0.1336469366117198,-0.029472378111453854,0.0012018995557569162,-0.00034694578173048436,5.749298204850872e-05
65.0,1.2800000000000007,0.1962163193970769,0.009584108431536339,0.24866184406627137,0.19693685437119146,0.010002371411802463,0.24858416458402444,0.0007205349741145617,0.0004182629802661243,-7.7679482246934e-05,0.0008367488700593053,-0.012509542787573083,6.848562302915571e-05,-0.001300875853663851,min_task,none,false,false,7.0,7.0,7.0,7.0,7.0,7.0,7.0,7.0,-0.0072966733761097415,0.09314142562369637,-0.020842761257402895,0.000764069533630232,-0.000142750186550738,3.9520879244833104e-05,0.04353342169074472,-0.00022305222764243258,0.19796257596935693,-0.0014501942846974888,0.3196451920739553,0.21559855691481758,-0.09559437655476669,0.023241848078755015,0.07144798199411607,-0.012509542787573083,6.848562302915571e-05,-0.001300875853663851,0.00451502375832835,0.23602016965906203,0.7329447908328615,0.004826475146992082,0.004458794420417774,-0.004608494464923382,7.0,7.0,7.0,7.0,7.0,7.0,7.0,7.0,1.2109095311531302,1.2109095311531302,1.1932181251823237,1.1932181251823237,1.1933197850665282,1.1933197850665282,1.2110097059087095,1.2110097059087095,-0.0072966733761097415,0.09314142562369637,-0.020842761257402895,0.000764069533630232,-0.000142750186550738,3.9520879244833104e-05
66.0,1.3000000000000007,0.19623520231821132,0.009581148209519767,0.24865895200243604,0.19700010149656655,0.010002371411802463,0.24858416458402444,0.0007648991783552328,0.0004212232022826959,-7.478741841160375e-05,0.000876409092343565,-0.011919450872555378,6.977802994202085e-05,-0.0010856571278246936,min_task,none,false,false,7.0,7.0,7.0,7.0,7.0,7.0,7.0,7.0,-0.003986851007213308,0.04841072041064443,-0.011288550889624863,0.00028182202987178266,7.321992967393775e-05,1.9712574141635195e-05,0.04162964400885416,-0.000227844296132518,0.17314498977267986,-0.0024027517022442825,0.16255977638056446,0.09815274593623455,-0.0980782511779565,0.02798589489385037,0.07222579765775641,-0.011919450872555378,6.977802994202085e-05,-0.0010856571278246936,0.0044326052437787455,0.2375673579445974,0.7341105339813984,0.005496736078172653,0.00431959331953052,-0.005135132854527576,7.0,7.0,7.0,7.0,7.0,7.0,7.0,7.0,1.210488733051292,1.210488733051292,1.1936318029927702,1.1936318029927702,1.1937344305593274,1.1937344305593274,1.2105899315751607,1.2105899315751607,-0.003986851007213308,0.04841072041064443,-0.011288550889624863,0.00028182202987178266,7.321992967393775e-05,1.9712574141635195e-05
67.0,1.3200000000000007,0.19623875044357508,0.009583997448561025,0.24865503487599883,0.19701978530319142,0.010002371411802463,0.24858416458402444,0.0007810348596163363,0.00041837396324143766,-7.087029197438977e-05,0.0008888615321515457,-0.011317627129318057,7.094338614777984e-05,-0.0008425366943151124,min_task,none,false,false,7.0,7.0,7.0,7.0,7.0,7.0,7.0,7.0,-0.00035675281101445053,-0.0005923407451282294,-0.0007887064050960181,-0.00024504713311407095,0.0003007529608266942,-1.9842626061031333e-06,0.039665623235060954,-0.0002321488286532949,0.14450001998786063,-0.002944757175839119,-0.00913518709200686,-0.02887544708361812,-0.09957996176233275,0.03242862232477323,0.0722336177670373,-0.011317627129318057,7.094338614777984e-05,-0.0008425366943151124,0.0043708706426483545,0.23918205635057752,0.7353211820012635,0.006133507690730528,0.004192519615414288,-0.005636559141452592,7.0,7.0,7.0,7.0,7.0,7.0,7.0,7.0,1.2100598297819523,1.2100598297819523,1.1940539740168694,1.1940539740168694,1.1941573689018132,1.1941573689018132,1.21016185714513,1.21016185714513,-0.00035675281101445053,-0.0005923407451282294,-0.0007887064050960181,-0.00024504713311407095,0.0003007529608266942,-1.9842626061031333e-06
68.0,1.3400000000000007,0.19624624844920224,0.009598165404655799,0.24865022679933446,0.19702107754212891,0.0100025218318631,0.24858416458402444,0.000774829092926671,0.0004043564272073006,-6.606221531002543e-05,0.0008764864287375412,-0.010708914422786351,7.198801817739344e-05,-0.0005797403711600013,min_task,none,false,false,7.0,7.0,7.0,7.0,7.0,7.0,7.0,7.0,-1.5902136657682503e-05,-0.02398160854254525,0.004642704923672909,-0.000717381733666457,0.0010757879059291205,-2.0726959025500792e-05,0.03766259891336402,-0.00023603059148885264,0.11214118651004165,-0.05083696862863766,-0.09287940486946779,-0.08765487923246426,-0.1118692350216338,0.0842639511242445,0.07142319819530253,-0.010708914422786351,7.198801817739344e-05,-0.0005797403711600013,0.00431380591889607,0.24079834148304555,0.7365269350854119,0.006725064889880996,0.004092599411991847,-0.006105657354913391,7.0,7.0,7.0,7.0,7.0,7.0,7.0,7.0,1.2096262593243172,1.2096262593243172,1.1944812272155243,1.1944812272155243,1.1945852361690945,1.1945852361690945,1.2097289661530828,1.2097289661530828,-1.5902136657682503e-05,-0.02398160854254525,0.004642704923672909,-0.000717381733666457,0.0010757879059291205,-2.0726959025500792e-05
69.0,1.3600000000000008,0.19625141427255177,0.009644468759076591,0.24864513773831154,0.19701573104319142,0.010011782239665463,0.24858416458402444,0.0007643167706396503,0.00036731348058887184,-6.0973154287102815e-05,0.0008501864762786186,-0.010092135671781409,7.290261006282372e-05,-0.00032676454897163074,min_task,none,false,false,7.0,7.0,7.0,7.0,7.0,7.0,7.0,7.0,-0.007604063878464176,0.020073672996693645,-0.0035897017419706146,-0.000924042447424576,0.002977967408566212,-2.7305829718699783e-05,0.035636688976104704,-0.00023951054540922035,0.0771633211382609,-0.19957704370630056,0.05484948605554803,0.027993223970341548,-0.14847097766617118,0.23776438413656184,0.06974830315748712,-0.010092135671781409,7.290261006282372e-05,-0.00032676454897163074,0.004189805150516132,0.2424377579505207,0.7377459574602676,0.007254367165961632,0.004069473680542111,-0.0065360244726126275,7.0,7.0,7.0,7.0,7.0,7.0,7.0,7.0,1.2091871602208213,1.2091871602208213,1.1949143656048133,1.1949143656048133,1.195018907238109,1.195018907238109,1.209290467989682,1.209290467989682,-0.007604063878464176,0.020073672996693645,-0.0035897017419706146,-0.000924042447424576,0.002977967408566212,-2.7305829718699783e-05
70.0,1.3800000000000008,0.19623454388711287,0.009749364074788916,0.24864042039459783,0.1969927054842539,0.010051663677617888,0.24858416458402444,0.0007581615971410383,0.00030229960282897143,-5.625581057339124e-05,0.0008181434919824719,-0.009463094124613889,7.369904261634151e-05,-0.00011912272757191462,min_task,none,false,false,7.0,7.0,7.0,7.0,7.0,7.0,7.0,7.0,-0.01348951852996079,0.054146447140017935,-0.010111016632981338,-0.0010692011745477275,0.004523145976198882,-3.254821425490664e-05,0.03358397497504932,-0.00024255764010581356,0.04349239011938555,-0.31640416462264453,0.1677428954908781,0.11304398149436595,-0.17752713747490145,0.36268691780830176,0.0673270047125228,-0.009463094124613889,7.369904261634151e-05,-0.00011912272757191462,0.00390817385302324,0.24416619322346667,0.7390296624181399,0.007704106812819418,0.004185968683038498,-0.00692313225984712,7.0,7.0,7.0,7.0,7.0,7.0,7.0,7.0,1.2087395048908451,1.2087395048908451,1.1953562966276339,1.1953562966276339,1.195461387496179,1.195461387496179,1.208843432290023,1.208843432290023,-0.01348951852996079,0.054146447140017935,-0.010111016632981338,-0.0010692011745477275,0.004523145976198882,-3.254821425490664e-05
71.0,1.4000000000000008,0.1961800420969026,0.009933775569297924,0.2486363868592299,0.19694009563719142,0.010142786605708567,0.24858416458402444,0.0007600535402888242,0.00020901103641064386,-5.222227520546019e-05,0.0007899963059879848,-0.008818731242229127,7.443144966424801e-05,1.8458358122978716e-05,min_task,none,false,false,7.0,7.0,7.0,7.0,7.0,7.0,7.0,7.0,-0.018052830431055336,0.08066360766373035,-0.01531947561243541,-0.0011605896919539597,0.005778941781288328,-3.657118138969161e-05,0.03149048930564001,-0.0002452113856260464,0.015855277254154664,-0.4077203526039497,0.25455199323889377,0.17562967270885305,-0.2006199946871759,0.46457407255788474,0.06439019891689696,-0.008818731242229127,7.443144966424801e-05,1.8458358122978716e-05,0.0034008704693854696,0.2460335622105218,0.7404157210223807,0.008061590629424728,0.004493096902204108,-0.007264784714189564,7.0,7.0,7.0,7.0,7.0,7.0,7.0,7.0,1.2082810660424743,1.2082810660424743,1.1958091183411876,1.1958091183411876,1.1959148869251586,1.1959148869251586,1.2083857429720133,1.2083857429720133,-0.018052830431055336,0.08066360766373035,-0.01531947561243541,-0.0011605896919539597,0.005778941781288328,-3.657118138969161e-05
72.0,1.4200000000000008,0.19607542926883026,0.010214178342945123,0.24863314299046207,0.1968471827213789,0.010303716496575192,0.24858416458402444,0.0007717534525486514,8.953815363006885e-05,-4.897840643763862e-05,0.0007784724508763402,-0.008156868162236819,7.519354807830259e-05,7.113321830994737e-05,min_task,none,false,false,7.0,7.0,7.0,7.0,7.0,7.0,7.0,7.0,-0.021579947711629036,0.10126820653012297,-0.01948895455211896,-0.0012072863399136499,0.006803658794082227,-3.958800854018092e-05,0.029346053287583787,-0.0002476518997972891,-0.002456823137423723,-0.47896899500751366,0.32105897250261584,0.22099670964295584,-0.2190443697602932,0.5480074481062245,0.06114192960343605,-0.008156868162236819,7.519354807830259e-05,7.113321830994737e-05,0.002619095028402945,0.24807754757068112,0.7419314068401004,0.00831798114137853,0.005032359689610107,-0.007560757643052498,7.0,7.0,7.0,7.0,7.0,7.0,7.0,7.0,1.207810235174542,1.207810235174542,1.1962743035019767,1.1962743035019767,1.196381009189025,1.196381009189025,1.207915921793149,1.207915921793149,-0.021579947711629036,0.10126820653012297,-0.01948895455211896,-0.0012072863399136499,0.006803658794082227,-3.958800854018092e-05
73.0,1.4400000000000008,0.1959106473579793,0.010603490567048578,0.24863067210927273,0.19670439613119142,0.01055103012541946,0.24858416458402444,0.0007937487732121162,-5.246044162911766e-05,-4.650752524829049e-05,0.0007968388562415754,-0.007476029705093549,7.611819841771546e-05,3.290588246239555e-05,min_task,none,false,false,7.0,7.0,7.0,7.0,7.0,7.0,7.0,7.0,-0.02428833454115097,0.11708383222835368,-0.022808482146954186,-0.0012187820601315207,0.007646908203117281,-4.1852842544780355e-05,0.02714341612430297,-0.0002501910209283381,-0.009467899586131385,-0.5346788545348402,0.3711263707247767,0.2525747970386018,-0.23389478857285495,0.6167973484984645,0.05776536704964525,-0.007476029705093549,7.611819841771546e-05,3.290588246239555e-05,0.0015301599004368767,0.25032609619308843,0.7435957848619548,0.008467711594708998,0.005837657626813143,-0.007812529523010871,7.0,7.0,7.0,7.0,7.0,7.0,7.0,7.0,1.2073258968706624,1.2073258968706624,1.1967528227466022,1.1967528227466022,1.1968608829030183,1.1968608829030183,1.2074330107819566,1.2074330107819566,-0.02428833454115097,0.11708383222835368,-0.022808482146954186,-0.0012187820601315207,0.007646908203117281,-4.1852842544780355e-05
74.0,1.4600000000000009,0.19567757331215035,0.011111808028962193,0.24862888826421323,0.1965032751635039,0.010899381859921635,0.24858416458402444,0.0008257018513535552,-0.00021242616904055753,-4.472368018879069e-05,0.0008537614609430232,-0.006775322857234313,7.737745617635015e-05,-9.454325345024893e-05,min_task,none,false,false,7.0,7.0,7.0,7.0,7.0,7.0,7.0,7.0,-0.026345408761270773,0.12888810358013028,-0.025409183638833596,-0.0012044660544311687,0.00835007857359008,-4.362667491664587e-05,0.02487766877044328,-0.00025327084339302533,-0.004379813464731434,-0.5785771774933228,0.4073682714130836,0.27264220085950447,-0.2460929155910282,0.6740758308567308,0.05442561461912132,-0.006775322857234313,7.737745617635015e-05,-9.454325345024893e-05,0.00011459521492016041,0.25279910895027546,0.7454211716683369,0.008507955930890009,0.006936874037209659,-0.008023021928448814,7.0,7.0,7.0,7.0,7.0,7.0,7.0,7.0,1.2068273391402862,1.2068273391402862,1.1972452268240488,1.1972452268240488,1.1973552525632543,1.1973552525632543,1.2069364913632652,1.2069364913632652,-0.026345408761270773,0.12888810358013028,-0.025409183638833596,-0.0012044660544311687,0.00835007857359008,-4.362667491664587e-05
75.0,1.4800000000000009,0.19536967601300229,0.011747004442353833,0.2486276709194351,0.1962364307451914,0.011361569950155054,0.24858416458402444,0.0008667547321891123,-0.00038543449219877873,-4.350633541067017e-05,0.0009495874445092542,-0.006054351407432219,7.918223507213976e-05,-0.00030315420820068996,min_task,none,false,false,7.0,7.0,7.0,7.0,7.0,7.0,7.0,7.0,-0.027880754122724224,0.13722706629728643,-0.027382983031696603,-0.0011731854250245516,0.008946895449883864,-4.515346365727759e-05,0.022545839267495513,-0.0002574638869969364,0.012583837320825055,-0.6136781040523734,0.43158480315890924,0.2827450730541497,-0.2564029877856644,0.7223737566940276,0.051267232212171464,-0.006054351407432219,7.918223507213976e-05,-0.00030315420820068996,-0.0016365352989573365,0.2555096052229572,0.7474141349796594,0.008438103935269304,0.008353172255657607,-0.008196315133092,7.0,7.0,7.0,7.0,7.0,7.0,7.0,7.0,1.2063141874590397,1.2063141874590397,1.197751701445432,1.197751701445432,1.1978645412391598,1.1978645412391598,1.2064262263842074,1.2064262263842074,-0.027880754122724224,0.13722706629728643,-0.027382983031696603,-0.0011731854250245516,0.008946895449883864,-4.515346365727759e-05
76.0,1.5000000000000009,0.1949817719776597,0.012515214315699113,0.24862688788541426,0.1958975071606289,0.011948602818500678,0.24858416458402444,0.0009157351829691962,-0.000566611497198435,-4.2723301389824275e-05,0.0010777034817456633,-0.005313154692456774,8.17811662984872e-05,-0.0005798676651749564,min_task,none,false,false,7.0,7.0,7.0,7.0,7.0,7.0,7.0,7.0,-0.02899435522311487,0.14249150763813562,-0.02879569072231934,-0.001132881202747022,0.009464003356986996,-4.664348121336407e-05,0.020146608514578467,-0.00026347197645404315,0.04035031058623267,-0.6423531138104691,0.4450466441226026,0.28396591659668036,-0.2654417508971577,0.7636858975188753,0.04840984867355542,-0.005313154692456774,8.17811662984872e-05,-0.0005798676651749564,-0.003724103281182521,0.2584645451992109,0.7495762022754324,0.00825922965186779,0.010106039048259288,-0.008337333980425085,7.0,7.0,7.0,7.0,7.0,7.0,7.0,7.0,1.2057863550101293,1.2057863550101293,1.1982721042783446,1.1982721042783446,1.1983888936489593,1.1983888936489593,1.2059024166399777,1.2059024166399777,-0.02899435522311487,0.14249150763813562,-0.02879569072231934,-0.001132881202747022,0.009464003356986996,-4.664348121336407e-05
77.0,1.520000000000001,0.19450984827827933,0.01342121120153916,0.24862641038611244,0.1954811437791914,0.012669765349561615,0.24858416458402444,0.0009712955009120727,-0.000751445851977544,-4.224580208800344e-05,0.0012287678895301383,-0.0045521624229323335,8.545846750304913e-05,-0.0009080367801689675,min_task,none,false,false,7.0,7.0,7.0,7.0,7.0,7.0,7.0,7.0,-0.029762379891400743,0.14496859325644582,-0.0296961798986582,-0.0010903152303060476,0.009921554555099571,-4.826244581306892e-05,0.017680106338615737,-0.00027212244548182175,0.07718142369896502,-0.666392373003817,0.4486839798775719,0.2770991331795316,-0.2736865694544948,0.7995275291205729,0.045944131989210005,-0.0045521624229323335,8.545846750304913e-05,-0.0009080367801689675,-0.006143148897058712,0.2616654302739987,0.7519043870781741,0.00797356362184713,0.012212100815977947,-0.008451516399171065,7.0,7.0,7.0,7.0,7.0,7.0,7.0,7.0,1.2052440046657926,1.2052440046657926,1.1988059909670539,1.1988059909670539,1.1989282059019857,1.1989282059019857,1.2053655668350953,1.2053655668350953,-0.029762379891400743,0.14496859325644582,-0.0296961798986582,-0.0010903152303060476,0.009921554555099571,-4.826244581306892e-05
78.0,1.540000000000001,0.19395093053121215,0.014468692150677951,0.24862612252770183,0.19498293678275389,0.01353268518007766,0.24858416458402444,0.0010320062515417339,-0.0009360069706002908,-4.195794367739536e-05,0.0013938817816698766,-0.0037721601359182477,9.053073608819699e-05,-0.0012688149190020264,min_task,none,false,false,7.0,7.0,7.0,7.0,7.0,7.0,7.0,7.0,-0.030241498291331003,0.14487741647016822,-0.030122792789724854,-0.001050898968204113,0.010333811892300775,-5.012555292412744e-05,0.015147761098664062,-0.0002843610445274136,0.12086146181822054,-0.6870634461927021,0.4432143077977368,0.26276889546420484,-0.2814842070534208,0.8309861049400086,0.043929467651723765,-0.0037721601359182477,9.053073608819699e-05,-0.0012688149190020264,-0.008884852347124219,0.2651087618069982,0.7543916035171971,0.007583991490556903,0.014685735599819913,-0.00854448583710655,7.0,7.0,7.0,7.0,7.0,7.0,7.0,7.0,1.204687520028512,1.204687520028512,1.1993526351947228,1.1993526351947228,1.1994821465107401,1.1994821465107401,1.204816457873121,1.204816457873121,-0.030241498291331003,0.14487741647016822,-0.030122792789724854,-0.001050898968204113,0.010333811892300775,-5.012555292412744e-05
79.0,1.560000000000001,0.1933029805954738,0.015660478552102133,0.24862592657715038,0.19439940089319138,0.01454339898883982,0.24858416458402444,0.0010964202977175874,-0.0011170795632623135,-4.1761993125943864e-05,0.001565805953486988,-0.0029742614808037087,9.734261494063707e-05,-0.0016424658987787522,min_task,none,false,false,7.0,7.0,7.0,7.0,7.0,7.0,7.0,7.0,-0.03047236088969729,0.1423939964847842,-0.030107768381325752,-0.0010186287868800305,0.01070977604012216,-5.229571178360949e-05,0.01255218464782116,-0.00030124126660427874,0.16888188816558222,-0.7051713297314891,0.4292308457925267,0.241510597684081,-0.28906176947422374,0.8587708882265361,0.04239401386405931,-0.0029742614808037087,9.734261494063707e-05,-0.0016424658987787522,-0.011938220299827718,0.2687864127584469,0.7570270160480603,0.007093605777350712,0.017539502100996016,-0.008621751574971345,7.0,7.0,7.0,7.0,7.0,7.0,7.0,7.0,1.20411748378235,1.20411748378235,1.1999110463853657,1.1999110463853657,1.2000501719843706,1.2000501719843706,1.2042561234191136,1.2042561234191136,-0.03047236088969729,0.1423939964847842,-0.030107768381325752,-0.0010186287868800305,0.01070977604012216,-5.229571178360949e-05
80.0,1.580000000000001,0.19256481356911603,0.01699864371711652,0.24862574503634874,0.19372793109987888,0.01570641878660485,0.24858416458402444,0.0011631175307628416,-0.0012922249305116693,-4.158045232430241e-05,0.0017390849879805276,-0.0021598846234895477,0.00010626128368848963,-0.0020095497002809107,min_task,none,false,false,7.0,7.0,7.0,7.0,7.0,7.0,7.0,7.0,-0.03048260362849137,0.13766929844540524,-0.029680257346723787,-0.0009961240845685628,0.011053841837813631,-5.478531232269909e-05,0.009897080021053519,-0.00032390991748918146,0.2186157453411053,-0.7211215808501036,0.40726526214279046,0.2138285387012299,-0.2965404151088412,0.8832623890079988,0.0413372661344695,-0.0021598846234895477,0.00010626128368848963,-0.0020095497002809107,-0.015291471163885559,0.2726859500724636,0.759796356161647,0.006505335990802128,0.020784406426467634,-0.008688458840665934,7.0,7.0,7.0,7.0,7.0,7.0,7.0,7.0,1.203534661994552,1.203534661994552,1.2004799875083787,1.2004799875083787,1.2006315392896099,1.2006315392896099,1.2036858291726962,1.2036858291726962,-0.03048260362849137,0.13766929844540524,-0.029680257346723787,-0.0009961240845685628,0.011053841837813631,-5.478531232269909e-05
81.0,1.600000000000001,0.19173602727121608,0.018484578124959256,0.2486255202966748,0.19296676438719138,0.017024798206009793,0.24858416458402444,0.0012307371159752944,-0.001459779918949463,-4.1355712650376075e-05,0.0019098119162305242,-0.0013307307662033198,0.00011766973015008411,-0.0023519457589805,min_task,none,false,false,7.0,7.0,7.0,7.0,7.0,7.0,7.0,7.0,-0.030289573763770075,0.13084256046239545,-0.02886833579117441,-0.0009847562391495613,0.011366481021990928,-5.756081755361572e-05,0.007187162824023813,-0.0003535887734813214,0.26747548576213465,-0.7349866080373189,0.37783325256504013,0.18023720815010608,-0.3039516958749493,0.9045624491887341,0.04073483988362269,-0.0013307307662033198,0.00011766973015008411,-0.0023519457589805,-0.01893311315898693,0.2767909347563936,0.7626822281018156,0.005821676352761525,0.024430027551557015,-0.008749205136042876,7.0,7.0,7.0,7.0,7.0,7.0,7.0,7.0,1.2029399930941582,1.2029399930941582,1.2010579945296076,1.2010579945296076,1.2012253166594034,1.2012253166594034,1.2031070534850064,1.2031070534850064,-0.030289573763770075,0.13084256046239545,-0.02886833579117441,-0.0009847562391495613,0.011366481021990928,-5.756081755361572e-05
82.0,1.620000000000001,0.19081693997073046,0.02011900384568542,0.2486252125543541,0.19211494146200386,0.018500198791486497,0.24858416458402444,0.001298001491273404,-0.001618805054198924,-4.104797032966623e-05,0.002075336746341698,-0.0004887632663533415,0.00013195877044296875,-0.002653686619644768,min_task,none,false,false,7.0,7.0,7.0,7.0,7.0,7.0,7.0,7.0,-0.029902854834591347,0.12205137394597304,-0.02770031820237609,-0.000984849132476289,0.011644942040851139,-6.054945316188941e-05,0.00442808968076268,-0.00039155217570999563,0.3130491846254895,-0.7465739864543208,0.3414682065768045,0.14129046401299425,-0.3112558204015845,0.9225449920983587,0.04054486459749259,-0.0004887632663533415,0.00013195877044296875,-0.002653686619644768,-0.022852720068853333,0.28108121925965285,0.7656644188917097,0.005044521622755215,0.02848452311695029,-0.008807931455649013,7.0,7.0,7.0,7.0,7.0,7.0,7.0,7.0,1.2023345802135128,1.2023345802135128,1.2016433983279406,1.2016433983279406,1.2018303936318204,1.2018303936318204,1.202521468036766,1.202521468036766,-0.029902854834591347,0.12205137394597304,-0.02770031820237609,-0.000984849132476289,0.011644942040851139,-6.054945316188941e-05
83.0,1.640000000000001,0.18980853390701125,0.021901950048244426,0.24862479659034697,0.19117226848119137,0.020132956289176156,0.24858416458402444,0.0013637345741801254,-0.00176899375906827,-4.0632006322538494e-05,0.002234001313422741,0.00036381381004661913,0.00014951782052304127,-0.002901585953721805,min_task,none,false,false,7.0,7.0,7.0,7.0,7.0,7.0,7.0,7.0,-0.029326595463962088,0.11143937533019005,-0.026205580059373353,-0.0009959270989224835,0.011883953125147683,-6.364728490269388e-05,0.001626388719539411,-0.00043910045648743097,0.3532115099599221,-0.7554949222096716,0.29874598742810027,0.09760101199538374,-0.31836074629287436,0.9369068387390252,0.040715183817559016,0.00036381381004661913,0.00014951782052304127,-0.002901585953721805,-0.027041419995961893,0.28553325657665113,0.7687202230515714,0.00417511131330741,0.03295453780360267,-0.008867888372042453,7.0,7.0,7.0,7.0,7.0,7.0,7.0,7.0,1.2017196855313526,1.2017196855313526,1.2022343493552148,1.2022343493552148,1.2024454908043212,1.2024454908043212,1.201930917390705,1.201930917390705,-0.029326595463962088,0.11143937533019005,-0.026205580059373353,-0.0009959270989224835,0.011883953125147683,-6.364728490269388e-05
