LordTarzan10086/HCDR_ML/results/tracking/routeb_trajectory_suite_20260416_105416/triangle/triangle_platform_only_detailed.csv
step,time_s,tip_x,tip_y,tip_z,des_x,des_y,des_z,err_x,err_y,err_z,err_norm,q_platform_x,q_platform_y,q_platform_psi,solver_status,fail_reason,fallback_applied,hold_active,u_a_1,u_a_2,u_a_3,u_a_4,u_a_5,u_a_6,u_a_7,u_a_8,u_a_9,u_a_10,u_a_11,u_a_12,u_a_13,u_a_14,qdd_1,qdd_2,qdd_3,qdd_4,qdd_5,qdd_6,qdd_7,qdd_8,qdd_9,q_1,q_2,q_3,q_4,q_5,q_6,q_7,q_8,q_9,cable_force_1,cable_force_2,cable_force_3,cable_force_4,cable_force_5,cable_force_6,cable_force_7,cable_force_8,cable_length_1,cable_length_2,cable_length_3,cable_length_4,cable_length_5,cable_length_6,cable_length_7,cable_length_8,arm_torque_1,arm_torque_2,arm_torque_3,arm_torque_4,arm_torque_5,arm_torque_6
1.0,0.0,0.057021164387191264,0.010002371411802219,0.24858416458402482,0.05702116438719139,0.010002371411802463,0.24858416458402444,1.249000902703301e-16,2.445960101127298e-16,-3.885780586188048e-16,4.75836262124444e-16,-7.479730696657616e-22,-3.933705483971411e-20,1.0043331443545022e-21,min_task,none,false,false,6.999999999999999,6.999999999999999,6.999999999999999,6.999999999999999,6.999999999999999,6.999999999999999,6.999999999999999,6.999999999999999,0.0,0.0,0.0,0.0,0.0,0.0,5.491327355124636e-17,-5.662033291799804e-17,2.2096142193548935e-17,0.0,0.0,0.0,0.0,0.0,0.0,-7.479730696657616e-22,-3.933705483971411e-20,1.0043331443545022e-21,0.0,0.58,0.92,0.0,0.0,0.0,6.999999999999999,6.999999999999999,6.999999999999999,6.999999999999999,6.999999999999999,6.999999999999999,6.999999999999999,6.999999999999999,1.2020815280171306,1.2020815280171306,1.2020815280171306,1.2020815280171306,1.2020815280171306,1.2020815280171306,1.2020815280171306,1.2020815280171306,0.0,0.0,0.0,0.0,0.0,0.0
2.0,0.02,0.05703391740108467,0.010002611349291281,0.24858416458402502,0.05702578371256639,0.010002371411802463,0.24858416458402444,-8.13368851827756e-06,-2.399374888183148e-07,-5.828670879282072e-16,8.137226733408665e-06,1.2752746175277329e-05,2.414636867428914e-07,-2.6765459312472713e-08,min_task,none,false,false,7.202772321575186,7.202772321575186,7.0,7.0,7.0,7.0,7.202772321575065,7.202772321575065,0.0,0.0,0.0,0.0,0.0,0.0,0.08193239064154859,2.453097264553105e-14,-3.0633027745211814e-21,0.0,0.0,0.0,0.0,0.0,0.0,1.2752746175277329e-05,2.414636867428914e-07,-2.6765459312472713e-08,0.0,0.58,0.92,0.0,0.0,0.0,7.202772321575186,7.202772321575186,7.0,7.0,7.0,7.0,7.202772321575065,7.202772321575065,1.2020723397558177,1.2020723397558177,1.2020903748649792,1.2020903748649792,1.202090716343553,1.202090716343553,1.2020726812395148,1.2020726812395148,0.0,0.0,0.0,0.0,0.0,0.0
3.0,0.04,0.05708221086471399,0.010003447736506922,0.2485841645840249,0.05705728379919139,0.010002371411802463,0.24858416458402444,-2.492706552260221e-05,-1.0763247044586616e-06,-4.718447854656915e-16,2.4950291991027518e-05,6.104525682586007e-05,1.0832836114987625e-06,-1.2204076843173527e-07,min_task,none,false,false,7.39931205010064,7.39931205010064,7.0,7.0,7.0,7.0,7.401584304806311,7.401584304806311,0.0,0.0,0.0,0.0,0.0,0.0,0.161761848742119,-0.00045989392153661894,3.1359256289027827e-06,0.0,0.0,0.0,0.0,0.0,0.0,6.104525682586007e-05,1.0832836114987625e-06,-1.2204076843173527e-07,0.0,0.58,0.92,0.0,0.0,0.0,7.39931205010064,7.39931205010064,7.0,7.0,7.0,7.0,7.401584304806311,7.401584304806311,1.2020375972535773,1.2020375972535773,1.2021239283386886,1.2021239283386886,1.2021254602761933,1.2021254602761933,1.2020391293011066,1.2020391293011066,0.0,0.0,0.0,0.0,0.0,0.0
4.0,0.06,0.05718792093231746,0.010005106200799406,0.2485841645840246,0.05714028307831639,0.010002371411802463,0.24858416458402444,-4.76378540010744e-05,-2.7347889969431965e-06,-1.6653345369377348e-16,4.771628867258519e-05,0.00016675337962397403,2.752834796400168e-06,-3.1647545256409584e-07,min_task,none,false,false,7.58672196205618,7.58672196205618,7.000000000000001,7.000000000000001,7.000000000000001,7.000000000000001,7.592996929919665,7.592996929919665,0.0,0.0,0.0,0.0,0.0,0.0,0.23812751652308173,-0.0012715319047518897,1.2980320590559788e-05,0.0,0.0,0.0,0.0,0.0,0.0,0.00016675337962397403,2.752834796400168e-06,-3.1647545256409584e-07,0.0,0.58,0.92,0.0,0.0,0.0,7.58672196205618,7.58672196205618,7.000000000000001,7.000000000000001,7.000000000000001,7.000000000000001,7.592996929919665,7.592996929919665,1.2019616746241761,1.2019616746241761,1.2021974998961684,1.2021974998961684,1.2022013925974473,1.2022013925974473,1.2019655680892019,1.2019655680892019,0.0,0.0,0.0,0.0,0.0,0.0
5.0,0.08,0.05737168004130028,0.010007704523119184,0.24858416458402496,0.057297001571191386,0.010002371411802463,0.24858416458402444,-7.467847010889095e-05,-5.3331113167211924e-06,-5.273559366969494e-16,7.48686581562743e-05,0.0003505093479948695,5.369061055187139e-06,-6.304630344857642e-07,min_task,none,false,false,7.762844477602106,7.762844477602106,6.999999999999998,6.999999999999998,6.999999999999998,6.999999999999998,7.774364816402898,7.774364816402898,0.0,0.0,0.0,0.0,0.0,0.0,0.30997782253235684,-0.002337333954896629,2.9811837287438814e-05,0.0,0.0,0.0,0.0,0.0,0.0,0.0003505093479948695,5.369061055187139e-06,-6.304630344857642e-07,0.0,0.58,0.92,0.0,0.0,0.0,7.762844477602106,7.762844477602106,6.999999999999998,6.999999999999998,6.999999999999998,6.999999999999998,7.774364816402898,7.774364816402898,1.2018299087872806,1.2018299087872806,1.2023256054167928,1.2023256054167928,1.2023331967952373,1.2023331967952373,1.2018375032967816,1.2018375032967816,0.0,0.0,0.0,0.0,0.0,0.0
6.0,0.1,0.057652625952545916,0.010011273942780435,0.24858416458402469,0.05754733743406639,0.010002371411802463,0.24858416458402444,-0.0001052885184795252,-8.902530977971529e-06,-2.498001805406602e-16,0.00010566421902151675,0.0006314508017961248,8.963891684811728e-06,-1.0761039580751002e-06,min_task,none,false,false,7.926134983054786,7.926134983054786,7.0,7.0,7.0,7.0,7.943713506660722,7.943713506660722,0.0,0.0,0.0,0.0,0.0,0.0,0.3765221769942803,-0.003571147070024649,5.101081644325983e-05,0.0,0.0,0.0,0.0,0.0,0.0,0.0006314508017961248,8.963891684811728e-06,-1.0761039580751002e-06,0.0,0.58,0.92,0.0,0.0,0.0,7.926134983054786,7.926134983054786,7.0,7.0,7.0,7.0,7.943713506660722,7.943713506660722,1.201628767146016,1.201628767146016,1.2025217780833533,1.2025217780833533,1.2025344500631878,1.2025344500631878,1.2016414485431495,1.2016414485431495,0.0,0.0,0.0,0.0,0.0,0.0
7.0,0.12000000000000001,0.05804821916088107,0.010015778369452224,0.2485841645840245,0.05790894350319139,0.010002371411802463,0.24858416458402444,-0.0001392756576896817,-1.3406957649760368e-05,-5.551115123125783e-17,0.00013991946018447848,0.0010270381710339317,1.3501605942959888e-05,-1.6598798031251249e-06,min_task,none,false,false,8.075551697898668,8.075551697898668,7.000000000000001,7.000000000000001,7.000000000000001,7.000000000000001,8.09963026748701,8.09963026748701,0.0,0.0,0.0,0.0,0.0,0.0,0.4371885808390282,-0.004898473673258841,7.186428072481399e-05,0.0,0.0,0.0,0.0,0.0,0.0,0.0010270381710339317,1.3501605942959888e-05,-1.6598798031251249e-06,0.0,0.58,0.92,0.0,0.0,0.0,8.075551697898668,8.075551697898668,7.000000000000001,7.000000000000001,7.000000000000001,7.000000000000001,8.09963026748701,8.09963026748701,1.201345969267125,1.201345969267125,1.2027984318535385,1.2027984318535385,1.2028175140505235,1.2028175140505235,1.2013650745346804,1.2013650745346804,0.0,0.0,0.0,0.0,0.0,0.0
8.0,0.14,0.05857411723014654,0.010021131329394754,0.24858416458402455,0.05839730383981639,0.010002371411802463,0.24858416458402444,-0.00017681339033015497,-1.875991759229048e-05,-1.1102230246251565e-16,0.0001778058196688547,0.001552928981740666,1.889594571189966e-05,-2.3855719592135778e-06,min_task,none,false,false,8.210460831698297,8.210460831698297,7.0,7.0,7.0,7.0,8.241167971658635,8.241167971658635,0.0,0.0,0.0,0.0,0.0,0.0,0.4915867287419244,-0.006256241857444376,8.660085424871554e-05,0.0,0.0,0.0,0.0,0.0,0.0,0.001552928981740666,1.889594571189966e-05,-2.3855719592135778e-06,0.0,0.58,0.92,0.0,0.0,0.0,8.210460831698297,8.210460831698297,7.0,7.0,7.0,7.0,8.241167971658635,8.241167971658635,1.2009705702757165,1.2009705702757165,1.203166767008359,1.203166767008359,1.2031934645874673,1.2031934645874673,1.200997316675198,1.200997316675198,0.0,0.0,0.0,0.0,0.0,0.0
9.0,0.16,0.059244096136961404,0.010027210609550941,0.24858416458402455,0.05902581027519139,0.010002371411802463,0.24858416458402444,-0.00021828586177001508,-2.4839197748477773e-05,-1.1102230246251565e-16,0.0002196945679653143,0.002222899172619284,2.5024914192321656e-05,-3.2569729572530506e-06,min_task,none,false,false,8.330555676811203,8.330555676811203,7.0,7.0,7.0,7.0,8.3677613476885,8.3677613476885,0.0,0.0,0.0,0.0,0.0,0.0,0.539476144576189,-0.0075922517350246665,8.948783960807873e-05,0.0,0.0,0.0,0.0,0.0,0.0,0.002222899172619284,2.5024914192321656e-05,-3.2569729572530506e-06,0.0,0.58,0.92,0.0,0.0,0.0,8.330555676811203,8.330555676811203,7.0,7.0,7.0,7.0,8.3677613476885,8.3677613476885,1.2004930125203155,1.2004930125203155,1.2036367102850918,1.2036367102850918,1.203672052807665,1.203672052807665,1.2005284475906444,1.2005284475906444,0.0,0.0,0.0,0.0,0.0,0.0
10.0,0.18,0.06007001009888199,0.010033870660260987,0.2485841645840248,0.05980583895556639,0.010002371411802463,0.24858416458402444,-0.000264171143315603,-3.149924845852366e-05,-3.608224830031759e-16,0.0002660424695685346,0.0030488029019826207,3.1743299594350736e-05,-4.280008073795298e-06,min_task,none,false,false,8.435788242995438,8.435788242995438,6.999999999999999,6.999999999999999,6.999999999999999,6.999999999999999,8.47915470466688,8.47915470466688,0.0,0.0,0.0,0.0,0.0,0.0,0.5807388704121879,-0.00886440263598269,7.584594289457834e-05,0.0,0.0,0.0,0.0,0.0,0.0,0.0030488029019826207,3.1743299594350736e-05,-4.280008073795298e-06,0.0,0.58,0.92,0.0,0.0,0.0,8.435788242995438,8.435788242995438,6.999999999999999,6.999999999999999,6.999999999999999,6.999999999999999,8.47915470466688,8.47915470466688,1.1999051510613203,1.1999051510613203,1.204216883078694,1.204216883078694,1.2042616911954998,1.2042616911954998,1.1999501201853229,1.1999501201853229,0.0,0.0,0.0,0.0,0.0,0.0
11.0,0.19999999999999998,0.061061782614438974,0.010040952883604508,0.24858416458402496,0.060746826887191394,0.010002371411802463,0.24858416458402444,-0.0003149557272475803,-3.858147180204469e-05,-5.273559366969494e-16,0.00031731000629110984,0.004040563575223637,3.8893035125668137e-05,-5.463991790738682e-06,min_task,none,false,false,8.526312048562573,8.526312048562573,7.0,7.0,7.0,7.0,8.575340135390613,8.575340135390613,0.0,0.0,0.0,0.0,0.0,0.0,0.6153562316171431,-0.010039782214023057,4.286907964138459e-05,0.0,0.0,0.0,0.0,0.0,0.0,0.004040563575223637,3.8893035125668137e-05,-5.463991790738682e-06,0.0,0.58,0.92,0.0,0.0,0.0,8.526312048562573,8.526312048562573,7.0,7.0,7.0,7.0,8.575340135390613,8.575340135390613,1.1992002576707306,1.1992002576707306,1.2049145921105155,1.2049145921105155,1.2049694590958369,1.2049694590958369,1.1992553860918909,1.1992553860918909,0.0,0.0,0.0,0.0,0.0,0.0
12.0,0.21999999999999997,0.062227422557089976,0.01004829397672743,0.24858416458402463,0.06185634848131639,0.010002371411802463,0.24858416458402444,-0.0003710740757735878,-4.5922564924966505e-05,-1.942890293094024e-16,0.00037390486982721974,0.005206189936340274,4.631155617288102e-05,-6.821870776568967e-06,min_task,none,false,false,8.602434727754439,8.602434727754439,7.000000000000001,7.000000000000001,7.000000000000001,7.000000000000001,8.656505158101806,8.656505158101806,0.0,0.0,0.0,0.0,0.0,0.0,0.6433892153916719,-0.011093679843638554,-9.826124832413677e-06,0.0,0.0,0.0,0.0,0.0,0.0,0.005206189936340274,4.631155617288102e-05,-6.821870776568967e-06,0.0,0.58,0.92,0.0,0.0,0.0,8.602434727754439,8.602434727754439,7.000000000000001,7.000000000000001,7.000000000000001,7.000000000000001,8.656505158101806,8.656505158101806,1.198373007287411,1.198373007287411,1.2057358378053882,1.2057358378053882,1.2058011231333619,1.2058011231333619,1.1984386937079796,1.1984386937079796,0.0,0.0,0.0,0.0,0.0,0.0
13.0,0.23999999999999996,0.06357306014829794,0.010055732523727224,0.2485841645840246,0.06314019209919139,0.010002371411802463,0.24858416458402444,-0.0004328680491065551,-5.336111192476116e-05,-1.6653345369377348e-16,0.0004361446505497481,0.0065518120488993695,5.3838347244113484e-05,-8.369435697401864e-06,min_task,none,false,false,8.66457918620188,8.66457918620188,7.0,7.0,7.0,7.0,8.722988761215557,8.722988761215557,0.0,0.0,0.0,0.0,0.0,0.0,0.6649620244187148,-0.012008572136019259,-7.99578069256516e-05,0.0,0.0,0.0,0.0,0.0,0.0,0.0065518120488993695,5.3838347244113484e-05,-8.369435697401864e-06,0.0,0.58,0.92,0.0,0.0,0.0,8.66457918620188,8.66457918620188,7.0,7.0,7.0,7.0,8.722988761215557,8.722988761215557,1.1974194502355908,1.1974194502355908,1.2066853363819658,1.2066853363819658,1.2067611687980797,1.2067611687980797,1.1974958694217503,1.1974958694217503,0.0,0.0,0.0,0.0,0.0,0.0
14.0,0.25999999999999995,0.06510299849472384,0.01006311404039381,0.248584164584025,0.06460243659706638,0.010002371411802463,0.24858416458402444,-0.0005005618976574588,-6.074262859134642e-05,-5.551115123125783e-16,0.0005042339539485838,0.008081732850407461,6.131988879098353e-05,-1.0123603981251644e-05,min_task,none,false,false,8.71325212619015,8.71325212619015,6.999999999999999,6.999999999999999,6.999999999999999,6.999999999999999,8.775244852585049,8.775244852585049,0.0,0.0,0.0,0.0,0.0,0.0,0.6802483975666047,-0.012773117116945017,-0.00016264328143570522,0.0,0.0,0.0,0.0,0.0,0.0,0.008081732850407461,6.131988879098353e-05,-1.0123603981251644e-05,0.0,0.58,0.92,0.0,0.0,0.0,8.71325212619015,8.71325212619015,6.999999999999999,6.999999999999999,6.999999999999999,6.999999999999999,8.775244852585049,8.775244852585049,1.196336972971505,1.196336972971505,1.20776655234475,1.20776655234475,1.207852840165083,1.207852840165083,1.1964240851097727,1.1964240851097727,0.0,0.0,0.0,0.0,0.0,0.0
15.0,0.27999999999999997,0.06681977712027994,0.010070294676963219,0.24858416458402455,0.0662455278711914,0.010002371411802463,0.24858416458402444,-0.0005742492490885404,-6.792326516075545e-05,-1.1102230246251565e-16,0.0005782523411356419,0.009798491708834605,6.861322046671868e-05,-1.2099973421193398e-05,min_task,none,false,false,8.749018864409809,8.749018864409809,7.0,7.0,7.0,7.0,8.81381217470229,8.81381217470229,0.0,0.0,0.0,0.0,0.0,0.0,0.689460323414951,-0.013381184831687496,-0.0002507387753115946,0.0,0.0,0.0,0.0,0.0,0.0,0.009798491708834605,6.861322046671868e-05,-1.2099973421193398e-05,0.0,0.58,0.92,0.0,0.0,0.0,8.749018864409809,8.749018864409809,7.0,7.0,7.0,7.0,8.81381217470229,8.81381217470229,1.1951242496622756,1.1951242496622756,1.2089817386707775,1.2089817386707775,1.2090781853346426,1.2090781853346426,1.1952218145363285,1.1952218145363285,0.0,0.0,0.0,0.0,0.0,0.0
16.0,0.3,0.06872424456560376,0.01007714377789232,0.24858416458402488,0.06807035540281639,0.010002371411802463,0.24858416458402444,-0.0006538891627873716,-7.477236608985707e-05,-4.440892098500626e-16,0.0006581503961416762,0.011702937051168559,7.558833511523197e-05,-1.4309914749000444e-05,min_task,none,false,false,8.772483470943577,8.772483470943577,7.0,7.0,7.0,7.0,8.839289820460298,8.839289820460298,0.0,0.0,0.0,0.0,0.0,0.0,0.6928388076424645,-0.013830945196085558,-0.0003353986139106264,0.0,0.0,0.0,0.0,0.0,0.0,0.011702937051168559,7.558833511523197e-05,-1.4309914749000444e-05,0.0,0.58,0.92,0.0,0.0,0.0,8.772483470943577,8.772483470943577,7.0,7.0,7.0,7.0,8.839289820460298,8.839289820460298,1.1937811865117989,1.1937811865117989,1.2103319825127352,1.2103319825127352,1.2104381057087494,1.2104381057087494,1.1938887808871042,1.1938887808871042,0.0,0.0,0.0,0.0,0.0,0.0
17.0,0.32,0.07081563767570265,0.010083545486659127,0.2485841645840245,0.0700763288031914,0.010002371411802463,0.24858416458402444,-0.0007393088725112518,-8.11740748566641e-05,-5.551115123125783e-17,0.0007437518668229973,0.013794305681713349,8.212960879568166e-05,-1.6757506527542545e-05,min_task,none,false,false,8.784273365291947,8.784273365291947,6.999999999999998,6.999999999999998,6.999999999999998,6.999999999999998,8.852317564055355,8.852317564055355,0.0,0.0,0.0,0.0,0.0,0.0,0.6906463906617936,-0.014124028278823746,-0.0004067824424428893,0.0,0.0,0.0,0.0,0.0,0.0,0.013794305681713349,8.212960879568166e-05,-1.6757506527542545e-05,0.0,0.58,0.92,0.0,0.0,0.0,8.784273365291947,8.784273365291947,6.999999999999998,6.999999999999998,6.999999999999998,6.999999999999998,8.852317564055355,8.852317564055355,1.1923088604211878,1.1923088604211878,1.2118172546979316,1.2118172546979316,1.211932407669109,1.211932407669109,1.19242589732607,1.19242589732607,0.0,0.0,0.0,0.0,0.0,0.0
18.0,0.34,0.07309166566125151,0.010089399569401865,0.24858416458402466,0.0722614543585664,0.010002371411802463,0.24858416458402444,-0.0008302113026851105,-8.702815759940169e-05,-2.220446049250313e-16,0.000834760269371545,0.0160703068725575,8.813645808644653e-05,-1.9436618127912436e-05,min_task,none,false,false,8.78502760952742,8.78502760952742,6.999999999999997,6.999999999999997,6.999999999999997,6.999999999999997,8.853560302598515,8.853560302598515,0.0,0.0,0.0,0.0,0.0,0.0,0.6831611460460822,-0.014264767464350979,-0.0004548325207978649,0.0,0.0,0.0,0.0,0.0,0.0,0.0160703068725575,8.813645808644653e-05,-1.9436618127912436e-05,0.0,0.58,0.92,0.0,0.0,0.0,8.78502760952742,8.78502760952742,6.999999999999997,6.999999999999997,6.999999999999997,6.999999999999997,8.853560302598515,8.853560302598515,1.1907094532979658,1.1907094532979658,1.2134364616944318,1.2134364616944318,1.213559855596565,1.213559855596565,1.1908352021666113,1.1908352021666113,0.0,0.0,0.0,0.0,0.0,0.0
19.0,0.36000000000000004,0.07554859741009147,0.010094621615037516,0.24858416458402485,0.0746224115751914,0.010002371411802463,0.24858416458402444,-0.0009261858349000757,-9.225020323505237e-05,-4.163336342344337e-16,0.0009307686612507206,0.018527209699968492,9.35233982137022e-05,-2.2328419609369336e-05,min_task,none,false,false,8.77538823841557,8.77538823841557,7.0,7.0,7.0,7.0,8.843695983147246,8.843695983147246,0.0,0.0,0.0,0.0,0.0,0.0,0.6706719228056923,-0.014259531856929752,-0.0004700449947966599,0.0,0.0,0.0,0.0,0.0,0.0,0.018527209699968492,9.35233982137022e-05,-2.2328419609369336e-05,0.0,0.58,0.92,0.0,0.0,0.0,8.77538823841557,8.77538823841557,7.0,7.0,7.0,7.0,8.843695983147246,8.843695983147246,1.1889861831012516,1.1889861831012516,1.2151874990474862,1.2151874990474862,1.2153182254805683,1.2153182254805683,1.1891197899915869,1.1891197899915869,0.0,0.0,0.0,0.0,0.0,0.0
20.0,0.38000000000000006,0.07818135085206618,0.010099142752314784,0.24858416458402485,0.07715462972431641,0.010002371411802463,0.24858416458402444,-0.0010267211277497634,-9.677134051232043e-05,-4.163336342344337e-16,0.0010312715289933576,0.021159932427566655,9.821965547581424e-05,-2.5399546864518776e-05,min_task,none,false,false,8.755994059244378,8.755994059244378,7.000000000000001,7.000000000000001,7.000000000000001,7.000000000000001,8.823406464128254,8.823406464128254,0.0,0.0,0.0,0.0,0.0,0.0,0.6534746247075958,-0.014116150666044101,-0.0004441679835474356,0.0,0.0,0.0,0.0,0.0,0.0,0.021159932427566655,9.821965547581424e-05,-2.5399546864518776e-05,0.0,0.58,0.92,0.0,0.0,0.0,8.755994059244378,8.755994059244378,7.000000000000001,7.000000000000001,7.000000000000001,7.000000000000001,8.823406464128254,8.823406464128254,1.1871432325229925,1.1871432325229925,1.2170673055668708,1.2170673055668708,1.2172043586172463,1.2172043586172463,1.1872837398373481,1.1872837398373481,0.0,0.0,0.0,0.0,0.0,0.0
21.0,0.4000000000000001,0.08098358345095952,0.010102909006717656,0.2485841645840249,0.07985236438719141,0.010002371411802463,0.24858416458402444,-0.0011312190637681047,-0.000100537594915193,-4.718447854656915e-16,0.0011356779377198973,0.0239621330084277,0.00010216846610738385,-2.8601083800837407e-05,min_task,none,false,false,8.727476439442519,8.727476439442519,7.0,7.0,7.0,7.0,8.79337082870512,8.79337082870512,0.0,0.0,0.0,0.0,0.0,0.0,0.6318693475059626,-0.013843429114613014,-0.00037077347430103597,0.0,0.0,0.0,0.0,0.0,0.0,0.0239621330084277,0.00010216846610738385,-2.8601083800837407e-05,0.0,0.58,0.92,0.0,0.0,0.0,8.727476439442519,8.727476439442519,7.0,7.0,7.0,7.0,8.79337082870512,8.79337082870512,1.1851856760519452,1.1851856760519452,1.2190719177745497,1.2190719177745497,1.2192142150932805,1.2192142150932805,1.185332041369722,1.185332041369722,0.0,0.0,0.0,0.0,0.0,0.0
22.0,0.4200000000000001,0.08394778311973558,0.01010588040281459,0.24858416458402469,0.08270877400006642,0.010002371411802463,0.24858416458402444,-0.0012390091196691627,-0.00010350899101212695,-2.498001805406602e-16,0.0012433252630923665,0.02692630000144082,0.0001053261721354215,-3.1868448558893324e-05,min_task,none,false,false,8.69045667700459,8.69045667700459,7.000000000000001,7.000000000000001,7.000000000000001,7.000000000000001,8.754260729747838,8.754260729747838,0.0,0.0,0.0,0.0,0.0,0.0,0.6061582199792273,-0.013450752611665702,-0.0002456672853859162,0.0,0.0,0.0,0.0,0.0,0.0,0.02692630000144082,0.0001053261721354215,-3.1868448558893324e-05,0.0,0.58,0.92,0.0,0.0,0.0,8.69045667700459,8.69045667700459,7.000000000000001,7.000000000000001,7.000000000000001,7.000000000000001,8.754260729747838,8.754260729747838,1.1831194060422217,1.1831194060422217,1.2211965243075134,1.2211965243075134,1.2213429269072629,1.2213429269072629,1.1832705198217979,1.1832705198217979,0.0,0.0,0.0,0.0,0.0,0.0
23.0,0.4400000000000001,0.08706535903649133,0.010108029900927264,0.24858416458402463,0.08571599639919142,0.010002371411802463,0.24858416458402444,-0.001349362637299914,-0.00010565848912480122,-1.942890293094024e-16,0.0013534929786537923,0.03004384337922567,0.00010766120377750442,-3.5122195503095565e-05,min_task,none,false,false,8.645544617135439,8.645544617135439,6.999999999999999,6.999999999999999,6.999999999999999,6.999999999999999,8.706737401891962,8.706737401891962,0.0,0.0,0.0,0.0,0.0,0.0,0.5766438171303203,-0.012947773575160509,-6.711963726722706e-05,0.0,0.0,0.0,0.0,0.0,0.0,0.03004384337922567,0.00010766120377750442,-3.5122195503095565e-05,0.0,0.58,0.92,0.0,0.0,0.0,8.645544617135439,8.645544617135439,6.999999999999999,6.999999999999999,6.999999999999999,6.999999999999999,8.706737401891962,8.706737401891962,1.1809510583070957,1.1809510583070957,1.2234355201178007,1.2234355201178007,1.2235848506970624,1.2235848506970624,1.1811057603305846,1.1811057603305846,0.0,0.0,0.0,0.0,0.0,0.0
24.0,0.46000000000000013,0.0903267319847916,0.010109342241233886,0.24858416458402474,0.08886522536581642,0.010002371411802463,0.24858416458402444,-0.001461506618975178,-0.00010697082943142248,-3.0531133177191805e-16,0.0014654161032476415,0.03330518485184617,0.00010915301822346777,-3.826967567635075e-05,min_task,none,false,false,8.59333823812032,8.59333823812032,6.999999999999999,6.999999999999999,6.999999999999999,6.999999999999999,8.651450025727469,8.651450025727469,0.0,0.0,0.0,0.0,0.0,0.0,0.5436280337756259,-0.012344173410546225,0.00016408372226142274,0.0,0.0,0.0,0.0,0.0,0.0,0.03330518485184617,0.00010915301822346777,-3.826967567635075e-05,0.0,0.58,0.92,0.0,0.0,0.0,8.59333823812032,8.59333823812032,6.999999999999999,6.999999999999999,6.999999999999999,6.999999999999999,8.651450025727469,8.651450025727469,1.1786879376771953,1.1786879376771953,1.2257825604253718,1.2257825604253718,1.2259336201270503,1.2259336201270503,1.1788450321991244,1.1788450321991244,0.0,0.0,0.0,0.0,0.0,0.0
25.0,0.48000000000000015,0.09372142395880682,0.010109812753829342,0.24858416458402469,0.09214678717119143,0.010002371411802463,0.24858416458402444,-0.0015746367876153938,-0.00010744134202687883,-2.498001805406602e-16,0.0015782980247368568,0.03669984744790006,0.00010979104677612917,-4.120744082669725e-05,min_task,none,false,false,8.534423980899652,8.534423980899652,6.999999999999998,6.999999999999998,6.999999999999998,6.999999999999998,8.589035173406199,8.589035173406199,0.0,0.0,0.0,0.0,0.0,0.0,0.507411324347411,-0.01164949079465892,0.0004447548742962294,0.0,0.0,0.0,0.0,0.0,0.0,0.03669984744790006,0.00010979104677612917,-4.120744082669725e-05,0.0,0.58,0.92,0.0,0.0,0.0,8.534423980899652,8.534423980899652,6.999999999999998,6.999999999999998,6.999999999999998,6.999999999999998,8.589035173406199,8.589035173406199,1.1763379438964974,1.1763379438964974,1.2282306144640425,1.2282306144640425,1.228382198048205,1.228382198048205,1.1764962135194736,1.1764962135194736,0.0,0.0,0.0,0.0,0.0,0.0
26.0,0.5000000000000001,0.09723814686578464,0.010109446180063606,0.24858416458402474,0.09555021712156642,0.010002371411802463,0.24858416458402444,-0.0016879297442182195,-0.00010707476826114261,-3.0531133177191805e-16,0.001691322508398313,0.04021654418708985,0.00010957368668725119,-4.3824233480752485e-05,min_task,none,false,false,8.469377640198557,8.469377640198557,7.0,7.0,7.0,7.0,8.5201171039684,8.5201171039684,0.0,0.0,0.0,0.0,0.0,0.0,0.46829223005461335,-0.010873006587629788,0.0007695550132328687,0.0,0.0,0.0,0.0,0.0,0.0,0.04021654418708985,0.00010957368668725119,-4.3824233480752485e-05,0.0,0.58,0.92,0.0,0.0,0.0,8.469377640198557,8.469377640198557,7.0,7.0,7.0,7.0,8.5201171039684,8.5201171039684,1.1739094981765192,1.1739094981765192,1.2307720191203217,1.2307720191203217,1.2309229285819565,1.2309229285819565,1.1740677165173712,1.1740677165173712,0.0,0.0,0.0,0.0,0.0,0.0
27.0,0.5200000000000001,0.10086489022999431,0.01010825553876579,0.24858416458402469,0.09906433610319143,0.010002371411802463,0.24858416458402444,-0.0018005541268028835,-0.00010588412696332754,-2.498001805406602e-16,0.0018036647725920914,0.043843265750252526,0.00010850736083471188,-4.6004379527082954e-05,min_task,none,false,false,8.398765671231986,8.398765671231986,7.0,7.0,7.0,7.0,8.445308711335821,8.445308711335821,0.0,0.0,0.0,0.0,0.0,0.0,0.426567127903481,-0.010023675394519574,0.0011313494913386484,0.0,0.0,0.0,0.0,0.0,0.0,0.043843265750252526,0.00010850736083471188,-4.6004379527082954e-05,0.0,0.58,0.92,0.0,0.0,0.0,8.398765671231986,8.398765671231986,7.0,7.0,7.0,7.0,8.445308711335821,8.445308711335821,1.1714114706860017,1.1714114706860017,1.2333985326035235,1.2333985326035235,1.23354758929929,1.23354758929929,1.1715684139188398,1.1715684139188398,0.0,0.0,0.0,0.0,0.0,0.0
28.0,0.5400000000000001,0.10458900785700993,0.010106261060832261,0.24858416458402482,0.10267732712731643,0.010002371411802463,0.24858416458402444,-0.001911680729693499,-0.00010388964902979803,-3.885780586188048e-16,0.001914501572591938,0.047567367107645024,0.00010660565771512376,-4.763139035754219e-05,min_task,none,false,false,8.323146795565089,8.323146795565089,7.0,7.0,7.0,7.0,8.365212958521802,8.365212958521802,0.0,0.0,0.0,0.0,0.0,0.0,0.3825301476095718,-0.00911009397659108,0.0015216288915168223,0.0,0.0,0.0,0.0,0.0,0.0,0.047567367107645024,0.00010660565771512376,-4.763139035754219e-05,0.0,0.58,0.92,0.0,0.0,0.0,8.323146795565089,8.323146795565089,7.0,7.0,7.0,7.0,8.365212958521802,8.365212958521802,1.1688531092178454,1.1688531092178454,1.2361013883065008,1.2361013883065008,1.2362474436736621,1.2362474436736621,1.1690075665899817,1.1690075665899817,0.0,0.0,0.0,0.0,0.0,0.0
29.0,0.5600000000000002,0.10839730345812607,0.01010348920711184,0.24858416458402469,0.10637681187519143,0.010002371411802463,0.24858416458402444,-0.0020204915829346304,-0.00010111779530937691,-2.498001805406602e-16,0.0020230202780095697,0.05137565310714847,0.0001038885560066819,-4.8591587339435506e-05,min_task,none,false,false,8.243073813455077,8.243073813455077,6.999999999999999,6.999999999999999,6.999999999999999,6.999999999999999,8.280424658601785,8.280424658601785,0.0,0.0,0.0,0.0,0.0,0.0,0.33647321233638944,-0.008140497306937378,0.0019309585591961247,0.0,0.0,0.0,0.0,0.0,0.0,0.05137565310714847,0.0001038885560066819,-4.8591587339435506e-05,0.0,0.58,0.92,0.0,0.0,0.0,8.243073813455077,8.243073813455077,6.999999999999999,6.999999999999999,6.999999999999999,6.999999999999999,8.280424658601785,8.280424658601785,1.1662439692451538,1.1662439692451538,1.2388713490230752,1.2388713490230752,1.2390132939827683,1.2390132939827683,1.1663947526615797,1.1663947526615797,0.0,0.0,0.0,0.0,0.0,0.0
30.0,0.5800000000000002,0.1122761152644394,0.010099971777523713,0.2485841645840247,0.11014992724306642,0.010002371411802463,0.24858416458402444,-0.002126188021372974,-9.760036572124993e-05,-2.7755575615628914e-16,0.0021284269622467303,0.05525446305361325,0.00010038173201140744,-4.877757972427207e-05,min_task,none,false,false,8.15909554874285,8.15909554874285,7.0,7.0,7.0,7.0,8.191532486672797,8.191532486672797,0.0,0.0,0.0,0.0,0.0,0.0,0.2886861676491859,-0.007122773986767084,0.002349422295047305,0.0,0.0,0.0,0.0,0.0,0.0,0.05525446305361325,0.00010038173201140744,-4.877757972427207e-05,0.0,0.58,0.92,0.0,0.0,0.0,8.15909554874285,8.15909554874285,7.0,7.0,7.0,7.0,8.191532486672797,8.191532486672797,1.1635938455522499,1.1635938455522499,1.2416987616836155,1.2416987616836155,1.2418355348226064,1.2418355348226064,1.163739798317733,1.163739798317733,0.0,0.0,0.0,0.0,0.0,0.0
31.0,0.6000000000000002,0.11621139968091351,0.010095745113836483,0.24858416458402488,0.11398340188719144,0.010002371411802463,0.24858416458402444,-0.0022279977937220696,-9.337370203402022e-05,-4.440892098500626e-16,0.002229953545942594,0.05918975433106844,9.611594435161113e-05,-4.809145483077665e-05,min_task,none,false,false,8.071758866900494,8.071758866900494,6.999999999999999,6.999999999999999,6.999999999999999,6.999999999999999,8.099121127662409,8.099121127662409,0.0,0.0,0.0,0.0,0.0,0.0,0.23945697024180776,-0.006064493889033492,0.00276703149485395,0.0,0.0,0.0,0.0,0.0,0.0,0.05918975433106844,9.611594435161113e-05,-4.809145483077665e-05,0.0,0.58,0.92,0.0,0.0,0.0,8.071758866900494,8.071758866900494,6.999999999999999,6.999999999999999,6.999999999999999,6.999999999999999,8.099121127662409,8.099121127662409,1.1609127056031447,1.1609127056031447,1.2445736127569667,1.2445736127569667,1.2447042073797905,1.2447042073797905,1.1610527104007116,1.1610527104007116,0.0,0.0,0.0,0.0,0.0,0.0
32.0,0.6200000000000002,0.12018881404441532,0.010090849394374173,0.2485841645840249,0.11786363276881645,0.010002371411802463,0.24858416458402444,-0.0023251812755988727,-8.847798257170976e-05,-4.718447854656915e-16,0.002326864052280571,0.06316718513285624,9.112648805456453e-05,-4.644757297724031e-05,min_task,none,false,false,7.981610717923694,7.981610717923694,7.0,7.0,7.0,7.0,8.003773482639314,8.003773482639314,0.0,0.0,0.0,0.0,0.0,0.0,0.18907191403068543,-0.004972942177481326,0.0031740780435814114,0.0,0.0,0.0,0.0,0.0,0.0,0.06316718513285624,9.112648805456453e-05,-4.644757297724031e-05,0.0,0.58,0.92,0.0,0.0,0.0,7.981610717923694,7.981610717923694,7.0,7.0,7.0,7.0,8.003773482639314,8.003773482639314,1.1582106247879917,1.1582106247879917,1.24748558444735,1.24748558444735,1.2476090545863823,1.2476090545863823,1.1583436109608283,1.1583436109608283,0.0,0.0,0.0,0.0,0.0,0.0
33.0,0.6400000000000002,0.12419379855783541,0.010085328015960621,0.24858416458402474,0.12177676169919144,0.010002371411802463,0.24858416458402444,-0.0024170368586439728,-8.295660415815788e-05,-3.0531133177191805e-16,0.0024184600418896683,0.0671721963725116,8.54527092679339e-05,-4.3774895753137576e-05,min_task,none,false,false,7.889200164102112,7.889200164102112,7.0,7.0,7.0,7.0,7.9060728714175665,7.9060728714175665,0.0,0.0,0.0,0.0,0.0,0.0,0.13781587625364874,-0.003855155162863855,0.003561416890578935,0.0,0.0,0.0,0.0,0.0,0.0,0.0671721963725116,8.54527092679339e-05,-4.3774895753137576e-05,0.0,0.58,0.92,0.0,0.0,0.0,7.889200164102112,7.889200164102112,7.0,7.0,7.0,7.0,7.9060728714175665,7.9060728714175665,1.1554977236666244,1.1554977236666244,1.2504241117910015,1.2504241117910015,1.2505395772570895,1.2505395772570895,1.155622673858892,1.155622673858892,0.0,0.0,0.0,0.0,0.0,0.0
34.0,0.6600000000000003,0.12821165747625274,0.010079227056513337,0.2485841645840248,0.12570875188456646,0.010002371411802463,0.24858416458402444,-0.002502905591686283,-7.68556447108739e-05,-3.608224830031759e-16,0.0025040853002680215,0.07119009285170308,7.913757196207912e-05,-4.001881173070548e-05,min_task,none,false,false,7.795080358924354,7.795080358924354,6.999999999999998,6.999999999999998,6.999999999999998,6.999999999999998,7.806605181930935,7.806605181930935,0.0,0.0,0.0,0.0,0.0,0.0,0.08597257038761923,-0.002717954723371737,0.0039206717082007165,0.0,0.0,0.0,0.0,0.0,0.0,0.07119009285170308,7.913757196207912e-05,-4.001881173070548e-05,0.0,0.58,0.92,0.0,0.0,0.0,7.795080358924354,7.795080358924354,6.999999999999998,6.999999999999998,6.999999999999998,6.999999999999998,7.806605181930935,7.806605181930935,1.152784107306684,1.152784107306684,1.253378440730914,1.253378440730914,1.2534850912827058,1.2534850912827058,1.1529000635084659,1.1529000635084659,0.0,0.0,0.0,0.0,0.0,0.0
35.0,0.6800000000000003,0.13222763962173972,0.01007259481063088,0.24858416458402485,0.12964546447119146,0.010002371411802463,0.24858416458402444,-0.0025821751505482604,-7.022339882841767e-05,-4.163336342344337e-16,0.0025831298523016502,0.07520612376186073,7.222726877008301e-05,-3.5142456088072464e-05,min_task,none,false,false,7.699810448025046,7.699810448025046,7.0,7.0,7.0,7.0,7.705960927302698,7.705960927302698,0.0,0.0,0.0,0.0,0.0,0.0,0.0338247961246103,-0.0015679791687548382,0.00424436377776794,0.0,0.0,0.0,0.0,0.0,0.0,0.07520612376186073,7.222726877008301e-05,-3.5142456088072464e-05,0.0,0.58,0.92,0.0,0.0,0.0,7.699810448025046,7.699810448025046,7.0,7.0,7.0,7.0,7.705960927302698,7.705960927302698,1.150079806791442,1.150079806791442,1.2563376872205085,1.2563376872205085,1.2564347859271012,1.2564347859271012,1.1501858758246617,1.1501858758246617,0.0,0.0,0.0,0.0,0.0,0.0
36.0,0.7000000000000003,0.13622701830167522,0.01006548139016457,0.24858416458402469,0.13357273509031645,0.010002371411802463,0.24858416458402444,-0.002654283211358771,-6.310997836210704e-05,-2.498001805406602e-16,0.0026550333774681433,0.0792055625941196,6.477086930601884e-05,-2.9127547969333823e-05,min_task,none,false,false,7.603957366632529,7.603957366632529,6.999999999999999,6.999999999999999,6.999999999999999,6.999999999999999,7.604737179975121,7.604737179975121,0.0,0.0,0.0,0.0,0.0,0.0,-0.01834532057605227,-0.0004117094159440506,0.004525969846752862,0.0,0.0,0.0,0.0,0.0,0.0,0.0792055625941196,6.477086930601884e-05,-2.9127547969333823e-05,0.0,0.58,0.92,0.0,0.0,0.0,7.603957366632529,7.603957366632529,6.999999999999999,6.999999999999999,6.999999999999999,6.999999999999999,7.604737179975121,7.604737179975121,1.1473947229488601,1.1473947229488601,1.2592908973795638,1.2592908973795638,1.2593777832486923,1.2593777832486923,1.1474900814247824,1.1474900814247824,0.0,0.0,0.0,0.0,0.0,0.0
37.0,0.7200000000000003,0.14019517070204274,0.010057938381890091,0.24858416458402477,0.13747645040319145,0.010002371411802463,0.24858416458402444,-0.002718720298851285,-5.556697008762823e-05,-3.3306690738754696e-16,0.0027192880964603105,0.08317378652860216,5.682000064768984e-05,-2.1974790559472076e-05,min_task,none,false,false,7.5080975107905195,7.5080975107905195,7.000000000000001,7.000000000000001,7.000000000000001,7.000000000000001,7.503539358968808,7.503539358968808,0.0,0.0,0.0,0.0,0.0,0.0,-0.070256102117543,0.000744509852377305,0.00475991892366368,0.0,0.0,0.0,0.0,0.0,0.0,0.08317378652860216,5.682000064768984e-05,-2.1974790559472076e-05,0.0,0.58,0.92,0.0,0.0,0.0,7.5080975107905195,7.5080975107905195,7.000000000000001,7.000000000000001,7.000000000000001,7.000000000000001,7.503539358968808,7.503539358968808,1.144738572328421,1.144738572328421,1.2622271086991328,1.2622271086991328,1.262303198641776,1.262303198641776,1.1448224711031831,1.1448224711031831,0.0,0.0,0.0,0.0,0.0,0.0
38.0,0.7400000000000003,0.1441176568226738,0.010050018554897315,0.24858416458402474,0.14134262464606645,0.010002371411802463,0.24858416458402444,-0.0027750321766073505,-4.764714309485156e-05,-3.0531133177191805e-16,0.002775441195819366,0.08709635536940633,4.842855598590218e-05,-1.370389327963668e-05,min_task,none,false,false,7.412818262042857,7.412818262042857,7.0,7.0,7.0,7.0,7.402982851601249,7.402982851601249,0.0,0.0,0.0,0.0,0.0,0.0,-0.1216261115768081,0.0018944537709542557,0.004941540756117363,0.0,0.0,0.0,0.0,0.0,0.0,0.08709635536940633,4.842855598590218e-05,-1.370389327963668e-05,0.0,0.58,0.92,0.0,0.0,0.0,7.412818262042857,7.412818262042857,7.0,7.0,7.0,7.0,7.402982851601249,7.402982851601249,1.1421208354256243,1.1421208354256243,1.2651354122671654,1.2651354122671654,1.26520020246887,1.26520020246887,1.1421926035779542,1.1421926035779542,0.0,0.0,0.0,0.0,0.0,0.0
39.0,0.7600000000000003,0.14798029801619234,0.0100417756110225,0.24858416458402482,0.14515747617519148,0.010002371411802463,0.24858416458402444,-0.0028228218410008554,-3.940419922003613e-05,-3.885780586188048e-16,0.002823096852208162,0.0909590900863852,3.9652428595752915e-05,-4.353283265638775e-06,min_task,none,false,false,7.318719347513388,7.318719347513388,7.0,7.0,7.0,7.0,7.303694455104229,7.303694455104229,0.0,0.0,0.0,0.0,0.0,0.0,-0.17217396433293744,0.0030320049278793537,0.005066980137965975,0.0,0.0,0.0,0.0,0.0,0.0,0.0909590900863852,3.9652428595752915e-05,-4.353283265638775e-06,0.0,0.58,0.92,0.0,0.0,0.0,7.318719347513388,7.318719347513388,7.0,7.0,7.0,7.0,7.303694455104229,7.303694455104229,1.1395507071258555,1.1395507071258555,1.2680050159635943,1.2680050159635943,1.2680580827326682,1.2680580827326682,1.1396097554802926,1.1396097554802926,0.0,0.0,0.0,0.0,0.0,0.0
40.0,0.7800000000000004,0.1517692551868598,0.01003326397246356,0.2485841645840248,0.1489075040118165,0.010002371411802463,0.24858416458402444,-0.002861751175043309,-3.089256066109679e-05,-3.608224830031759e-16,0.0028619179125484993,0.09474815101922983,3.0549269193400354e-05,6.02042510070709e-06,min_task,none,false,false,7.226414019592652,7.226414019592652,6.999999999999998,6.999999999999998,6.999999999999998,6.999999999999998,7.206313626868713,7.206313626868713,0.0,0.0,0.0,0.0,0.0,0.0,-0.22161815960559203,0.00415114412196394,0.0051330913758768386,0.0,0.0,0.0,0.0,0.0,0.0,0.09474815101922983,3.0549269193400354e-05,6.02042510070709e-06,0.0,0.58,0.92,0.0,0.0,0.0,7.226414019592652,7.226414019592652,6.999999999999998,6.999999999999998,6.999999999999998,6.999999999999998,7.206313626868713,7.206313626868713,1.1370370493096482,1.1370370493096482,1.2708253085530095,1.2708253085530095,1.2708663087156717,1.2708663087156717,1.1370828735288108,1.1370828735288108,0.0,0.0,0.0,0.0,0.0,0.0
41.0,0.8000000000000004,0.15547110669984687,0.010024538601558823,0.24858416458402469,0.15257956438719147,0.010002371411802463,0.24858416458402444,-0.0028915423126553985,-2.216718975635995e-05,-2.498001805406602e-16,0.0028916272806463533,0.09845011579373414,2.1178265365209437e-05,1.7343137526177624e-05,min_task,none,false,false,7.136530041910075,7.136530041910075,6.999999999999998,6.999999999999998,6.999999999999998,6.999999999999998,7.111493534791447,7.111493534791447,0.0,0.0,0.0,0.0,0.0,0.0,-0.2696769317209978,0.005245943218029734,0.005137326445088042,0.0,0.0,0.0,0.0,0.0,0.0,0.09845011579373414,2.1178265365209437e-05,1.7343137526177624e-05,0.0,0.58,0.92,0.0,0.0,0.0,7.136530041910075,7.136530041910075,6.999999999999998,6.999999999999998,6.999999999999998,6.999999999999998,7.111493534791447,7.111493534791447,1.134588345530511,1.134588345530511,1.2735859245849348,1.2735859245849348,1.27361459549718,1.27361459549718,1.1346205288008164,1.1346205288008164,0.0,0.0,0.0,0.0,0.0,0.0
42.0,0.8200000000000004,0.15907292604586537,0.010015654848483572,0.24858416458402466,0.15616094728756647,0.010002371411802463,0.24858416458402444,-0.0029119787582989054,-1.3283436681109026e-05,-2.220446049250313e-16,0.002912009055355786,0.10205205699460827,1.1599942091196321e-05,2.9524106845107157e-05,min_task,none,false,false,7.049710471040969,7.049710471040969,6.999999999999998,6.999999999999998,6.999999999999998,6.999999999999998,7.0199019017217825,7.0199019017217825,0.0,0.0,0.0,0.0,0.0,0.0,-0.31606812035566795,0.006310559095830224,0.0050776288255100915,0.0,0.0,0.0,0.0,0.0,0.0,0.10205205699460827,1.1599942091196321e-05,2.9524106845107157e-05,0.0,0.58,0.92,0.0,0.0,0.0,7.049710471040969,7.049710471040969,6.999999999999998,6.999999999999998,6.999999999999998,6.999999999999998,7.0199019017217825,7.0199019017217825,1.132212657644822,1.132212657644822,1.2762768099961774,1.2762768099961774,1.2762929692412444,1.2762929692412444,1.1322308729811972,1.1322308729811972,0.0,0.0,0.0,0.0,0.0,0.0
43.0,0.8400000000000004,0.16256235549680637,0.010006666601703143,0.248584164584025,0.15963945299919147,0.010002371411802463,0.24858416458402444,-0.0029229024976148987,-4.295189900679897e-06,-5.551115123125783e-16,0.0029229056534927187,0.10554161574734457,1.874732060743472e-06,4.244856937901819e-05,min_task,none,false,false,7.0,7.0,7.064183501403597,7.064183501403597,7.025405909696365,7.025405909696365,7.0,7.0,0.0,0.0,0.0,0.0,0.0,0.0,-0.36050930882836896,0.007340653926554701,0.004927332450689131,0.0,0.0,0.0,0.0,0.0,0.0,0.10554161574734457,1.874732060743472e-06,4.244856937901819e-05,0.0,0.58,0.92,0.0,0.0,0.0,7.0,7.0,7.064183501403597,7.064183501403597,7.025405909696365,7.025405909696365,7.0,7.0,1.1299175878584324,1.1299175878584324,1.2788882863260942,1.2788882863260942,1.2788918292981075,1.2788918292981075,1.1299215979417263,1.1299215979417263,0.0,0.0,0.0,0.0,0.0,0.0
44.0,0.8600000000000004,0.1659276804207018,0.009997627084900724,0.24858416458402455,0.1630034686533165,0.010002371411802463,0.24858416458402444,-0.002924211767385304,4.7443269017392875e-06,-1.1102230246251565e-16,0.0029242156160502997,0.10890707598083407,-7.935929886286127e-06,5.5972526854297235e-05,min_task,none,false,false,6.999999999999999,6.999999999999999,7.137869343027141,7.137869343027141,7.093941401200866,7.093941401200866,6.999999999999999,6.999999999999999,0.0,0.0,0.0,0.0,0.0,0.0,-0.40270659557685595,0.008335965879707455,0.004673645399005236,0.0,0.0,0.0,0.0,0.0,0.0,0.10890707598083407,-7.935929886286127e-06,5.5972526854297235e-05,0.0,0.58,0.92,0.0,0.0,0.0,6.999999999999999,6.999999999999999,7.137869343027141,7.137869343027141,7.093941401200866,7.093941401200866,6.999999999999999,6.999999999999999,1.127710239906172,1.127710239906172,1.2814111143161464,1.2814111143161464,1.2814020131144894,1.2814020131144894,1.1276998982487116,1.1276998982487116,0.0,0.0,0.0,0.0,0.0,0.0
45.0,0.8800000000000004,0.16915791432861552,0.00998859259090185,0.24858416458402469,0.16624204477119148,0.010002371411802463,0.24858416458402444,-0.002915869557424039,1.3778820900613858e-05,-2.498001805406602e-16,0.0029159021128662174,0.11213744956111024,-1.776636870063935e-05,6.993144219481258e-05,min_task,none,false,false,6.999999999999998,6.999999999999998,7.206257695840981,7.206257695840981,7.157406662863427,7.157406662863427,6.999999999999998,6.999999999999998,0.0,0.0,0.0,0.0,0.0,0.0,-0.4423727391127442,0.009285619104037893,0.0043247490696757965,0.0,0.0,0.0,0.0,0.0,0.0,0.11213744956111024,-1.776636870063935e-05,6.993144219481258e-05,0.0,0.58,0.92,0.0,0.0,0.0,6.999999999999998,6.999999999999998,7.206257695840981,7.206257695840981,7.157406662863427,7.157406662863427,6.999999999999998,6.999999999999998,1.1255971725776035,1.1255971725776035,1.2838365644942686,1.2838365644942686,1.283814871326461,1.283814871326461,1.125572429664669,1.125572429664669,0.0,0.0,0.0,0.0,0.0,0.0
46.0,0.9000000000000005,0.1722428802807316,0.009979619616120157,0.24858416458402482,0.16934497180906646,0.010002371411802463,0.24858416458402444,-0.002897908471665128,2.2751795682306175e-05,-3.885780586188048e-16,0.002897997783704344,0.11522255771926132,-2.7549659784598165e-05,8.41424332154729e-05,min_task,none,false,false,7.0,7.0,7.268806596204582,7.268806596204582,7.215293873677495,7.215293873677495,7.0,7.0,0.0,0.0,0.0,0.0,0.0,0.0,-0.4792283299467877,0.010183419500060452,0.0038862323687402786,0.0,0.0,0.0,0.0,0.0,0.0,0.11522255771926132,-2.7549659784598165e-05,8.41424332154729e-05,0.0,0.58,0.92,0.0,0.0,0.0,7.0,7.0,7.268806596204582,7.268806596204582,7.215293873677495,7.215293873677495,7.0,7.0,1.1235843616033268,1.1235843616033268,1.2861564895146436,1.2861564895146436,1.286122336226659,1.286122336226659,1.1235452664935413,1.1235452664935413,0.0,0.0,0.0,0.0,0.0,0.0
47.0,0.9200000000000005,0.175173286521688,0.00997076478938743,0.24858416458402477,0.17230285670319148,0.010002371411802463,0.24858416458402444,-0.0028704298184965282,3.1606622415032704e-05,-3.3306690738754696e-16,0.0028706038252420863,0.11815310673313287,-3.7217964972856076e-05,9.84089164215414e-05,min_task,none,false,false,6.999999999999998,6.999999999999998,7.324965459373424,7.324965459373424,7.267087194015863,7.267087194015863,6.999999999999998,6.999999999999998,0.0,0.0,0.0,0.0,0.0,0.0,-0.5129922575830345,0.011023080978054437,0.0033662632717138927,0.0,0.0,0.0,0.0,0.0,0.0,0.11815310673313287,-3.7217964972856076e-05,9.84089164215414e-05,0.0,0.58,0.92,0.0,0.0,0.0,6.999999999999998,6.999999999999998,7.324965459373424,7.324965459373424,7.267087194015863,7.267087194015863,6.999999999999998,6.999999999999998,1.121677164138229,1.121677164138229,1.2883633905007736,1.2883633905007736,1.2883169878927876,1.2883169878927876,1.1216238655893855,1.1216238655893855,0.0,0.0,0.0,0.0,0.0,0.0
48.0,0.9400000000000005,0.17794080222575753,0.009962084802971874,0.24858416458402488,0.1751071994148165,0.010002371411802463,0.24858416458402444,-0.002833602810941027,4.028660883058886e-05,-4.440892098500626e-16,0.002833889182911703,0.1209207637226096,-4.670288736532727e-05,0.0001125256199628164,min_task,none,false,false,7.000000000000001,7.000000000000001,7.374173901331088,7.374173901331088,7.312261401104323,7.312261401104323,7.000000000000001,7.000000000000001,0.0,0.0,0.0,0.0,0.0,0.0,-0.5433817370513153,0.011798252748231288,0.002775148327784302,0.0,0.0,0.0,0.0,0.0,0.0,0.1209207637226096,-4.670288736532727e-05,0.0001125256199628164,0.0,0.58,0.92,0.0,0.0,0.0,7.000000000000001,7.000000000000001,7.374173901331088,7.374173901331088,7.312261401104323,7.312261401104323,7.000000000000001,7.000000000000001,1.11988028371241,1.11988028371241,1.2904504834038204,1.2904504834038204,1.290392120368944,1.290392120368944,1.1198130308408156,1.1198130308408156,0.0,0.0,0.0,0.0,0.0,0.0
49.0,0.9600000000000005,0.18053813334504554,0.009953636341961104,0.24858416458402466,0.17775046947519155,0.010002371411802463,0.24858416458402444,-0.00278766386985399,4.873506984135953e-05,-2.220446049250313e-16,0.0027880898404322924,0.12351823254939097,-5.593583593194579e-05,0.00012628373945218604,min_task,none,false,false,6.999999999999999,6.999999999999999,7.415860589106298,7.415860589106298,7.350280504479383,7.350280504479383,6.999999999999999,6.999999999999999,0.0,0.0,0.0,0.0,0.0,0.0,-0.570112340952601,0.012502555458647736,0.0021248222470173998,0.0,0.0,0.0,0.0,0.0,0.0,0.12351823254939097,-5.593583593194579e-05,0.00012628373945218604,0.0,0.58,0.92,0.0,0.0,0.0,6.999999999999999,6.999999999999999,7.415860589106298,7.415860589106298,7.350280504479383,7.350280504479383,6.999999999999999,6.999999999999999,1.1181977353556867,1.1181977353556867,1.2924117652094216,1.2924117652094216,1.292341807733484,1.292341807733484,1.1181168778435926,1.1181168778435926,0.0,0.0,0.0,0.0,0.0,0.0
50.0,0.9800000000000005,0.18295909855305661,0.009945476010367426,0.24858416458402485,0.18022618253056638,0.010002371411802463,0.24858416458402444,-0.002732916022490234,5.6895401435037504e-05,-4.163336342344337e-16,0.0027335081987600283,0.12593932981139888,-6.484838890143886e-05,0.000139476015070278,min_task,none,false,false,6.999999999999999,6.999999999999999,7.44944211440265,7.44944211440265,7.380596355311671,7.380596355311671,6.999999999999999,6.999999999999999,0.0,0.0,0.0,0.0,0.0,0.0,-0.5928980349961662,0.013129622672651485,0.0014282937409587824,0.0,0.0,0.0,0.0,0.0,0.0,0.12593932981139888,-6.484838890143886e-05,0.000139476015070278,0.0,0.58,0.92,0.0,0.0,0.0,6.999999999999999,6.999999999999999,7.44944211440265,7.44944211440265,7.380596355311671,7.380596355311671,6.999999999999999,6.999999999999999,1.1166328105877033,1.1166328105877033,1.294242079829588,1.294242079829588,1.2941609698907077,1.2941609698907077,1.116538798460597,1.116538798460597,0.0,0.0,0.0,0.0,0.0,0.0
51.0,1.0000000000000004,0.1851987052755954,0.009937660254069197,0.24858416458402469,0.1825289768871915,0.010002371411802463,0.24858416458402444,-0.0026697283884039025,6.471115773326597e-05,-2.498001805406602e-16,0.0026705125354105487,0.12817906092170125,-7.33726439967696e-05,0.0001519015226690523,min_task,none,false,false,6.999999999999999,6.999999999999999,7.474321887338667,7.474321887338667,7.402647264845848,7.402647264845848,6.999999999999999,6.999999999999999,0.0,0.0,0.0,0.0,0.0,0.0,-0.6114512154056511,0.013673144353566268,0.000699073983397353,0.0,0.0,0.0,0.0,0.0,0.0,0.12817906092170125,-7.33726439967696e-05,0.0001519015226690523,0.0,0.58,0.92,0.0,0.0,0.0,6.999999999999999,6.999999999999999,7.474321887338667,7.474321887338667,7.402647264845848,7.402647264845848,6.999999999999999,6.999999999999999,1.1151880419584355,1.1151880419584355,1.2959371835221825,1.2959371835221825,1.295845437929224,1.295845437929224,1.1150814249612735,1.1150814249612735,0.0,0.0,0.0,0.0,0.0,0.0
52.0,1.0200000000000005,0.18725322580089526,0.009930245282054573,0.24858416458402494,0.18465469005631646,0.010002371411802463,0.24858416458402444,-0.0025985357445788004,7.212612974789e-05,-4.996003610813204e-16,0.0025995365345472853,0.13023369626199582,-8.144154351656838e-05,0.0001633699941234978,min_task,none,false,false,6.999999999999999,6.999999999999999,7.489889049475462,7.489889049475462,7.415856648227331,7.415856648227331,6.999999999999999,6.999999999999999,0.0,0.0,0.0,0.0,0.0,0.0,-0.6254827469221202,0.014126909334876333,-4.938704178249525e-05,0.0,0.0,0.0,0.0,0.0,0.0,0.13023369626199582,-8.144154351656838e-05,0.0001633699941234978,0.0,0.58,0.92,0.0,0.0,0.0,6.999999999999999,6.999999999999999,7.489889049475462,7.489889049475462,7.415856648227331,7.415856648227331,6.999999999999999,6.999999999999999,1.1138651668241888,1.1138651668241888,1.2974938096888549,1.2974938096888549,1.2973920188975838,1.2973920188975838,1.1137465934325135,1.1137465934325135,0.0,0.0,0.0,0.0,0.0,0.0
53.0,1.0400000000000005,0.1891202734610799,0.009923286988384026,0.2485841645840249,0.18660043529919146,0.010002371411802463,0.24858416458402444,-0.0025198381618884436,7.908442341843756e-05,-4.718447854656915e-16,0.0025210788778094106,0.13210084740118724,-8.89891629790856e-05,0.00017370551129666385,min_task,none,false,false,6.999999999999999,6.999999999999999,7.4955174080531615,7.4955174080531615,7.419631710782212,7.419631710782212,6.999999999999999,6.999999999999999,0.0,0.0,0.0,0.0,0.0,0.0,-0.6347020004437194,0.014484844164651954,-0.0008042333534841903,0.0,0.0,0.0,0.0,0.0,0.0,0.13210084740118724,-8.89891629790856e-05,0.00017370551129666385,0.0,0.58,0.92,0.0,0.0,0.0,6.999999999999999,6.999999999999999,7.4955174080531615,7.4955174080531615,7.419631710782212,7.419631710782212,6.999999999999999,6.999999999999999,1.112665090052667,1.112665090052667,1.2989097329131376,1.2989097329131376,1.2987985598577707,1.2987985598577707,1.1125353061606853,1.1125353061606853,0.0,0.0,0.0,0.0,0.0,0.0
54.0,1.0600000000000005,0.1907988788774582,0.009916840877837382,0.24858416458402496,0.18836467817206654,0.010002371411802463,0.24858416458402444,-0.0024342007053916592,8.553053396508081e-05,-5.273559366969494e-16,0.0024357028854869807,0.13377954337032694,-9.595095341164962e-05,0.000182749451773497,min_task,none,false,false,7.0,7.0,7.490564396495893,7.490564396495893,7.41336219447785,7.41336219447785,7.0,7.0,0.0,0.0,0.0,0.0,0.0,0.0,-0.6388168896286981,0.014741046211509613,-0.0015536853551971809,0.0,0.0,0.0,0.0,0.0,0.0,0.13377954337032694,-9.595095341164962e-05,0.000182749451773497,0.0,0.58,0.92,0.0,0.0,0.0,7.0,7.0,7.490564396495893,7.490564396495893,7.41336219447785,7.41336219447785,7.0,7.0,1.111587845367964,1.111587845367964,1.3001838321138512,1.3001838321138512,1.3000640110896626,1.3000640110896626,1.1114476927008645,1.1114476927008645,0.0,0.0,0.0,0.0,0.0,0.0
55.0,1.0800000000000005,0.19228956626270194,0.009910961998432059,0.24858416458402466,0.1899473130711915,0.010002371411802463,0.24858416458402444,-0.002342253191510435,9.140941337040451e-05,-2.220446049250313e-16,0.0023440361972447313,0.13527030698610082,-0.00010226392923324965,0.0001903626009378694,min_task,none,false,false,6.999999999999999,6.999999999999999,7.474370069704634,7.474370069704634,7.396419202904907,7.396419202904907,6.999999999999999,6.999999999999999,0.0,0.0,0.0,0.0,0.0,0.0,-0.6375339060441348,0.014889809475813576,-0.0022874564091555426,0.0,0.0,0.0,0.0,0.0,0.0,0.13527030698610082,-0.00010226392923324965,0.0001903626009378694,0.0,0.58,0.92,0.0,0.0,0.0,6.999999999999999,6.999999999999999,7.474370069704634,7.474370069704634,7.396419202904907,7.396419202904907,6.999999999999999,6.999999999999999,1.1106325550728435,1.1106325550728435,1.3013161527051322,1.3013161527051322,1.3011884883348643,1.3011884883348643,1.110482969374819,1.110482969374819,0.0,0.0,0.0,0.0,0.0,0.0
56.0,1.1000000000000005,0.19359442977362878,0.009905704883903299,0.24858416458402469,0.1913497397778165,0.010002371411802463,0.24858416458402444,-0.002244689995812288,9.666652789916408e-05,-2.498001805406602e-16,0.0022467704811386163,0.13657523121608503,-0.00010786679587836407,0.0001964263819279941,min_task,none,false,false,6.999999999999999,6.999999999999999,7.446256146410989,7.446256146410989,7.3681541238226185,7.3681541238226185,6.999999999999999,6.999999999999999,0.0,0.0,0.0,0.0,0.0,0.0,-0.6305581526807206,0.014925642134838497,-0.0029970930750776565,0.0,0.0,0.0,0.0,0.0,0.0,0.13657523121608503,-0.00010786679587836407,0.0001964263819279941,0.0,0.58,0.92,0.0,0.0,0.0,6.999999999999999,6.999999999999999,7.446256146410989,7.446256146410989,7.3681541238226185,7.3681541238226185,6.999999999999999,6.999999999999999,1.109797387921751,1.109797387921751,1.3023079676736296,1.3023079676736296,1.3021733339866848,1.3021733339866848,1.1096393969744045,1.1096393969744045,0.0,0.0,0.0,0.0,0.0,0.0
57.0,1.1200000000000006,0.19471720990904642,0.009901123508887704,0.2485841645840249,0.19257494000319147,0.010002371411802463,0.24858416458402444,-0.002142269905854949,0.00010124790291475907,-4.718447854656915e-16,0.002144661159105654,0.1376980555800878,-0.0001127000136800422,0.00020084319047846598,min_task,none,false,false,6.999999999999999,6.999999999999999,7.405525114857507,7.405525114857507,7.32789766916768,7.32789766916768,6.999999999999999,6.999999999999999,0.0,0.0,0.0,0.0,0.0,0.0,-0.617593375868926,0.014843275442832619,-0.0036762337152157092,0.0,0.0,0.0,0.0,0.0,0.0,0.1376980555800878,-0.0001127000136800422,0.00020084319047846598,0.0,0.58,0.92,0.0,0.0,0.0,6.999999999999999,6.999999999999999,7.405525114857507,7.405525114857507,7.32789766916768,7.32789766916768,6.999999999999999,6.999999999999999,1.1090795149638057,1.1090795149638057,1.3031618375059968,1.3031618375059968,1.3030211771548847,1.3030211771548847,1.108914236491915,1.108914236491915,0.0,0.0,0.0,0.0,0.0,0.0
58.0,1.1400000000000006,0.19566336994791142,0.00989727125900863,0.24858416458402455,0.1936275539335665,0.010002371411802463,0.24858416458402444,-0.00203581601434491,0.00010510015279383347,-1.1102230246251565e-16,0.002038527136532767,0.1386442425830144,-0.00011670579690610195,0.00020353585376036345,min_task,none,false,false,6.999999999999998,6.999999999999998,7.351459422237161,7.351459422237161,7.274959053547775,7.274959053547775,6.999999999999998,6.999999999999998,0.0,0.0,0.0,0.0,0.0,0.0,-0.5983419958260389,0.014637664177211383,-0.0043207855306656075,0.0,0.0,0.0,0.0,0.0,0.0,0.1386442425830144,-0.00011670579690610195,0.00020353585376036345,0.0,0.58,0.92,0.0,0.0,0.0,6.999999999999998,6.999999999999998,7.351459422237161,7.351459422237161,7.274959053547775,7.274959053547775,6.999999999999998,6.999999999999998,1.1084750632306284,1.1084750632306284,1.3038816689261954,1.3038816689261954,1.3037359925595682,1.3037359925595682,1.1083037027537477,1.1083037027537477,0.0,0.0,0.0,0.0,0.0,0.0
59.0,1.1600000000000006,0.1964401724238784,0.009894200917374687,0.24858416458402485,0.19451395677519157,0.010002371411802463,0.24858416458402444,-0.0019262156486868354,0.00010817049442777595,-4.163336342344337e-16,0.001929250523159394,0.13942105417578632,-0.00011982804907122463,0.00020444625940555812,min_task,none,false,false,7.0,7.0,7.283320772600192,7.283320772600192,7.208625333703482,7.208625333703482,7.0,7.0,0.0,0.0,0.0,0.0,0.0,0.0,-0.572505136236852,0.014303979346284726,-0.004929025354498525,0.0,0.0,0.0,0.0,0.0,0.0,0.13942105417578632,-0.00011982804907122463,0.00020444625940555812,0.0,0.58,0.92,0.0,0.0,0.0,7.0,7.0,7.283320772600192,7.283320772600192,7.208625333703482,7.208625333703482,7.0,7.0,1.1079790672091105,1.1079790672091105,1.3044727724328131,1.3044727724328131,1.3043231582387438,1.3043231582387438,1.1078029158983613,1.1078029158983613,0.0,0.0,0.0,0.0,0.0,0.0
60.0,1.1800000000000006,0.19705675563313982,0.009891964668237,0.24858416458402482,0.19524233529931645,0.010002371411802463,0.24858416458402444,-0.0018144203338233689,0.00011040674356546307,-3.885780586188048e-16,0.001817776333000415,0.14003762824188415,-0.00012201223759285431,0.0002035332215758509,min_task,none,false,false,7.000000000000001,7.000000000000001,7.20034956226211,7.20034956226211,7.12816093327034,7.12816093327034,7.000000000000001,7.000000000000001,0.0,0.0,0.0,0.0,0.0,0.0,-0.539782653421664,0.013837594335648639,-0.005501634450235064,0.0,0.0,0.0,0.0,0.0,0.0,0.14003762824188415,-0.00012201223759285431,0.0002035332215758509,0.0,0.58,0.92,0.0,0.0,0.0,7.000000000000001,7.000000000000001,7.20034956226211,7.20034956226211,7.12816093327034,7.12816093327034,7.000000000000001,7.000000000000001,1.107585418113984,1.107585418113984,1.3049419186621338,1.3049419186621338,1.3047895120891841,1.3047895120891841,1.107405850713752,1.107405850713752,0.0,0.0,0.0,0.0,0.0,0.0
61.0,1.2000000000000006,0.19752421017327335,0.009890614117755428,0.24858416458402463,0.19582276438719143,0.010002371411802463,0.24858416458402444,-0.0017014457860819177,0.00011175729404703551,-1.942890293094024e-16,0.0017051121534223579,0.14050505510803543,-0.00012320521240429197,0.00020076966416955258,min_task,none,false,false,7.0,7.0,7.101764486037972,7.101764486037972,7.032807379439191,7.032807379439191,7.0,7.0,0.0,0.0,0.0,0.0,0.0,0.0,-0.49987316577134544,0.013234066050683595,-0.006041681973817511,0.0,0.0,0.0,0.0,0.0,0.0,0.14050505510803543,-0.00012320521240429197,0.00020076966416955258,0.0,0.58,0.92,0.0,0.0,0.0,7.0,7.0,7.101764486037972,7.101764486037972,7.032807379439191,7.032807379439191,7.0,7.0,1.107286811058947,1.107286811058947,1.305297393643685,1.305297393643685,1.3051434073008437,1.3051434073008437,1.107105283933263,1.107105283933263,0.0,0.0,0.0,0.0,0.0,0.0
62.0,1.2200000000000006,0.19785565520746234,0.009890200070151253,0.24858416458402469,0.19626728357506656,0.010002371411802463,0.24858416458402444,-0.0015883716323957797,0.00011217134165121025,-2.498001805406602e-16,0.001592327495362517,0.1408364534177287,-0.00012335320490394836,0.00019610360071963342,min_task,none,false,false,7.081729462276736,7.081729462276736,6.999999999999999,6.999999999999999,6.999999999999999,6.999999999999999,7.026576100604656,7.026576100604656,0.0,0.0,0.0,0.0,0.0,0.0,-0.4524758227960039,0.012499012385310336,-0.006728192279049696,0.0,0.0,0.0,0.0,0.0,0.0,0.1408364534177287,-0.00012335320490394836,0.00019610360071963342,0.0,0.58,0.92,0.0,0.0,0.0,7.081729462276736,7.081729462276736,6.999999999999999,6.999999999999999,6.999999999999999,6.999999999999999,7.026576100604656,7.026576100604656,1.1070746900607662,1.1070746900607662,1.3055490519824415,1.3055490519824415,1.305394766863812,1.305394766863812,1.1068927407821934,1.1068927407821934,0.0,0.0,0.0,0.0,0.0,0.0
63.0,1.2400000000000007,0.19806631484462367,0.00989077190736256,0.2485841645840246,0.19658997359919134,0.010002371411802463,0.24858416458402444,-0.0014763412454323332,0.00011159950443990346,-1.6653345369377348e-16,0.001480553248740458,0.14104704596552256,-0.00012239933972539252,0.00018940361666575998,min_task,none,false,false,7.2336292169099865,7.2336292169099865,7.0,7.0,7.0,7.0,7.182432461783851,7.182432461783851,0.0,0.0,0.0,0.0,0.0,0.0,-0.39728716351691135,0.011635664801277198,-0.007694628932046981,0.0,0.0,0.0,0.0,0.0,0.0,0.14104704596552256,-0.00012239933972539252,0.00018940361666575998,0.0,0.58,0.92,0.0,0.0,0.0,7.2336292169099865,7.2336292169099865,7.0,7.0,7.0,7.0,7.182432461783851,7.182432461783851,1.1069391914175482,1.1069391914175482,1.3057083691263542,1.3057083691263542,1.3055551372280298,1.3055551372280298,1.106758440054573,1.106758440054573,0.0,0.0,0.0,0.0,0.0,0.0
64.0,1.2600000000000007,0.1981735958840763,0.009892378566481563,0.24858416458402455,0.1968070329408163,0.010002371411802463,0.24858416458402444,-0.0013665629432599857,0.00010999284532089981,-1.1102230246251565e-16,0.0013709823864343344,0.1411542378976183,-0.00012028525204695598,0.0001805043765890219,min_task,none,false,false,7.406249377223322,7.406249377223322,6.999999999999998,6.999999999999998,6.999999999999998,6.999999999999998,7.359659225827159,7.359659225827159,0.0,0.0,0.0,0.0,0.0,0.0,-0.33399925685966414,0.01062541527164405,-0.008658153749666527,0.0,0.0,0.0,0.0,0.0,0.0,0.1411542378976183,-0.00012028525204695598,0.0001805043765890219,0.0,0.58,0.92,0.0,0.0,0.0,7.406249377223322,7.406249377223322,6.999999999999998,6.999999999999998,6.999999999999998,6.999999999999998,7.359659225827159,7.359659225827159,1.1068690856338559,1.1068690856338559,1.305788495886971,1.305788495886971,1.3056377420659868,1.3056377420659868,1.1066912352812497,1.1066912352812497,0.0,0.0,0.0,0.0,0.0,0.0
65.0,1.2800000000000007,0.19819716532719933,0.009895070282540401,0.2485841645840246,0.19693685437119146,0.010002371411802463,0.24858416458402444,-0.0012603109560078707,0.00010730112926206174,-1.6653345369377348e-16,0.0012648704432369296,0.14117769479670744,-0.00011695260762041164,0.00016926384779274235,min_task,none,false,false,7.6005337979107015,7.6005337979107015,6.999999999999999,6.999999999999999,6.999999999999999,6.999999999999999,7.5592360231648765,7.5592360231648765,0.0,0.0,0.0,0.0,0.0,0.0,-0.2623075358129667,0.009460454759844392,-0.009593376436129546,0.0,0.0,0.0,0.0,0.0,0.0,0.14117769479670744,-0.00011695260762041164,0.00016926384779274235,0.0,0.58,0.92,0.0,0.0,0.0,7.6005337979107015,7.6005337979107015,6.999999999999999,6.999999999999999,6.999999999999999,6.999999999999999,7.5592360231648765,7.5592360231648765,1.1068517184477622,1.1068517184477622,1.3058043123035363,1.3058043123035363,1.3056575358536537,1.3056575358536537,1.106678555648246,1.106678555648246,0.0,0.0,0.0,0.0,0.0,0.0
66.0,1.3000000000000007,0.1981590263156191,0.009898898275288313,0.248584164584025,0.19700010149656655,0.010002371411802463,0.24858416458402444,-0.0011589248190525536,0.00010347313651415044,-5.551115123125783e-16,0.0011635348839618305,0.1411394186928735,-0.00011234382940888194,0.0001555705511435782,min_task,none,false,false,7.817454128493109,7.817454128493109,6.999999999999999,6.999999999999999,6.999999999999999,6.999999999999999,7.782169595570453,7.782169595570453,0.0,0.0,0.0,0.0,0.0,0.0,-0.18190572370684752,0.008133128026800808,-0.010474253572794218,0.0,0.0,0.0,0.0,0.0,0.0,0.1411394186928735,-0.00011234382940888194,0.0001555705511435782,0.0,0.58,0.92,0.0,0.0,0.0,7.817454128493109,7.817454128493109,6.999999999999999,6.999999999999999,6.999999999999999,6.999999999999999,7.782169595570453,7.782169595570453,1.1068729535165973,1.1068729535165973,1.3057724802941457,1.3057724802941457,1.305631255582892,1.305631255582892,1.1067063479026353,1.1067063479026353,0.0,0.0,0.0,0.0,0.0,0.0
67.0,1.3200000000000007,0.19808359406469986,0.009903914446565501,0.2485841645840246,0.19701978530319142,0.010002371411802463,0.24858416458402444,-0.001063808761508439,9.845696523696178e-05,-1.6653345369377348e-16,0.001068355210155214,0.14106382406104198,-0.00010640276422733318,0.0001393499451751718,min_task,none,false,false,8.058015731849016,8.058015731849016,7.000000000000001,7.000000000000001,7.000000000000001,7.000000000000001,8.02949922323194,8.02949922323194,0.0,0.0,0.0,0.0,0.0,0.0,-0.09248578058177322,0.006636019731164703,-0.011275214262463704,0.0,0.0,0.0,0.0,0.0,0.0,0.14106382406104198,-0.00010640276422733318,0.0001393499451751718,0.0,0.58,0.92,0.0,0.0,0.0,8.058015731849016,8.058015731849016,7.000000000000001,7.000000000000001,7.000000000000001,7.000000000000001,8.02949922323194,8.02949922323194,1.1069171158544995,1.1069171158544995,1.3057114968082681,1.3057114968082681,1.305577472936764,1.305577472936764,1.106759019079719,1.106759019079719,0.0,0.0,0.0,0.0,0.0,0.0
68.0,1.3400000000000007,0.19799189587455773,0.009913490942750201,0.248584164584025,0.19702107754212891,0.0100025218318631,0.24858416458402444,-0.0009708183324288189,8.903088911289825e-05,-5.551115123125783e-16,0.0009748921652142383,0.1409720057228627,-9.614186866510431e-05,0.0001273471142941407,min_task,none,false,false,8.265092144888051,8.265092144888051,6.999999999999998,6.999999999999998,6.999999999999998,6.999999999999998,8.15454803801531,8.15454803801531,0.0,0.0,0.0,0.0,0.0,0.0,-0.031423643838191025,0.024616515886714617,0.02073432130737066,0.0,0.0,0.0,0.0,0.0,0.0,0.1409720057228627,-9.614186866510431e-05,0.0001273471142941407,0.0,0.58,0.92,0.0,0.0,0.0,8.265092144888051,8.265092144888051,6.999999999999998,6.999999999999998,6.999999999999998,6.999999999999998,8.15454803801531,8.15454803801531,1.1069682751663223,1.1069682751663223,1.3056353203380815,1.3056353203380815,1.3055142583622905,1.3055142583622905,1.1068254836683242,1.1068254836683242,0.0,0.0,0.0,0.0,0.0,0.0
69.0,1.3600000000000008,0.19788768729620665,0.00994125187582167,0.24858416458402463,0.19701573104319142,0.010011782239665463,0.24858416458402444,-0.0008719562530152269,7.053036384379284e-05,-1.942890293094024e-16,0.000874804114871605,0.14086798725494673,-6.946383962401278e-05,0.00014633883512495314,min_task,none,false,false,8.336975241949634,8.336975241949634,7.0,7.0,7.0,7.0,7.938804995696555,7.938804995696555,0.0,0.0,0.0,0.0,0.0,0.0,-0.057405425271410904,0.08768564570652708,0.12709808569507364,0.0,0.0,0.0,0.0,0.0,0.0,0.14086798725494673,-6.946383962401278e-05,0.00014633883512495314,0.0,0.58,0.92,0.0,0.0,0.0,8.336975241949634,8.336975241949634,7.0,7.0,7.0,7.0,7.938804995696555,7.938804995696555,1.1070140574708018,1.1070140574708018,1.3055386961361772,1.3055386961361772,1.3054529783672926,1.3054529783672926,1.1069129663424548,1.1069129663424548,0.0,0.0,0.0,0.0,0.0,0.0
70.0,1.3800000000000008,0.19776324301468523,0.010006424786586173,0.24858416458402455,0.1969927054842539,0.010051663677617888,0.24858416458402444,-0.0007705375304313256,4.5238891031714953e-05,-1.1102230246251565e-16,0.0007718643942202447,0.1407443879712992,-9.102731825534199e-06,0.00023072789038057324,min_task,none,false,false,8.397623974751506,8.397623974751506,6.999999999999998,6.999999999999998,6.999999999999998,6.999999999999998,7.719390678010346,7.719390678010346,0.0,0.0,0.0,0.0,0.0,0.0,-0.08607084876732725,0.14902864493179677,0.2260335510124743,0.0,0.0,0.0,0.0,0.0,0.0,0.1407443879712992,-9.102731825534199e-06,0.00023072789038057324,0.0,0.58,0.92,0.0,0.0,0.0,8.397623974751506,8.397623974751506,6.999999999999998,6.999999999999998,6.999999999999998,6.999999999999998,7.719390678010346,7.719390678010346,1.107045288161807,1.107045288161807,1.3054042257674827,1.3054042257674827,1.3053998343635975,1.3053998343635975,1.1070401099084732,1.1070401099084732,0.0,0.0,0.0,0.0,0.0,0.0
71.0,1.4000000000000008,0.1976103812538504,0.010127143413101057,0.2485841645840249,0.19694009563719142,0.010142786605708567,0.24858416458402444,-0.0006702856166589666,1.564319260751075e-05,-4.718447854656915e-16,0.0006704681330047289,0.14059329317051886,0.00010156171285370894,0.0004070614486277944,min_task,none,false,false,8.449562102913257,8.449562102913257,7.0,7.0,7.0,7.0,7.500736982373794,7.500736982373794,0.0,0.0,0.0,0.0,0.0,0.0,-0.11611459904360232,0.20816459028558348,0.31193586398681533,0.0,0.0,0.0,0.0,0.0,0.0,0.14059329317051886,0.00010156171285370894,0.0004070614486277944,0.0,0.58,0.92,0.0,0.0,0.0,8.449562102913257,8.449562102913257,7.0,7.0,7.0,7.0,7.500736982373794,7.500736982373794,1.1070538020712868,1.1070538020712868,1.305214656538913,1.305214656538913,1.3053600834779446,1.3053600834779446,1.107225256474059,1.107225256474059,0.0,0.0,0.0,0.0,0.0,0.0
72.0,1.4200000000000008,0.19742080391702832,0.010320283960775757,0.24858416458402466,0.1968471827213789,0.010303716496575192,0.24858416458402444,-0.0005736211956494097,-1.6567464200565457e-05,-2.220446049250313e-16,0.0005738603985014956,0.14040658609431406,0.0002783923065694356,0.0006931224336886614,min_task,none,false,false,8.494835530603892,8.494835530603892,6.999999999999999,6.999999999999999,6.999999999999999,6.999999999999999,7.286407882588443,7.286407882588443,0.0,0.0,0.0,0.0,0.0,0.0,-0.14647309055215738,0.26470199199380867,0.38057670130756516,0.0,0.0,0.0,0.0,0.0,0.0,0.14040658609431406,0.0002783923065694356,0.0006931224336886614,0.0,0.58,0.92,0.0,0.0,0.0,8.494835530603892,8.494835530603892,6.999999999999999,6.999999999999999,6.999999999999999,6.999999999999999,7.286407882588443,7.286407882588443,1.1070323481411048,1.1070323481411048,1.3049532240703872,1.3049532240703872,1.3053382099143034,1.3053382099143034,1.107486137647505,1.107486137647505,0.0,0.0,0.0,0.0,0.0,0.0
73.0,1.4400000000000008,0.19718636714371107,0.010601354819156049,0.24858416458402455,0.19670439613119142,0.01055103012541946,0.24858416458402444,-0.0004819710125196497,-5.032469373658817e-05,-1.1102230246251565e-16,0.0004845912006102646,0.14017621609852976,0.000536400783675398,0.001097639138122411,min_task,none,false,false,8.535029049201592,8.535029049201592,7.0,7.0,7.0,7.0,7.079297813129426,7.079297813129426,0.0,0.0,0.0,0.0,0.0,0.0,-0.17628742618606894,0.31829898330510514,0.4291224036352621,0.0,0.0,0.0,0.0,0.0,0.0,0.14017621609852976,0.000536400783675398,0.001097639138122411,0.0,0.58,0.92,0.0,0.0,0.0,8.535029049201592,8.535029049201592,7.0,7.0,7.0,7.0,7.079297813129426,7.079297813129426,1.1069745093590309,1.1069745093590309,1.3046039232298898,1.3046039232298898,1.3053380700367516,1.3053380700367516,1.1078396296175357,1.1078396296175357,0.0,0.0,0.0,0.0,0.0,0.0
74.0,1.4600000000000009,0.19689929444630083,0.010984420211839683,0.248584164584025,0.1965032751635039,0.010899381859921635,0.24858416458402444,-0.0003960192827969222,-8.503835191804761e-05,-5.551115123125783e-16,0.0004050466561322613,0.13989441115787735,0.0008896738948714925,0.00162024181036864,min_task,none,false,false,8.59102743749791,8.59102743749791,7.116520111004476,7.116520111004476,7.000000000000001,7.000000000000001,7.000000000000001,7.000000000000001,0.0,0.0,0.0,0.0,0.0,0.0,-0.2048836373326431,0.3687064015296382,0.4548688843420061,0.0,0.0,0.0,0.0,0.0,0.0,0.13989441115787735,0.0008896738948714925,0.00162024181036864,0.0,0.58,0.92,0.0,0.0,0.0,8.59102743749791,8.59102743749791,7.116520111004476,7.116520111004476,7.000000000000001,7.000000000000001,7.000000000000001,7.000000000000001,1.1068746356132115,1.1068746356132115,1.3041517174713466,1.3041517174713466,1.305363011476726,1.305363011476726,1.1083015602768067,1.1083015602768067,0.0,0.0,0.0,0.0,0.0,0.0
75.0,1.4800000000000009,0.19655234065047117,0.011482053031654255,0.24858416458402466,0.1962364307451914,0.011361569950155054,0.24858416458402444,-0.0003159099052797709,-0.00012048308149920084,-2.220446049250313e-16,0.0003381053699387469,0.13955384339397087,0.0013513110829386648,0.002251725374786903,min_task,none,false,false,8.655422834533793,8.655422834533793,7.300078931555371,7.300078931555371,7.000000000000001,7.000000000000001,7.000000000000001,7.000000000000001,0.0,0.0,0.0,0.0,0.0,0.0,-0.23173287751454746,0.41568067186781893,0.4566371569608833,0.0,0.0,0.0,0.0,0.0,0.0,0.13955384339397087,0.0013513110829386648,0.002251725374786903,0.0,0.58,0.92,0.0,0.0,0.0,8.655422834533793,8.655422834533793,7.300078931555371,7.300078931555371,7.000000000000001,7.000000000000001,7.000000000000001,7.000000000000001,1.1067277869407153,1.1067277869407153,1.3035826972353366,1.3035826972353366,1.3054159682904387,1.3054159682904387,1.1088865569223036,1.1088865569223036,0.0,0.0,0.0,0.0,0.0,0.0
76.0,1.5000000000000009,0.196138912082285,0.012105322664948922,0.24858416458402488,0.1958975071606289,0.011948602818500678,0.24858416458402444,-0.00024140492165611316,-0.00015671984644824444,-4.440892098500626e-16,0.00028781495178422447,0.13914775802151133,0.001933352317376508,0.002975096252452809,min_task,none,false,false,8.715292285612087,8.715292285612087,7.471026916127271,7.471026916127271,7.0,7.0,7.0,7.0,0.0,0.0,0.0,0.0,0.0,0.0,-0.2564159040944734,0.4589137395221455,0.43552214938904493,0.0,0.0,0.0,0.0,0.0,0.0,0.13914775802151133,0.001933352317376508,0.002975096252452809,0.0,0.58,0.92,0.0,0.0,0.0,8.715292285612087,8.715292285612087,7.471026916127271,7.471026916127271,7.0,7.0,7.0,7.0,1.1065296874670223,1.1065296874670223,1.3028842024008036,1.3028842024008036,1.3054995343913516,1.3054995343913516,1.1096079211488732,1.1096079211488732,0.0,0.0,0.0,0.0,0.0,0.0
77.0,1.520000000000001,0.19565315247765855,0.012863799905499074,0.24858416458402466,0.1954811437791914,0.012669765349561615,0.24858416458402444,-0.0001720086984671465,-0.00019403455593745844,-2.220446049250313e-16,0.0002592998288588105,0.13867007208326446,0.0026466980318391627,0.003767056364219442,min_task,none,false,false,8.770616403402238,8.770616403402238,7.628003781664579,7.628003781664579,7.000000000000001,7.000000000000001,7.000000000000001,7.000000000000001,0.0,0.0,0.0,0.0,0.0,0.0,-0.27861409553196365,0.49810070966622266,0.39329318490814374,0.0,0.0,0.0,0.0,0.0,0.0,0.13867007208326446,0.0026466980318391627,0.003767056364219442,0.0,0.58,0.92,0.0,0.0,0.0,8.770616403402238,8.770616403402238,7.628003781664579,7.628003781664579,7.000000000000001,7.000000000000001,7.000000000000001,7.000000000000001,1.1062766919520712,1.1062766919520712,1.3020449195188135,1.3020449195188135,1.3056160167008535,1.3056160167008535,1.1104775233103403,1.1104775233103403,0.0,0.0,0.0,0.0,0.0,0.0
78.0,1.540000000000001,0.19509000185983355,0.013765567232351979,0.24858416458402485,0.19498293678275389,0.01353268518007766,0.24858416458402444,-0.0001070650770796655,-0.00023288205227431878,-4.163336342344337e-16,0.00025631422317455045,0.1381154475697151,0.0035010270393827387,0.004599616932897618,min_task,none,false,false,8.821158400550463,8.821158400550463,7.7698111257589995,7.7698111257589995,6.999999999999999,6.999999999999999,6.999999999999999,6.999999999999999,0.0,0.0,0.0,0.0,0.0,0.0,-0.29808801030117277,0.5329232858396815,0.332747511764823,0.0,0.0,0.0,0.0,0.0,0.0,0.1381154475697151,0.0035010270393827387,0.004599616932897618,0.0,0.58,0.92,0.0,0.0,0.0,8.821158400550463,8.821158400550463,7.7698111257589995,7.7698111257589995,6.999999999999999,6.999999999999999,6.999999999999999,6.999999999999999,1.105965764819757,1.105965764819757,1.3010549601395769,1.3010549601395769,1.3057674712617307,1.3057674712617307,1.1115057141800075,1.1115057141800075,0.0,0.0,0.0,0.0,0.0,0.0
79.0,1.560000000000001,0.19444523271303538,0.014817235731779775,0.24858416458402488,0.19439940089319138,0.01454339898883982,0.24858416458402444,-4.5831819843994426e-05,-0.0002738367429399556,-4.440892098500626e-16,0.00027764566896347525,0.13747934401637893,0.004504711941219151,0.005441874405257405,min_task,none,false,false,8.866520820018476,8.866520820018476,7.895389822249613,7.895389822249613,7.0,7.0,7.0,7.0,0.0,0.0,0.0,0.0,0.0,0.0,-0.31466247422667526,0.5630587441616464,0.2575072823543684,0.0,0.0,0.0,0.0,0.0,0.0,0.13747934401637893,0.004504711941219151,0.005441874405257405,0.0,0.58,0.92,0.0,0.0,0.0,8.866520820018476,8.866520820018476,7.895389822249613,7.895389822249613,7.0,7.0,7.0,7.0,1.1055944701841587,1.1055944701841587,1.2999059255095953,1.2999059255095953,1.3059557269579547,1.3059557269579547,1.1127012528532145,1.1127012528532145,0.0,0.0,0.0,0.0,0.0,0.0
80.0,1.580000000000001,0.19371546802849188,0.016023966027988203,0.24858416458402469,0.19372793109987888,0.01570641878660485,0.24858416458402444,1.246307138699776e-05,-0.00031754724138335216,-2.498001805406602e-16,0.00031779172213664464,0.13675805443561403,0.005664735422360001,0.006261843832263616,min_task,none,false,false,8.90620649921979,8.90620649921979,8.003817001955046,8.003817001955046,7.000000000000002,7.000000000000002,7.000000000000002,7.000000000000002,0.0,0.0,0.0,0.0,0.0,0.0,-0.32821492530958724,0.5881935540923358,0.17178031316574588,0.0,0.0,0.0,0.0,0.0,0.0,0.13675805443561403,0.005664735422360001,0.006261843832263616,0.0,0.58,0.92,0.0,0.0,0.0,8.90620649921979,8.90620649921979,8.003817001955046,8.003817001955046,7.000000000000002,7.000000000000002,7.000000000000002,7.000000000000002,1.1051609716508792,1.1051609716508792,1.2985909610710071,1.2985909610710071,1.3061824001404085,1.3061824001404085,1.1140712506485173,1.1140712506485173,0.0,0.0,0.0,0.0,0.0,0.0
81.0,1.600000000000001,0.19289818509037296,0.017389491697487436,0.24858416458402488,0.19296676438719138,0.017024798206009793,0.24858416458402444,6.857929681841624e-05,-0.0003646934914776426,-4.440892098500626e-16,0.00037108551935943523,0.13594872756438423,0.0069866118353372345,0.007028246314516597,min_task,none,false,false,8.93967974529984,8.93967974529984,8.094318310420388,8.094318310420388,7.0,7.0,7.0,7.0,0.0,0.0,0.0,0.0,0.0,0.0,-0.3386668233943228,0.6080399030224514,0.08009785425834566,0.0,0.0,0.0,0.0,0.0,0.0,0.13594872756438423,0.0069866118353372345,0.007028246314516597,0.0,0.58,0.92,0.0,0.0,0.0,8.93967974529984,8.93967974529984,8.094318310420388,8.094318310420388,7.0,7.0,7.0,7.0,1.104664039888527,1.104664039888527,1.2971048020132088,1.2971048020132088,1.3064489026156132,1.3064489026156132,1.1156211313715132,1.1156211313715132,0.0,0.0,0.0,0.0,0.0,0.0
82.0,1.620000000000001,0.19199182852101276,0.01891549301434959,0.24858416458402485,0.19211494146200386,0.018500198791486497,0.24858416458402444,0.00012311294099109915,-0.00041529422286309264,-4.163336342344337e-16,0.0004331582710545164,0.13504937885006785,0.008474322227382381,0.007700654465661059,min_task,none,false,false,8.966424007393124,8.966424007393124,8.166290698623653,8.166290698623653,7.0,7.0,7.0,7.0,0.0,0.0,0.0,0.0,0.0,0.0,-0.3459777941548409,0.6223533547498303,-0.012955375026234332,0.0,0.0,0.0,0.0,0.0,0.0,0.13504937885006785,0.008474322227382381,0.007700654465661059,0.0,0.58,0.92,0.0,0.0,0.0,8.966424007393124,8.966424007393124,8.166290698623653,8.166290698623653,7.0,7.0,7.0,7.0,1.1041032379211526,1.1041032379211526,1.2954439765148418,1.2954439765148418,1.306756257920247,1.306756257920247,1.1173543669369688,1.1173543669369688,0.0,0.0,0.0,0.0,0.0,0.0
83.0,1.640000000000001,0.19099969279637652,0.02058063014352425,0.24858416458402463,0.19117226848119137,0.020132956289176156,0.24858416458402444,0.00017257568481485186,-0.00044767385434809487,-1.942890293094024e-16,0.0004797856259374538,0.1340587405824257,0.010131296054727812,0.007844016916730489,min_task,none,false,false,8.999361646188389,8.999361646188389,8.235936886720054,8.235936886720054,7.0,7.0,7.0,7.0,0.0,0.0,0.0,0.0,0.0,0.0,-0.35126960927427053,0.6369438589397975,-0.0927605899813289,0.0,0.0,0.0,0.0,0.0,0.0,0.1340587405824257,0.010131296054727812,0.007844016916730489,0.0,0.58,0.92,0.0,0.0,0.0,8.999361646188389,8.999361646188389,8.235936886720054,8.235936886720054,7.0,7.0,7.0,7.0,1.103483951321085,1.103483951321085,1.293611743058627,1.293611743058627,1.3070994087371246,1.3070994087371246,1.1192650952142464,1.1192650952142464,0.0,0.0,0.0,0.0,0.0,0.0
84.0,1.660000000000001,0.18991761886183994,0.0224071449328858,0.24858416458402463,0.19013927877912887,0.021922146936843856,0.24858416458402444,0.00022165991728892442,-0.00048499799604194427,-1.942890293094024e-16,0.000533250574399348,0.13297589249953415,0.011962030246535364,0.007769916052633345,min_task,none,false,false,9.0559834573614,9.0559834573614,8.324981794693958,8.324981794693958,6.999999999999998,6.999999999999998,6.999999999999998,6.999999999999998,0.0,0.0,0.0,0.0,0.0,0.0,-0.35605263758310957,0.6596305094453242,-0.08367363138713568,0.0,0.0,0.0,0.0,0.0,0.0,0.13297589249953415,0.011962030246535364,0.007769916052633345,0.0,0.58,0.92,0.0,0.0,0.0,9.0559834573614,9.0559834573614,8.324981794693958,8.324981794693958,6.999999999999998,6.999999999999998,6.999999999999998,6.999999999999998,1.1027991344448989,1.1027991344448989,1.2916000185767145,1.2916000185767145,1.3074867678680187,1.3074867678680187,1.1213638887956965,1.1213638887956965,0.0,0.0,0.0,0.0,0.0,0.0
85.0,1.680000000000001,0.18874416480238132,0.02440504754562488,0.2485841645840249,0.18901719459519134,0.023865653753793077,0.24858416458402444,0.00027302979281002004,-0.0005393937918318041,-4.718447854656915e-16,0.0006045584590662627,0.1318012883974015,0.013966204283178888,0.007659779585620036,min_task,none,false,false,9.033002266769545,9.033002266769545,8.306305087999636,8.306305087999636,6.999999999999999,6.999999999999999,6.999999999999999,6.999999999999999,0.0,0.0,0.0,0.0,0.0,0.0,-0.3518743124217041,0.6443564299332257,-0.09639201314503434,0.0,0.0,0.0,0.0,0.0,0.0,0.1318012883974015,0.013966204283178888,0.007659779585620036,0.0,0.58,0.92,0.0,0.0,0.0,9.033002266769545,9.033002266769545,8.306305087999636,8.306305087999636,6.999999999999999,6.999999999999999,6.999999999999999,6.999999999999999,1.102046932329286,1.102046932329286,1.2894068230463136,1.2894068230463136,1.3079224101895564,1.3079224101895564,1.123654091263882,1.123654091263882,0.0,0.0,0.0,0.0,0.0,0.0
86.0,1.700000000000001,0.18748124565332847,0.02656865599004579,0.24858416458402463,0.18780788880125385,0.025960232830780253,0.24858416458402444,0.00032664314792538174,-0.0006084231592655351,-1.942890293094024e-16,0.0006905609942773031,0.1305368757851503,0.016137962712662636,0.007516655832686809,min_task,none,false,false,9.003706311600002,9.003706311600002,8.270204699049772,8.270204699049772,7.000000000000001,7.000000000000001,7.000000000000001,7.000000000000001,0.0,0.0,0.0,0.0,0.0,0.0,-0.3447305036129257,0.6238522253286838,-0.11129136855079887,0.0,0.0,0.0,0.0,0.0,0.0,0.1305368757851503,0.016137962712662636,0.007516655832686809,0.0,0.58,0.92,0.0,0.0,0.0,9.003706311600002,9.003706311600002,8.270204699049772,8.270204699049772,7.000000000000001,7.000000000000001,7.000000000000001,7.000000000000001,1.1012315035789537,1.1012315035789537,1.2870375415335926,1.2870375415335926,1.3084050194779497,1.3084050194779497,1.1261300485081744,1.1261300485081744,0.0,0.0,0.0,0.0,0.0,0.0
87.0,1.720000000000001,0.1861315415922285,0.02889099357933134,0.24858416458402474,0.18651384662919135,0.0282015796199293,0.24858416458402444,0.0003823050369628489,-0.0006894139594020403,-3.0531133177191805e-16,0.0007883202069626043,0.12918531891113638,0.018470420452761312,0.0073389387700223165,min_task,none,false,false,8.973572006333926,8.973572006333926,8.22407851720575,8.22407851720575,6.999999999999999,6.999999999999999,6.999999999999999,6.999999999999999,0.0,0.0,0.0,0.0,0.0,0.0,-0.33521735823340104,0.6007097492579372,-0.12523630080725248,0.0,0.0,0.0,0.0,0.0,0.0,0.12918531891113638,0.018470420452761312,0.0073389387700223165,0.0,0.58,0.92,0.0,0.0,0.0,8.973572006333926,8.973572006333926,8.22407851720575,8.22407851720575,6.999999999999999,6.999999999999999,6.999999999999999,6.999999999999999,1.1003574212016167,1.1003574212016167,1.284498849675797,1.284498849675797,1.308933102791198,1.308933102791198,1.1287847567882987,1.1287847567882987,0.0,0.0,0.0,0.0,0.0,0.0
88.0,1.740000000000001,0.1846983486869268,0.03136442198328016,0.24858416458402455,0.18513812739837884,0.03058439522464614,0.24858416458402444,0.00043977871145203795,-0.0007800267586340233,-1.1102230246251565e-16,0.0008954591332001231,0.1277499044194495,0.020955996672755772,0.007125622091988355,min_task,none,false,false,8.942293126293329,8.942293126293329,8.168259509150317,8.168259509150317,6.999999999999998,6.999999999999998,6.999999999999998,6.999999999999998,0.0,0.0,0.0,0.0,0.0,0.0,-0.3234746645920087,0.5749577226235564,-0.13802831001988816,0.0,0.0,0.0,0.0,0.0,0.0,0.1277499044194495,0.020955996672755772,0.007125622091988355,0.0,0.58,0.92,0.0,0.0,0.0,8.942293126293329,8.942293126293329,8.168259509150317,8.168259509150317,6.999999999999998,6.999999999999998,6.999999999999998,6.999999999999998,1.0994293837076703,1.0994293837076703,1.281798344810555,1.281798344810555,1.3095052037150683,1.3095052037150683,1.1316102913802049,1.1316102913802049,0.0,0.0,0.0,0.0,0.0,0.0
89.0,1.7600000000000011,0.18318553623232325,0.03398065631732838,0.24858416458402466,0.18368432624319134,0.03310245268953323,0.24858416458402444,0.0004987900108680832,-0.0008782036277951502,-2.220446049250313e-16,0.0010099668741173373,0.12623449861921807,0.023586430193109083,0.006876293719337709,min_task,none,false,false,8.909634159672116,8.909634159672116,8.103150323000655,8.103150323000655,7.000000000000001,7.000000000000001,7.000000000000001,7.000000000000001,0.0,0.0,0.0,0.0,0.0,0.0,-0.30964679683047736,0.5466566034724636,-0.1495203509584279,0.0,0.0,0.0,0.0,0.0,0.0,0.12623449861921807,0.023586430193109083,0.006876293719337709,0.0,0.58,0.92,0.0,0.0,0.0,8.909634159672116,8.909634159672116,8.103150323000655,8.103150323000655,7.000000000000001,7.000000000000001,7.000000000000001,7.000000000000001,1.0984522119347315,1.0984522119347315,1.2789445008583653,1.2789445008583653,1.3101198589040999,1.3101198589040999,1.1345978451959748,1.1345978451959748,0.0,0.0,0.0,0.0,0.0,0.0
90.0,1.7800000000000011,0.18159750353934107,0.03673078761911428,0.24858416458402469,0.1821565358405038,0.0357486632903041,0.24858416458402444,0.0005590323011627485,-0.0009821243288101814,-2.498001805406602e-16,0.0011300819930359775,0.12464350399251475,0.026352803347068486,0.006591111387312294,min_task,none,false,false,8.875426425973599,8.875426425973599,8.029215464618206,8.029215464618206,6.999999999999999,6.999999999999999,6.999999999999999,6.999999999999999,0.0,0.0,0.0,0.0,0.0,0.0,-0.29388158249508856,0.5158960138269705,-0.15961783250454972,0.0,0.0,0.0,0.0,0.0,0.0,0.12464350399251475,0.026352803347068486,0.006591111387312294,0.0,0.58,0.92,0.0,0.0,0.0,8.875426425973599,8.875426425973599,8.029215464618206,8.029215464618206,6.999999999999999,6.999999999999999,6.999999999999999,6.999999999999999,1.0974308395528964,1.0974308395528964,1.2759466171531748,1.2759466171531748,1.310775558445082,1.310775558445082,1.1377377740033776,1.1377377740033776,0.0,0.0,0.0,0.0,0.0,0.0
91.0,1.8000000000000012,0.17993913642629955,0.0396053120506722,0.2485841645840248,0.18055930813719132,0.038515142823697904,0.24858416458402444,0.0006201717108917648,-0.0010901692269742955,-3.608224830031759e-16,0.0012542256154425134,0.12298181521826825,0.029245573504942494,0.006270761732170858,min_task,none,false,false,8.839563191149065,8.839563191149065,7.946973637580674,7.946973637580674,6.999999999999997,6.999999999999997,6.999999999999997,6.999999999999997,0.0,0.0,0.0,0.0,0.0,0.0,-0.2763293706892188,0.4827919208364324,-0.16827682560482227,0.0,0.0,0.0,0.0,0.0,0.0,0.12298181521826825,0.029245573504942494,0.006270761732170858,0.0,0.58,0.92,0.0,0.0,0.0,8.839563191149065,8.839563191149065,7.946973637580674,7.946973637580674,6.999999999999997,6.999999999999997,6.999999999999997,6.999999999999997,1.0963702979768977,1.0963702979768977,1.2728147619801289,1.2728147619801289,1.311470710308234,1.311470710308234,1.1410196474942065,1.1410196474942065,0.0,0.0,0.0,0.0,0.0,0.0
92.0,1.8200000000000012,0.17821576360130745,0.04259416615346116,0.24858416458402477,0.1788976160776288,0.041393277897393936,0.24858416458402444,0.000681852476321354,-0.001200888256067227,-3.3306690738754696e-16,0.0013809617674018888,0.12125477493663894,0.0322546114109092,0.005916406001490388,min_task,none,false,false,8.801994128973304,8.801994128973304,7.856990326647904,7.856990326647904,7.000000000000001,7.000000000000001,7.000000000000001,7.000000000000001,0.0,0.0,0.0,0.0,0.0,0.0,-0.25714225920271205,0.4474836748986291,-0.17549974944065488,0.0,0.0,0.0,0.0,0.0,0.0,0.12125477493663894,0.0322546114109092,0.005916406001490388,0.0,0.58,0.92,0.0,0.0,0.0,8.801994128973304,8.801994128973304,7.856990326647904,7.856990326647904,7.000000000000001,7.000000000000001,7.000000000000001,7.000000000000001,1.0952756964887975,1.0952756964887975,1.2695597115762196,1.2695597115762196,1.3122036091019214,1.3122036091019214,1.1444323054692378,1.1444323054692378,0.0,0.0,0.0,0.0,0.0,0.0
93.0,1.8400000000000012,0.17643311307635218,0.04568676748847014,0.24858416458402463,0.1771768153311913,0.04437379221992615,0.24858416458402444,0.0007437022548391348,-0.0013129752685439935,-1.942890293094024e-16,0.001508972199764126,0.11946812943629341,0.035369245459486075,0.005529616003608349,min_task,none,false,false,8.76271942791108,8.76271942791108,7.759870715943392,7.759870715943392,7.0,7.0,7.0,7.0,0.0,0.0,0.0,0.0,0.0,0.0,-0.23647345001351258,0.4101309985111102,-0.1813289563916179,0.0,0.0,0.0,0.0,0.0,0.0,0.11946812943629341,0.035369245459486075,0.005529616003608349,0.0,0.58,0.92,0.0,0.0,0.0,8.76271942791108,8.76271942791108,7.759870715943392,7.759870715943392,7.0,7.0,7.0,7.0,1.0941521984240454,1.0941521984240454,1.266192885333044,1.266192885333044,1.3129724092987374,1.3129724092987374,1.147963918434671,1.147963918434671,0.0,0.0,0.0,0.0,0.0,0.0
94.0,1.8600000000000012,0.17459726871686287,0.04887206001076737,0.248584164584025,0.1754026060197538,0.04744681289059769,0.24858416458402444,0.0008053373028909239,-0.0014252471201696773,-5.551115123125783e-16,0.0016370392557845356,0.11762798441303751,0.03857831104158014,0.005112304164404388,min_task,none,false,false,8.721783798945534,8.721783798945534,7.65625304098458,7.65625304098458,7.000000000000001,7.000000000000001,7.000000000000001,7.000000000000001,0.0,0.0,0.0,0.0,0.0,0.0,-0.2144767115317609,0.37091101099495644,-0.18583874047786858,0.0,0.0,0.0,0.0,0.0,0.0,0.11762798441303751,0.03857831104158014,0.005112304164404388,0.0,0.58,0.92,0.0,0.0,0.0,8.721783798945534,8.721783798945534,7.65625304098458,7.65625304098458,7.000000000000001,7.000000000000001,7.000000000000001,7.000000000000001,1.093004994297924,1.093004994297924,1.2627262779110722,1.2627262779110722,1.3137751030514138,1.3137751030514138,1.1516020519393004,1.1516020519393004,0.0,0.0,0.0,0.0,0.0,0.0
95.0,1.8800000000000012,0.17271462700236095,0.052138563554402245,0.24858416458402488,0.1735809944451913,0.0506019366893955,0.24858416458402444,0.0008663674428303347,-0.001536626865006746,-4.440892098500626e-16,0.001764033635806538,0.11574076092003392,0.041870204115631214,0.004666651575197038,min_task,none,false,false,8.67927060012809,8.67927060012809,7.54680247556855,7.54680247556855,6.999999999999999,6.999999999999999,6.999999999999999,6.999999999999999,0.0,0.0,0.0,0.0,0.0,0.0,-0.19130593286749806,0.3300153649659276,-0.18912634900643288,0.0,0.0,0.0,0.0,0.0,0.0,0.11574076092003392,0.041870204115631214,0.004666651575197038,0.0,0.58,0.92,0.0,0.0,0.0,8.67927060012809,8.67927060012809,7.54680247556855,7.54680247556855,6.999999999999999,6.999999999999999,6.999999999999999,6.999999999999999,1.0918392727511168,1.0918392727511168,1.2591723889323647,1.2591723889323647,1.314609502665647,1.314609502665647,1.155333734022715,1.155333734022715,0.0,0.0,0.0,0.0,0.0,0.0
96.0,1.9000000000000012,0.1707918540523698,0.055474426837474576,0.24858416458402469,0.1717182548168788,0.05382829636690471,0.24858416458402444,0.0009264007645090055,-0.0016461304705698634,-2.498001805406602e-16,0.001888905477418452,0.11381315160560684,0.04523293820476202,0.00419503771151695,min_task,none,false,false,8.635296255587301,8.635296255587301,7.432205648401591,7.432205648401591,7.000000000000001,7.000000000000001,7.000000000000001,7.000000000000001,0.0,0.0,0.0,0.0,0.0,0.0,-0.16711476032152706,0.28764755974110695,-0.19130258548931167,0.0,0.0,0.0,0.0,0.0,0.0,0.11381315160560684,0.04523293820476202,0.00419503771151695,0.0,0.58,0.92,0.0,0.0,0.0,8.635296255587301,8.635296255587301,7.432205648401591,7.432205648401591,7.000000000000001,7.000000000000001,7.000000000000001,7.000000000000001,1.090660190174419,1.090660190174419,1.2555441508649878,1.2555441508649878,1.3154732277443464,1.3154732277443464,1.1591455251917877,1.1591455251917877,0.0,0.0,0.0,0.0,0.0,0.0
97.0,1.9200000000000013,0.16883584295538356,0.0588674834369434,0.2485841645840246,0.16982089097919129,0.05711462693422334,0.24858416458402444,0.000985048023807722,-0.001752856502720064,-1.6653345369377348e-16,0.0020106778778152187,0.11185207731319782,0.04865420408273089,0.003699975110697797,min_task,none,false,false,8.590005110482753,8.590005110482753,7.31316587134558,7.31316587134558,7.000000000000001,7.000000000000001,7.000000000000001,7.000000000000001,0.0,0.0,0.0,0.0,0.0,0.0,-0.14205630948092796,0.24402048510081178,-0.1924825585220145,0.0,0.0,0.0,0.0,0.0,0.0,0.11185207731319782,0.04865420408273089,0.003699975110697797,0.0,0.58,0.92,0.0,0.0,0.0,8.590005110482753,8.590005110482753,7.31316587134558,7.31316587134558,7.000000000000001,7.000000000000001,7.000000000000001,7.000000000000001,1.0894728398353943,1.0894728398353943,1.2518548556496514,1.2518548556496514,1.3163636969658215,1.3163636969658215,1.1630235903948443,1.1630235903948443,0.0,0.0,0.0,0.0,0.0,0.0
98.0,1.9400000000000013,0.16685367142600538,0.06230531022703489,0.24858416458402477,0.1678955981390038,0.060449331952876696,0.24858416458402444,0.0010419267129984089,-0.0018559782741581904,-3.3306690738754696e-16,0.0021284423011693043,0.10986464409860967,0.052121431486197745,0.00318405175816203,min_task,none,false,false,8.543564827400969,8.543564827400969,7.190399141023986,7.190399141023986,6.999999999999997,6.999999999999997,6.999999999999997,6.999999999999997,0.0,0.0,0.0,0.0,0.0,0.0,-0.11628294800652375,0.19935423574171987,-0.19277706489857835,0.0,0.0,0.0,0.0,0.0,0.0,0.10986464409860967,0.052121431486197745,0.00318405175816203,0.0,0.58,0.92,0.0,0.0,0.0,8.543564827400969,8.543564827400969,7.190399141023986,7.190399141023986,6.999999999999997,6.999999999999997,6.999999999999997,6.999999999999997,1.0882822212759897,1.0882822212759897,1.2481180805499743,1.2481180805499743,1.3172781244091876,1.3172781244091876,1.1669537725191332,1.1669537725191332,0.0,0.0,0.0,0.0,0.0,0.0
99.0,1.9600000000000013,0.1648525598053308,0.06577528782275063,0.24858416458402469,0.16594922459319128,0.06382054982473194,0.24858416458402444,0.0010966647878604685,-0.0019547379980186935,-2.498001805406602e-16,0.0022413554599463193,0.10785810070184547,0.055621852274530606,0.0026498832948798423,min_task,none,false,false,8.496162395627211,8.496162395627211,7.06463095126736,7.06463095126736,7.0,7.0,7.0,7.0,0.0,0.0,0.0,0.0,0.0,0.0,-0.08994614477246976,0.1538742233840714,-0.19228500461730194,0.0,0.0,0.0,0.0,0.0,0.0,0.10785810070184547,0.055621852274530606,0.0026498832948798423,0.0,0.58,0.92,0.0,0.0,0.0,8.496162395627211,8.496162395627211,7.06463095126736,7.06463095126736,7.0,7.0,7.0,7.0,1.087093210681758,1.087093210681758,1.2443476136352523,1.2443476136352523,1.3182135202959215,1.3182135202959215,1.1709216669963844,1.1709216669963844,0.0,0.0,0.0,0.0,0.0,0.0
100.0,1.9800000000000013,0.162839829768475,0.06926465736141933,0.2485841645840246,0.16398873345612877,0.06721622008191266,0.24858416458402444,0.001148903687653774,-0.002048437279506668,-1.6653345369377348e-16,0.002348632574835221,0.1058397936263741,0.05914257745015953,0.0020997578506309358,min_task,none,false,false,8.460365846066619,8.460365846066619,6.999999999999999,6.999999999999999,6.999999999999999,6.999999999999999,7.063592743623972,7.063592743623972,0.0,0.0,0.0,0.0,0.0,0.0,-0.06321283061682531,0.10790193786730781,-0.19270724259388028,0.0,0.0,0.0,0.0,0.0,0.0,0.1058397936263741,0.05914257745015953,0.0020997578506309358,0.0,0.58,0.92,0.0,0.0,0.0,8.460365846066619,8.460365846066619,6.999999999999999,6.999999999999999,6.999999999999999,6.999999999999999,7.063592743623972,7.063592743623972,1.0859105273012788,1.0859105273012788,1.2405573749839574,1.2405573749839574,1.3191667009327321,1.3191667009327321,1.1749127020874373,1.1749127020874373,0.0,0.0,0.0,0.0,0.0,0.0
101.0,2.0000000000000013,0.160822861429211,0.07276058626261425,0.2485841645840246,0.16202116438719127,0.07062414967671343,0.24858416458402444,0.0011983029579802629,-0.0021364365859008194,-1.6653345369377348e-16,0.002449549196215458,0.10381712416281523,0.06267066353518996,0.001535625315560644,min_task,none,false,false,8.437156162154825,8.437156162154825,7.0,7.0,7.0,7.0,7.193559800487701,7.193559800487701,0.0,0.0,0.0,0.0,0.0,0.0,-0.036221943257600156,0.06162179366750306,-0.19310179296098748,0.0,0.0,0.0,0.0,0.0,0.0,0.10381712416281523,0.06267066353518996,0.001535625315560644,0.0,0.58,0.92,0.0,0.0,0.0,8.437156162154825,8.437156162154825,7.0,7.0,7.0,7.0,7.193559800487701,7.193559800487701,1.0847387063930627,1.0847387063930627,1.2367613405883204,1.2367613405883204,1.3201342993855776,1.3201342993855776,1.1789122172527204,1.1789122172527204,0.0,0.0,0.0,0.0,0.0,0.0
102.0,2.0200000000000014,0.15880905110563692,0.0762502446019872,0.248584164584025,0.16005359531825375,0.07403207927151417,0.24858416458402444,0.0012445442126168271,-0.002218165330473032,-5.551115123125783e-16,0.0025434519320149482,0.1017975124519145,0.0661931534586281,0.0009597199031066212,min_task,none,false,false,8.414078528467325,8.414078528467325,7.000000000000001,7.000000000000001,7.000000000000001,7.000000000000001,7.324371201465215,7.324371201465215,0.0,0.0,0.0,0.0,0.0,0.0,-0.00909794995869153,0.015142754022181654,-0.19134907637471948,0.0,0.0,0.0,0.0,0.0,0.0,0.1017975124519145,0.0661931534586281,0.0009597199031066212,0.0,0.58,0.92,0.0,0.0,0.0,8.414078528467325,8.414078528467325,7.000000000000001,7.000000000000001,7.000000000000001,7.000000000000001,7.324371201465215,7.324371201465215,1.0835820860024614,1.0835820860024614,1.2329734755639574,1.2329734755639574,1.321112769503148,1.321112769503148,1.182905531057091,1.182905531057091,0.0,0.0,0.0,0.0,0.0,0.0
103.0,2.0400000000000014,0.15680577194405898,0.07972087112510307,0.2485841645840246,0.15809310418119127,0.0774277495286949,0.24858416458402444,0.0012873322371322882,-0.002293121596408168,-1.6653345369377348e-16,0.002629758723661463,0.09978836106397107,0.0696971253949897,0.00037486119079843715,min_task,none,false,false,8.391191257586355,8.391191257586355,6.999999999999998,6.999999999999998,6.999999999999998,6.999999999999998,7.455325221109358,7.455325221109358,0.0,0.0,0.0,0.0,0.0,0.0,0.01801453480289006,-0.0313209267235718,-0.18736772244251082,0.0,0.0,0.0,0.0,0.0,0.0,0.09978836106397107,0.0696971253949897,0.00037486119079843715,0.0,0.58,0.92,0.0,0.0,0.0,8.391191257586355,8.391191257586355,6.999999999999998,6.999999999999998,6.999999999999998,6.999999999999998,7.455325221109358,7.455325221109358,1.0824447948440181,1.0824447948440181,1.2292076674268797,1.2292076674268797,1.3220983938466737,1.3220983938466737,1.1868780085736836,1.1868780085736836,0.0,0.0,0.0,0.0,0.0,0.0
104.0,2.0600000000000014,0.1548203347989935,0.08315983168602738,0.248584164584025,0.15614673063537876,0.08079896740055015,0.24858416458402444,0.0013263958363852746,-0.0023608642854772294,-5.551115123125783e-16,0.0027079523794228916,0.09779701523135954,0.07316975423796851,-0.00021559944452243716,min_task,none,false,false,8.368574594209727,8.368574594209727,6.999999999999999,6.999999999999999,6.999999999999999,6.999999999999999,7.5856828092798,7.5856828092798,0.0,0.0,0.0,0.0,0.0,0.0,0.04496951124189075,-0.0775420504582673,-0.18115068000561027,0.0,0.0,0.0,0.0,0.0,0.0,0.09779701523135954,0.07316975423796851,-0.00021559944452243716,0.0,0.58,0.92,0.0,0.0,0.0,8.368574594209727,8.368574594209727,6.999999999999999,6.999999999999999,6.999999999999999,6.999999999999999,7.5856828092798,7.5856828092798,1.0813307387962068,1.0813307387962068,1.2254776558676597,1.2254776558676597,1.3230872985072213,1.3230872985072213,1.190815133052059,1.190815133052059,0.0,0.0,0.0,0.0,0.0,0.0
