LordTarzan10086/HCDR_ML/scripts/results/ik_20260317_220003/ik_platform_mode1.csv
step,mode_id,tip_x,tip_y,tip_z,target_x,target_y,target_z,tip_err,a2d_rank,sigma_min,tension_feasible,residual_x,residual_y,residual_z,q_1,q_2,q_3,q_4,q_5,q_6,q_7,q_8,q_9,qm_1,qm_2,qm_3,qm_4,qm_5,qm_6,L_1,Tfeas_1,L_2,Tfeas_2,L_3,Tfeas_3,L_4,Tfeas_4,L_5,Tfeas_5,L_6,Tfeas_6,L_7,Tfeas_7,L_8,Tfeas_8
1,1,0.0570355193772182,-0.00371489804936866,0.285124963237541,-0.333,0.31,0.2851,0.500544447833702,2,0,1,0,8.88178419700125e-16,0,0,0,0,0,0,0,0,0,0,0,0,0,0,0,0,1.20208152801713,5.00000000040405,1.20208152801713,5.00000000040405,1.20208152801713,5.00000000040405,1.20208152801713,5.00000000040405,1.20208152801713,5.00000000040405,1.20208152801713,5.00000000040405,1.20208152801713,5.00000000040405,1.20208152801713,5.00000000040405
2,1,0.0420427149875597,0.0113972781131119,0.285124963237541,-0.333,0.31,0.2851,0.47939610366237,3,0.00138799812332099,0,0,-8.88178419700125e-16,-0.0198041851896953,-0.015,0.015,0.00196665256873371,0,0,0,0,0,0,0,0,0,0,0,0,1.20227653232442,5,1.20227653232442,5,1.1808688085099,5.17644413599614,1.1808688085099,5.17644413599614,1.2022618102787,5.00006239305013,1.2022618102787,5.00006239305013,1.22329521282521,5.00000000000003,1.22329521282521,5.00000000000003
3,1,0.0270493289949582,0.0265035733425026,0.285124963237541,-0.333,0.31,0.2851,0.45826383651828,3,0.0027017459613837,0,-8.88178419700125e-16,1.77635683940025e-15,-0.0388961691739251,-0.03,0.03,0.00382997616126057,0,0,0,0,0,0,0,0,0,0,0,0,1.20286048235537,5,1.20286048235537,5,1.15965696160181,5.35272968849625,1.15965696160181,5.35272968849625,1.20280316810669,5.00024801435048,1.20280316810669,5.00024801435048,1.24450975593932,5,1.24450975593932,5
4,1,0.0120553958749563,0.0416040112340812,0.285124963237541,-0.333,0.31,0.2851,0.437149440845143,3,0.0039403987087831,0,3.19744231092045e-14,2.22044604925031e-14,-0.0572447719565997,-0.045,0.045,0.00559042676054092,0,0,0,0,0,0,0,0,0,0,0,0,1.20383151502746,5.00000000000184,1.20383151502746,5.00000000000184,1.13844585023809,5.52869879837976,1.13844585023809,5.52869879837976,1.20370612489124,5.00055514155639,1.20370612489124,5.00055514155639,1.26572500873991,5.00000000000201,1.26572500873991,5.00000000000201
5,1,-0.0029390517935533,0.056698617270379,0.285124963237541,-0.333,0.31,0.2851,0.416055069247858,3,0.00510329913131618,0,2.66453525910038e-15,1.77635683940025e-15,-0.0748198170672384,-0.06,0.06,0.00724848924730058,0,0,0,0,0,0,0,0,0,0,0,0,1.20518741506778,5.00000000003113,1.20518741506778,5.00000000003113,1.11723534511906,5.7041951223472,1.11723534511906,5.7041951223472,1.20497087881078,5.00098274613282,1.20497087881078,5.00098274613282,1.28694083307528,5.00000000000013,1.28694083307528,5.00000000000013
6,1,-0.0179339833179634,0.0717874187649568,0.285124963237541,-0.333,0.31,0.2851,0.394983327938928,3,0.00618998377803736,0,-8.88178419700125e-16,1.77635683940025e-15,-0.0915922432357287,-0.075,0.075,0.00880467672225167,0,0,0,0,0,0,0,0,0,0,0,0,1.20692562400619,5,1.20692562400619,5,1.09602532466554,5.87906459918401,1.09602532466554,5.87906459918401,1.20659730283806,5.00153033750966,1.20659730283806,5.00153033750966,1.30815710095944,5,1.30815710095944,5
7,1,-0.0329293698786913,0.0868704448074846,0.285124963237541,-0.333,0.31,0.2851,0.373937403966188,3,0.00720018627632013,0,0,3.5527136788005e-15,-0.107534207740836,-0.09,0.09,0.0102595298340043,0,0,0,0,0,0,0,0,0,0,0,0,1.20904325067417,5,1.20904325067417,5,1.0748156749736,6.05315617424248,1.0748156749736,6.05315617424248,1.20858494621468,5.00219780898985,1.20858494621468,5.00219780898985,1.32937369428183,5,1.32937369428183,5
8,1,-0.0479251845131492,0.101947726210157,0.285124963237541,-0.333,0.31,0.2851,0.352921237214692,3,0.0081338377015736,0,2.66453525910038e-15,-1.86517468137026e-14,-0.122619180553278,-0.105,0.105,0.0116136161131781,0,0,0,0,0,0,0,0,0,0,0,0,1.21153708310436,5.00000000000328,1.21153708310436,5.00000000000328,1.05360628975924,6.22632247521952,1.05360628975924,6.22632247521952,1.21093303737281,5.00298528439054,1.21093303737281,5.00298528439054,1.35059050452671,5.00000000005797,1.35059050452671,5.00000000005797
9,1,-0.0629214020970692,0.117019295455471,0.285124963237541,-0.333,0.31,0.2851,0.331939756574712,3,0.00899106410202738,0,0,2.66453525910038e-15,-0.13682202856477,-0.12,0.12,0.0128675293131665,0,0,0,0,0,0,0,0,0,0,0,0,1.21440360171253,5.00000000000009,1.21440360171253,5.00000000000009,1.03239707029364,6.39842043277364,1.03239707029364,6.39842043277364,1.21364048826796,5.00389296642151,1.21364048826796,5.00389296642151,1.37180743250092,5.00000000000354,1.37180743250092,5.00000000000354
10,1,-0.077917999323307,0.132085186645384,0.285124963237541,-0.333,0.31,0.2851,0.310999209811529,3,0.00977218134066001,0,-1.77635683940025e-15,-2.66453525910038e-15,-0.15011908937005,-0.135,0.135,0.0140218887579531,0,0,0,0,0,0,0,0,0,0,0,0,1.21763899363261,5.00000000000001,1.21763899363261,5.00000000000001,1.01118792532946,6.56931184178189,1.01118792532946,6.56931184178189,1.21670590007247,5.00492098613793,1.21670590007247,5.00492098613793,1.39302438806852,5.00000000000046,1.39302438806852,5.00000000000046
11,1,-0.0929149546782455,0.147145435451866,0.285124963237541,-0.333,0.31,0.2851,0.290107633137211,3,0.0104776874874062,0,8.88178419700125e-16,-8.88178419700125e-16,-0.162488234210077,-0.15,0.15,0.0150773386973267,0,0,0,0,0,0,0,0,0,0,0,0,1.22123916806741,5,1.22123916806741,5,0.989978771018918,6.73886385684445,0.989978771018918,6.73886385684445,1.22012757016613,5.00606925336995,1.22012757016613,5.00606925336995,1.41424128989128,5.00000000000005,1.41424128989128,5.00000000000005
12,1,-0.107912248415921,0.162200079068843,0.285124963237541,-0.333,0.31,0.2851,0.269275533912005,3,0.0111082530525113,0,0,-1.77635683940025e-15,-0.173908919903248,-0.165,0.165,0.0160345476697914,0,0,0,0,0,0,0,0,0,0,0,0,1.22519977251082,5,1.22519977251082,5,0.968769530824126,6.9069494204603,0.968769530824126,6.9069494204603,1.22390350034864,5.00733730786254,1.22390350034864,5.00733730786254,1.43545806517398,5,1.43545806517398,5
13,1,-0.12290986252999,0.177249156165542,0.285124963237541,-0.333,0.31,0.2851,0.248516906918003,3,0.011664709394636,0,-8.88178419700125e-16,-8.88178419700125e-16,-0.18436222972401,-0.18,0.18,0.0168942078734175,0,0,0,0,0,0,0,0,0,0,0,0,1.22951620969375,5,1.22951620969375,5,0.947560135420406,7.07344762015907,0.947560135420406,7.07344762015907,1.22803140618759,5.00872417052048,1.22803140618759,5.00872417052048,1.45667464941381,5,1.45667464941381,5
14,1,-0.137907780723652,0.19229270684122,0.285124963237541,-0.333,0.31,0.2851,0.227850787815406,3,0.0121480356643263,0,0,0,-0.193830903367788,-0.195,0.195,0.0176570345448367,0,0,0,0,0,0,0,0,0,0,0,0,1.2341836551047,5,1.2341836551047,5,0.926350522593198,7.2382439732422,0.926350522593198,7.2382439732422,1.23250872740673,5.01022819400964,1.23250872740673,5.01022819400964,1.47789098615312,5,1.47789098615312,5
15,1,-0.152905988377648,0.206415969349513,0.285124963237541,-0.333,0.31,0.2851,0.207758285156564,3,0.0125608115523205,0,-1.77635683940025e-15,0,-0.202353139794304,-0.21,0.209085196768248,0.0183237653465344,0,0,0,0,0,0,0,0,0,0,0,0,1.23966777529027,5,1.23966777529027,5,0.905790501477445,7.39819596378244,0.905790501477445,7.39819596378244,1.23655104889014,5.01978387919172,1.23655104889014,5.01978387919172,1.49845862706905,5,1.49845862706905,5
16,1,-0.167904457488809,0.218844594363169,0.285124963237541,-0.333,0.31,0.2851,0.188589095010934,3,0.0129097724479789,0,2.66453525910038e-15,8.88178419700125e-16,-0.210050267266097,-0.225,0.221480872705636,0.0189008597332066,0,0,0,0,0,0,0,0,0,0,0,0,1.24631463221639,5.00000000000006,1.24631463221639,5.00000000000006,0.886433579872828,7.55161475277506,0.886433579872828,7.55161475277506,1.23946429177705,5.04516238719097,1.23946429177705,5.04516238719097,1.51782983286695,5.00000000000089,1.51782983286695,5.00000000000089
17,1,-0.182903149845788,0.22978191992623,0.285124963237541,-0.333,0.31,0.2851,0.170188147119889,3,0.0132033292389181,0,0,2.66453525910038e-15,-0.217051441213365,-0.24,0.232389723717489,0.0193995715992686,0,0,0,0,0,0,0,0,0,0,0,0,1.25395568401784,5,1.25395568401784,5,0.868143406712806,7.70045686716167,0.868143406712806,7.70045686716167,1.24138266011881,5.086031648502,1.24138266011881,5.086031648502,1.53615194290974,5,1.53615194290974,5
18,1,-0.197902033152243,0.239406885726445,0.285124963237541,-0.333,0.31,0.2851,0.152429816808918,3,0.0134487058839289,0,-1.77635683940025e-15,8.88178419700125e-16,-0.223470749842964,-0.255,0.241990124003997,0.0198298102733588,0,0,0,0,0,0,0,0,0,0,0,0,1.26244845890615,5,1.26244845890615,5,0.850803766261649,7.84649929763654,0.850803766261649,7.84649929763654,1.24242836973833,5.14210276489314,1.24242836973833,5.14210276489315,1.5535563448553,5,1.5535563448553,5
19,1,-0.212901080006658,0.247876960634399,0.285124963237541,-0.333,0.31,0.2851,0.135214730065738,3,0.0136520890402158,0,2.66453525910038e-15,-8.88178419700125e-16,-0.229409078356505,-0.27,0.250439044501117,0.0202003004185392,0,0,0,0,0,0,0,0,0,0,0,0,1.27167237962683,5,1.27167237962683,5,0.834315545865218,7.99137785976126,0.834315545865218,7.99137785976126,1.24271219993709,5.21314887486919,1.24271219993709,5.21314887486919,1.57015980807874,5,1.57015980807874,5
20,1,-0.227311228704422,0.255330718969194,0.285124963237541,-0.333,0.31,0.2851,0.118990954654366,3,0.0138201891054847,0,1.51434420558871e-12,9.06830166513828e-13,-0.234852339945056,-0.284410961628264,0.257874621123802,0.0205187229479081,0,0,0,0,0,0,0,0,0,0,0,0,1.28100216197366,5.00000000149978,1.28100216197366,5.00000000149978,0.81899866671991,8.13143305458342,0.81899866671991,8.13143305458347,1.24260367518332,5.2926558351119,1.24260367518332,5.2926558351119,1.58564548890075,5.00000000018753,1.58564548890075,5.00000000018753
21,1,-0.239992316577436,0.261890107638804,0.285124963237541,-0.333,0.31,0.2851,0.104713855538802,3,0.0139606825112716,0,8.88178419700125e-16,1.77635683940025e-15,-0.239652201298629,-0.297092741739225,0.26441842417142,0.020791675668059,0,0,0,0,0,0,0,0,0,0,0,0,1.28932599341443,5,1.28932599341443,5,0.805549057322503,8.25703998283764,0.805549057322503,8.25703998283764,1.24268268278722,5.36684632149888,1.24268268278722,5.36684632149888,1.59928499137589,5,1.59928499137589,5
22,1,-0.251151812181902,0.267662441248149,0.285124963237541,-0.333,0.31,0.2851,0.0921498527038229,3,0.0140774581324867,0,5.24025267623074e-13,1.96287430753728e-13,-0.243868717336876,-0.308252824792268,0.270177455565622,0.0210246362216615,0,0,0,0,0,0,0,0,0,0,0,0,1.29673707299526,5.00000000111413,1.29673707299526,5.00000000111413,0.793737095994058,8.36960543800183,0.793737095994058,8.36960543800183,1.24288756447382,5.43564648180586,1.24288756447382,5.43564648180586,1.61129697971755,5.00000000065221,1.61129697971755,5.00000000065221
23,1,-0.260972290074232,0.272742157818981,0.285124963237541,-0.333,0.31,0.2851,0.0810933932222569,3,0.0141738321491508,0,1.77635683940025e-15,1.77635683940025e-15,-0.247557476743335,-0.318073799039856,0.275245877450839,0.0212224372057824,0,0,0,0,0,0,0,0,0,0,0,0,1.30332418472341,5,1.30332418472341,5,0.783361645783418,8.47038913827129,0.783361645783418,8.47038913827129,1.24317286161491,5.49908772395044,1.24317286161491,5.49908772395044,1.62187460250669,5,1.62187460250669,5
24,1,-0.269614417828684,0.277212363839805,0.285124963237541,-0.333,0.31,0.2851,0.0713635883019712,3,0.0142526376516193,0,6.21724893790088e-14,3.73034936274053e-14,-0.250769841356622,-0.326716343878225,0.279706553002438,0.0213893405778448,0,0,0,0,0,0,0,0,0,0,0,0,1.30917051623534,5.00000000007889,1.30917051623534,5.00000000007889,0.774246512020549,8.56052844383057,0.774246512020549,8.56052844383057,1.24350540874911,5.55728817850822,1.24350540874911,5.55728817850822,1.63118836459565,5.00000000004287,1.63118836459565,5.00000000004287
25,1,-0.277219584643304,0.281146193926551,0.285124963237541,-0.333,0.31,0.2851,0.062801253852554,3,0.0143162992625454,0,1.51878509768721e-13,9.68114477473137e-14,-0.253553157592924,-0.334321858731092,0.283632402314712,0.0215291038168463,0,0,0,0,0,0,0,0,0,0,0,0,1.31435306606785,5.00000000039031,1.31435306606785,5.00000000039031,0.766237331946603,8.6410561726124,0.766237331946603,8.6410561726124,1.24386132591203,5.61043412300524,1.24386132591203,5.61043412300524,1.63938870665652,5.00000000013867,1.63938870665652,5.00000000013867
26,1,-0.283912214540134,0.284608007338711,0.285124963237541,-0.333,0.31,0.2851,0.0552663061532793,3,0.0143668955007028,0,1.90070181815827e-13,1.24344978758018e-13,-0.255950952981991,-0.341014776482386,0.287087595566134,0.021645038674944,0,0,0,0,0,0,0,0,0,0,0,0,1.3189424479131,5.00000000064275,1.3189424479131,5.00000000064275,0.759198847590732,8.71291355250437,0.759198847590732,8.71291355250437,1.2442237111357,5.65876262411462,1.2442237111357,5.65876262411462,1.64660831228201,5.00000000018608,1.64660831228201,5.00000000018608
27,1,-0.289801802005329,0.287654440926534,0.285124963237541,-0.333,0.31,0.2851,0.0486354700137232,3,0.0144062110626781,0,1.88293824976427e-13,1.30562227695918e-13,-0.258003125949351,-0.346904599311685,0.29012860299387,0.0217400632888441,0,0,0,0,0,0,0,0,0,0,0,0,1.32300295724635,5.00000000077554,1.32300295724635,5.00000000077554,0.753012517461147,8.77695980685757,0.753012517461147,8.77695980685757,1.24458087594067,5.70254605433213,1.24458087594067,5.70254605433213,1.65296416482229,5.00000000020473,1.65296416482229,5.00000000020473
28,1,-0.294984703373667,0.290335335736001,0.285124963237541,-0.333,0.31,0.2851,0.0428002619310578,3,0.0144357807656198,0,1.78523862359725e-13,1.21680443498917e-13,-0.259746135131008,-0.352087690243405,0.292805118864278,0.0218167483549654,0,0,0,0,0,0,0,0,0,0,0,0,1.32659280596881,5.00000000081533,1.32659280596881,5.00000000081533,0.74757442686049,8.83397950733475,0.74757442686049,8.83397950733475,1.24492500040684,5.74207880482155,1.24492500040684,5.74207880482155,1.6585593766249,5.00000000020829,1.6585593766249,5.00000000020829
29,1,-0.299545713265689,0.29269455243127,0.285124963237541,-0.333,0.31,0.2851,0.0376652152472119,3,0.0144569265589542,0,1.58983937126322e-13,1.11022302462516e-13,-0.261213191388192,-0.356648849723243,0.295160874562749,0.0218773580087467,0,0,0,0,0,0,0,0,0,0,0,0,1.32976445919875,5.00000000080374,1.32976445919875,5.00000000080374,0.742793460699657,8.8846884923885,0.742793460699657,8.8846884923885,1.2452511114781,5.77766626083215,1.2452511114781,5.77766626083215,1.66348481277329,5.0000000001813,1.66348481277329,5.0000000001813
30,1,-0.303559451868994,0.294770688875313,0.285124963237541,-0.333,0.31,0.2851,0.0331463182683958,3,0.0144707887530374,0,1.50102152929321e-13,1.04805053524615e-13,-0.262434453387425,-0.360662703017723,0.297234354110585,0.0219238859878356,0,0,0,0,0,0,0,0,0,0,0,0,1.33256502854693,5.00000000076911,1.33256502854693,5.00000000076911,0.738589706533114,8.92973889408018,0.738589706533114,8.92973889408018,1.24555630961897,5.80961594468075,1.24555630961897,5.80961594468075,1.66782053025535,5.00000000017262,1.66782053025535,5.00000000017262
31,1,-0.307091585760463,0.296597711608673,0.285124963237541,-0.333,0.31,0.2851,0.0291696397937127,3,0.014478352408954,0,1.52766688188422e-13,1.05693231944315e-13,-0.263437225970299,-0.364194921137121,0.299059423819146,0.0219580876019132,0,0,0,0,0,0,0,0,0,0,0,0,1.33503669055392,5.00000000072445,1.33503669055392,5.00000000072445,0.734893059137252,8.96972362417281,0.734893059137252,8.96972362417281,1.24583918582301,5.83823063439951,1.24583918582301,5.83823063439951,1.67163705202092,5.00000000017839,1.67163705202092,5.00000000017839
32,1,-0.310199902242789,0.298205511557656,0.285124963237541,-0.333,0.31,0.2851,0.0256701195657164,3,0.0144804696714729,0,1.48325796089921e-13,9.9475983006414e-14,-0.264246159557246,-0.367303295258014,0.30066588638581,0.0219815079789404,0,0,0,0,0,0,0,0,0,0,0,0,1.33721710914723,5.00000000067507,1.33721710914723,5.00000000067507,0.731642001274954,9.00518053372211,0.731642001274954,9.00518053372211,1.2460993841719,5.86380321632052,1.2460993841719,5.86380321632052,1.67499649378739,5.00000000019825,1.67499649378739,5.00000000019825
33,1,-0.312935254772093,0.299620393063586,0.285124963237541,-0.333,0.31,0.2851,0.0225905038540197,3,0.0144778786960337,0,3.5527136788005e-15,-1.77635683940025e-15,-0.264883448316259,-0.370038682224583,0.302079968499395,0.0219955070088049,0,0,0,0,0,0,0,0,0,0,0,0,1.3391398481934,5,1.3391398481934,5,0.728782538319653,9.03659636447459,0.728782538319653,9.03659636447459,1.2463372754182,5.88661301208584,1.2463372754182,5.88661301208584,1.67795355983313,5,1.67795355983313,5
34,1,-0.31534239494434,0.300865504233886,0.285124963237541,-0.333,0.31,0.2851,0.0198804087575188,3,0.0144712197131919,0,-8.88178419700125e-16,-8.88178419700125e-16,-0.265369024912337,-0.372445836598333,0.303324749934369,0.022001281360697,0,0,0,0,0,0,0,0,0,0,0,0,1.34083476531942,5.00000000000029,1.34083476531942,5.00000000000029,0.726267267147537,9.06441055376268,0.726267267147537,9.06441055376268,1.24655371503548,5.90692333031378,1.24655371503548,5.90692333031378,1.68055642244703,5.00000000000011,1.68055642244703,5.00000000000011
35,1,-0.31746070465232,0.301961215655713,0.285124963237541,-0.333,0.31,0.2851,0.017495495900363,3,0.0144610486850399,0,1.77635683940025e-15,2.66453525910038e-15,-0.265720749316927,-0.374564142869581,0.304420541155442,0.0219998839099239,0,0,0,0,0,0,0,0,0,0,0,0,1.34232838176185,5.00000000000001,1.34232838176185,5.00000000000001,0.724054562153746,9.08901890136005,0.724054562153746,9.08901890136005,1.24674986534648,5.92497999663848,1.24674986534648,5.92497999663848,1.68284749821521,5.0000000000007,1.68284749821521,5.0000000000007
36,1,-0.319324840391665,0.302925453668085,0.285124963237541,-0.333,0.31,0.2851,0.0153967470356264,3,0.0144478489340848,0,-8.88178419700125e-16,-3.5527136788005e-15,-0.265954590319068,-0.376428259810544,0.305385215611423,0.0219922408731081,0,0,0,0,0,0,0,0,0,0,0,0,1.34364422549858,5.00000000000001,1.34364422549858,5.00000000000001,0.722107863421344,9.11077711034699,0.722107863421344,9.11077711034699,1.24692706610269,5.94101066642038,1.24692706610269,5.94101066642038,1.68486413294372,5.00000000000068,1.68486413294372,5.00000000000068
37,1,-0.320965300257103,0.303773993644994,0.285124963237541,-0.333,0.31,0.2851,0.0135498256888231,3,0.0144320410631734,0,-8.88178419700125e-16,-1.77635683940025e-15,-0.266084797926078,-0.378068687512283,0.306234502155689,0.0219791669175598,0,0,0,0,0,0,0,0,0,0,0,0,1.34480314663576,5.00000000000001,1.34480314663576,5.00000000000001,0.720395053989311,9.13000417876997,0.720395053989311,9.13000417876997,1.24708674155926,5.9552247278855,1.24708674155926,5.9552247278855,1.68663920574676,5.00000000000066,1.68663920574676,5.00000000000066
38,1,-0.322408922905276,0.304520718087735,0.285124963237541,-0.333,0.31,0.2851,0.0119245153974361,3,0.0144139914332595,0,-1.77635683940025e-15,-8.88178419700125e-16,-0.266124065756903,-0.379512266382821,0.306982242378032,0.0219613784808258,0,0,0,0,0,0,0,0,0,0,0,0,1.34582360518158,5.00000000000001,1.34582360518158,5.00000000000001,0.718887914849473,9.14698563078809,0.718887914849473,9.14698563078809,1.24723033491544,5.96781364751318,1.24723033491544,5.96781364751318,1.68820166167452,5.00000000000064,1.68820166167452,5.00000000000064
39,1,-0.323679326647434,0.305177843748973,0.285124963237541,-0.333,0.31,0.2851,0.0104942253557743,3,0.0143940194224528,0,-1.77635683940025e-15,1.77635683940025e-15,-0.266083682743286,-0.38078261627047,0.307640617058463,0.0219395055097266,0,0,0,0,0,0,0,0,0,0,0,0,1.34672193209841,5,1.34672193209841,5,0.717561647774946,9.16197657207493,0.717561647774946,9.16197657207493,1.24735926316271,5.97895163144878,1.24735926316271,5.97895163144878,1.68957698121015,5,1.68957698121015,5
40,1,-0.324797295855758,0.305756121504404,0.285124963237541,-0.333,0.31,0.2851,0.00923555537726728,3,0.0143724036535239,0,0,8.88178419700125e-16,-0.265973673817133,-0.381900522896801,0.308220345448246,0.0219141018043292,0,0,0,0,0,0,0,0,0,0,0,0,1.34751256500096,5,1.34751256500096,5,0.716394457366976,9.1752045582566,0.716394457366976,9.1752045582566,1.24747488705091,5.98879650189389,1.24747488705091,5.98879650189389,1.69078759402594,5,1.69078759402594,5
41,1,-0.325781121005122,0.306265012241991,0.285124963237541,-0.333,0.31,0.2851,0.00812791305676927,3,0.0143493873467354,0,-8.88178419700125e-16,1.77635683940025e-15,-0.265802929546541,-0.38288427792162,0.308730860638783,0.021885654131027,0,0,0,0,0,0,0,0,0,0,0,0,1.3482082601438,5,1.3482082601438,5,0.715367184824749,9.18687226934586,0.715367184824749,9.18687226934586,1.2475784921614,5.99749070872311,1.2475784921614,5.99749070872311,1.69185324354674,5,1.69185324354674,5
42,1,-0.326646897913538,0.306712841646414,0.285124963237541,-0.333,0.31,0.2851,0.00715317686946051,3,0.0143251829295893,0,0,-8.88178419700125e-16,-0.265579324911795,-0.383749978203664,0.309180463887691,0.0218545902499414,0,0,0,0,0,0,0,0,0,0,0,0,1.34882028247654,5.00000000000001,1.34882028247654,5.00000000000001,0.714462986913991,9.1971599874301,0.714462986913991,9.1971599874301,1.2476712780557,6.0051624146733,1.2476712780557,6.0051624146733,1.69279130811662,5.0000000000006,1.69279130811662,5.0000000000006
43,1,-0.32740879107701,0.307106936411072,0.285124963237541,-0.333,0.31,0.2851,0.00629539969448567,3,0.0142999760139835,0,8.88178419700125e-16,3.5527136788005e-15,-0.26530982758665,-0.384511789153123,0.309576460427095,0.0218212859850168,0,0,0,0,0,0,0,0,0,0,0,0,1.34935857558384,5.00000000000001,1.34935857558384,5.00000000000001,0.713667054453462,9.20622787873692,0.713667054453462,9.20622787873692,1.24775435321683,6.01192660748709,1.24775435321683,6.01192660748709,1.69361708389497,5.00000000000059,1.69361708389497,5.00000000000059
44,1,-0.328079265407063,0.307453744106136,0.285124963237541,-0.333,0.31,0.2851,0.00554054791283235,3,0.0142739288336972,0,2.66453525910038e-15,0,-0.265000596217606,-0.38518217648463,0.30992527897614,0.0217860714502214,0,0,0,0,0,0,0,0,0,0,0,0,1.34983191330069,5.00000000000001,1.34983191330069,5.00000000000001,0.712966365370294,9.21421808451341,0.712966365370294,9.21421808451341,1.24782873407237,6.01788620466145,1.24782873407237,6.01788620466145,1.69434403401208,5.00000000000058,1.69434403401208,5.00000000000058
45,1,-0.328669290162301,0.307758938663741,0.285124963237541,-0.333,0.31,0.2851,0.00487627181096853,3,0.0142471832204818,0,-1.77635683940025e-15,-2.66453525910038e-15,-0.264657069278962,-0.385772110162345,0.310232576913127,0.0217492365319973,0,0,0,0,0,0,0,0,0,0,0,0,1.35024803472445,5.00000000000001,1.35024803472445,5.00000000000001,0.712349468010213,9.22125662772687,0.712349468010213,9.22125662772687,1.24789534682339,6.02313312627997,1.24789534682339,6.02313312627997,1.69498400798541,5.00000000000057,1.69498400798541,5.00000000000057
46,1,-0.329188518410403,0.3080275132061,0.285124963237541,-0.333,0.31,0.2851,0.00429170353393301,3,0.0142198631848171,0,-8.88178419700125e-16,1.77635683940025e-15,-0.264284045133525,-0.386291243873783,0.310503332827981,0.0217110357163549,0,0,0,0,0,0,0,0,0,0,0,0,1.35061376424979,5.00000000000001,1.35061376424979,5.00000000000001,0.711806290939962,9.22745514454207,0.711806290939962,9.22745514454207,1.24795503113476,6.02774931916294,1.24795503113476,6.02774931916294,1.69554743492886,5.00000000000057,1.69554743492886,5.00000000000057
47,1,-0.329645444956634,0.308263861735271,0.285124963237541,-0.333,0.31,0.2851,0.00377727928229523,3,0.0141920771572102,0,2.66453525910038e-15,-1.77635683940025e-15,-0.263885753952926,-0.386748072968713,0.310741927969334,0.0216716923386,0,0,0,0,0,0,0,0,0,0,0,0,1.35093511814248,5.00000000000001,1.35093511814248,5.00000000000001,0.711327975957943,9.23291245083183,0.711327975957943,9.23291245083183,1.24800854499315,6.03180772157965,1.24800854499315,6.03180772157965,1.69604349367171,5.00000000000056,1.69604349367171,5.00000000000056
48,1,-0.33004754532266,0.308471851021031,0.285124963237541,-0.333,0.31,0.2851,0.00332458284404174,3,0.0141639199374062,0,2.66453525910038e-15,8.88178419700125e-16,-0.26346592215496,-0.387150073447069,0.310952217918771,0.0216314023244793,0,0,0,0,0,0,0,0,0,0,0,0,1.35121739905133,5.00000000000001,1.35121739905133,5.00000000000001,0.710906731445057,9.23771595477454,0.710906731445057,9.23771595477454,1.24805657022871,6.03537316235194,1.24805657022871,6.03537316235194,1.69648026253658,5.00000000000056,1.69648026253658,5.00000000000056
49,1,-0.330401398049428,0.308654883862996,0.285124963237541,-0.333,0.31,0.2851,0.00292620790149507,3,0.0141354743917623,0,1.77635683940025e-15,0,-0.263027830002693,-0.387503824269817,0.311137595664886,0.0215903374833981,0,0,0,0,0,0,0,0,0,0,0,0,1.35146527973924,5.00000000000001,1.35146527973924,5.00000000000001,0.710535703549354,9.24194292695474,0.710535703549354,9.24194292695474,1.24809971833919,6.03850319160555,1.24809971833919,6.03850319160555,1.69686485120078,5.00000000000056,1.69686485120078,5.00000000000056
50,1,-0.33071279232503,0.308815954761975,0.285124963237541,-0.333,0.31,0.2851,0.0025756368605374,3,0.0141068129330715,0,8.88178419700125e-16,4.44089209850063e-15,-0.262574362986161,-0.387815114993837,0.311301047109106,0.0215486484071743,0,0,0,0,0,0,0,0,0,0,0,0,1.35168287719919,5.00000000000001,1.35168287719919,5.00000000000001,0.710208863012865,9.24566163940813,0.710208863012865,9.24566163940813,1.2481385363623,6.04124884293218,1.2481385363623,6.04124884293218,1.69720351677814,5.00000000000055,1.69720351677814,5.00000000000055
51,1,-0.330986822698406,0.308957698911369,0.285124963237541,-0.333,0.31,0.2851,0.00226713421972338,3,0.0140779988121136,0,8.88178419700125e-16,-8.88178419700125e-16,-0.26210805757579,-0.388089040491774,0.311445199911388,0.0215064670214501,0,0,0,0,0,0,0,0,0,0,0,0,1.35187381821016,5.00000000000001,1.35187381821016,5.00000000000001,0.709920905723,9.24893238481932,0.709920905723,9.24893238481932,1.24817351262195,6.04365532850668,1.24817351262195,6.04365532850668,1.69750176600514,5.00000000000055,1.69750176600514,5.00000000000055
52,1,-0.331227972428435,0.309082435310142,0.285124963237541,-0.333,0.31,0.2851,0.00199565273474311,3,0.014049087245992,0,-1.77635683940025e-15,-1.77635683940025e-15,-0.261631141899909,-0.38833008430655,0.311572366474951,0.0214639088312802,0,0,0,0,0,0,0,0,0,0,0,0,1.35204129728431,5,1.35204129728431,5,0.709667165309817,9.25180838666065,0.709667165309817,9.25180838666065,1.24820508223279,6.04576266992289,1.24820508223279,6.04576266992289,1.69776444519113,5,1.69776444519113,5
53,1,-0.331440186832049,0.309192204702695,0.285124963237541,-0.333,0.31,0.2851,0.00175675084303099,3,0.0140201264047585,0,0,0,-0.26114557185965,-0.388542192004233,0.3116845817733,0.0214210748974748,0,0,0,0,0,0,0,0,0,0,0,0,1.35218812785969,5,1.35218812785969,5,0.709443536318772,9.25433661051508,0.709443536318772,9.25433661051508,1.24823363229121,6.04760626830007,1.24823363229121,6.04760626830007,1.69799581939506,5,1.69799581939506,5
54,1,-0.331626937831372,0.309288802966382,0.285124963237541,-0.333,0.31,0.2851,0.00154651999753397,3,0.0139911582748107,0,2.66453525910038e-15,-3.5527136788005e-15,-0.260653063153843,-0.388728835725358,0.311783636638405,0.0213780535759171,0,0,0,0,0,0,0,0,0,0,0,0,1.35231678750375,5.00000000000001,1.35231678750375,5.00000000000001,0.709246406670501,9.25655848618374,0.709246406670501,9.25655848618374,1.24825950671197,6.0492174176742,1.24825950671197,6.0492174176742,1.69819964211699,5.00000000000054,1.69819964211699,5.00000000000054
55,1,-0.331791280755918,0.309373810492877,0.285124963237541,-0.333,0.31,0.2851,0.00136152072076563,3,0.0139622194149963,0,0,0,-0.260155119646968,-0.388893070990802,0.311871107054669,0.0213349220482325,0,0,0,0,0,0,0,0,0,0,0,0,1.35242945781152,5.00000000000001,1.35242945781152,5.00000000000001,0.709072598278,9.25851054951849,0.709072598278,9.25851054951849,1.24828301069269,6.0506237659129,1.24828301069269,6.0506237659129,1.6983792166391,5.00000000000054,1.6983792166391,5.00000000000054
56,1,-0.331935904329133,0.309448618044109,0.285124963237541,-0.333,0.31,0.2851,0.00119872633293386,3,0.013933341619182,0,0,1.77635683940025e-15,-0.259653058474251,-0.389037586691568,0.311948379937931,0.0212917476688001,0,0,0,0,0,0,0,0,0,0,0,0,1.35252805960795,5.00000000000001,1.35252805960795,5.00000000000001,0.708919314830534,9.26022501221908,0.708919314830534,9.26022501221908,1.24830441480362,6.05184972743948,1.24830441480362,6.05184972743948,1.69853745001553,5.00000000000054,1.69853745001553,5.00000000000054
57,1,-0.332063174657112,0.309514449505758,0.285124963237541,-0.333,0.31,0.2851,0.00105547343347157,3,0.0139045524971861,0,0,0,-0.259148032240643,-0.389164749080346,0.312016675821276,0.0212485891501086,0,0,0,0,0,0,0,0,0,0,0,0,1.35261428399717,5.00000000000001,1.35261428399717,5.00000000000001,0.70878409587507,9.26173026713747,0.70878409587507,9.26173026713747,1.24832395871161,6.05291685197442,1.24832395871161,6.05291685197442,1.69867690059092,5.00000000000054,1.69867690059092,5.00000000000054
58,1,-0.332175173939147,0.309572381910581,0.285124963237541,-0.333,0.31,0.2851,0.000929418325776155,3,0.0138758759843956,0,0,1.77635683940025e-15,-0.258641048636109,-0.38927664048457,0.312077068818798,0.0212054976058335,0,0,0,0,0,0,0,0,0,0,0,0,1.35268961974091,5.00000000000001,1.35268961974091,5.00000000000001,0.708664776432381,9.26305133597902,0.708664776432381,9.26305133597902,1.24834185455397,6.0538441533436,1.24834185455397,6.0538441533436,1.69879981982284,5.00000000000054,1.69879981982284,5.00000000000054
59,1,-0.33227373453343,0.309623363059166,0.285124963237541,-0.333,0.31,0.2851,0.000818498672181049,3,0.0138473327890202,0,8.88178419700125e-16,1.77635683940025e-15,-0.25813298775677,-0.389375093374324,0.312130504193932,0.0211625174686901,0,0,0,0,0,0,0,0,0,0,0,0,1.35275537739402,5,1.35275537739402,5,0.708559451478116,9.26421026563903,0.708559451478116,9.26421026563903,1.24835828998239,6.05464840218566,1.24835828998239,6.05464840218566,1.69890818909004,5,1.69890818909004,5
60,1,-0.332360468935247,0.309668227026374,0.285124963237541,-0.333,0.31,0.2851,0.00072089975172747,3,0.0138189407847697,0,2.66453525910038e-15,1.77635683940025e-15,-0.257624617391778,-0.389461720342485,0.312177813819781,0.0211196872980789,0,0,0,0,0,0,0,0,0,0,0,0,1.35281271057675,5.00000000000001,1.35281271057675,5.00000000000001,0.708466444700743,9.26522647881925,0.708466444700743,9.26522647881925,1.2483734308997,6.05534438614316,1.2483734308997,6.05534438614316,1.6990037520875,5.00000000000053,1.6990037520875,5.00000000000053
61,1,-0.332436796158123,0.309707707807191,0.285124963237541,-0.333,0.31,0.2851,0.000635024768580144,3,0.013790715355737,0,1.77635683940025e-15,1.77635683940025e-15,-0.25711660650795,-0.38953794048757,0.312219729784383,0.0210770404907404,0,0,0,0,0,0,0,0,0,0,0,0,1.35286263471987,5.00000000000001,1.35286263471987,5.00000000000001,0.708384281019784,9.26611708399059,0.708384281019784,9.26611708399059,1.24838742391326,6.05594514085567,1.24838742391326,6.05594514085567,1.6990880433368,5.00000000000053,1.6990880433368,5.00000000000053
62,1,-0.332503964949507,0.309742451325217,0.285124963237541,-0.333,0.31,0.2851,0.000559468725156715,3,0.0137626696993928,0,0,0,-0.25660953713987,-0.389605002630934,0.31225689636349,0.0210346059060549,0,0,0,0,0,0,0,0,0,0,0,0,1.35290604358005,5.00000000000001,1.35290604358005,5.00000000000001,0.708311662410541,9.26689714928104,0.708311662410541,9.26689714928104,1.24840039852886,6.05646215480769,1.24840039852886,6.05646215480769,1.69916241327769,5.00000000000053,1.69916241327769,5.00000000000053
63,1,-0.33256307422084,0.309773026000269,0.285124963237541,-0.333,0.31,0.2851,0.000492995432308447,3,0.0137348150928534,0,-2.66453525910038e-15,2.66453525910038e-15,-0.25610391486964,-0.38966400574816,0.31228988055676,0.0209924084162266,0,0,0,0,0,0,0,0,0,0,0,0,1.35294372378872,5.00000000000001,1.35294372378872,5.00000000000001,0.708247446636524,9.26757994435125,0.708247446636524,9.26757994435125,1.24841246910836,6.0569055508139,1.24841246910836,6.0569055508139,1.69922805035033,5.00000000000053,1.69922805035033,5.00000000000053
64,1,-0.33261509102623,0.309799932047996,0.285124963237541,-0.333,0.31,0.2851,0.000434517280135503,3,0.0137071611269239,0,8.88178419700125e-16,-4.44089209850063e-15,-0.255600178060661,-0.389715916948905,0.312319181359717,0.0209504693903662,0,0,0,0,0,0,0,0,0,0,0,0,1.35297636766692,5,1.35297636766692,5,0.70819062853911,9.26817715391655,0.70819062853911,9.26817715391655,1.24842373661349,6.05728424667271,1.24842373661349,6.0572842466727,1.69928600042917,5,1.69928600042917,5
65,1,-0.33266086638389,0.309823609663627,0.285124963237541,-0.333,0.31,0.2851,0.000383077438085049,3,0.0136797159118607,0,-8.88178419700125e-16,-1.77635683940025e-15,-0.255098705991212,-0.389761587299364,0.312345237923185,0.0209088071204048,0,0,0,0,0,0,0,0,0,0,0,0,1.35300458451149,5.00000000000001,1.35300458451149,5.00000000000001,0.708140323576383,9.2686990661682,0.708140323576383,9.2686990661682,1.24843429015656,6.05760609727522,1.24843429015656,6.05760609727522,1.69933718392583,5.00000000000053,1.69933718392583,5.00000000000053
66,1,-0.332701149199175,0.309844446223769,0.285124963237541,-0.333,0.31,0.2851,0.00033783419258808,3,0.0136524862582984,0,0,-2.66453525910038e-15,-0.254599826016763,-0.389801765746215,0.312368436733687,0.0208674371958201,0,0,0,0,0,0,0,0,0,0,0,0,1.35302891053403,5,1.35302891053403,5,0.708095753340308,9.26915473897781,0.708095753340308,9.26915473897781,1.24844420837782,6.05787802022815,1.24844420837782,6.05787802022815,1.69938241084061,5,1.69938241084061,5
67,1,-0.332736598517002,0.309862782624067,0.285124963237541,-0.333,0.31,0.2851,0.00029804716528097,3,0.0136254778363643,0,-3.5527136788005e-15,8.88178419700125e-16,-0.254103819876047,-0.389837111369837,0.312389117932273,0.0208263728333189,0,0,0,0,0,0,0,0,0,0,0,0,1.35304981761265,5.00000000000001,1.35304981761265,5.00000000000001,0.708056232814159,9.26955214648305,0.708056232814159,9.26955214648305,1.24845356066723,6.05810610684393,1.24845356066723,6.05810610684393,1.69942239400843,5.00000000000053,1.69942239400843,5.00000000000053
68,1,-0.332767794304119,0.309878918856409,0.285124963237541,-0.333,0.31,0.2851,0.000263065185384563,3,0.0135986953156231,0,0,-1.77635683940025e-15,-0.253610929241464,-0.389868204167281,0.312407580875168,0.0207856251668842,0,0,0,0,0,0,0,0,0,0,0,0,1.35306772099786,5.00000000000001,1.35306772099786,5.00000000000001,0.708021159160796,9.26989830830878,0.708021159160796,9.26989830830878,1.24846240824732,6.05829572015059,1.24846240824732,6.05829572015059,1.69945776075596,5.00000000000053,1.69945776075596,5.00000000000053
69,1,-0.332795246937621,0.309893118916931,0.285124963237541,-0.333,0.31,0.2851,0.000232315616564858,3,0.0135721424881782,0,-5.32907051820075e-15,8.88178419700125e-16,-0.253121360604124,-0.389895554541409,0.312424089027202,0.0207452035029442,0,0,0,0,0,0,0,0,0,0,0,0,1.35308298609694,5.00000000000001,1.35308298609694,5.00000000000001,0.70799000185769,9.27019940348229,0.70799000185769,9.27019940348229,1.24847080513194,6.05845158140584,1.24847080513194,6.05845158140584,1.69948906316026,5.00000000000053,1.69948906316026,5.00000000000053
70,1,-0.332819405554945,0.309905615125116,0.285124963237541,-0.333,0.31,0.2851,0.000205294961994017,3,0.0135458223769604,0,-1.77635683940025e-15,8.88178419700125e-16,-0.252635289572092,-0.389919611651427,0.312438874268091,0.0207051155448516,0,0,0,0,0,0,0,0,0,0,0,0,1.35309593444677,5,1.35309593444677,5,0.707962294016745,9.27046087081478,0.707962294016745,9.27046087081478,1.24847879897455,6.05857784643218,1.24847879897455,6.05857784643218,1.69951678707681,5,1.69951678707681,5
71,1,-0.332840665401955,0.309916611924645,0.285124963237541,-0.333,0.31,0.2851,0.000181560591743663,3,0.013519737330996,0,0,0,-0.252152864652096,-0.389940770761461,0.312452140682011,0.020665367590357,0,0,0,0,0,0,0,0,0,0,0,0,1.35310684897198,5,1.35310684897198,5,0.707937624746512,9.27068749735477,0.707937624746512,9.27068749735477,1.24848643181837,6.05867817295023,1.24848643181837,6.05867817295023,1.69954136008445,5,1.69954136008445,5
72,1,-0.332859374299342,0.309926289228187,0.285124963237541,-0.333,0.31,0.2851,0.000160723454402736,3,0.0134938891092194,0,-1.77635683940025e-15,1.77635683940025e-15,-0.251674210576068,-0.389959379707375,0.312464067892472,0.0206259647053202,0,0,0,0,0,0,0,0,0,0,0,0,1.35311597861354,5.00000000000001,1.35311597861354,5.00000000000001,0.707915632431505,9.27088349630846,0.707915632431505,9.27088349630846,1.2484937407591,6.05875577995308,1.2484937407591,6.05875577995309,1.69956315847721,5.00000000000053,1.69956315847721,5.00000000000053
73,1,-0.332875838333129,0.309934805360859,0.285124963237541,-0.333,0.31,0.2851,0.000142441650233977,3,0.0134682789542133,0,-8.88178419700125e-16,-3.5527136788005e-15,-0.251199431227159,-0.389975744587644,0.312474813997044,0.020586910876513,0,0,0,0,0,0,0,0,0,0,0,0,1.35312354240318,5.00000000000001,1.35312354240318,5.00000000000001,0.707895998818423,9.27105257567906,0.707895998818423,9.27105257567906,1.24850075853049,6.05881350005017,1.24850075853049,6.05881350005017,1.69958251341728,5.00000000000053,1.69958251341728,5.00000000000053
74,1,-0.332890326862366,0.309942299650489,0.285124963237541,-0.333,0.31,0.2851,0.000126414756577947,3,0.0134429076570851,0,-1.77635683940025e-15,0,-0.250728612213106,-0.389990134771388,0.312484518149954,0.0205482091460233,0,0,0,0,0,0,0,0,0,0,0,0,1.35312973304977,5,1.35312973304977,5,0.707878443812354,9.27119799872342,0.707878443812354,9.27119799872342,1.24850751402113,6.05885382560275,1.24850751402113,6.05885382560275,1.69959971634981,5,1.69959971634981,5
75,1,-0.332903076925971,0.309948894707087,0.285124963237541,-0.333,0.31,0.2851,0.00011237880792883,3,0.0134177756145453,0,-2.66453525910038e-15,-3.5527136788005e-15,-0.250261823129188,-0.390002787305498,0.312493302834801,0.0205098617294708,0,0,0,0,0,0,0,0,0,0,0,0,1.35313472009608,5,1.35313472009608,5,0.70786272089765,9.27132263719176,0.70786272089765,9.27132263719176,1.24851403273065,6.05887894937887,1.24851403273065,6.05887894937886,1.69961502376809,5,1.69961502376809,5
76,1,-0.332914297120787,0.309954698428802,0.285124963237541,-0.333,0.31,0.2851,0.000100101843574154,3,0.0133928828791232,0,-4.44089209850063e-15,8.88178419700125e-16,-0.249799119547971,-0.390013910792946,0.312501275864579,0.020471870119979,0,0,0,0,0,0,0,0,0,0,0,0,1.35313865269725,5.00000000000001,1.35313865269725,5.00000000000001,0.707848613108488,9.2714290182072,0.707848613108488,9.2714290182072,1.24852033717212,6.0588908003726,1.24852033717212,6.0588908003726,1.69962866140698,5.00000000000053,1.69962866140698,5.00000000000053
77,1,-0.332924171014322,0.309959805767183,0.285124963237541,-0.333,0.31,0.2851,8.93799454531027e-05,3,0.0133682292033455,0,-2.66453525910038e-15,1.77635683940025e-15,-0.249340544768774,-0.390023688805754,0.31250853214171,0.0204342351796134,0,0,0,0,0,0,0,0,0,0,0,0,1.35314166206628,5.00000000000001,1.35314166206628,5.00000000000001,0.707835929483064,9.27151936554556,0.707835929483064,9.27151936554556,1.24852644722702,6.05889107535849,1.24852644722702,6.05889107535849,1.69964082793327,5.00000000000052,1.69964082793327,5.00000000000052
78,1,-0.332924171014322,0.309959805767183,0.285124963237541,-0.333,0.31,0.2851,8.93799454531027e-05,3,0.0133682292033455,0,-2.66453525910038e-15,1.77635683940025e-15,-0.249340544768774,-0.390023688805754,0.31250853214171,0.0204342351796134,0,0,0,0,0,0,0,0,0,0,0,0,1.35314166206628,5.00000000000001,1.35314166206628,5.00000000000001,0.707835929483064,9.27151936554556,0.707835929483064,9.27151936554556,1.24852644722702,6.05889107535849,1.24852644722702,6.05889107535849,1.69964082793327,5.00000000000052,1.69964082793327,5.00000000000052
