LordTarzan10086/HCDR_ML/results/avoidance_experiments/routeb_avoidance_20260428_222258/joint_limit_off.csv
step,time_s,tip_x,tip_y,tip_z,des_x,des_y,des_z,err_norm,arm_sigma_min,arm_condition_number,manipulability_proxy,joint_limit_min_margin,singularity_avoidance_active,singularity_avoidance_singular_count,joint_limit_avoidance_enabled,joint_limit_avoidance_active_lower_count,joint_limit_avoidance_active_upper_count,solver_status,fail_reason,platform_x,platform_y,platform_psi,q_1,q_2,q_3,q_4,q_5,q_6,q_7,q_8,q_9,q_arm_1,q_arm_2,q_arm_3,q_arm_4,q_arm_5,q_arm_6
1,0.0,0.057021164387191264,0.010002371411802225,0.24858416458402482,0.05702116438719139,0.010002371411802463,0.24858416458402444,4.723069394728281e-16,0.14294473155918086,5.597164301324375,0.027322499261224067,0.27204224116881826,False,0,False,0,0,min_task,none,-2.1968391236329727e-18,5.09956043596355e-20,4.156773776817837e-18,-2.1968391236329727e-18,5.09956043596355e-20,4.156773776817837e-18,7.337162378668337e-19,0.58,0.92,-8.007163875882442e-18,2.3806541987077465e-17,2.7146528757908912e-18,7.337162378668337e-19,0.58,0.92,-8.007163875882442e-18,2.3806541987077465e-17,2.7146528757908912e-18
2,0.02,0.057023397250471126,0.010002371526577538,0.24858538210365577,0.05702172267687889,0.010002371411802463,0.24858447474496193,1.904598784071868e-06,0.14294473155918086,5.597164301324375,0.027322499261224067,0.27204224116881826,False,0,False,0,0,min_task,none,-7.978058994010553e-08,-5.67297460015325e-10,-1.4271810586175497e-07,-7.978058994010553e-08,-5.67297460015325e-10,-1.4271810586175497e-07,-1.223972616740217e-07,0.5800002577862943,0.9200058546359052,-4.6486987965596004e-08,-3.655803296166305e-09,4.453988745408926e-08,-1.223972616740217e-07,0.5800002577862943,0.9200058546359052,-4.6486987965596004e-08,-3.655803296166305e-09,4.453988745408926e-08
3,0.04,0.05703171560193967,0.010002371526266098,0.24858992842473304,0.05702559715719139,0.010002371411802463,0.24858662723402444,6.952210169822825e-06,0.1429453928933611,5.597131726139308,0.027322656184577614,0.27204249895511257,False,0,False,0,0,min_task,none,-3.74533079572346e-07,-2.7003483549926926e-09,-6.564386259918235e-07,-3.74533079572346e-07,-2.7003483549926926e-09,-6.564386259918235e-07,-5.591621104654924e-07,0.5800012612802279,0.9200277268641566,-2.1672389760514916e-07,-1.802327935479743e-08,2.075066944717208e-07,-5.591621104654924e-07,0.5800012612802279,0.9200277268641566,-2.1672389760514916e-07,-1.802327935479743e-08,2.075066944717208e-07
4,0.06,0.05704964389723118,0.010002370214992408,0.24859975039825216,0.05703601221875389,0.010002371411802463,0.24859241337933694,1.5480778601320482e-05,0.14294786353195632,5.597010032570101,0.027323241719424782,0.2720435024490462,False,0,False,0,0,min_task,none,-1.0043612972433324e-06,-7.365407733477713e-09,-1.7164937285054554e-06,-1.0043612972433324e-06,-7.365407733477713e-09,-1.7164937285054554e-06,-1.4494710001030152e-06,0.5800035181048054,0.9200750011977856,-5.763839893761616e-07,-5.16745756398382e-08,5.516997733955422e-07,-1.4494710001030152e-06,0.5800035181048054,0.9200750011977856,-5.763839893761616e-07,-5.16745756398382e-08,5.516997733955422e-07
5,0.08,0.05708045204819241,0.010002365303043242,0.24861666390932757,0.05705609302719139,0.010002371411802463,0.24860356938402445,2.765553352151001e-05,0.14295320340235115,5.596747023928361,0.027324505786157395,0.27204575927362373,False,0,False,0,0,min_task,none,-2.0783245097827435e-06,-1.5520429499882916e-08,-3.441470673834993e-06,-2.0783245097827435e-06,-1.5520429499882916e-08,-3.441470673834993e-06,-2.8752374072834798e-06,0.5800075334675285,0.9201564333748096,-1.1818980857944788e-06,-1.1556051539869988e-07,1.1314294322080412e-06,-2.8752374072834798e-06,0.5800075334675285,0.9201564333748096,-1.1818980857944788e-06,-1.1556051539869988e-07,1.1314294322080412e-06
6,0.1,0.05712720719483912,0.010002353547287023,0.2486423779679763,0.05708886653562889,0.010002371411802463,0.24862177688871193,4.352483124233184e-05,0.1429624011596124,5.596294037259749,0.027326681154657074,0.27204977463634683,False,0,False,0,0,min_task,none,-3.697248083631135e-06,-2.81056062302755e-08,-5.892919437852245e-06,-3.697248083631135e-06,-2.81056062302755e-08,-5.892919437852245e-06,-4.861473752081737e-06,0.5800137946918505,0.9202802561951687,-2.0821343420138865e-06,-2.229863028586402e-07,1.9943068773758293e-06,-4.861473752081737e-06,0.5800137946918505,0.9202802561951687,-2.0821343420138865e-06,-2.229863028586402e-07,1.9943068773758293e-06
7,0.12000000000000001,0.05719281005180379,0.01000233104797377,0.24867851201990893,0.057137262497191386,0.010002371411802463,0.24864866353402443,6.305921472912105e-05,0.1429763859578314,5.5956053812147175,0.027329986760793436,0.27205603586066884,False,0,False,0,0,min_task,none,-5.955702443592946e-06,-4.601348304787804e-08,-9.078003029258874e-06,-5.955702443592946e-06,-4.601348304787804e-08,-9.078003029258874e-06,-7.380379985458672e-06,0.5800227596702793,0.9204542533337063,-3.319508973609234e-06,-3.8902903750592673e-07,3.182433645604813e-06,-7.380379985458672e-06,0.5800227596702793,0.9204542533337063,-3.319508973609234e-06,-3.8902903750592673e-07,3.182433645604813e-06
8,0.14,0.057280020385775635,0.010002293618049805,0.2487266083655581,0.05720411447750389,0.010002371411802463,0.24868580352308695,8.617858278900849e-05,0.1429960355659933,5.59463795743235,0.027334630091394824,0.27206500083909757,False,0,False,0,0,min_task,none,-8.943424867039447e-06,-7.004946093457242e-08,-1.2954522407809145e-05,-8.943424867039447e-06,-7.004946093457242e-08,-1.2954522407809145e-05,-1.035815116388934e-05,0.5800348475094732,0.9206858097915865,-4.930719763085027e-06,-6.29662604464635e-07,4.7331816689951e-06,-1.035815116388934e-05,0.5800348475094732,0.9206858097915865,-4.930719763085027e-06,-6.29662604464635e-07,4.7331816689951e-06
9,0.16,0.05739147485174873,0.010002237164430059,0.24878814105983568,0.05729216086719139,0.010002371411802463,0.24873471818402443,0.00011277095907616319,0.1430221818144831,5.593351016108233,0.02734080890413483,0.2720770886782915,False,0,False,0,0,min_task,none,-1.2746371009929167e-05,-1.0089054022544425e-07,-1.74377506676549e-05,-1.2746371009929167e-05,-1.0089054022544425e-07,-1.74377506676549e-05,-1.3683621270105813e-05,0.5800504302993794,0.9209819453462603,-6.947238688597561e-06,-9.60783164099074e-07,6.679697945581617e-06,-1.3683621270105813e-05,0.5800504302993794,0.9209819453462603,-6.947238688597561e-06,-9.60783164099074e-07,6.679697945581617e-06
10,0.18,0.05752969947268069,0.01000215803951835,0.24886452228855574,0.05740404589437889,0.010002371411802463,0.24879687653246194,0.00014270534532833824,0.14305561409702372,5.5917060093727615,0.02734871247435085,0.2720926714681977,False,0,False,0,0,min_task,none,-1.7447522493980432e-05,-1.3904783050723174e-07,-2.2408519560618205e-05,-1.7447522493980432e-05,-1.3904783050723174e-07,-2.2408519560618205e-05,-1.7217964702666696e-05,0.5800698253727502,0.9213493356733317,-9.39565890176293e-06,-1.3972694996270652e-06,9.051228396052307e-06,-1.7217964702666696e-05,0.5800698253727502,0.9213493356733317,-9.39565890176293e-06,-1.3972694996270652e-06,9.051228396052307e-06
11,0.19999999999999998,0.057697118377681045,0.010002053336297181,0.2489571069429305,0.05754232063719139,0.010002371411802463,0.24887369583402444,0.00017584042402606767,0.14309708146169373,5.589666515549003,0.027358522506986203,0.2721120665415685,False,0,False,0,0,min_task,none,-2.3127535116911666e-05,-1.848365360571672e-07,-2.7722021677810646e-05,-2.3127535116911666e-05,-1.848365360571672e-07,-2.7722021677810646e-05,-2.0804772265584166e-05,0.5800932877033035,0.9217943245779459,-1.229796395408975e-05,-1.9521657882754836e-06,1.1873329647547528e-05,-2.0804772265584166e-05,0.5800932877033035,0.9217943245779459,-1.229796395408975e-05,-1.9521657882754836e-06,1.1873329647547528e-05
12,0.21999999999999997,0.05789605993884359,0.010001921112159551,0.24906719591347554,0.05770944403625389,0.010002371411802463,0.24896654216683695,0.000212030362404832,0.14314729368481272,5.587198214248334,0.027370413812981196,0.2721355288721218,False,0,False,0,0,min_task,none,-2.9865283529150905e-05,-2.3835568366643116e-07,-3.3216826633595344e-05,-2.9865283529150905e-05,-2.3835568366643116e-07,-3.3216826633595344e-05,-2.42799132848211e-05,0.5801210022709433,0.9223229298677565,-1.567176875515649e-05,-2.6360379810020438e-06,1.5168020417537506e-05,-2.42799132848211e-05,0.5801210022709433,0.9223229298677565,-1.567176875515649e-05,-2.6360379810020438e-06,1.5168020417537506e-05
13,0.23999999999999996,0.05812876110998331,0.010001760535761772,0.2491960384791656,0.05790778390719139,0.010002371411802463,0.24907673098402444,0.0002511286039465374,0.14320692161908938,5.584268897294898,0.027384554821401463,0.2721632434397616,False,0,False,0,0,min_task,none,-3.7738338533514146e-05,-2.994787036952376e-07,-3.872365964569303e-05,-3.7738338533514146e-05,-2.994787036952376e-07,-3.872365964569303e-05,-2.7480693350224966e-05,0.5801530763353979,0.9229408447361055,-1.9530568755639503e-05,-3.456527167880667e-06,1.895391246078332e-05,-2.7480693350224966e-05,0.5801530763353979,0.9229408447361055,-1.9530568755639503e-05,-3.456527167880667e-06,1.895391246078332e-05
14,0.25999999999999995,0.058397370531674236,0.01000157195802372,0.24934483406192412,0.058139617953128886,0.010002371411802463,0.24920552767621193,0.00029299027283054106,0.14327659703244391,5.580848504152546,0.02740110797840135,0.2721953175042162,False,0,False,0,0,min_task,none,-4.682339971263017e-05,-3.678550487432413e-07,-4.4073554225206205e-05,-4.682339971263017e-05,-3.678550487432413e-07,-4.4073554225206205e-05,-3.0253918596431193e-05,0.580189531628645,0.9236534360378792,-2.388402399053568e-05,-4.418102574995985e-06,2.324635236484869e-05,-3.0253918596431193e-05,0.580189531628645,0.9236534360378792,-2.388402399053568e-05,-4.418102574995985e-06,2.324635236484869e-05
15,0.27999999999999997,0.0587039507978287,0.010001356913307646,0.24951473353991144,0.05840713477719139,0.010002371411802463,0.24935414813402443,0.0003374736314114917,0.1433569120989784,5.576909173228314,0.027420230069576806,0.27223177279746325,False,0,False,0,0,min_task,none,-5.719669693651802e-05,-4.4292230113710396e-07,-4.9105064283957726e-05,-5.719669693651802e-05,-4.4292230113710396e-07,-4.9105064283957726e-05,-3.246258084120289e-05,0.5802302965172867,0.9244657404848282,-2.8738296454849145e-05,-5.52200193461085e-06,2.8057598324262337e-05,-3.246258084120289e-05,0.5802302965172867,0.9244657404848282,-2.8738296454849145e-05,-5.52200193461085e-06,2.8057598324262337e-05
16,0.3,0.05905048015944106,0.010001118060106704,0.24970684025762432,0.05871243489500389,0.010002371411802463,0.24952375931058693,0.0003844408990559902,0.1434484186633418,5.572425302411955,0.027442072491817675,0.27227253768610504,False,0,False,0,0,min_task,none,-6.893436815202617e-05,-5.239276580887174e-07,-5.367030093053249e-05,-6.893436815202617e-05,-5.239276580887174e-07,-5.367030093053249e-05,-3.3990980319268794e-05,0.5802751982081461,0.9253824595262169,-3.409645204133188e-05,-6.766336807324823e-06,3.3397049521729564e-05,-3.3990980319268794e-05,0.5802751982081461,0.9253824595262169,-3.409645204133188e-05,-6.766336807324823e-06,3.3397049521729564e-05
17,0.32,0.059438853856564305,0.01000085907252912,0.2499222108307257,0.05905753174719139,0.010002371411802463,0.24971547978402445,0.0004337586471032935,0.1435516273701779,5.567373613681885,0.027466781493250977,0.2723174393769644,False,0,False,0,0,min_task,none,-8.211281676519942e-05,-6.099572744541758e-07,-5.763964156718245e-05,-8.211281676519942e-05,-6.099572744541758e-07,-5.763964156718245e-05,-3.474820094880044e-05,0.580323955080806,0.926407953489071,-3.9958931541381284e-05,-8.146334110463315e-06,3.927153942740804e-05,-3.474820094880044e-05,0.580323955080806,0.926407953489071,-3.9958931541381284e-05,-8.146334110463315e-06,3.927153942740804e-05
18,0.34,0.05987088521006685,0.010000584494754583,0.2501618558146399,0.05944435271187889,0.010002371411802463,0.24993038031996193,0.0004852979185195562,0.14366700672857874,5.561733217707694,0.027494498394457074,0.2723661962496243,False,0,False,0,0,min_task,none,-9.680904928121442e-05,-6.999716742619405e-07,-6.0905039596281725e-05,-9.680904928121442e-05,-6.999716742619405e-07,-6.0905039596281725e-05,-3.466994364129229e-05,0.5803761692336733,0.9275462354111557,-4.632408891855413e-05,-9.654681840288624e-06,4.568569807378498e-05,-3.466994364129229e-05,0.5803761692336733,0.9275462354111557,-4.632408891855413e-05,-9.654681840288624e-06,4.568569807378498e-05
19,0.36000000000000004,0.06034830656295477,0.010000299570658166,0.25042674028532236,0.05987474011719139,0.010002371411802463,0.2501694844340244,0.0005389341741861533,0.14379498216534212,5.555485675213944,0.027525359800233885,0.2724184104024916,False,0,False,0,0,min_task,none,-0.00011310099220471442,-7.928452997050149e-07,-6.338193856609688e-05,-0.00011310099220471442,-7.928452997050149e-07,-6.338193856609688e-05,-3.3718803238809374e-05,0.5804313193286994,0.9288009648961104,-5.318878927309234e-05,-1.1281946101965073e-05,5.2642382235928905e-05,-3.3718803238809374e-05,0.5804313193286994,0.9288009648961104,-5.318878927309234e-05,-1.1281946101965073e-05,5.2642382235928905e-05
20,0.38000000000000006,0.06087277013177789,0.010000010060189008,0.2507177843657148,0.06035045225375389,0.010002371411802463,0.25043376895433694,0.0005945471348724667,0.14393593510889047,5.54861505251123,0.027559497808359694,0.2724735604975177,False,0,False,0,0,min_task,none,-0.00013106778624773623,-8.874082373529262e-07,-6.500986173126778e-05,-0.00013106778624773623,-8.874082373529262e-07,-6.500986173126778e-05,-3.188314165218073e-05,0.5804887538152377,0.9301754422424124,-6.054905383876097e-05,-1.3017027498594553e-05,6.0143166676239905e-05,-3.188314165218073e-05,0.5804887538152377,0.9301754422424124,-6.054905383876097e-05,-1.3017027498594553e-05,6.0143166676239905e-05
21,0.4000000000000001,0.06144584880820204,0.0099997220529949,0.2510358637208706,0.06087316438719139,0.010002371411802463,0.2507241645840244,0.0006520205649218873,0.1440902021366601,5.541107969111693,0.027597040219733936,0.272530994984056,False,0,False,0,0,min_task,none,-0.00015079005540055912,-9.82488229865131e-07,-6.575180451932581e-05,-0.00015079005540055912,-9.82488229865131e-07,-6.575180451932581e-05,-2.9174762175526992e-05,0.5805476846074944,0.93167260303976,-6.840073516860196e-05,-1.4847627208458412e-05,6.818888444094293e-05,-2.9174762175526992e-05,0.5805476846074944,0.93167260303976,-6.840073516860196e-05,-1.4847627208458412e-05,6.818888444094293e-05
22,0.4200000000000001,0.06206903693701444,0.00999944178841295,0.25138181003715854,0.06144446977062889,0.010002371411802463,0.25104155646371196,0.0007112420279083964,0.1442580742118806,5.532953635761904,0.02763811075273399,0.2725899257763127,False,0,False,0,0,min_task,none,-0.0001723501483212985,-1.076951233321074e-06,-6.559260143899426e-05,-0.0001723501483212985,-1.076951233321074e-06,-6.559260143899426e-05,-2.562562658862427e-05,0.5806071812821039,0.9332950133818159,-7.674020264892391e-05,-1.6760696266033414e-05,7.67801999564222e-05,-2.562562658862427e-05,0.5806071812821039,0.9332950133818159,-7.674020264892391e-05,-1.6760696266033414e-05,7.67801999564222e-05
23,0.4400000000000001,0.06274375108710448,0.009999175489368262,0.25175641149573225,0.06206588065719139,0.010002371411802463,0.2513867847340244,0.0007721026334894668,0.1444397960302712,5.524143881578231,0.027682829263471886,0.27264942245092216,False,0,False,0,0,min_task,none,-0.00019583234956711295,-1.1697389949867938e-06,-6.45364699894162e-05,-0.00019583234956711295,-1.1697389949867938e-06,-6.45364699894162e-05,-2.1283877883077365e-05,0.5806661658549118,0.9350448658102682,-8.556501664872752e-05,-1.8742845383330235e-05,8.591819550463497e-05,-2.1283877883077365e-05,0.5806661658549118,0.9350448658102682,-8.556501664872752e-05,-1.8742845383330235e-05,8.591819550463497e-05
24,0.46000000000000013,0.06347133082563511,0.00999892921609489,0.25216041324680194,0.0627388293125039,0.010002371411802463,0.25176064509808693,0.0008344967873981495,0.14463556549293582,5.514673169273528,0.027731311972733794,0.2727084070237301,False,0,False,0,0,min_task,none,-0.0002213230584461797,-1.2599023888692356e-06,-6.260395174808385e-05,-0.0002213230584461797,-1.2599023888692356e-06,-6.260395174808385e-05,-1.6209437546144983e-05,0.5807234081879079,0.936923976078432,-9.48745691419047e-05,-2.0780696790308938e-05,9.560494980519657e-05,-1.6209437546144983e-05,0.5807234081879079,0.936923976078432,-9.48745691419047e-05,-2.0780696790308938e-05,9.560494980519657e-05
25,0.48000000000000015,0.06425303950143613,0.009998708743987488,0.25259451788850196,0.06346466902719139,0.010002371411802463,0.25216388938402445,0.000898321951565766,0.14484553331829475,5.504538597734648,0.027783671699680677,0.2727656493567262,False,0,False,0,0,min_task,none,-0.0002489109336722465,-1.346629539916886e-06,-5.9828475501296754e-05,-0.0002489109336722465,-1.346629539916886e-06,-5.9828475501296754e-05,-1.0469438499191528e-05,0.5807775220681182,0.9389337807996689,-0.00010467066953636904,-2.286116383318425e-05,0.0001058440869924144,-1.0469438499191528e-05,0.5807775220681182,0.9389337807996689,-0.00010467066953636904,-2.286116383318425e-05,0.0001058440869924144
26,0.5000000000000001,0.06509006504066867,0.009998519468341547,0.2530593859525292,0.0642446751293789,0.010002371411802463,0.25259722610746194,0.0009634784180102519,0.1450698028028341,5.493739891465937,0.027840018101785532,0.27281976323693646,False,0,False,0,0,min_task,none,-0.00027868700236229933,-1.4292680710589445e-06,-5.625276061525198e-05,-0.00027868700236229933,-1.4292680710589445e-06,-5.625276061525198e-05,-4.13373547261772e-06,0.5808269619931236,0.9410753360287056,-0.00011495805644702988,-2.4971648360741542e-05,0.0001166412751079289,-4.13373547261772e-06,0.5808269619931236,0.9410753360287056,-0.00011495805644702988,-2.4971648360741542e-05,0.0001166412751079289
27,0.5200000000000001,0.06598352075628569,0.009998366337328344,0.2535556363975804,0.06508004599719139,0.010002371411802463,0.25306132103402446,0.0010298690982787487,0.14530842973803484,5.482279376640041,0.027900457919992332,0.27286920316194185,False,0,False,0,0,min_task,none,-0.0003107447323851652,-1.507341110417297e-06,-5.192526188938653e-05,-0.0003107447323851652,-1.507341110417297e-06,-5.192526188938653e-05,2.7292947294478086e-06,0.5808700206897311,0.9433493168088143,-0.00012574481929426197,-2.7100150047770305e-05,0.0001280046553891894,2.7292947294478086e-06,0.5808700206897311,0.9433493168088143,-0.00012574481929426197,-2.7100150047770305e-05,0.0001280046553891894
28,0.5400000000000001,0.06693444617187005,0.009998253813282032,0.2540838471106005,0.06597190407125389,0.010002371411802463,0.2535567977418369,0.0010973993289547063,0.14556142248862575,5.470161943713042,0.027965095227656223,0.27291226185854944,False,0,False,0,0,min_task,none,-0.00034518006758909106,-1.5805569848888213e-06,-4.68968318378895e-05,-0.00034518006758909106,-1.5805569848888213e-06,-4.68968318378895e-05,1.0056487463024996e-05,0.5809048273834156,0.9457560177029916,-0.00013704271763491686,-2.9235285680613416e-05,0.0001399451869139778,1.0056487463024996e-05,0.5809048273834156,0.9457560177029916,-0.00013704271763491686,-2.9235285680613416e-05,0.0001399451869139778
29,0.5600000000000002,0.06794380785983434,0.009998185861254772,0.25464455541555997,0.0669212968671914,0.010002371411802463,0.2540842381840244,0.0011659766931052715,0.1458287422351302,5.457394996771426,0.02803403168142839,0.27294706855223394,False,0,False,0,0,min_task,none,-0.00038209142583726685,-1.6488127846349922e-06,-4.1217745383918734e-05,-0.00038209142583726685,-1.6488127846349922e-06,-4.1217745383918734e-05,1.779302442104373e-05,0.5809293468298197,0.9482953543169691,-0.00014886739058389938,-3.13662200685729e-05,0.00015247689517223752,1.779302442104373e-05,0.5809293468298197,0.9482953543169691,-0.00014886739058389938,-3.13662200685729e-05,0.00015247689517223752
30,0.5800000000000002,0.06901250029350633,0.009998165962864177,0.2552382585891575,0.0679291979881289,0.010002371411802463,0.25464418325121196,0.001235510857010956,0.14611030338197872,5.4439883899600146,0.02810736677192616,0.27297158799863797,False,0,False,0,0,min_task,none,-0.00042157966019100977,-1.7121922069332831e-06,-3.4935196974879275e-05,-0.00042157966019100977,-1.7121922069332831e-06,-3.4935196974879275e-05,2.5894876706314303e-05,0.5809413791128881,0.95096686581134,-0.00016123845344479966,-3.348251350788153e-05,0.00016561701772060584,2.5894876706314303e-05,0.5809413791128881,0.95096686581134,-0.00016123845344479966,-3.348251350788153e-05,0.00016561701772060584
31,0.6000000000000002,0.07014134671292113,0.009998197152667596,0.2558654143826379,0.0689965081371914,0.010002371411802463,0.2552371333340244,0.0013059134216957264,0.14640597413075973,5.429954351514473,0.0281851980717275,0.2729836202817064,False,0,False,0,0,min_task,none,-0.00046374798404076037,-1.7709582719770826e-06,-2.8091343296645952e-05,-0.00046374798404076037,-1.7709582719770826e-06,-2.8091343296645952e-05,3.43305093917559e-05,0.580938560206778,0.9537697183903566,-0.0001741794834790599,-3.557389357347577e-05,0.0001793860449553125,3.43305093917559e-05,0.580938560206778,0.9537697183903566,-0.0001741794834790599,-3.557389357347577e-05,0.0001793860449553125
32,0.6200000000000002,0.07133110000391363,0.0099982820736952,0.25652644154883864,0.0701240561300039,0.010002371411802463,0.25586354888558693,0.0013770977885473824,0.14671557721655742,5.415307396082718,0.028267621477977605,0.2729808013755963,False,0,False,0,0,min_task,none,-0.0005087018613123256,-1.8255416391713782e-06,-2.0721928488074942e-05,-0.0005087018613123256,-1.8255416391713782e-06,-2.0721928488074942e-05,4.308184123421945e-05,0.5809183632932001,0.956702709746711,-0.00018771790113685159,-3.7629961454109166e-05,0.00019380765874706476,4.308184123421945e-05,0.5809183632932001,0.956702709746711,-0.00018771790113685159,-3.7629961454109166e-05,0.00019380765874706476
33,0.6400000000000002,0.07258244359011667,0.009998423048314307,0.2572217203735999,0.0713125999071914,0.010002371411802463,0.2565238509840244,0.0014489790383390478,0.14703889080389296,5.400064226159703,0.028354731446675562,0.2729606044620184,False,0,False,0,0,min_task,none,-0.0005565488631819703,-1.8765253422826487e-06,-1.2855494552568592e-05,-0.0005565488631819703,-1.8765253422826487e-06,-1.2855494552568592e-05,5.214449033947187e-05,0.580878100820587,0.9597642744343032,-0.00020188475693091022,-3.9639845001411756e-05,0.00020890857602694083,5.214449033947187e-05,0.580878100820587,0.9597642744343032,-0.00020188475693091022,-3.9639845001411756e-05,0.00020890857602694083
34,0.6600000000000003,0.07389599233722684,0.00999862216030022,0.25795159321060596,0.0725628275468789,0.010002371411802463,0.25721842189496197,0.00152147382271054,0.14737564953746526,5.384243623581827,0.028446621215541867,0.2729203419894053,False,0,False,0,0,min_task,none,-0.0006073984929745546,-1.9246268054557333e-06,-4.51314909463883e-06,-0.0006073984929745546,-1.9246268054557333e-06,-4.51314909463883e-06,6.152736825000878e-05,0.5808149272869862,0.9629524901341258,-0.00021671443721444869,-4.159181211111517e-05,0.00022471830810619708,6.152736825000878e-05,0.5808149272869862,0.9629524901341258,-0.00021671443721444869,-4.159181211111517e-05,0.00022471830810619708
35,0.6800000000000003,0.07527229346995101,0.00999888134384158,0.25871636501914674,0.07387535827719141,0.010002371411802463,0.25794760563402447,0.0015945002682841592,0.14772554574164287,5.367866332131404,0.02854338301223097,0.27285716845580454,False,0,False,0,0,min_task,none,-0.000661361981219988,-1.9706780050711383e-06,4.291163415970594e-06,-0.000661361981219988,-1.9706780050711383e-06,4.291163415970594e-06,7.125171039879303e-05,0.5807258427235166,0.9662650847739807,-0.00023224430440482458,-4.347285894456735e-05,0.0002412688494598284,7.125171039879303e-05,0.5807258427235166,0.9662650847739807,-0.00023224430440482458,-4.347285894456735e-05,0.0002412688494598284
36,0.7000000000000003,0.0767118275008361,0.009999202475205901,0.259516303903871,0.07525074348875391,0.010002371411802463,0.25871170852933695,0.0016679778923124032,0.14808823076169758,5.350954932377335,0.02864510824464419,0.27276808389233487,False,0,False,0,0,min_task,none,-0.0007185520529268562,-2.0156046033271128e-06,1.354996081509427e-05,-0.0007185520529268562,-2.0156046033271128e-06,1.354996081509427e-05,8.13496490042896e-05,0.5806076968523759,0.9696994444558829,-0.00024851428832676256,-4.5268287854006474e-05,0.0002585943115354691,8.13496490042896e-05,0.5806076968523759,0.9696994444558829,-0.00024851428832676256,-4.5268287854006474e-05,0.0002585943115354691
37,0.7200000000000003,0.07821500917071787,0.009999587462921998,0.2603516416559769,0.0766894677471914,0.010002371411802463,0.2595109997840245,0.0017418275293915354,0.14846331643858554,5.333533709949437,0.02875188767001441,0.2726499380211942,False,0,False,0,0,min_task,none,-0.0007790826692751615,-2.060404809498014e-06,2.3261181018233006e-05,-0.0007790826692751615,-2.060404809498014e-06,2.3261181018233006e-05,9.186244554442924e-05,0.5804571938904391,0.9732526221423413,-0.00026556644557152256,-4.696128967329602e-05,0.0002767305180236823,9.186244554442924e-05,0.5804571938904391,0.9732526221423413,-0.00026556644557152256,-4.696128967329602e-05,0.0002767305180236823
38,0.7400000000000003,0.07978218840068796,0.010000038332612732,0.26122257429537155,0.07819194980562891,0.010002371411802463,0.26034571203871193,0.0018159712689434504,0.14885037670837423,5.315628518477343,0.028863811539520515,0.27249943505925744,False,0,False,0,0,min_task,none,-0.0008430687460405143,-2.106128629126848e-06,3.342689477281652e-05,-0.0008430687460405143,-2.106128629126848e-06,3.342689477281652e-05,0.00010283850411598261,0.5802708979665759,0.9769213470492619,-0.0002834445030505631,-4.8532544276867725e-05,0.00029571457787736253,0.00010283850411598261,0.5802708979665759,0.9769213470492619,-0.0002834445030505631,-4.8532544276867725e-05,0.00029571457787736253
39,0.7600000000000003,0.08141365125487376,0.010000557302990593,0.26212926261364156,0.07975854361719141,0.010002371411802463,0.2612160419340245,0.001890332402776168,0.14924894931666025,5.297266638445815,0.02898096971530505,0.27231313913539423,False,0,False,0,0,min_task,none,-0.0009106258509702645,-2.153858042083044e-06,4.4051871689361435e-05,-0.0009106258509702645,-2.153858042083044e-06,4.4051871689361435e-05,0.00011433128405611077,0.58004523912117,0.9807020346925518,-0.0003021934001529609,-4.995985210194229e-05,0.0003155844510911153,0.00011433128405611077,0.58004523912117,0.9807020346925518,-0.0003021934001529609,-4.995985210194229e-05,0.0003155844510911153
40,0.7800000000000004,0.08310962091398505,0.0100011468500421,0.26307183271720624,0.08138953934750393,0.010002371411802463,0.262122150673087,0.0019648353823723303,0.14965853763790662,5.278476633209652,0.029103451756939673,0.2720874802899883,False,0,False,0,0,min_task,none,-0.000981869882537974,-2.204688528766817e-06,5.5142095382035185e-05,-0.000981869882537974,-2.204688528766817e-06,5.5142095382035185e-05,0.00012639722291318058,0.579776519851342,0.9845907975303207,-0.00032185884183290965,-5.121780754162161e-05,0.00033637852046205965,0.00012639722291318058,0.579776519851342,0.9845907975303207,-0.00032185884183290965,-5.121780754162161e-05,0.00033637852046205965
41,0.8000000000000004,0.08487025865819378,0.010001809757005322,0.2640503765704124,0.08308516438719141,0.010002371411802463,0.26306416458402443,0.0020394057845159077,0.15007861258875366,5.259288203410853,0.029231346974595722,0.27181876102016034,False,0,False,0,0,min_task,none,-0.0010569167322111502,-2.2597122238678074e-06,6.670331513417886e-05,-0.0010569167322111502,-2.2597122238678074e-06,6.670331513417886e-05,0.00013909376697361701,0.5794609221687471,0.9885834561444069,-0.0003424868717509164,-5.2277523158393974e-05,0.00035813517961744254,0.00013909376697361701,0.5794609221687471,0.9885834561444069,-0.0003424868717509164,-5.2277523158393974e-05,0.00035813517961744254
42,0.8200000000000004,0.0866956648594789,0.010002549148418615,0.265064952538796,0.08484558436437893,0.010002371411802463,0.26404217568246197,0.0021139702854562807,0.15050861462428575,5.239732040991136,0.029364744446446683,0.2715031633375654,False,0,False,0,0,min_task,none,-0.0011358819324625738,-2.320002849898274e-06,7.87397103502107e-05,-0.0011358819324625738,-2.320002849898274e-06,7.87397103502107e-05,0.00015247759050952548,0.5790945151345394,0.9926755509060321,-0.0003641234715411444,-5.3106411278625864e-05,0.0003808924445924519,0.00015247759050952548,0.5790945151345394,0.9926755509060321,-0.0003641234715411444,-5.3106411278625864e-05,0.0003808924445924519
43,0.8400000000000004,0.08858587998266393,0.010003368507230128,0.26611558593195106,0.08667090415719142,0.010002371411802463,0.26505624223402446,0.002188456642632018,0.15094795580611417,5.219839683935964,0.029503732998261888,0.27113675630335765,False,0,False,0,0,min_task,none,-0.0012188802926991298,-2.3866024613992935e-06,9.125273007687907e-05,-0.0012188802926991298,-2.3866024613992935e-06,9.125273007687907e-05,0.0001666030663174188,0.5786732628347363,0.9968623540666725,-0.0003868141889703493,-5.366802700698236e-05,0.0004046875928886197,0.0001666030663174188,0.5786732628347363,0.9968623540666725,-0.0003868141889703493,-5.366802700698236e-05,0.0004046875928886197
44,0.8600000000000004,0.0905408855938552,0.010004271674678567,0.26720226954646076,0.08856116890625393,0.010002371411802463,0.26610638931683694,0.002262793683004772,0.1513960219305321,5.199643372842473,0.02964840114345565,0.2707155040035546,False,0,False,0,0,min_task,none,-0.0013060255249057989,-2.460509912570967e-06,0.00010424015309170204,-0.0013060255249057989,-2.460509912570967e-06,0.00010424015309170204,0.00018152102881790935,0.5781930327646968,1.001138882222397,-0.00041060379408898375,-5.392197431400602e-05,0.0004295568302109455,0.00018152102881790935,0.5781930327646968,1.001138882222397,-0.00041060379408898375,-5.392197431400602e-05,0.0004295568302109455
45,0.8800000000000004,0.09256060537557528,0.010005262833386451,0.26832496420860796,0.09051636502719143,0.010002371411802463,0.26719260938402445,0.002336911297211957,0.151852174705607,5.179175910297999,0.02979883698235598,0.2702352739335151,False,0,False,0,0,min_task,none,-0.0013974298609108838,-2.542670875723038e-06,0.00011769539814855008,-0.0013974298609108838,-2.542670875723038e-06,0.00011769539814855008,0.00019727785185448757,0.5776496045877928,1.0054999090967522,-0.0004355359597577835,-5.3823874295844573e-05,0.00045553498210248176,0.00019727785185448757,0.5776496045877928,1.0054999090967522,-0.0004355359597577835,-5.3823874295844573e-05,0.00045553498210248176
46,0.9000000000000005,0.09464490614809086,0.01000634647479211,0.26948359931689314,0.09253642122312894,0.010002371411802463,0.268314862826212,0.00241074043906995,0.1523157539655943,5.158470523994859,0.02995512805989885,0.2696918457566111,False,0,False,0,0,min_task,none,-0.0014932036630104105,-2.6339691644789637e-06,0.00013160709735333172,-0.0014932036630104105,-2.6339691644789637e-06,0.00013160709735333172,0.00021391484388380403,0.5770386792350608,1.0099399785909215,-0.0004616529602645676,-5.332539251409582e-05,0.0004826552047925296,0.00021391484388380403,0.5770386792350608,1.0099399785909215,-0.0004616529602645676,-5.332539251409582e-05,0.0004826552047925296
47,0.9200000000000005,0.09679359889560966,0.010007527352636736,0.2706780733851034,0.09462120949719144,0.010002371411802463,0.26947307853402447,0.0024842131295870237,0.15278607991135948,5.137560734407087,0.030117361181499935,0.2690809204038791,False,0,False,0,0,min_task,none,-0.001593455029276242,-2.735219058790782e-06,0.00014595892952734975,-0.001593455029276242,-2.735219058790782e-06,0.00014595892952734975,0.00023146794485937047,0.5763558883185064,1.0144534180570868,-0.0004889953793291882,-5.23743205671822e-05,0.0005109487069478802,0.00023146794485937047,0.5763558883185064,1.0144534180570868,-0.0004889953793291882,-5.23743205671822e-05,0.0005109487069478802
48,0.9400000000000005,0.09900643979659571,0.010008810424768961,0.2719082545852969,0.09677054616500394,0.010002371411802463,0.270667154460587,0.002557262464479457,0.15326245536618532,5.116480227736461,0.030285622187403126,0.26839812948732467,False,0,False,0,0,min_task,none,-0.0016982893950497036,-2.8471583134563885e-06,0.0001607296979163301,-0.0016982893950497036,-2.8471583134563885e-06,0.0001607296979163301,0.00024996769591936573,0.5755968038256554,1.0190343517457667,-0.0005176018178906174,-5.0914705352880454e-05,0.0005404444727543914,0.00024996769591936573,0.5755968038256554,1.0190343517457667,-0.0005176018178906174,-5.0914705352880454e-05,0.0005404444727543914
49,0.9600000000000005,0.10128313125760444,0.010010200785897372,0.27317398129101467,0.09898419286719146,0.010002371411802463,0.2718969581840245,0.0026298226247791316,0.15374416803576488,5.095262734773843,0.030459995686276192,0.26763904499447366,False,0,False,0,0,min_task,none,-0.0018078091317950073,-2.970441523604669e-06,0.00017589362460630246,-0.0018078091317950073,-2.970441523604669e-06,0.00017589362460630246,0.0002694394404462224,0.5747569480678913,1.023676714386331,-0.0005475085911202449,-4.8887018599668885e-05,0.000571168975618457,0.0002694394404462224,0.5747569480678913,1.023676714386331,-0.0005475085911202449,-4.8887018599668885e-05,0.000571168975618457
50,0.9800000000000005,0.10362332294977772,0.010011703594193802,0.2744750626213925,0.10126185758187894,0.010002371411802463,0.27316232746996194,0.002701828890069623,0.15423049276207412,5.073941916195868,0.030640564749440064,0.26679918923670964,False,0,False,0,0,min_task,none,-0.0019221131442047406,-3.1056335368495178e-06,0.00019142082501726529,-0.0019221131442047406,-3.1056335368495178e-06,0.00019142082501726529,0.00028990370639691947,0.5738318038588444,1.028374264865621,-0.0005787494039891069,-4.622835878443177e-05,0.0006031458714699352,0.00028990370639691947,0.5738318038588444,1.028374264865621,-0.0005787494039891069,-4.622835878443177e-05,0.0006031458714699352
51,1.0000000000000004,0.10602661284723605,0.010013323994757857,0.27581127898573354,0.10360319563719145,0.010002371411802463,0.2744630708340245,0.002773217653439503,0.15472069376144404,5.052551254707437,0.030827410567670976,0.26587404502766265,False,0,False,0,0,min_task,none,-0.0020412964664855916,-3.2532026477609003e-06,0.0002072779206981903,-0.0020412964664855916,-3.2532026477609003e-06,0.0002072779206981903,0.0003113767160996866,0.5728168248966095,1.0331205999671997,-0.0006113549957844106,-4.287267742303068e-05,0.0006363956614969412,0.0003113767160996866,0.5728168248966095,1.0331205999671997,-0.0006113549957844106,-4.287267742303068e-05,0.0006363956614969412
52,1.0200000000000005,0.10849254826616184,0.010015067042922456,0.27718238262908435,0.10600781072375395,0.010002371411802463,0.27579896810433696,0.0028439264373367203,0.15521402683696225,5.031123954370478,0.031020612072956637,0.26485906606542775,False,0,False,0,0,min_task,none,-0.0021654498583206843,-3.4135133583113214e-06,0.0002234287447781556,-0.0021654498583206843,-3.4135133583113214e-06,0.0002234287447781556,0.00033387096726916635,0.5717074463302688,1.0379091681434631,-0.0006453527449549658,-3.875102236186114e-05,0.0006709353150784426,0.00033387096726916635,0.5717074463302688,1.0379091681434631,-0.0006453527449549658,-3.875102236186114e-05,0.0006709353150784426
53,1.0400000000000005,0.11102062690513115,0.010016937630194966,0.27858809817887265,0.10847525590719144,0.010002371411802463,0.27716977098402446,0.0029138939108204987,0.15570974155643608,5.009692847338456,0.03122024552811894,0.2637496874990871,False,0,False,0,0,min_task,none,-0.002294659401198438,-3.5868185664647576e-06,0.00023983509509280192,-0.002294659401198438,-3.5868185664647576e-06,0.00023983509509280192,0.0003573958323081087,0.5704990954869504,1.042733283292399,-0.0006807662281082757,-3.379179142753873e-05,0.0007067778459814102,0.0003573958323081087,0.5704990954869504,1.042733283292399,-0.0006807662281082757,-3.379179142753873e-05,0.0007067778459814102
54,1.0600000000000005,0.11361029788561286,0.010018940415318783,0.28002812319270753,0.11100503464062894,0.010002371411802463,0.27857520361371196,0.0029830599073049687,0.15620708338722356,4.988290308146123,0.03142638408770599,0.26254133665576873,False,0,False,0,0,min_task,none,-0.0024290060953590267,-3.773251114856616e-06,0.0002564574913979257,-0.0024290060953590267,-3.773251114856616e-06,0.0002564574913979257,0.0003819581266308024,0.569187202741571,1.0475861385164382,-0.0007176147289278403,-2.7920991171301783e-05,0.0007439318368799727,0.0003819581266308024,0.569187202741571,1.0475861385164382,-0.0007176147289278403,-2.7920991171301783e-05,0.0007439318368799727
55,1.0800000000000005,0.11626096279206853,0.010021079762509435,0.2815021287077528,0.11359660177719146,0.010002371411802463,0.28001496313402446,0.0030513654424971395,0.15670529577998132,4.9669481756121865,0.0316390973338844,0.26122944391038927,False,0,False,0,0,min_task,none,-0.002568565457466888,-3.972814712765128e-06,0.00027325589728920385,-0.002568565457466888,-3.972814712765128e-06,0.00027325589728920385,0.00040756260373243485,0.5677672125130988,1.0524608198459835,-0.0007559126954251837,-2.1062496911920936e-05,0.0007824009099104301,0.00040756260373243485,0.5677672125130988,1.0524608198459835,-0.0007559126954251837,-2.1062496911920936e-05,0.0007824009099104301
56,1.1000000000000005,0.11897197671189338,0.01002335968842579,0.28300975979126164,0.11624936458250393,0.010002371411802463,0.28148872024808697,0.0031187527325447313,0.1572036221940849,4.945697682329524,0.03185845079143888,0.2598094536819171,False,0,False,0,0,min_task,none,-0.0027134071192453004,-4.185374332704579e-06,0.0002901903740495035,-0.0027134071192453004,-4.185374332704579e-06,0.0002901903740495035,0.00043421234450470103,0.566234594367593,1.057350319908507,-0.0007956691471295973,-1.31383117435094e-05,0.0008221831441641623,0.00043421234450470103,0.566234594367593,1.057350319908507,-0.0007956691471295973,-1.31383117435094e-05,0.0008221831441641623
57,1.1200000000000006,0.12174264927437847,0.010025783818848994,0.2845506360928091,0.11896268374719146,0.010002371411802463,0.2829961197840245,0.003185165211951998,0.15770130805752558,4.924569391670762,0.03208450542624251,0.25827683553641134,False,0,False,0,0,min_task,none,-0.0028635944268159477,-4.4106462478434495e-06,0.00030722163953573876,-0.0028635944268159477,-4.4106462478434495e-06,0.00030722163953573876,0.0004619090164917733,0.5645848542159021,1.0622475515340417,-0.0008368870360039519,-4.068823990903746e-06,0.0008632704433626348,0.0004619090164917733,0.5645848542159021,1.0622475515340417,-0.0008368870360039519,-4.068823990903746e-06,0.0008632704433626348
58,1.1400000000000006,0.12457224568916664,0.010028355355467759,0.2861243523982206,0.12173587439937895,0.010002371411802463,0.28453678125746196,0.0032505475516949344,0.15819760265534827,4.903593142145848,0.032317317131772196,0.2566270953847204,False,0,False,0,0,min_task,none,-0.0030191840406730177,-4.648187950920885e-06,0.0003243115137252771,-0.0030191840406730177,-4.648187950920885e-06,0.0003243115137252771,0.0004906529901773307,0.5628135455896175,1.0671453612866473,-0.0008795625679643458,6.22693607922507e-06,0.000905647860066486,0.0004906529901773307,0.5628135455896175,1.0671453612866473,-0.0008795625679643458,6.22693607922507e-06,0.000905647860066486
59,1.1600000000000006,0.12745998778399095,0.01003107705257842,0.28773047918512773,0.12456820711719148,0.010002371411802463,0.2861102994340245,0.003314845677338917,0.15869176094085624,4.882797998912417,0.03255693620839447,0.2548557867584358,False,0,False,0,0,min_task,none,-0.003180225535993713,-4.897388245240852e-06,0.00034142323998748826,-0.003180225535993713,-4.897388245240852e-06,0.00034142323998748826,0.0005204433088811739,0.5609162809814704,1.072036542915119,-0.000923684494010617,1.783103812469642e-05,0.0009492928850273404,0.0005204433088811739,0.5609162809814704,1.072036542915119,-0.000923684494010617,1.783103812469642e-05,0.0009492928850273404
60,1.1800000000000006,0.13040505504114103,0.010033951202956817,0.2893685631805083,0.12745890894125395,0.010002371411802463,0.287716244891837,0.0033780067868740067,0.15918304526448965,4.862212212188993,0.03280340684015633,0.2529585221502887,False,0,False,0,0,min_task,none,-0.003346761002759172,-5.157457833008309e-06,0.00035852167831592827,-0.003346761002759172,-5.157457833008309e-06,0.00035852167831592827,0.0005512775176103201,0.5588887432393262,1.0769138507215053,-0.0009692333816880632,3.082638890055967e-05,0.0009941747121276756,0.0005512775176103201,0.5588887432393262,1.0769138507215053,-0.0009692333816880632,3.082638890055967e-05,0.0009941747121276756
61,1.2000000000000006,0.13340658563324775,0.010036979631696882,0.29103812791991435,0.13040716438719147,0.010002371411802463,0.28935416458402446,0.0034399793686589893,0.15967072701617807,4.841863182269277,0.03305676657378919,0.25093098440814454,False,0,False,0,0,min_task,none,-0.003518824645377733,-5.427420754948586e-06,0.0003755733744669513,-0.003518824645377733,-5.427420754948586e-06,0.0003755733744669513,0.0005831513654960634,0.5567266969980866,1.0817700128437497,-0.0010161808795470894,4.529646098696031e-05,0.00104025349133179,0.0005831513654960634,0.5567266969980866,1.0817700128437497,-0.0010161808795470894,4.529646098696031e-05,0.00104025349133179
62,1.2200000000000006,0.13646367745852195,0.010040163696410058,0.2927386743084156,0.13341211645812898,0.010002371411802463,0.291023582401212,0.0035007132196240337,0.16015408817712165,4.821777430822142,0.033317045804541916,0.24876893816690493,False,0,False,0,0,min_task,none,-0.0036964423813054853,-5.706107034285939e-06,0.00039254651446966757,-0.0036964423813054853,-5.706107034285939e-06,0.00039254651446966757,0.0006160584024828248,0.5544260001362443,1.0865977444531372,-0.0010644889879565852,6.13250089252329e-05,0.0010874795828886992,0.0006160584024828248,0.5544260001362443,1.0865977444531372,-0.0010644889879565852,6.13250089252329e-05,0.0010874795828886992
63,1.2400000000000007,0.13957538917510987,0.010043504291900424,0.2944696811834673,0.13647286765719147,0.010002371411802463,0.29272399973402446,0.0035601594635494365,0.16063242277781262,4.8019805781252565,0.03358426727327368,0.24646824130506262,False,0,False,0,0,min_task,none,-0.0038796314380050625,-5.992146861097866e-06,0.0004094107784803904,-0.0038796314380050625,-5.992146861097866e-06,0.0004094107784803904,0.0006499894954386338,0.5519826152454986,1.0913897608704517,-0.0011141093498464906,7.899576865058376e-05,0.0011357928263489836,0.0006499894954386338,0.5519826152454986,1.0913897608704517,-0.0011141093498464906,7.899576865058376e-05,0.0011357928263489836
64,1.2600000000000007,0.1427407412347992,0.010047001857267012,0.2962306058793934,0.13958848100000398,0.010002371411802463,0.294454896035587,0.003618270569474412,0.16110503825989553,4.782497325853311,0.03385844557896515,0.24402485641431693,False,0,False,0,0,min_task,none,-0.004068399947740075,-6.283966627547892e-06,0.000426137112004813,-0.004068399947740075,-6.283966627547892e-06,0.000426137112004813,0.0006849322927107468,0.5493926210982346,1.0961387906030005,-0.0011649825751327448,9.83921366656356e-05,0.001185121838174092,0.0006849322927107468,0.5493926210982346,1.0961387906030005,-0.0011649825751327448,9.83921366656356e-05,0.001185121838174092
65,1.2800000000000007,0.1459587169162929,0.010050656383341508,0.2980208847937641,0.14275798102719148,0.010002371411802463,0.2962157293840245,0.0036750003705537785,0.1615712567397665,4.7633514450403895,0.03413958671049061,0.2414348622670529,False,0,False,0,0,min_task,none,-0.00426274653960845,-6.579787076857397e-06,0.0004426974343538558,-0.00426274653960845,-6.579787076857397e-06,0.0004426974343538558,0.0007208706669374233,0.5466522240988688,1.1008375883085728,-0.0012170376117798872,0.00011959682609694054,0.0012353833510192226,0.0007208706669374233,0.5466522240988688,1.1008375883085728,-0.0012170376117798872,0.00011959682609694054,0.0012353833510192226
66,1.3000000000000007,0.14922826335810996,0.010054467418441054,0.29983993395540354,0.145980354816879,0.010002371411802463,0.298005937044962,0.003730304083264254,0.16203041617273597,4.744565768814299,0.034427687601155804,0.23869446526768712,False,0,False,0,0,min_task,none,-0.004462659928302652,-6.877623775169495e-06,0.00045906430538800554,-0.004462659928302652,-6.877623775169495e-06,0.00045906430538800554,0.0007577841658766459,0.5437577697027816,1.10547894769069,-0.00127019117553471,0.0001426914978430599,0.0012864816068989772,0.0007577841658766459,0.5437577697027816,1.10547894769069,-0.00127019117553471,0.0001426914978430599,0.0012864816068989772
67,1.3200000000000007,0.15254829259118288,0.010058434070591754,0.3016871495940978,0.14925455299719148,0.010002371411802463,0.2998249360340245,0.0037841383270248094,0.16248187141695947,4.726162189505747,0.03472273570905131,0.23580001087159985,False,0,False,0,0,min_task,none,-0.0046681184990869685,-7.175290050074857e-06,0.00047521057114824464,-0.0046681184990869685,-7.175290050074857e-06,0.00047521057114824464,0.000795647498809886,0.5407057537863913,1.110055714331483,-0.0013243472489011898,0.00016775636619500146,0.0013383078150644694,0.000795647498809886,0.5407057537863913,1.110055714331483,-0.0013243472489011898,0.00016775636619500146,0.0013383078150644694
68,1.3400000000000007,0.15591768257142433,0.010062555004649936,0.30356190871176403,0.15257949075875402,0.010002371411802463,0.301672123679337,0.003836461144311563,0.1629249951971328,4.70816165972756,0.03502470862584135,0.2327479949552096,False,0,False,0,0,min_task,none,-0.00487908988864844,-7.4704024736389894e-06,0.0004911090079962214,-0.00487908988864844,-7.4704024736389894e-06,0.0004911090079962214,0.0008344300833123474,0.5374928339489113,1.1145607984666976,-0.0013793966584776968,0.00019486977967854866,0.0013907396840150623,0.0008344300833123474,0.5374928339489113,1.1145607984666976,-0.0013793966584776968,0.00019486977967854866,0.0013907396840150623
69,1.3600000000000008,0.15933527821191495,0.010066828433076403,0.30546356965508314,0.1559540488671915,0.010002371411802463,0.3035468781840245,0.003887232020916625,0.16335917896839092,4.690584197029261,0.03533357371613308,0.22953507511772964,False,0,False,0,0,min_task,none,-0.005095530561436475,-7.760388895402616e-06,0.0005067319823709324,-0.005095530561436475,-7.760388895402616e-06,0.0005067319823709324,0.0008740956724933258,0.5341158407272668,1.1189871877091548,-0.001435216737790204,0.00022410777908961552,0.0014436410351821717,0.0008740956724933258,0.5341158407272668,1.1189871877091548,-0.001435216737790204,0.00022410777908961552,0.0014436410351821717
70,1.3800000000000008,0.1627998924150288,0.01007125209952049,0.3073914726897969,0.159377074675629,0.010002371411802463,0.305448559188712,0.0039364119066719,0.16378383368167831,4.673448891729317,0.03564928778906367,0.2261580818960851,False,0,False,0,0,min_task,none,-0.005317385381332734,-8.04249896612828e-06,0.0005220511408142659,-0.005317385381332734,-8.04249896612828e-06,0.0005220511408142659,0.0009146020784024378,0.5305717887026005,1.123327959726318,-0.0014916710811802,0.0002555436360573831,0.0014968615042854976,0.0009146020784024378,0.5305717887026005,1.123327959726318,-0.0014916710811802,0.0002555436360573831,0.0014968615042854976
71,1.4000000000000008,0.16631030710494116,0.010075823254778704,0.3093449405760217,0.16284738313719152,0.010002371411802463,0.3073765083340245,0.003983963236650846,0.16419839045247542,4.6567739175358005,0.03597179680331454,0.22261402987141876,False,0,False,0,0,min_task,none,-0.005544587178826687,-8.313817036557052e-06,0.0005370371423918715,-0.005544587178826687,-8.313817036557052e-06,0.0005370371423918715,0.0009559010030739516,0.526857887471647,1.1275762948721326,-0.0015486093929526722,0.000289247376719298,0.0015502363350465467,0.0009559010030739516,0.526857887471647,1.1275762948721326,-0.0015486093929526722,0.000289247376719298,0.0015502363350465467
72,1.4200000000000008,0.16986527425950385,0.010080538625083056,0.31132327914495217,0.166363757817504,0.010002371411802463,0.309330049823087,0.0040298499520913175,0.16460230113494057,4.640576544593861,0.03630103560626476,0.21890012864046526,False,0,False,0,0,min_task,none,-0.005777056313636049,-8.57127725241815e-06,0.0005516594411830977,-0.005777056313636049,-8.57127725241815e-06,0.0005516594411830977,0.000997937981996157,0.5229715524617852,1.1317254887794128,-0.0016058674337218126,0.0003252852957914473,0.0016035862678268108,0.000997937981996157,0.5229715524617852,1.1317254887794128,-0.0016058674337218126,0.0003252852957914473,0.0016035862678268108
73,1.4400000000000008,0.17346351694266565,0.010085394373105482,0.3133257778767973,0.16992495190719156,0.010002371411802463,0.3113084909840245,0.004074037521935213,0.16499503880484648,4.62487315458135,0.03663692770751298,0.21501379363060347,False,0,False,0,0,min_task,none,-0.0060147002334330945,-8.811680634545838e-06,0.0005658861247077055,-0.0060147002334330945,-8.811680634545838e-06,0.0005658861247077055,0.0010406524420289794,0.5189104155582746,1.1357689649113114,-0.0016632670655860739,0.00036371946745076584,0.001656717525407172,0.0010406524420289794,0.5189104155582746,1.1357689649113114,-0.0016632670655860739,0.00036371946745076584,0.001656717525407172
74,1.4600000000000009,0.17710373033710383,0.010090386052394342,0.31535171047964516,0.17352968923437906,0.010002371411802463,0.31331112283246204,0.004116492964497933,0.1653760981546847,4.609679257511082,0.036979385086709185,0.21095265672709285,False,0,False,0,0,min_task,none,-0.006257413029336054,-9.031713894630796e-06,0.0005796838105111918,-0.006257413029336054,-9.031713894630796e-06,0.0005796838105111918,0.0010839778707175092,0.514672335513988,1.1397002870702722,-0.0017206163963433888,0.000404607259806804,0.0017094218968270016,0.0010839778707175092,0.514672335513988,1.1397002870702722,-0.0017206163963433888,0.000404607259806804,0.0017094218968270016
75,1.4800000000000009,0.18078458277630094,0.010095508556253564,0.31740033546947055,0.1771766652771915,0.010002371411802463,0.3153372206340245,0.004157184868669457,0.16574499580507024,4.59500950990488,0.037328308035182986,0.20671457668280635,False,0,False,0,0,min_task,none,-0.00650507498894953,-9.227969712795251e-06,0.000593017600135822,-0.00650507498894953,-9.227969712795251e-06,0.000593017600135822,0.0011278420899782833,0.5102554081126166,1.1435131718639169,-0.0017777100220963044,0.00044800085993758506,0.0017614769194161076,0.0011278420899782833,0.5102554081126166,1.1435131718639169,-0.0017777100220963044,0.00044800085993758506,0.0017614769194161076
76,1.5000000000000009,0.18450471677683392,0.010100756062340581,0.31947089675085105,0.18086454817625408,0.010002371411802463,0.31738604446683705,0.004196083415074977,0.16610127053742973,4.580877734007457,0.03768358503053688,0.2022976492814349,False,0,False,0,0,min_task,none,-0.006757552148425912,-9.39696819946461e-06,0.0006058510885511181,-0.006757552148425912,-9.39696819946461e-06,0.0006058510885511181,0.0011721676258766565,0.5056579760477612,1.1472015011194945,-0.0018343293680500754,0.0004939468168338694,0.0018126461595889284,0.0011721676258766565,0.5056579760477612,1.1472015011194945,-0.0018343293680500754,0.0004939468168338694,0.0018126461595889284
77,1.520000000000001,0.18826275007110707,0.010106121974420314,0.3215626241984408,0.18459197974719155,0.010002371411802463,0.3194568397840245,0.0042331603974076985,0.16644448345298932,4.567296937743351,0.038045092643213166,0.1977002172165795,False,0,False,0,0,min_task,none,-0.007014695845183113,-9.53517925795286e-06,0.0006181464249331383,-0.007014695845183113,-9.53517925795286e-06,0.0006181464249331383,0.001216872163672506,0.5008786384811683,1.1507593342389553,-0.001890243126998365,0.0005424856093260056,0.0018626795927573587,0.001216872163672506,0.5008786384811683,1.1507593342389553,-0.001890243126998365,0.0005424856093260056,0.0018626795927573587
78,1.540000000000001,0.19205727663962216,0.010111598862793388,0.32367473423927073,0.18835757649312906,0.010002371411802463,0.32154883797621203,0.004268389243180379,0.16677421806387915,4.554279335123484,0.038412695473858005,0.1929208796499866,False,0,False,0,0,min_task,none,-0.007276342273031367,-9.639045566709072e-06,0.0006298644189815442,-0.007276342273031367,-9.639045566709072e-06,0.0006298644189815442,0.0012618690755532684,0.495916260245064,1.154180920486205,-0.0019452077949133266,0.0005936512455892045,0.0019113140827311638,0.0012618690755532684,0.495916260245064,1.154180920486205,-0.0019452077949133266,0.0005936512455892045,0.0019113140827311638
79,1.560000000000001,0.19588686774364367,0.0101171784049935,0.32580643043541896,0.19215993061719155,0.010002371411802463,0.32366125693402453,0.0043017450344363176,0.16709008032285658,4.541836366814825,0.03878624612011365,0.18795850141388232,False,0,False,0,0,min_task,none,-0.007542312042242667,-9.70500592004464e-06,0.0006409646874280447,-0.007542312042242667,-9.70500592004464e-06,0.0006409646874280447,0.0013070680097192768,0.4907699806448028,1.1574607111896111,-0.0019989683044064795,0.0006474709006871388,0.0019582739622927593,0.0013070680097192768,0.4907699806448028,1.1574607111896111,-0.0019989683044064795,0.0006474709006871388,0.0019582739622927593
80,1.580000000000001,0.19975007295720354,0.010122851328294725,0.3279569040669401,0.19599761103500407,0.010002371411802463,0.32579330161058706,0.004333204527479851,0.16739169859808484,4.5299787206216,0.03916558517154611,0.1828122218136211,False,0,False,0,0,min_task,none,-0.007812409747032799,-9.729518674445305e-06,0.0006514058340041983,-0.007812409747032799,-9.729518674445305e-06,0.0006514058340041983,0.001352375528229056,0.4854392218235133,1.1605933718449624,-0.0020512587566661905,0.0007039645977137622,0.0020032717166172448,0.001352375528229056,0.4854392218235133,1.1605933718449624,-0.0020512587566661905,0.0007039645977137622,0.0020032717166172448
81,1.600000000000001,0.203645421199318,0.01012860735552175,0.33012533471528244,0.19986916438719154,0.010002371411802463,0.32794416458402453,0.004362746172551158,0.1676787236002763,4.5187163516220865,0.0395505412313203,0.17748146299233158,False,0,False,0,0,min_task,none,-0.008086423543617624,-9.709085072254306e-06,0.0006611456571254153,-0.008086423543617624,-9.709085072254306e-06,0.0006611456571254153,0.0013976957829829311,0.47992369664430007,1.1635737940992856,-0.002101803253869649,0.0007631449376370848,0.0020460087725976952,0.0013976957829829311,0.47992369664430007,1.1635737940992856,-0.002101803253869649,0.0007631449376370848,0.0020460087725976952
82,1.620000000000001,0.20757142176615057,0.01013443515553834,0.3323108908467918,0.20377311605187903,0.010002371411802463,0.330113026619962,0.004390350133082251,0.16795082826969904,4.508058501725596,0.03994093096350195,0.17196593781311836,False,0,False,0,0,min_task,none,-0.00836412474224359,-9.64027223151534e-06,0.0006701413797250368,-0.00836412474224359,-9.64027223151534e-06,0.0006701413797250368,0.0014429312200110146,0.4742234160461973,1.1663971075917758,-0.0021503168345405497,0.000825016882154596,0.002086176397704424,0.0014429312200110146,0.4742234160461973,1.1663971075917758,-0.0021503168345405497,0.000825016882154596,0.002086176397704424
83,1.640000000000001,0.2115265653626508,0.010140322299656616,0.334512730395615,0.20770797115719153,0.010002371411802463,0.33229905723402453,0.0044159983038688875,0.1682077076307426,4.498013718431642,0.0403365591649198,0.16626565721501557,False,0,False,0,0,min_task,none,-0.008645267416941755,-9.519735609708951e-06,0.0006783498964291591,-0.008645267416941755,-9.519735609708951e-06,0.0006783498964291591,0.0014879833037230463,0.46833869582947335,1.1690586916242462,-0.0021965065149942647,0.0008895775931397265,0.0021234567127324084,0.0014879833037230463,0.46833869582947335,1.1690586916242462,-0.0021965065149942647,0.0008895775931397265,0.0021234567127324084
84,1.660000000000001,0.215509325133942,0.0101462552250572,0.336730001347219,0.2116722155937541,0.010002371411802463,0.3345014152543371,0.00443967432910392,0.16844907862189432,4.488589872589407,0.04073721886071777,0.16038093699829165,False,0,False,0,0,min_task,none,-0.008929588036942063,-9.34424076281919e-06,0.0006857280333956253,-0.008929588036942063,-9.34424076281919e-06,0.0006857280333956253,0.0015327532533365535,0.46227016282912653,1.171554186638237,-0.002240072440158225,0.0009568163313185452,0.0021575238230710633,0.0015327532533365535,0.46227016282912653,1.171554186638237,-0.002240072440158225,0.0009568163313185452,0.0021575238230710633
85,1.680000000000001,0.219518157696234,0.010152219206183888,0.33896184232082605,0.21566431702719158,0.010002371411802463,0.33671924938402453,0.004461363619347611,0.16867467990983226,4.479794174941365,0.04114269142314416,0.15431240399794482,False,0,False,0,0,min_task,none,-0.009216805124344876,-9.110684242661394e-06,0.0006922328183531557,-0.009216805124344876,-9.110684242661394e-06,0.0006922328183531557,0.0015771427868931306,0.45601876042856504,1.17387950545996,-0.002280709148085513,0.0010267144164391125,0.0021880450741351585,0.0015771427868931306,0.45601876042856504,1.17387950545996,-0.002280709148085513,0.0010267144164391125,0.0021880450741351585
86,1.700000000000001,0.22355150416808098,0.01015819833490982,0.3412073831509157,0.2196827259106291,0.010002371411802463,0.33895169876371206,0.004481053368346753,0.16888427169522188,4.471633191294437,0.04155274671327966,0.14806100159738333,False,0,False,0,0,min_task,none,-0.009506618942850058,-8.816113483900401e-06,0.0006978217586014108,-0.009506618942850058,-8.816113483900401e-06,0.0006978217586014108,0.0016210548687168786,0.44958575336851037,1.1760308442782763,-0.0023181069521307383,0.0010992452502706967,0.00221468243639798,0.0016210548687168786,0.44958575336851037,1.1760308442782763,-0.0023181069521307383,0.0010992452502706967,0.00221468243639798
87,1.720000000000001,0.22760779120030772,0.010164175510138469,0.34346574546838204,0.22372587649719156,0.010002371411802463,0.3411978935340245,0.004498732568699426,0.1690776355184089,4.4641128561504,0.04196714324592258,0.14162799453732866,False,0,False,0,0,min_task,none,-0.009798711221999035,-8.457745534119076e-06,0.0007024531240285463,-0.009798711221999035,-8.457745534119076e-06,0.0007024531240285463,0.0016643944551688729,0.4429727318169003,1.1780046933256074,-0.0023519534433469116,0.0011743744026855166,0.002237094024209487,0.0016643944551688729,0.4429727318169003,1.1780046933256074,-0.0023519534433469116,0.0011743744026855166,0.002237094024209487
88,1.740000000000001,0.23168543200505173,0.010170132437421011,0.34573604328029645,0.2277921878525041,0.010002371411802463,0.34345695539808707,0.0045143920263858925,0.1692545740737404,4.457238484615033,0.04238562837803924,0.13501497298571857,False,0,False,0,0,min_task,none,-0.010092744922259887,-8.032984499282577e-06,0.000706086234755969,-0.010092744922259887,-8.032984499282577e-06,0.000706086234755969,0.0017070692368766004,0.43618161465578686,1.1797978472172757,-0.002381935116372576,0.0012520597608818398,0.0022549357532479016,0.0017070692368766004,0.43618161465578686,1.1797978472172757,-0.002381935116372576,0.0012520597608818398,0.0022549357532479016
89,1.7600000000000011,0.23578282738461265,0.010176049639059876,0.3480173835485605,0.2318800648671916,0.010002371411802463,0.34572799818402455,0.004528024375084716,0.16941491103993833,4.451014782461047,0.042807938521668455,0.12822385582460516,False,0,False,0,0,min_task,none,-0.010388364046280145,-7.539437579719843e-06,0.000708681752804336,-0.010388364046280145,-7.539437579719843e-06,0.000708681752804336,0.0017489903750793896,0.4292146519466145,1.1814074149083558,-0.002407739120559027,0.0013322517408992363,0.0022678631400689037,0.0017489903750793896,0.4292146519466145,1.1814074149083558,-0.002407739120559027,0.0013322517408992363,0.0022678631400689037
90,1.7800000000000011,0.23989836675936135,0.010181906475107265,0.35030886676679507,0.23598789926937913,0.010002371411802463,0.34801012840746204,0.004539624089485035,0.16955849093414535,4.4454458542132445,0.043233799382636794,0.1212568931154328,False,0,False,0,0,min_task,none,-0.010685193501553078,-6.974929576842738e-06,0.0007102019771454563,-0.010685193501553078,-6.974929576842738e-06,0.0007102019771454563,0.0017900732293624289,0.42207442654025495,1.1828308292239529,-0.0024290551363639313,0.0014148935597999253,0.002275533245557275,0.0017900732293624289,0.42207442654025495,1.1828308292239529,-0.0024290551363639313,0.0014148935597999253,0.002275533245557275
91,1.8000000000000012,0.24403042919399426,0.01018768117559199,0.3526095875351888,0.24011407063719165,0.010002371411802463,0.3503024458340246,0.004549187497042476,0.1696851789967179,4.44053520914265,0.04366292622665006,0.11411666770907325,False,0,False,0,0,min_task,none,-0.010982839019688467,-6.3375157580902705e-06,0.000710611141284017,-0.010982839019688467,-6.3375157580902705e-06,0.000710611141284017,0.001830238073411776,0.4147638548030182,1.1840658559196218,-0.00244557737509547,0.0014999215660801057,0.0022776067622078317,0.001830238073411776,0.4147638548030182,1.1840658559196218,-0.00244557737509547,0.0014999215660801057,0.0022776067622078317
92,1.8200000000000012,0.2481773844229534,0.010193350884309317,0.35491863513338706,0.2442569474112541,0.010002371411802463,0.3526040440418371,0.004556712789139036,0.16979486111349534,4.43628576506312,0.04409502417468606,0.10680609597183649,False,0,False,0,0,min_task,none,-0.011280887137721097,-5.6254929804191095e-06,0.0007098757130774627,-0.011280887137721097,-5.6254929804191095e-06,0.0007098757130774627,0.0018694107957371064,0.4072861864293692,1.1851106022254163,-0.0024570066984918003,0.0015872656253294217,0.002273750243545217,0.0018694107957371064,0.4072861864293692,1.1851106022254163,-0.0024570066984918003,0.0015872656253294217,0.002273750243545217
93,1.8400000000000012,0.2523375938744666,0.010198891714452638,0.3572350940911272,0.24841488790719163,0.010002371411802463,0.3549140109840246,0.004562200031248666,0.16988744378144813,4.432699849845924,0.04452978853006864,0.0993284275981875,False,0,False,0,0,min_task,none,-0.011578905246513034,-4.83740898248421e-06,0.0007079646955459815,-0.011578905246513034,-4.83740898248421e-06,0.0007079646955459815,0.0019075235806404816,0.3996450033203962,1.1859635248280898,-0.0024630528516267377,0.0016768495572014792,0.0022636384710356216,0.0019075235806404816,0.3996450033203962,1.1859635248280898,-0.0024630528516267377,0.0016768495572014792,0.0022636384710356216
94,1.8600000000000012,0.256509411692447,0.01020427881633086,0.3595580447562702,0.2525862413281291,0.010002371411802463,0.35723142955121207,0.004565651171505892,0.16996285412300483,4.429779200577436,0.04496690513973263,0.0916872444892145,False,0,False,0,0,min_task,none,-0.011876441711065595,-3.972069772716412e-06,0.0007048499269627991,-0.011876441711065595,-3.972069772716412e-06,0.0007048499269627991,0.0019445155637318932,0.3918442175126444,1.186623437246045,-0.0024634367998888403,0.0017685916189378564,0.0022469569510582725,0.0019445155637318932,0.3918442175126444,1.186623437246045,-0.0024634367998888403,0.0017685916189378564,0.0022469569510582725
95,1.8800000000000012,0.26069118575702216,0.01020948645740602,0.3618865638604123,0.2567693487771916,0.010002371411802463,0.35955537813402455,0.004567070048663126,0.17002103995354037,4.4275249602999915,0.04540605079236747,0.08388645868146272,False,0,False,0,0,min_task,none,-0.012173026067539096,-3.028545063275643e-06,0.0007005063785248938,-0.012173026067539096,-3.028545063275643e-06,0.0007005063785248938,0.001980333455939027,0.3838880681434651,1.1870895165507838,-0.0024578931582364323,0.0018624050300171916,0.0022234045318685557,0.001980333455939027,0.3838880681434651,1.1870895165507838,-0.0024578931582364323,0.0018624050300171916,0.0022234045318685557
96,1.9000000000000012,0.2648812587024291,0.010214488114801658,0.36421972508113254,0.26096254427000415,0.010002371411802463,0.36188493118558707,0.004566462398100245,0.17006196990547334,4.42593767229632,0.045846893656420154,0.0759303093122834,False,0,False,0,0,min_task,none,-0.012468169301129508,-2.0061717228031415e-06,0.000694912446729502,-0.012468169301129508,-2.0061717228031415e-06,0.000694912446729502,0.0020149321281608566,0.37578111744889564,1.1873613093891793,-0.002446172697233635,0.001958198531499376,0.0021926961266955404,0.0020149321281608566,0.37578111744889564,1.1873613093891793,-0.002446172697233635,0.001958198531499376,0.0021926961266955404
97,1.9200000000000013,0.2690779689325459,0.010219256580394461,0.36655659960104536,0.26516415574719165,0.010002371411802463,0.36421915978402464,0.004563835856426216,0.1700856336113859,4.425017271895859,0.0462890937607717,0.06782335861771394,False,0,False,0,0,min_task,none,-0.012761364208698285,-9.045552520264163e-07,0.0006880502372995481,-0.012761364208698285,-9.045552520264163e-07,0.0006880502372995481,0.0020482751481424003,0.3675282457938206,1.1874387372636337,-0.002428044907412598,0.0020558769728956233,0.002154565525983031,0.0020482751481424003,0.3675282457938206,1.1874387372636337,-0.002428044907412598,0.0020558769728956233,0.002154565525983031
98,1.9400000000000013,0.27327965163408,0.01022376407849455,0.36889625666416187,0.2693725060868791,0.010002371411802463,0.3665571321949621,0.004559199965156813,0.17009204194763194,4.4247630757937015,0.046732303521061426,0.05957048696263889,False,0,False,0,0,min_task,none,-0.0130520858494561,2.7643068079822974e-07,0.0006799058366712058,-0.0130520858494561,2.7643068079822974e-07,0.0006799058366712058,0.002080335259971749,0.35913464574192416,1.1873221010308022,-0.002403300599944045,0.002155341918506927,0.00210876827802425,0.002080335259971749,0.35913464574192416,1.1873221010308022,-0.002403300599944045,0.002155341918506927,0.00210876827802425
99,1.9600000000000013,0.2774846397863894,0.0102279823959908,0.371237764128524,0.2735859141171917,0.010002371411802463,0.3688979144340246,0.004552566172247952,0.17008122733891146,4.425173768885379,0.047176168314515154,0.05117688691074246,False,0,False,0,0,min_task,none,-0.013339792086392159,1.5366465699122535e-06,0.0006704695666944525,-0.013339792086392159,1.5366465699122535e-06,0.0006704695666944525,0.0021110947961984795,0.35060581517924144,1.18701208457777,-0.0023717545182596637,0.002256492264428886,0.002055084613613601,0.0021110947961984795,0.35060581517924144,1.18701208457777,-0.0023717545182596637,0.002256492264428886,0.002055084613613601
100,1.9800000000000013,0.2816912651682304,0.01023188302470303,0.373580189015447,0.2778026956287542,0.010002371411802463,0.37124057082933715,0.004543947832070061,0.17005324412276124,4.426247388653008,0.0476203271057794,0.04264805634805974,False,0,False,0,0,min_task,none,-0.013623924220624726,2.875691153054791e-06,0.0006597362179301886,-0.013623924220624726,2.875691153054791e-06,0.0006597362179301886,0.002140546012337901,0.3419475495101774,1.1865097576398498,-0.002333247932162296,0.0023592248567849004,0.0019933223868998373,0.002140546012337901,0.3419475495101774,1.1865097576398498,-0.002333247932162296,0.0023592248567849004,0.0019933223868998373
101,2.0000000000000013,0.28589785936121515,0.010235437315485863,0.37592259805568606,0.28202116438719166,0.010002371411802463,0.3735841645840246,0.0045333602039177735,0.17000816897191717,4.427981307149555,0.048064413126142645,0.03398979067899571,False,0,False,0,0,min_task,none,-0.013903907720038897,4.292907088740412e-06,0.0006477052564174545,-0.013903907720038897,4.292907088740412e-06,0.0006477052564174545,0.0021686913331781777,0.33316593295298824,1.1858165777284906,-0.002287651182643093,0.0024634351010761318,0.001923320000923468,0.0021686913331781777,0.33316593295298824,1.1858165777284906,-0.002287651182643093,0.0024634351010761318,0.001923320000923468
102,2.0200000000000014,0.29010275474888986,0.01023861664341467,0.3782640582318839,0.28623963314562917,0.010002371411802463,0.3759277583387121,0.004520820447869335,0.16994610137140181,4.43037221064363,0.048508054608097546,0.025208174121806537,False,0,False,0,0,min_task,none,-0.014179153042764004,5.787388034367735e-06,0.0006343809986457483,-0.014179153042764004,5.787388034367735e-06,0.0006343809986457483,0.002195543500584187,0.324267328968678,1.1849343911394756,-0.0022348661427356426,0.0025690175520944824,0.001844949282953333,0.002195543500584187,0.324267328968678,1.1849343911394756,-0.0022348661427356426,0.0025690175520944824,0.001844949282953333
103,2.0400000000000014,0.29430428551225124,0.010241392583167872,0.3806036373179773,0.2904564146571917,0.010002371411802463,0.3782704147340246,0.0045063476190640795,0.16986716414580835,4.433416077014459,0.04895087557660491,0.016309570137496288,False,0,False,0,0,min_task,none,-0.0144490565555442,7.357986889741828e-06,0.0006197727501140354,-0.0144490565555442,7.357986889741828e-06,0.0006197727501140354,0.002221125613831467,0.3152583698592948,1.1838654330158187,-0.002174828557717951,0.002675866473740695,0.0017581182721579931,0.002221125613831467,0.3152583698592948,1.1838654330158187,-0.002174828557717951,0.002675866473740695,0.0017581182721579931
104,2.0600000000000014,0.29850078862090423,0.010243737093436095,0.3829404044154281,0.2946698226875041,0.010002371411802463,0.3806111969730871,0.004489962659599707,0.169771504031104,4.437108151006461,0.049392496698084216,0.00730061102811308,False,0,False,0,0,min_task,none,-0.01471300154598146,9.00332493637957e-06,0.0006038949025497767,-0.01471300154598146,9.00332493637957e-06,0.0006038949025497767,0.0022454710538800963,0.3061459455810748,1.182612326444757,-0.002107510225507704,0.002783876357864203,0.0016627738790871548,0.0022454710538800963,0.3061459455810748,1.182612326444757,-0.002107510225507704,0.002783876357864203,0.0016627738790871548
105,2.0800000000000014,0.302690604819145,0.010245622708922549,0.38527343048635176,0.29887817302719166,0.010002371411802463,0.38294916938402457,0.004471688387358673,0.16965929228421073,4.441442917471632,0.04983253618734028,-0.0018118132501069306,False,0,False,0,0,min_task,none,-0.014970359326802957,1.0721801571907768e-05,0.0005867669853411084,-0.014970359326802957,1.0721801571907768e-05,0.0005867669853411084,0.002268623284468006,0.29693719182319456,1.1811780805733336,-0.0020329209768270096,0.002892942391469605,0.0015589043744650914,0.002268623284468006,0.29693719182319456,1.1811780805733336,-0.0020329209768270096,0.002892942391469605,0.0015589043744650914
106,2.1000000000000014,0.3068720796084837,0.010247022738254629,0.38760178888412,0.3030797845043791,0.010002371411802463,0.3852833979824621,0.00445154948316211,0.16953072532260116,4.446414072747588,0.05027061077193464,-0.011020567007987148,False,0,False,0,0,min_task,none,-0.015220490429977902,1.2511604313997778e-05,0.0005684136685347515,-0.015220490429977902,1.2511604313997778e-05,0.0005684136685347515,0.00229063552608092,0.28763947739989243,1.1795660877268712,-0.0019511104147618191,0.0030029608623939512,0.0014465416640416964,0.00229063552608092,0.28763947739989243,1.1795660877268712,-0.0019511104147618191,0.0030029608623939512,0.0014465416640416964
107,2.1200000000000014,0.31104356422413115,0.010247911465814823,0.38992455588185826,0.30727297999719166,0.010002371411802463,0.3876129510340246,0.004429572474076627,0.16938602538472863,4.4520144943579005,0.05070633671295214,-0.020318281431289276,False,0,False,0,0,min_task,none,-0.015462745886740967,1.4370718735035915e-05,0.0005488647132065514,-0.015462745886740967,1.4370718735035915e-05,0.0005488647132065514,0.002311570298146447,0.27826039102252326,1.1777801195304844,-0.0018621693720942318,0.0031138294937719697,0.001325763304242881,0.002311570298146447,0.27826039102252326,1.1777801195304844,-0.0018621693720942318,0.0031138294937719697,0.001325763304242881
108,2.1400000000000015,0.3152034166062958,0.010248264355277923,0.39224081119834153,0.3114560874462543,0.010002371411802463,0.3899368996168372,0.004405785712984483,0.16922544120220426,4.458236209205556,0.05113933087993173,-0.029697367808658448,False,0,False,0,0,min_task,none,-0.015696468589739714,1.62969379794799e-05,0.0005281548685793535,-0.015696468589739714,1.62969379794799e-05,0.0005281548685793535,0.0023314988304271042,0.2688077275063004,1.1758243220243667,-0.0017662310475880763,0.00322544769929888,0.0011966942151722141,0.0023314988304271042,0.2688077275063004,1.1758243220243667,-0.0017662310475880763,0.00322544769929888,0.0011966942151722141
109,2.1600000000000015,0.3193500023675433,0.010248058252428662,0.39454963852233516,0.31562744086719163,0.010002371411802463,0.39225431818402456,0.004380219355582497,0.1690492486725762,4.46507036050211,0.05156921187710078,-0.03915003132488132,False,0,False,0,0,min_task,none,-0.01592099473269504,1.828787152234536e-05,0.0005063237158077118,-0.01592099473269504,1.828787152234536e-05,0.0005063237158077118,0.002350500346508157,0.25928947347066944,1.1737032097730358,-0.0016634717841512417,0.003337716752569215,0.0010595080483596284,0.002350500346508157,0.25928947347066944,1.1737032097730358,-0.0016634717841512417,0.003337716752569215,0.0010595080483596284
110,2.1800000000000015,0.32348169575380625,0.010247271584616751,0.39685012603579733,0.3197853813631292,0.010002371411802463,0.3945642851262121,0.004352905332453756,0.16885775152131938,4.4725071736823905,0.051995601217258915,-0.048668285360512265,False,0,False,0,0,min_task,none,-0.016135655321424847,2.034095284349946e-05,0.00048341545762802386,-0.016135655321424847,2.034095284349946e-05,0.00048341545762802386,0.0023686612228634783,0.2497137926067707,1.1714216589819944,-0.0015541114541186484,0.003450539865057637,0.0009144281680616627,0.0023686612228634783,0.2497137926067707,1.1714216589819944,-0.0015541114541186484,0.003450539865057637,0.0009144281680616627
111,2.2000000000000015,0.32759688059997805,0.010245884554113068,0.39914136693595,0.3239282581371917,0.010002371411802463,0.3968658833340246,0.004323877316433663,0.16865128194187806,4.480535921547969,0.05241812453840191,-0.058243966224411,False,0,False,0,0,min_task,none,-0.016339777750341723,2.2453445718609035e-05,0.00045947865663160427,-0.016339777750341723,2.2453445718609035e-05,0.00045947865663160427,0.002386074032696544,0.2400890105720983,1.1689848996270873,-0.0014384134227156088,0.00356382216980518,0.0007617282097068213,0.002386074032696544,0.2400890105720983,1.1689848996270873,-0.0014384134227156088,0.00356382216980518,0.0007617282097068213
112,2.2200000000000015,0.3316939512807524,0.010243879322533699,0.4014224599571207,0.32805442950500424,0.010002371411802463,0.39915820076058717,0.004293170685656191,0.1684302012010812,4.489144888950092,0.05283641285753059,-0.0678687482590834,False,0,False,0,0,min_task,none,-0.01653268743779529,2.4622448868382434e-05,0.000434565925590222,-0.01653268743779529,2.4622448868382434e-05,0.000434565925590222,0.0024028364859527956,0.2304235995753544,1.1663985066101432,-0.0013166840658856373,0.0036774706099131855,0.0006017321833192481,0.0024028364859527956,0.2304235995753544,1.1663985066101432,-0.0013166840658856373,0.0036774706099131855,0.0006017321833192481
113,2.2400000000000015,0.33577131365586066,0.010241240183499927,0.4036925098926133,0.33216226390719167,0.010002371411802463,0.4014403309840246,0.0042608224810183936,0.16819490019734656,4.498321337333487,0.05325010385520775,-0.0775341592558273,False,0,False,0,0,min_task,none,-0.016713709512831312,2.6844898758331232e-05,0.00040873357379220054,-0.016713709512831312,2.6844898758331232e-05,0.00040873357379220054,0.002419050278884794,0.22072616271815937,1.1636683899602767,-0.0011892718249783033,0.0037913937332285964,0.0004348140952252148,0.002419050278884794,0.22072616271815937,1.1636683899602767,-0.0011892718249783033,0.0037913937332285964,0.0004348140952252148
114,2.2600000000000016,0.3398273860102358,0.010237953720793534,0.4059506281167255,0.33625014092187916,0.010002371411802463,0.4037113737699621,0.004226871357869825,0.1679457999591578,4.508051469479823,0.05365884318340089,-0.08723159611302234,False,0,False,0,0,min_task,none,-0.016882170545908782,2.9117570402040487e-05,0.0003820412154174513,-0.016882170545908782,2.9117570402040487e-05,0.0003820412154174513,0.0024348198702197647,0.21100541815267865,1.1608007840981822,-0.001056565788849775,0.0039055013973200155,0.00026139706863334897,0.0024348198702197647,0.21100541815267865,1.1608007840981822,-0.001056565788849775,0.0039055013973200155,0.00026139706863334897
115,2.2800000000000016,0.34386059998933194,0.01023400894937765,0.4081959331076438,0.3403164522771917,0.010002371411802463,0.40597043563402463,0.004191357531798979,0.16768335207082066,4.51832039483468,0.05406228578843431,-0.09695234067850306,False,0,False,0,0,min_task,none,-0.01703740031563558,3.1437076090954844e-05,0.00035455134650678457,-0.01703740031563558,3.1437076090954844e-05,0.00035455134650678457,0.0024502512027175572,0.20127018311443945,1.1578022361873066,-0.0009189938019666239,0.004019704391213143,8.195195115853135e-05,0.0024502512027175572,0.20127018311443945,1.1578022361873066,-0.0009189938019666239,0.004019704391213143,8.195195115853135e-05
116,2.3000000000000016,0.34786940152932644,0.010229397436911465,0.4104275509718558,0.34435960286375417,0.010002371411802463,0.4082166304043371,0.00415432271794175,0.16740803901297702,4.529112095815255,0.05446009724010927,-0.10668757571674226,False,0,False,0,0,min_task,none,-0.017178733603240993,3.3799862048809736e-05,0.0003263288976353524,-0.017178733603240993,3.3799862048809736e-05,0.0003263288976353524,0.0024654503903695497,0.19152935788814565,1.1546795935994028,-0.0007770201059649324,0.004133913982844233,-0.00010300459418680636,0.0024654503903695497,0.19152935788814565,1.1546795935994028,-0.0007770201059649324,0.004133913982844233,-0.00010300459418680636
117,2.3200000000000016,0.3518522517831123,0.010224113403704094,0.4126446159698665,0.3483780117471917,0.010002371411802463,0.4104490797840246,0.004115810063827942,0.16712037440576216,4.540409395517958,0.05485195505732706,-0.11642840094303605,False,0,False,0,0,min_task,none,-0.017305512006777664,3.620220308942708e-05,0.00029744077110116816,-0.017305512006777664,3.620220308942708e-05,0.00029744077110116816,0.002480522394064439,0.18179190975387566,1.1514399905162582,-0.0006311425317597525,0.004248041403747051,-0.0002929125085886142,0.002480522394064439,0.18179190975387566,1.1514399905162582,-0.0006311425317597525,0.004248041403747051,-0.0002929125085886142
118,2.3400000000000016,0.3558076280425321,0.01021815379936659,0.41484627104403465,0.35237011318062933,0.010002371411802463,0.4126669139137122,0.004075864076005542,0.16682090314218964,4.5521939272994745,0.05523755001998055,-0.12616584907730605,False,0,False,0,0,min_task,none,-0.017417085766757535,3.86401954382591e-05,0.0002679553711037436,-0.017417085766757535,3.86401954382591e-05,0.0002679553711037436,0.0024955697085139368,0.1720668569607368,1.1480908336967923,-0.0004818892681150094,0.0043619972843582456,-0.00048717125273686003,0.0024955697085139368,0.1720668569607368,1.1480908336967923,-0.0004818892681150094,0.0043619972843582456,-0.00048717125273686003
119,2.3600000000000017,0.35973402465671933,0.010211518354924608,0.41703166834870353,0.3563343576171917,0.010002371411802463,0.41486927193402456,0.004034530539937023,0.1665102014004227,4.564446106710549,0.05561658745639554,-0.1358909018704449,False,0,False,0,0,min_task,none,-0.01751281559488108,4.110974795588315e-05,0.00023794213531276454,-0.01751281559488108,4.110974795588315e-05,0.00023794213531276454,0.0025106910830251248,0.16236325277140912,1.1446397874394227,-0.0003298152415686623,0.004475691055191576,-0.0006851431936521834,0.0025106910830251248,0.16236325277140912,1.1446397874394227,-0.0003298152415686623,0.004475691055191576,-0.0006851431936521834
120,2.3800000000000017,0.3636299539474799,0.010204209609618514,0.4191999697827099,0.3602692127225041,0.010002371411802463,0.4170553025480871,0.003991856433617554,0.16618887652420603,4.577145106289082,0.05598878849512088,-0.1455945060597726,False,0,False,0,0,min_task,none,-0.017592074497944966,4.360657207662919e-05,0.00020747107682160944,-0.017592074497944966,4.360657207662919e-05,0.00020747107682160944,0.0025259802990387206,0.15269016961121012,1.1410947577661,-0.00017549815123214094,0.0045890303306303755,-0.0008861574296023568,0.0025259802990387206,0.15269016961121012,1.1410947577661,-0.00017549815123214094,0.0045890303306303755,-0.0008861574296023568
121,2.4000000000000017,0.36749394712270433,0.010196232912131778,0.42135034752466816,0.3641731643871918,0.010002371411802463,0.41922416458402467,0.003947889835706108,0.16585756676109945,4.590268833759905,0.05635389126965968,-0.15526758921997158,False,0,False,0,0,min_task,none,-0.01765424958919468,4.612617084205558e-05,0.00017661234493577743,-0.01765424958919468,4.612617084205558e-05,0.00017661234493577743,0.0025415250260152314,0.1430566833503727,1.137463875855934,-1.9534209363191507e-05,0.004701920292973901,-0.0010895140113628735,0.0025415250260152314,0.1430566833503727,1.137463875855934,-1.9534209363191507e-05,0.004701920292973901,-0.0010895140113628735
122,2.4200000000000017,0.37132455518797824,0.01018759639652734,0.423481984571632,0.36804471773937913,0.010002371411802463,0.4213750275574621,0.003902679828497237,0.16551694084911112,4.603793914208535,0.05671165206459265,-0.164901075480809,False,0,False,0,0,min_task,none,-0.017698743879416896,4.8663827463209786e-05,0.0001454358118982765,-0.017698743879416896,4.8663827463209786e-05,0.0001454358118982765,0.002557405774645499,0.13347185774661888,1.1337554807604888,0.00013746635522341458,0.0048142630947230255,-0.0012944885106846314,0.002557405774645499,0.13347185774661888,1.1337554807604888,0.00013746635522341458,0.0048142630947230255,-0.0012944885106846314
123,2.4400000000000017,0.37512034985713,0.01017831093374054,0.4255940752805948,0.3718823981571919,0.010002371411802463,0.42350707223402473,0.0038562763960723417,0.16516769744364904,4.617695676803307,0.05706184639147356,-0.17448590108456283,False,0,False,0,0,min_task,none,-0.01772497804069079,5.121459388833266e-05,0.00011401069252439379,-0.01772497804069079,5.121459388833266e-05,0.00011401069252439379,0.002573694964838249,0.12394472906494992,1.129978101426011,0.00029488396852504306,0.004925957297197235,-0.0015003368800872955,0.002573694964838249,0.12394472906494992,1.129978101426011,0.00029488396852504306,0.004925957297197235,-0.0015003368800872955
124,2.4600000000000017,0.37887992446322816,0.010168390059968143,0.42768582591309345,0.3756847522812541,0.010002371411802463,0.42561949119183706,0.0038087303191837343,0.16481056437711206,4.631948146684202,0.05740426998296085,-0.1840130297662318,False,0,False,0,0,min_task,none,-0.017732392136233958,5.377327988125386e-05,8.24052027807607e-05,-0.017732392136233958,5.377327988125386e-05,8.24052027807607e-05,0.0025904561232924345,0.11448429088452917,1.1261404380480335,0.0004520944916593063,0.005036897362946119,-0.0017063005429387372,0.0025904561232924345,0.11448429088452917,1.1261404380480335,0.0004520944916593063,0.005036897362946119,-0.0017063005429387372
125,2.4800000000000018,0.3826018948704307,0.010157849883783918,0.4297564551837914,0.37945034902719177,0.010002371411802463,0.42771148938402465,0.0037600930679309186,0.16444629774456107,4.646524042651749,0.05773873969399289,-0.19347346794665254,False,0,False,0,0,min_task,none,-0.01772044730983978,5.63344431252158e-05,5.068626102679844e-05,-0.01772044730983978,5.63344431252158e-05,5.068626102679844e-05,0.0026077432210111083,0.10509947910342395,1.122251342790564,0.0006084740426695878,0.005146973218155675,-0.0019116116492587255,0.0026077432210111083,0.10509947910342395,1.122251342790564,0.0006084740426695878,0.005146973218155675,-0.0019116116492587255
126,2.5000000000000018,0.3862849003870903,0.010146708974249869,0.4318051948122478,0.38317778059812924,0.010002371411802463,0.42978228470121216,0.00371041669253155,0.16407568081073928,4.661394781274183,0.05806509429917634,-0.20285827972775777,False,0,False,0,0,min_task,none,-0.01768862742907426,5.889238086261913e-05,1.8919234870105664e-05,-0.01768862742907426,5.889238086261913e-05,1.8919234870105664e-05,0.002625600158314597,0.09579915714381991,1.1183197998950718,0.0007634037919369585,0.00525606989982044,-0.0021154984302531135,0.002625600158314597,0.09579915714381991,1.1183197998950718,0.0007634037919369585,0.00525606989982044,-0.0021154984302531135
127,2.520000000000002,0.3899276046823853,0.010134988232604851,0.43383129007823606,0.3868656634971917,0.010002371411802463,0.4318311085340246,0.0036597537147393627,0.16369952273429225,4.676530488062359,0.05838319517599474,-0.21215860168736178,False,0,False,0,0,min_task,none,-0.017636440677288336,6.144112356322607e-05,-1.283226400752031e-05,-0.017636440677288336,6.144112356322607e-05,-1.283226400752031e-05,0.002644060402279682,0.08659210135033764,1.1143549052020045,0.0009162746646054578,0.005364067300504686,-0.0023171905837930337,0.002644060402279682,0.08659210135033764,1.1143549052020045,0.0009162746646054578,0.005364067300504686,-0.0023171905837930337
128,2.540000000000002,0.39352869670692747,0.010122710750402563,0.4358340003808294,0.3905126395400042,0.010002371411802463,0.4338572063355871,0.003608157020955352,0.16331865710606278,4.691900016371215,0.05869292686430018,-0.22136565748084408,False,0,False,0,0,min_task,none,-0.017563421089545762,6.397443107492944e-05,-4.450653743313617e-05,-0.017563421089545762,6.397443107492944e-05,-4.450653743313617e-05,0.0026631467764137405,0.07748698657763835,1.110365845114204,0.0010664918867200465,0.005470840021047978,-0.002515924624190505,0.0026631467764137405,0.07748698657763835,1.110365845114204,0.0010664918867200465,0.005470840021047978,-0.002515924624190505
129,2.560000000000002,0.3970868916175372,0.010109901657149273,0.4378125998010387,0.3941173768671917,0.010002371411802463,0.43585983818402463,0.003555679757664774,0.16293394030027206,4.7074709746536865,0.05899419749325581,-0.23047077225354334,False,0,False,0,0,min_task,none,-0.01746913002805273,6.648579166186745e-05,-7.60439125208278e-05,-0.01746913002805273,6.648579166186745e-05,-7.60439125208278e-05,0.0026828713989062187,0.06849237196098121,1.1063618750320423,0.001213479316058258,0.005576257338970331,-0.0027109491317953015,0.0026828713989062187,0.06849237196098121,1.1063618750320423,0.001213479316058258,0.005576257338970331,-0.0027109491317953015
130,2.580000000000002,0.4006009317077868,0.01009658796050204,0.43976637766797383,0.39767857095687936,0.010002371411802463,0.4378382793449622,0.00350237523113864,0.1625462496387483,4.723209762675685,0.059286939067810525,-0.2394653868702005,False,0,False,0,0,min_task,none,-0.017353157593600347,6.896842427813593e-05,-0.00010738680967625216,-0.017353157593600347,6.896842427813593e-05,-0.00010738680967625216,0.002703235763812401,0.059616686854875194,1.1023522972858517,0.001356683504061963,0.005680183297641119,-0.0029015298413860922,0.002703235763812401,0.059616686854875194,1.1023522972858517,0.001356683504061963,0.005680183297641119,-0.0029015298413860922
131,2.600000000000002,0.4040695873455249,0.010082798382101379,0.44169463912881624,0.4011949456371915,0.010002371411802463,0.4397918208340245,0.0034482968131869848,0.16215648136927072,4.739081617293142,0.059571107607973066,-0.2483410719763065,False,0,False,0,0,min_task,none,-0.017215123969904784,7.141528435514473e-05,-0.00013847977044618805,-0.017215123969904784,7.141528435514473e-05,-0.00013847977044618805,0.0027242309560948693,0.05086821692561823,1.0983464385957165,0.001495577441940599,0.0057824769184150315,-0.0030869545131226033,0.0027242309560948693,0.05086821692561823,1.0983464385957165,0.001495577441940599,0.0057824769184150315,-0.0030869545131226033
132,2.620000000000002,0.407491657917466,0.010068563191947448,0.4435967057222666,0.4046652540987542,0.010002371411802463,0.44171976997933715,0.0033934978534358286,0.16176554846081564,4.75505066834162,0.059846683135359235,-0.2570895419055635,False,0,False,0,0,min_task,none,-0.017054680697988097,7.381907330601315e-05,-0.0001692694502560694,-0.017054680697988097,7.381907330601315e-05,-0.0001692694502560694,0.002745837988574238,0.042255090386350384,1.0943536270929468,0.0016296639514309537,0.005882992535002326,-0.0032665375355265167,0.002745837988574238,0.042255090386350384,1.0943536270929468,0.0016296639514309537,0.005882992535002326,-0.0032665375355265167
133,2.640000000000002,0.4108659727820281,0.010053914044005983,0.4454719159555523,0.4080882799071917,0.010002371411802463,0.4436214509840246,0.0033380315997159405,0.16137437822018091,4.771080005128271,0.06011366950271844,-0.2657026684448313,False,0,False,0,0,min_task,none,-0.01687151187849695,7.617225187472288e-05,-0.00019970458105969072,-0.01687151187849695,7.617225187472288e-05,-0.00019970458105969072,0.0027680282477722707,0.03378526435909154,1.0903831689374415,0.0017584786883567205,0.00598158024667796,-0.003439624216174697,0.0027680282477722707,0.03378526435909154,1.0903831689374415,0.0017584786883567205,0.00598158024667796,-0.003439624216174697
134,2.660000000000002,0.41419139223109,0.010038883815421307,0.4473196258848774,0.41146283801562916,0.010002371411802463,0.4454962054887121,0.003281951127527474,0.1609839097356959,4.787131753961191,0.060372094063671056,-0.2741724944720902,False,0,False,0,0,min_task,none,-0.016665335300196597,7.846705737958076e-05,-0.00022973590964547817,-0.016665335300196597,7.846705737958076e-05,-0.00022973590964547817,0.0027907640340145757,0.025466511350748774,1.0864443245697053,0.0018815927352475565,0.006078086484344516,-0.0036055947226878754,0.0027907640340145757,0.025466511350748774,1.0864443245697053,0.0018815927352475565,0.006078086484344516,-0.0036055947226878754
135,2.680000000000002,0.4174668084609422,0.010023506451352773,0.4491392096990049,0.4147877757771916,0.010002371411802463,0.4473433931340246,0.0032253092790549944,0.1605950911553767,4.803167167066168,0.0606220071813833,-0.2824912474804329,False,0,False,0,0,min_task,none,-0.016435903493209288,8.069552482465232e-05,-0.00025931611768875484,-0.016435903493209288,8.069552482465232e-05,-0.00025931611768875484,0.002813999180259153,0.01730640583309222,1.08254628464134,0.0019986147673107524,0.0061723546811139835,-0.0037638676436666197,0.002813999180259153,0.01730640583309222,1.08254628464134,0.0019986147673107524,0.0061723546811139835,-0.0037638676436666197
136,2.700000000000002,0.4206911465533444,0.010007816817029072,0.45093006030631166,0.4180619739575044,0.010002371411802463,0.44916239212308723,0.003168158613001898,0.1602088768085275,4.8191467231414205,0.06086348157648911,-0.2906513529980895,False,0,False,0,0,min_task,none,-0.016183004706083644,8.284951178206015e-05,-0.00028839972927239155,-0.016183004706083644,8.284951178206015e-05,-0.00028839972927239155,0.002837679734243826,0.009312310917204199,1.078698145672155,0.002109192783829065,0.006264226037078901,-0.003913903146346481,0.002837679734243826,0.009312310917204199,1.078698145672155,0.002109192783829065,0.006264226037078901,-0.003913903146346481
137,2.720000000000002,0.42386336546614833,0.009991850558195766,0.452691589924494,0.4212843477471917,0.010002371411802463,0.45095259978402463,0.003110551364581931,0.1598262241813388,4.835030239690692,0.06109661151633712,-0.2986454479139775,False,0,False,0,0,min_task,none,-0.015906463805833288,8.49207268804385e-05,-0.00031694301197288474,-0.015906463805833288,8.49207268804385e-05,-0.00031694301197288474,0.0028617446881121006,0.0014913651204947346,1.0749088854891364,0.002213015404532704,0.006353540366204055,-0.004055205714794827,0.0028617446881121006,0.0014913651204947346,1.0749088854891364,0.002213015404532704,0.006353540366204055,-0.004055205714794827
138,2.740000000000002,0.4269824590345406,0.00997564397068072,0.4544232306732905,0.42445384777437917,0.010002371411802463,0.4527134331324621,0.0030525394169030476,0.15944809075876337,4.850776997141898,0.06132151184922276,-0.30646639371068696,False,0,False,0,0,min_task,none,-0.015606143100751348,8.690076167797565e-05,-0.0003449038762567006,-0.015606143100751348,8.690076167797565e-05,-0.0003449038762567006,0.002886126741333341,-0.006149530777110252,1.0711873385058648,0.0023098127372032013,0.006440137012043554,-0.004187326459090304,0.002886126741333341,-0.006149530777110252,1.0711873385058648,0.0023098127372032013,0.006440137012043554,-0.004187326459090304
139,2.760000000000002,0.4300474569828553,0.00995923387936776,0.4561244351698508,0.4275694611171918,0.010002371411802463,0.4544443294340247,0.002994174283589004,0.15907543074628425,4.866345874626663,0.06153831688919699,-0.314107289608292,False,0,False,0,0,min_task,none,-0.015281943085845155,8.87811256465922e-05,-0.000372241777874961,-0.015281943085845155,8.87811256465922e-05,-0.000372241777874961,0.0029107530831888636,-0.013603726783269725,1.067542170909024,0.0023993568290387795,0.0065238558179810365,-0.004309864992309298,0.0029107530831888636,-0.013603726783269725,1.067542170909024,0.0023993568290387795,0.0065238558179810365,-0.004309864992309298
140,2.780000000000002,0.43305742594587665,0.009942657526495657,0.4577946771263378,0.4306302123162543,0.010002371411802463,0.4561447467668372,0.0029355071015285785,0.15870919168688574,4.881695497134577,0.061747179158707866,-0.3215614856144514,False,0,False,0,0,min_task,none,-0.014933803110672113,9.055328394766353e-05,-0.00039891762790623676,-0.014933803110672113,9.055328394766353e-05,-0.00039891762790623676,0.002935546181617262,-0.02086483663548011,1.0639818558300456,0.0024814617197029174,0.006604538137051288,-0.004422470877836575,0.002935546181617262,-0.02086483663548011,1.0639818558300456,0.0024814617197029174,0.006604538137051288,-0.004422470877836575
141,2.800000000000002,0.43601147050043654,0.00992595246883231,0.4594334519496598,0.4336351643871918,0.010002371411802463,0.4578141645840247,0.0028765886343365948,0.1583503109905342,4.896784393567812,0.061948267998080446,-0.3288225954666618,False,0,False,0,0,min_task,none,-0.014561701970102937,9.22086976488214e-05,-0.0004248937128824752,-0.014561701970102937,9.22086976488214e-05,-0.0004248937128824752,0.002960424568247488,-0.02792675062449769,1.0605146485790384,0.002555983118414719,0.00668202786636942,-0.004524844654626827,0.002960424568247488,-0.02792675062449769,1.0605146485790384,0.002555983118414719,0.00668202786636942,-0.004524844654626827
142,2.820000000000002,0.4389087342067483,0.00990915648297762,0.46104027734303166,0.43658341983312915,0.010002371411802463,0.4594520842762121,0.0028174692858324857,0.15799971239413346,4.911571165076834,0.06214176805264584,-0.3358845094556794,False,0,False,0,0,min_task,none,-0.014165658418323027,9.373886600170117e-05,-0.0004501336275979318,-0.014165658418323027,9.373886600170117e-05,-0.0004501336275979318,0.0029853036099529292,-0.034783648276503126,1.0571485620305956,0.0026228177313023767,0.006756172491207739,-0.0046167384526104105,0.0029853036099529292,-0.034783648276503126,1.0571485620305956,0.0026228177313023767,0.006756172491207739,-0.0046167384526104105
143,2.840000000000002,0.44174840065866106,0.009892307477833864,0.46261469390911136,0.4394741216571917,0.010002371411802463,0.4610580297340246,0.002758199122631235,0.15765830237184666,4.9260146628493775,0.06232787764994562,-0.34274140710768486,False,0,False,0,0,min_task,none,-0.013745731606450932,9.513537037947717e-05,-0.0004746022224974618,-0.013745731606450932,9.513537037947717e-05,-0.0004746022224974618,0.003010096258717831,-0.04143001086484336,1.0538913422591265,0.0026819022681094577,0.0068268241241946645,-0.004697956214206022,0.003010096258717831,-0.04143001086484336,1.0538913422591265,0.0026819022681094577,0.0068268241241946645,-0.004697956214206022
144,2.860000000000002,0.44452969454254265,0.009875443413110658,0.4641562657541621,0.44230645437500404,0.010002371411802463,0.462631547910587,0.0026988279052072156,0.15732696651706424,4.940074174330023,0.0625068070810193,-0.3493877696960251,False,0,False,0,0,min_task,none,-0.013302021444455947,9.638991946168726e-05,-0.0004982655662552675,-0.013302021444455947,9.638991946168726e-05,-0.0004982655662552675,0.0030347137737328934,-0.0478606337196409,1.0507504445241662,0.002733212159431009,0.0068938405258911605,-0.004768353541093048,0.0030347137737328934,-0.0478606337196409,1.0507504445241662,0.002733212159431009,0.0068938405258911605,-0.004768353541093048
145,2.880000000000002,0.44725188270364147,0.009858602222621131,0.46566458109324593,0.44507964502719155,0.010002371411802463,0.46417220938402454,0.0026394051263932154,0.15700656591806864,4.953709616672887,0.0626787768012382,-0.3558183925508226,False,0,False,0,0,min_task,none,-0.01283466888783692,9.74943952447888e-05,-0.0005210909242173813,-0.01283466888783692,9.74943952447888e-05,-0.0005210909242173813,0.0030590664102869776,-0.05407063829322863,1.0477330097184197,0.00277676001709582,0.006957086093806787,-0.004827837187919138,0.0030590664102869776,-0.05407063829322863,1.0477330097184197,0.00277676001709582,0.006957086093806787,-0.004827837187919138
146,2.900000000000002,0.44991427521948546,0.0098418217411212,0.46713925285605057,0.44779296419187914,0.010002371411802463,0.4656796089199621,0.0025799800566593456,0.1566979335510693,4.96688173601633,0.0628440155675082,-0.3620283971244103,False,0,False,0,0,min_task,none,-0.012343856149860518,9.844089945666911e-05,-0.0005430467520393765,-0.012343856149860518,9.844089945666911e-05,-0.0005430467520393765,0.003083064072116273,-0.06005548393852122,1.0448458413914001,0.002812593870912373,0.007016432808164659,-0.004876364226529936,0.003083064072116273,-0.06005548393852122,1.0448458413914001,0.002812593870912373,0.007016432808164659,-0.004876364226529936
147,2.920000000000002,0.4525162264794321,0.009825139633457165,0.4685799192927844,0.4504457269971917,0.010002371411802463,0.46715336603402463,0.0025206017950662987,0.15640187071456507,4.979552311012251,0.0630027585297996,-0.36801324276970293,False,0,False,0,0,min_task,none,-0.011829806840097759,9.922179995603435e-05,-0.0005641027036286097,-0.011829806840097759,9.922179995603435e-05,-0.0005641027036286097,0.003106616924749767,-0.06581097935107552,1.0420953834673796,0.0028407952151130677,0.007071761123948607,-0.004913940905713265,0.003106616924749767,-0.06581097935107552,1.0420953834673796,0.0028407952151130677,0.007071761123948607,-0.004913940905713265
148,2.940000000000002,0.4550571362691245,0.009808593324863968,0.46998624458002125,0.4530372941337541,0.010002371411802463,0.4685931255543371,0.0024613193247765165,0.1561191435297335,4.991684358871022,0.06315524529589442,-0.3737687381822572,False,0,False,0,0,min_task,none,-0.011292786029901672,9.982977670448763e-05,-0.000584229652392861,-0.011292786029901672,9.982977670448763e-05,-0.000584229652392861,0.003129635968102758,-0.07133329361931812,1.0394876987830783,0.0028614768973850573,0.007122960800050305,-0.004940621232299648,0.003129635968102758,-0.07133329361931812,1.0394876987830783,0.0028614768973850573,0.007122960800050305,-0.004940621232299648
149,2.960000000000002,0.4575364508587855,0.009792219931393144,0.4713579194261155,0.4555670728671916,0.010002371411802463,0.4699985581840246,0.0024021815720281494,0.15585047953227388,5.003242342020502,0.06330171798902687,-0.3792910524504998,False,0,False,0,0,min_task,none,-0.010733100245597715,0.00010025786691021846,-0.0006033997242385941,-0.010733100245597715,0.00010025786691021846,-0.0006033997242385941,0.0031520335676630475,-0.076618966825638,1.0370284485705488,0.002874780882418542,0.0071699316578146014,-0.004956505299899231,0.0031520335676630475,-0.076618966825638,1.0370284485705488,0.002874780882418542,0.0071699316578146014,-0.004956505299899231
150,2.980000000000002,0.45995366409436167,0.00977605618960449,0.4726946616760196,0.45803451805062934,0.010002371411802463,0.4713693610637122,0.002343237467683196,0.15559656438103817,5.014192373361634,0.06344241931857347,-0.3845767256568197,False,0,False,0,0,min_task,none,-0.010151097390207022,0.00010049950895715692,-0.0006215863404761804,-0.010151097390207022,0.00010049950895715692,-0.0006215863404761804,0.003173723944401266,-0.08166492013884347,1.0347228730116367,0.002880875920583168,0.00721258426272146,-0.004961737391608579,0.003173723944401266,-0.08166492013884347,1.0347228730116367,0.002880875920583168,0.00721258426272146,-0.004961737391608579
