LordTarzan10086/HCDR_ML/results/avoidance_experiments/routeb_avoidance_20260428_222258/singularity_strict_svd.csv
step,time_s,tip_x,tip_y,tip_z,des_x,des_y,des_z,err_norm,arm_sigma_min,arm_condition_number,manipulability_proxy,joint_limit_min_margin,singularity_avoidance_active,singularity_avoidance_singular_count,joint_limit_avoidance_enabled,joint_limit_avoidance_active_lower_count,joint_limit_avoidance_active_upper_count,solver_status,fail_reason,platform_x,platform_y,platform_psi,q_1,q_2,q_3,q_4,q_5,q_6,q_7,q_8,q_9,q_arm_1,q_arm_2,q_arm_3,q_arm_4,q_arm_5,q_arm_6
1,0.0,0.057021164387191264,0.010002371411802225,0.24858416458402482,0.05702116438719139,0.010002371411802463,0.24858416458402444,4.723069394728281e-16,0.14294473155918086,5.597164301324375,0.027322499261224067,2.021592653589793,False,0,False,0,0,min_task,none,-2.1968391236329727e-18,5.09956043596355e-20,4.156773776817837e-18,-2.1968391236329727e-18,5.09956043596355e-20,4.156773776817837e-18,7.337162378668337e-19,0.58,0.92,-8.007163875882442e-18,2.3806541987077465e-17,2.7146528757908912e-18,7.337162378668337e-19,0.58,0.92,-8.007163875882442e-18,2.3806541987077465e-17,2.7146528757908912e-18
2,0.02,0.05702416634167273,0.010002375271278577,0.24858536554912752,0.05702190877344139,0.010002371411802463,0.24858447474496193,2.4269654460190744e-06,0.14294473155918086,5.597164301324375,0.027322499261224067,2.021592653589793,False,0,False,0,0,min_task,none,-1.9266151299740801e-07,-3.395288966683413e-09,9.911305681540774e-08,-1.9266151299740801e-07,-3.395288966683413e-09,9.911305681540774e-08,2.3345342855672814e-07,0.5799985751471595,0.9200053200941107,-1.504687860314532e-07,2.8132338674315374e-08,1.2643526415794466e-07,2.3345342855672814e-07,0.5799985751471595,0.9200053200941107,-1.504687860314532e-07,2.8132338674315374e-08,1.2643526415794466e-07
3,0.04,0.05703533844776219,0.010002387832943946,0.24858985774846803,0.05702707474719139,0.010002371411802463,0.24858662723402444,8.872724516632526e-06,0.14294533270017712,5.59713469390868,0.027322671705077316,2.021587333495682,False,0,False,0,0,min_task,none,-9.041140299878831e-07,-1.5634262346958466e-08,4.3423010095822655e-07,-9.041140299878831e-07,-1.5634262346958466e-08,4.3423010095822655e-07,1.0532742687921346e-06,0.5799933656226708,0.9200252515781531,-6.938211517138786e-07,1.23431213877329e-07,5.852697954693135e-07,1.0532742687921346e-06,0.5799933656226708,0.9200252515781531,-6.938211517138786e-07,1.23431213877329e-07,5.852697954693135e-07
4,0.06,0.057059391812787325,0.010002411253895607,0.24859957981836822,0.057040961495941386,0.010002371411802463,0.24859241337933694,1.977463058626395e-05,0.1429475848130765,5.597023774151553,0.02732331547901073,2.02156740201164,False,0,False,0,0,min_task,none,-2.4234437811238547e-06,-4.10155636757489e-08,1.0790211839239762e-06,-2.4234437811238547e-06,-4.10155636757489e-08,1.0790211839239762e-06,2.704346981553964e-06,0.5799823544965788,0.9200684544621751,-1.8239112043620763e-06,3.089690543244834e-07,1.5448808996873343e-06,2.704346981553964e-06,0.5799823544965788,0.9200684544621751,-1.8239112043620763e-06,3.089690543244834e-07,1.5448808996873343e-06
5,0.08,0.05710068646926608,0.010002446626981406,0.24861634688265571,0.057067735907191386,0.010002371411802463,0.24860356938402445,3.534133089788176e-05,0.14295246628825783,5.596783363431051,0.027324706040315533,2.021524199127618,False,0,False,0,0,min_task,none,-5.012440536413814e-06,-8.294385417722442e-08,2.0600637718638423e-06,-5.012440536413814e-06,-8.294385417722442e-08,2.0600637718638423e-06,5.350087456413071e-06,0.5799637543597981,0.9201430554375595,-3.6980052955881613e-06,5.999768249976841e-07,3.1447338707573796e-06,5.350087456413071e-06,0.5799637543597981,0.9201430554375595,-3.6980052955881613e-06,5.999768249976841e-07,3.1447338707573796e-06
6,0.1,0.05716330540398257,0.010002494698293838,0.24864187130561588,0.05711143391844139,0.010002371411802463,0.24862177688871193,5.5627797030959056e-05,0.1429608950350731,5.596368281164491,0.02732710037167265,2.0214495981522336,False,0,False,0,0,min_task,none,-8.912299923461013e-06,-1.4413606686685118e-07,3.3698647112036883e-06,-8.912299923461013e-06,-1.4413606686685118e-07,3.3698647112036883e-06,9.093913480318264e-06,0.5799359295413024,0.9202567188876488,-6.445404992591585e-06,1.0081010450553661e-06,5.501689682287098e-06,9.093913480318264e-06,0.5799359295413024,0.9202567188876488,-6.445404992591585e-06,1.0081010450553661e-06,5.501689682287098e-06
7,0.12000000000000001,0.05725110617904423,0.010002556114635386,0.2486777779524078,0.05717596186719139,0.010002371411802463,0.24864866353402443,8.05875367335113e-05,0.1429737363526566,5.595735972423277,0.02733074061701367,2.0213359347021442,False,0,False,0,0,min_task,none,-1.4348261409053294e-05,-2.2677431054272514e-07,4.977553995233992e-06,-1.4348261409053294e-05,-2.2677431054272514e-07,4.977553995233992e-06,1.399621907621784e-05,0.5798973417379558,0.9204166968769216,-1.0173414183861762e-05,1.5434713251972375e-06,8.71449021451703e-06,1.399621907621784e-05,0.5798973417379558,0.9204166968769216,-1.0173414183861762e-05,1.5434713251972375e-06,8.71449021451703e-06
8,0.14,0.05736775687477112,0.010002631448564399,0.24872561537683568,0.05726509784094139,0.010002371411802463,0.24868580352308695,0.00011010871239317692,0.14299180839139586,5.594846257180893,0.027335856768172136,2.021175956712871,False,0,False,0,0,min_task,none,-2.1532854912813952e-05,-3.326182938953617e-07,6.8378830995343465e-06,-2.1532854912813952e-05,-3.326182938953617e-07,6.8378830995343465e-06,2.008799918061877e-05,0.5798465109278754,0.9206298628937803,-1.4971563158978944e-05,2.215627202945158e-06,1.2867019712774623e-05,2.008799918061877e-05,0.5798465109278754,0.9206298628937803,-1.4971563158978944e-05,2.215627202945158e-06,1.2867019712774623e-05
9,0.16,0.05751676108222971,0.010002721139157652,0.24878686400521582,0.05738249302719139,0.010002371411802463,0.24873471818402443,0.0001440389516093533,0.1430158857518325,5.5936611735940875,0.027342668671451534,2.0209627906960126,False,0,False,0,0,min_task,none,-3.066821401137817e-05,-4.6308727366216044e-07,8.898877073657708e-06,-3.066821401137817e-05,-4.6308727366216044e-07,8.898877073657708e-06,2.738187702839387e-05,0.5797819861691991,0.9209027331462949,-2.0914694820882196e-05,3.033907232191826e-06,1.8030745825354823e-05,2.738187702839387e-05,0.5797819861691991,0.9209027331462949,-2.0914694820882196e-05,3.033907232191826e-06,1.8030745825354823e-05
10,0.18,0.057701475264983385,0.010002825421533136,0.24886294211674603,0.05753167306344139,0.010002371411802463,0.24879687653246194,0.0001822022370887444,0.1430467016566217,5.592144893234749,0.027351387549440956,2.0206899204434983,False,0,False,0,0,min_task,none,-4.1947765964593296e-05,-6.193188855904371e-07,1.1108307528239293e-05,-4.1947765964593296e-05,-6.193188855904371e-07,1.1108307528239293e-05,3.588100047881027e-05,0.5797023227305015,0.9212414784118023,-2.8065299341823278e-05,4.007632796205952e-06,2.4266603241519875e-05,3.588100047881027e-05,0.5797023227305015,0.9212414784118023,-2.8065299341823278e-05,4.007632796205952e-06,2.4266603241519875e-05
11,0.19999999999999998,0.057925120819194986,0.010002944279991686,0.24895521021691575,0.05771603938719139,0.010002371411802463,0.24887369583402444,0.00022441026715546805,0.14308494904053343,5.590263690661342,0.027362217179313426,2.0203511751779906,False,0,False,0,0,min_task,none,-5.555750763097004e-05,-8.022103383947741e-07,1.3419051053960469e-05,-5.555750763097004e-05,-8.022103383947741e-07,1.3419051053960469e-05,4.558609656818706e-05,0.5796060632396803,0.9216519287973058,-3.647534113589164e-05,5.146258803787723e-06,3.162648918826768e-05,4.558609656818706e-05,0.5796060632396803,0.9216519287973058,-3.647534113589164e-05,5.146258803787723e-06,3.162648918826768e-05
12,0.21999999999999997,0.058190792464722335,0.010003077437775664,0.24906497424640528,0.05793887058594139,0.010002371411802463,0.24896654216683695,0.00027046997202895414,0.14313128083055796,5.58798595329912,0.0273753548293202,2.019940724792487,False,0,False,0,0,min_task,none,-7.16770072188258e-05,-1.0124461478340789e-06,1.5793349919624017e-05,-7.16770072188258e-05,-1.0124461478340789e-06,1.5793349919624017e-05,5.6500873967093036e-05,0.5794917213689432,0.922139573254535,-4.6187730706122424e-05,6.459570365303813e-06,4.0154478367403315e-05,5.6500873967093036e-05,0.5794917213689432,0.922139573254535,-4.6187730706122424e-05,6.459570365303813e-06,4.0154478367403315e-05
13,0.23999999999999996,0.05850146411024974,0.010003224384381289,0.24919348795205087,0.058203323747191386,0.010002371411802463,0.24907673098402444,0.00032018837147765723,0.1431863096301809,5.585282220438055,0.027390992026414148,2.019453080335258,False,0,False,0,0,min_task,none,-9.048022471897478e-05,-1.2505156885270134e-06,1.8205980689602394e-05,-9.048022471897478e-05,-1.2505156885270134e-06,1.8205980689602394e-05,6.863591560128592e-05,0.5793577671269903,0.9227095552888688,-5.723753639656959e-05,7.957952150807089e-06,4.988782518089067e-05,6.863591560128592e-05,0.5793577671269903,0.9227095552888688,-5.723753639656959e-05,7.957952150807089e-06,4.988782518089067e-05
14,0.25999999999999995,0.05885999299128278,0.010003384435224002,0.2493419546597619,0.05851243580844139,0.010002371411802463,0.24920552767621193,0.00037337560632911475,0.1432506069761991,5.582125242393184,0.02740931520702113,2.018883098300924,False,0,False,0,0,min_task,none,-0.00011213621183165129,-1.5167232135777578e-06,2.064634791364794e-05,-0.00011213621183165129,-1.5167232135777578e-06,2.064634791364794e-05,8.201118954498078e-05,0.5792026131964204,0.9233666659850599,-6.965299578075172e-05,9.6527290838638e-06,6.0857796320699455e-05,8.201118954498078e-05,0.5792026131964204,0.9233666659850599,-6.965299578075172e-05,9.6527290838638e-06,6.0857796320699455e-05
15,0.27999999999999997,0.05926912263810978,0.010003556815748486,0.2495115286246214,0.058869124907191386,0.010002371411802463,0.24935414813402443,0.00042984672703525465,0.14332470230074393,5.578490052623822,0.027430506287819824,2.0182259876047333,False,0,False,0,0,min_task,none,-0.00013680973053403162,-1.8111925422221568e-06,2.3119544330799625e-05,-0.00013680973053403162,-1.8111925422221568e-06,2.3119544330799625e-05,9.66573117918489e-05,0.5790246019950416,0.9241153352263953,-8.345636570144423e-05,1.1556563390171623e-05,7.309036221015238e-05,9.66573117918489e-05,0.5790246019950416,0.9241153352263953,-8.345636570144423e-05,1.1556563390171623e-05,7.309036221015238e-05
16,0.3,0.059731485061225095,0.010003740761427342,0.24970331608552201,0.05927619173094139,0.010002371411802463,0.24952375931058693,0.000489422646742375,0.1434090817033436,5.574354046982812,0.027454743182405924,2.0174773183633974,False,0,False,0,0,min_task,none,-0.0001646618148246411,-2.133868274089984e-06,2.564644853243384e-05,-0.0001646618148246411,-2.133868274089984e-06,2.564644853243384e-05,0.0001126157094064136,0.578821993296416,0.9249596217938545,-9.866463858178931e-05,1.3683887698375786e-05,8.660676793942798e-05,0.0001126157094064136,0.578821993296416,0.9249596217938545,-9.866463858178931e-05,1.3683887698375786e-05,8.660676793942798e-05
17,0.32,0.06024960242251124,0.01000393562553253,0.2499183761162308,0.05973632086719139,0.010002371411802463,0.24971547978402445,0.0005519305422052203,0.14350418661632813,5.569697065344672,0.02748220028177511,2.0166330317959384,False,0,False,0,0,min_task,none,-0.00019585029039474776,-2.4845151091040823e-06,2.8262960519689293e-05,-0.00019585029039474776,-2.4845151091040823e-06,2.8262960519689293e-05,0.00012993784987275442,0.578592952345098,0.9259032028843012,-0.000115290147017962,1.6051353238775598e-05,0.00010142400081412547,0.00012993784987275442,0.578592952345098,0.9259032028843012,-0.000115290147017962,1.6051353238775598e-05,0.00010142400081412547
18,0.34,0.06082588837727006,0.010004140987614166,0.25015772133876224,0.06025208215344139,0.010002371411802463,0.24993038031996193,0.0006172038988310367,0.14361041243008932,5.564501471720042,0.027513048910784432,2.0156894507054917,False,0,False,0,0,min_task,none,-0.00023053026050418794,-2.8627166043900653e-06,3.1018501334957984e-05,-0.00023053026050418794,-2.8627166043900653e-06,3.1018501334957984e-05,0.00014868371733785262,0.5783355384644254,0.9269493634732843,-0.00013334107641272875,1.8678274006192816e-05,0.00011755517068522426,0.00014868371733785262,0.5783355384644254,0.9269493634732843,-0.00013334107641272875,1.8678274006192816e-05,0.00011755517068522426
19,0.36000000000000004,0.06146264921366979,0.010004356756891507,0.25042231854589914,0.06082593202719139,0.010002371411802463,0.2501694844340244,0.0006850823346719512,0.14372810713170472,5.55875222965081,0.027547457768562343,2.0146432901165086,False,0,False,0,0,min_task,none,-0.0002688545620755108,-3.2678744648360882e-06,3.3973922506851976e-05,-0.0002688545620755108,-3.2678744648360882e-06,3.3973922506851976e-05,0.00016891972576903776,0.578047694192549,0.9281009858598959,-0.00015282190478904515,2.1587050711188177e-05,0.0001350098195342659,0.00016891972576903776,0.578047694192549,0.9281009858598959,-0.00015282190478904515,2.1587050711188177e-05,0.0001350098195342659
20,0.38000000000000006,0.062162084875527705,0.010004583266097322,0.2507130892657785,0.06146021487594139,0.010002371411802463,0.25043376895433694,0.0007554112952574461,0.14385757000021301,5.5524369702449015,0.02758559335775456,2.0134916677298973,False,0,False,0,0,min_task,none,-0.0003109741933224029,-3.6992092348488294e-06,3.719898322656525e-05,-0.0003109741933224029,-3.6992092348488294e-06,3.719898322656525e-05,0.00019071626138129785,0.5777272350030879,0.9293605396621918,-0.00017373378887401223,2.4803561711664632e-05,0.00015379417749309166,0.00019071626138129785,0.5777272350030879,0.9293605396621918,-0.00017373378887401223,2.4803561711664632e-05,0.00015379417749309166
21,0.4000000000000001,0.06292628992593116,0.010004821352567275,0.2510309102914413,0.06215716438719139,0.010002371411802463,0.2507241645840244,0.0008280416810585006,0.14399905039371141,5.545546050684599,0.027627620405206763,2.012232113927601,False,0,False,0,0,min_task,none,-0.0003570387125406863,-4.155763030937105e-06,4.076955732271953e-05,-0.0003570387125406863,-4.155763030937105e-06,4.076955732271953e-05,0.00021414504125247228,0.577371839677039,0.9307300724777183,-0.00019607491526208554,2.8357511442807545e-05,0.00017391138290144973,0.00021414504125247228,0.577371839677039,0.9307300724777183,-0.00019607491526208554,2.8357511442807545e-05,0.00017391138290144973
22,0.4200000000000001,0.06375725448968407,0.01000507242449227,0.25137661419092333,0.06291890489844139,0.010002371411802463,0.25104155646371196,0.0009028294485507072,0.14415274665694502,5.53807260145032,0.0276737022749599,2.0108625811120744,False,0,False,0,0,min_task,none,-0.0004071966067591589,-4.636404731737474e-06,4.476472862645021e-05,-0.0004071966067591589,-4.636404731737474e-06,4.476472862645021e-05,0.0002392764624062188,0.5769790413947575,0.9322112013799152,-0.00021984083460403937,3.228272997177398e-05,0.0001953616838149755,0.0002392764624062188,0.5769790413947575,0.9322112013799152,-0.00021984083460403937,3.228272997177398e-05,0.0001953616838149755
23,0.4400000000000001,0.06465686519866612,0.010005338511205277,0.2517509898084387,0.06374745274719139,0.010002371411802463,0.2513867847340244,0.0009796352110889245,0.14431880517264786,5.530012560866907,0.02772400137309582,2.009381452209878,False,0,False,0,0,min_task,none,-0.0004615956283867748,-5.139837823839186e-06,4.926392248503602e-05,-0.0004615956283867748,-5.139837823839186e-06,4.926392248503602e-05,0.00026617709605880965,0.5765462196161828,0.9338051053870776,-0.0002450247949443179,3.661742001548529e-05,0.00021814263722826462,0.00026617709605880965,0.5765462196161828,0.9338051053870776,-0.0002450247949443179,3.661742001548529e-05,0.00021814263722826462
24,0.46000000000000013,0.06562690615490935,0.01000562229716616,0.2521547827632393,0.0646447176209414,0.010002371411802463,0.25176064509808693,0.0010583238557292072,0.14449731957551312,5.52136469590315,0.027778679542917493,2.007787548202715,False,0,False,0,0,min_task,none,-0.0005203830978860821,-5.6646109005405935e-06,5.434420479337181e-05,-0.0005203830978860821,-5.6646109005405935e-06,5.434420479337181e-05,0.00029490745747449466,0.5760705928114029,0.9355125190098647,-0.0002716180877804929,4.140435018012487e-05,0.00024224932031846621,0.00029490745747449466,0.5760705928114029,0.9355125190098647,-0.0002716180877804929,4.140435018012487e-05,0.00024224932031846621
25,0.48000000000000015,0.06666905992020461,0.010005927139951328,0.2525886959504213,0.0656125039071914,0.010002371411802463,0.25216388938402445,0.0011387641857254522,0.14468833014362092,5.512130608468639,0.02783789844805613,2.0060801345799284,False,0,False,0,0,min_task,none,-0.0005837061705557797,-6.2091306260549745e-06,6.0077858583100166e-05,-0.0005837061705557797,-6.2091306260549745e-06,6.0077858583100166e-05,0.00032552015351156217,0.5755492120971527,0.9373337269600911,-0.000299610417012764,4.669099521324692e-05,0.00026767456514043567,0.00032552015351156217,0.5755492120971527,0.9373337269600911,-0.000299610417012764,4.669099521324692e-05,0.00026767456514043567
26,0.5000000000000001,0.0677849085360837,0.010006257073039336,0.2530533900461561,0.0666525120434414,0.010002371411802463,0.25259722610746194,0.0012208285931599142,0.144891823378892,5.5023147267304315,0.027901819940403295,2.004258926629702,False,0,False,0,0,min_task,none,-0.0006517120655922322,-6.771676815064844e-06,6.653032356456417e-05,-0.0006517120655922322,-6.771676815064844e-06,6.653032356456417e-05,0.0003580584792580469,0.5749789558285388,0.9392685600829911,-0.00032899029685253055,5.252962574581197e-05,0.00029440922454321554,0.0003580584792580469,0.5749789558285388,0.9392685600829911,-0.00032899029685253055,5.252962574581197e-05,0.00029440922454321554
27,0.5200000000000001,0.06897593457596313,0.010006616794584906,0.25354948401831845,0.0677663398671914,0.010002371411802463,0.25306132103402446,0.0013043927637020815,0.14510773178513695,5.4919242812384965,0.027970606409128414,2.002324093506802,False,0,False,0,0,min_task,none,-0.0007245482560534553,-7.3504191508631395e-06,7.375855837977641e-05,-0.0007245482560534553,-7.3504191508631395e-06,7.375855837977641e-05,0.00039255550499028044,0.5743565251839715,0.9413163925544573,-0.00035974548061489995,5.8977351523461355e-05,0.0003224424731717534,0.00039255550499028044,0.5743565251839715,0.9413163925544573,-0.00035974548061489995,5.8977351523461355e-05,0.0003224424731717534
28,0.5400000000000001,0.07024352222899569,0.010007011643655478,0.25407755564293044,0.0689554839659414,0.010002371411802463,0.2535567977418369,0.0013893354132083768,0.1453359338492274,5.4809692659149105,0.028044421106500607,2.0002762610353355,False,0,False,0,0,min_task,none,-0.000802362618571664,-7.943434962232317e-06,8.18098586471793e-05,-0.000802362618571664,-7.943434962232317e-06,8.18098586471793e-05,0.0004290336644193335,0.5736784407746075,0.9434761403702309,-0.00039186341777669377,6.609612327079038e-05,0.0003517621430380356,0.0004290336644193335,0.5736784407746075,0.9434761403702309,-0.00039186341777669377,6.609612327079038e-05,0.0003517621430380356
29,0.5600000000000002,0.07158895841398813,0.010007447565627079,0.2546381420263404,0.0702213410271914,0.010002371411802463,0.2540842381840244,0.0014755380545884837,0.14557625422854,5.469462384190446,0.02812342844579099,1.998116513219562,False,0,False,0,0,min_task,none,-0.0008853035420136972,-8.548727413115923e-06,9.072113863170058e-05,-0.0008853035420136972,-8.548727413115923e-06,9.072113863170058e-05,0.0004675048277812823,0.5729410403011933,0.9457462611395607,-0.0004253317324583595,7.395269927017384e-05,0.0003823550889095062,0.0004675048277812823,0.5729410403011933,0.9457462611395607,-0.0004253317324583595,7.395269927017384e-05,0.0003823550889095062
30,0.5800000000000002,0.07301343392129273,0.010007931068592612,0.2552317401325874,0.0715652091884414,0.010002371411802463,0.25464418325121196,0.0015628847927718656,0.14582846414543016,5.457418980793468,0.028207794266149087,1.995846392450232,False,0,False,0,0,min_task,none,-0.0009735199947198454,-9.164243428800969e-06,0.00010051866152037086,-0.0009735199947198454,-9.164243428800969e-06,0.00010051866152037086,0.0005079708196427825,0.5721404772717769,0.9481247551816517,-0.00046013871279680126,8.261858347265836e-05,0.00041420757490161306,0.0005079708196427825,0.5721404772717769,0.9481247551816517,-0.00046013871279680126,8.261858347265836e-05,0.00041420757490161306
31,0.6000000000000002,0.07451804458039168,0.010008469172757524,0.25585880731523764,0.0729882893871914,0.010002371411802463,0.2552371333340244,0.0016512621453692274,0.1460922819871344,5.444856959905104,0.028297686059039873,1.993467898408141,False,0,False,0,0,min_task,none,-0.001067161550337692,-9.787890683482099e-06,0.00011121818342830651,-0.001067161550337692,-9.787890683482099e-06,0.00011121818342830651,0.0005504243217192414,0.5712727207854995,0.9506091679113862,-0.000496273797596253,9.21699424257646e-05,0.0004473056703017513,0.0005504243217192414,0.5712727207854995,0.9506091679113862,-0.000496273797596253,9.21699424257646e-05,0.0004473056703017513
32,0.6200000000000002,0.07610379245060228,0.010009069354857195,0.256519761852912,0.0744916867109414,0.010002371411802463,0.25586354888558693,0.0017405588863276774,0.14636737410738723,5.431796690578579,0.028393273150616998,1.9909834856784068,False,0,False,0,0,min_task,none,-0.0011663783725867904,-1.0417553004826676e-05,0.0001228254600773995,-0.0011663783725867904,-1.0417553004826676e-05,0.0001228254600773995,0.0005948500861074599,0.5703335563806148,0.9531965934903799,-0.0005337280443289703,0.00010268750845334917,0.0004816356399785363,0.0005948500861074599,0.5703335563806148,0.9531965934903799,-0.0005337280443289703,0.00010268750845334917,0.0004816356399785363
33,0.6400000000000002,0.07777158703234369,0.010009739489641102,0.2572149834880044,0.0760764117471914,0.010002371411802463,0.2565238509840244,0.001830665909995551,0.14665335582411215,5.418260900480816,0.028494726834287866,1.988396060099413,False,0,False,0,0,min_task,none,-0.0012713211595577964,-1.1051103608453404e-05,0.0001353370529999243,-0.0012713211595577964,-1.1051103608453404e-05,0.0001353370529999243,0.000641226374394061,0.5693185879390774,0.9558836797116249,-0.000572494561140357,0.00011425647636919776,0.0005171843128955384,0.000641226374394061,0.5693185879390774,0.9558836797116249,-0.000572494561140357,0.00011425647636919776,0.0005171843128955384
34,0.6600000000000003,0.07952224649690837,0.010010487790461233,0.25794481396768687,0.07774338193344141,0.010002371411802463,0.25721842189496197,0.0019214761133250146,0.14694979260589855,5.40427455914464,0.028602220447729882,1.9857089738781681,False,0,False,0,0,min_task,none,-0.0013821410485723576,-1.1686415661133157e-05,0.00014874136496567352,-0.0013821410485723576,-1.1686415661133157e-05,0.00014874136496567352,0.0006895265340550133,0.5682232406312919,0.9586666340751212,-0.0006125688853033516,0.00012696640064360353,0.0005539394115361481,0.0006895265340550133,0.5682232406312919,0.9586666340751212,-0.0006125688853033516,0.00012696640064360353,0.0005539394115361481
35,0.6800000000000003,0.08135649893234571,0.010011322750895599,0.25870955758663977,0.07949342290719141,0.010002371411802463,0.25794760563402447,0.0020128842937612136,0.14725620143803966,5.389864752046469,0.02871592938869565,1.9829260195146716,False,0,False,0,0,min_task,none,-0.0014989894827544788,-1.23213697687747e-05,0.00016301983067567203,-0.0014989894827544788,-1.23213697687747e-05,0.00016301983067567203,0.0007397206232633907,0.5670427648811175,0.9615412310066072,-0.0006539492909816226,0.00014091109909235652,0.0005918898250317117,0.0007397206232633907,0.5670427648811175,0.9615412310066072,-0.0006539492909816226,0.00014091109909235652,0.0005918898250317117
36,0.7000000000000003,0.08327498360392491,0.010012253089213682,0.2595094817309053,0.08132726985594141,0.010002371411802463,0.25871170852933695,0.0021047870611472885,0.14757205235759335,5.375060546902872,0.028836031064166084,1.9800514225831858,False,0,False,0,0,min_task,none,-0.0016220180407845019,-1.2953858102113401e-05,0.00017814818974759255,-0.0016220180407845019,-1.2953858102113401e-05,0.00017814818974759255,0.0007917770001901629,0.5657722413244998,0.9645028201646133,-0.0006966370107591858,0.00015618856813557394,0.0006310258099101017,0.0007917770001901629,0.5657722413244998,0.9645028201646133,-0.0006966370107591858,0.00015618856813557394,0.0006310258099101017
37,0.7200000000000003,0.08527825222717603,0.010013287697276278,0.2603448174223961,0.08324556886719142,0.010002371411802463,0.2595109997840245,0.0021970827615969595,0.1478967701454837,5.359892853645939,0.02896270476776736,1.9770898334251796,False,0,False,0,0,min_task,none,-0.0017513782313545786,-1.358178499253884e-05,0.00019409777294788713,-0.0017513782313545786,-1.358178499253884e-05,0.00019409777294788713,0.0008456638007570397,0.5644065867325754,0.9675463357769692,-0.000740636357480324,0.00017290091322043038,0.0006713391041044832,0.0008456638007570397,0.5644065867325754,0.9675463357769692,-0.000740636357480324,0.00017290091322043038,0.0006713391041044832
38,0.7400000000000003,0.0873667702521162,0.010014435595193962,0.2612157598638122,0.08524887827844142,0.010002371411802463,0.26034571203871193,0.0022896714119363545,0.14822973616255813,5.344394279570139,0.029096131480818292,1.9740463178128236,False,0,False,0,0,min_task,none,-0.001887221253984929,-1.4203063956514161e-05,0.00021083673984314223,-0.001887221253984929,-1.4203063956514161e-05,0.00021083673984314223,0.0009013502401316408,0.5629405608663145,0.9706663069448331,-0.0007859547358195889,0.00019115429637473177,0.000712822942396434,0.0009013502401316408,0.5629405608663145,0.9706663069448331,-0.0007859547358195889,0.00019115429637473177,0.000712822942396434
39,0.7600000000000003,0.08954091815813942,0.010015705892765665,0.2621224689835848,0.08733767002719142,0.010002371411802463,0.2612160419340245,0.002382454644076788,0.14857029031557553,5.328598981151168,0.029236493592994257,1.9709263466449598,False,0,False,0,0,min_task,none,-0.0020296977280652483,-1.481561123396528e-05,0.0002283312158234462,-0.0020296977280652483,-1.481561123396528e-05,0.0002283312158234462,0.0009588076871521805,0.5613687742245401,0.9738568688478957,-0.0008326025364619296,0.00021105890110640504,0.0007554719646329762,0.0009588076871521805,0.5613687742245401,0.9738568688478957,-0.0008326025364619296,0.00021105890110640504,0.0007554719646329762
40,0.7800000000000004,0.09180099275749934,0.010017107758322855,0.2630650699805978,0.08951233100094144,0.010002371411802463,0.262122150673087,0.0024753356573030986,0.1489177331380515,5.3125425140349565,0.029383974539318694,1.9677357847418973,False,0,False,0,0,min_task,none,-0.0021789573917171895,-1.541733603624719e-05,0.0002465462867666346,-0.0021789573917171895,-1.541733603624719e-05,0.0002465462867666346,0.001018010474600636,0.5596856966492938,0.9771117747847455,-0.0008805929089473145,0.0002327289127891526,0.0007992820111120387,0.001018010474600636,0.5596856966492938,0.9771117747847455,-0.0008805929089473145,0.0002327289127891526,0.0007992820111120387
41,0.8000000000000004,0.09414720850712907,0.010018650395213012,0.2640436538687614,0.09177316438719142,0.010002371411802463,0.26306416458402443,0.0025682191782684595,0.14927132797042258,5.296261682650944,0.029538758350970154,1.9644808788050474,False,0,False,0,0,min_task,none,-0.002335148772239743,-1.6006127810951065e-05,0.00026544682184791255,-0.002335148772239743,-1.6006127810951065e-05,0.00026544682184791255,0.0010789364240358426,0.5578856667482228,0.9804244089819997,-0.0009299414130768057,0.0002562825108011774,0.0008442498032143454,0.0010789364240358426,0.5578856667482228,0.9804244089819997,-0.0009299414130768057,0.0002562825108011774,0.0008442498032143454
42,0.8200000000000004,0.09657969882823236,0.01002034302573328,0.26505827802128,0.09412039102344144,0.010002371411802463,0.26404217568246197,0.002661011428116071,0.14963030322348958,5.279794390849654,0.02970102911839975,1.9611682446077934,False,0,False,0,0,min_task,none,-0.0024984188298047805,-1.6579840923277635e-05,0.00028499810695361676,-0.0024984188298047805,-1.6579840923277635e-05,0.00028499810695361676,0.0011415670787289069,0.555962902092578,0.9837878001049145,-0.0009806655522410484,0.0002818418668524555,0.0008903725107733801,0.0011415670787289069,0.555962902092578,0.9837878001049145,-0.0009806655522410484,0.0002818418668524555,0.0008903725107733801
43,0.8400000000000004,0.09909851743244152,0.010022194881901193,0.26610896671452766,0.09655415074719144,0.010002371411802463,0.26505624223402446,0.0027536200955883493,0.14999385470861687,5.263179494899741,0.029870970366237336,1.9578048534848784,False,0,False,0,0,min_task,none,-0.002668912575815384,-1.713627722712087e-05,0.00030516628231738675,-0.002668912575815384,-1.713627722712087e-05,0.00030516628231738675,0.0012058876516400467,0.5539115101509708,0.987194635404474,-0.0010327841950533896,0.0003095331422095612,0.0009376472107310372,0.0012058876516400467,0.5539115101509708,0.987194635404474,-0.0010327841950533896,0.0003095331422095612,0.0009376472107310372
44,0.8600000000000004,0.1017036396543753,0.010024215202037442,0.2671957116717668,0.09907450374594144,0.010002371411802463,0.26610638931683694,0.0028459543160666025,0.1503611480180742,5.246456660088886,0.03004876434052052,1.9543980181853189,False,0,False,0,0,min_task,none,-0.0028467726672724274,-1.7673167059233317e-05,0.00032591858860147487,-0.0028467726672724274,-1.7673167059233317e-05,0.00032591858860147487,0.0012718867078767352,0.5517254999178541,0.9906372754387216,-0.0010863168945684034,0.0003394864751861749,0.0009860702445571112,0.0012718867078767352,0.5517254999178541,0.9906372754387216,-0.0010863168945684034,0.0003394864751861749,0.0009860702445571112
45,0.8800000000000004,0.10439496379026644,0.010026413231800384,0.2683184726068293,0.10168143190719145,0.010002371411802463,0.26719260938402445,0.002937924656290188,0.15073132093894667,5.2296662220712955,0.030234591209963503,1.9509553781510713,False,0,False,0,0,min_task,none,-0.003032138978286367,-1.8188149228117388e-05,0.00034722343464124695,-0.003032138978286367,-1.8188149228117388e-05,0.00034722343464124695,0.0013395556112710965,0.5493987941960817,0.9941077693083451,-0.0011412831166221975,0.0003718359492888524,0.0010356364842447141,0.0013395556112710965,0.5493987941960817,0.9941077693083451,-0.0011412831166221975,0.0003718359492888524,0.0010356364842447141
46,0.9000000000000005,0.10717231244197027,0.010028798228004066,0.2694771777678816,0.10437484016844145,0.010002371411802463,0.268314862826212,0.0030294431041703903,0.15110348588407627,5.212849054000065,0.03042862818410717,1.9474848842814478,False,0,False,0,0,min_task,none,-0.0032251481495793183,-1.867875058635999e-05,0.0003690503071613176,-0.0032251481495793183,-1.867875058635999e-05,0.0003690503071613176,0.0014088877723493485,0.5469252424945424,0.9975978703502688,-0.0011977013904294997,0.0004067195318452595,0.001086338518402718,0.0014088877723493485,0.5469252424945424,0.9975978703502688,-0.0011977013904294997,0.0004067195318452595,0.001086338518402718
47,0.9200000000000005,0.11003543386605114,0.01003137946334376,0.27067172448127774,0.10715455786719146,0.010002371411802463,0.26947307853402447,0.0031204230634205164,0.15147673232378556,5.1960464403666276,0.030631048552309578,1.9439947832395241,False,0,False,0,0,min_task,none,-0.00342593311665808,-1.914236577698509e-05,0.0003913695483162643,-0.00342593311665808,-1.914236577698509e-05,0.0003913695483162643,0.0014798777406688618,0.544298634501335,1.0010990522357957,-0.0012555883957624076,0.00044427897288505116,0.0011381657712475708,0.0014798777406688618,0.544298634501335,1.0010990522357957,-0.0012555883957624076,0.00044427897288505116,0.0011381657712475708
48,0.9400000000000005,0.11298400332750473,0.010034166230021815,0.271901979696078,0.11002034009094147,0.010002371411802463,0.270667154460587,0.003210779352809478,0.1518501292023729,5.179299958357089,0.030842020648631133,1.9404936013539973,False,0,False,0,0,min_task,none,-0.003634622616938188,-1.9576237721680557e-05,0.00041415202976504437,-0.003634622616938188,-1.9576237721680557e-05,0.00041415202976504437,0.0015525201866730689,0.541512714096565,1.0046025254275497,-0.0013149580013043557,0.00048465965440422566,0.0011911035677113163,0.0015525201866730689,0.541512714096565,1.0046025254275497,-0.0013149580013043557,0.00048465965440422566,0.0011911035677113163
49,0.9600000000000005,0.11601762445821277,0.010037167840265813,0.273167780529182,0.11297186902719147,0.010002371411802463,0.2718969581840245,0.0033004282100935326,0.15222272732423472,5.162651367398861,0.031061706748732102,1.9369901281622433,False,0,False,0,0,min_task,none,-0.0038513406760352148,-1.997743938964185e-05,0.0004373687540225578,-0.0038513406760352148,-1.997743938964185e-05,0.0004373687540225578,0.0016268088195391724,0.5385611938661011,1.0080992539499185,-0.0013758202690099855,0.0005280103811594117,0.0012451321581626181,0.0016268088195391724,0.5385611938661011,1.0080992539499185,-0.0013758202690099855,0.0005280103811594117,0.0012451321581626181
50,0.9800000000000005,0.11913583061914418,0.010040393621773705,0.2744689348111984,0.11600875531344146,0.010002371411802463,0.27316232746996194,0.0033892872997371916,0.15259356169462726,5.146142507472204,0.03129026190580425,1.9334933996398744,False,0,False,0,0,min_task,none,-0.0040762060729523835,-2.0342857332364582e-05,0.0004609904128342463,-0.0040762060729523835,-2.0342857332364582e-05,0.0004609904128342463,0.001702735284882177,0.5354377700820585,1.0115799724346919,-0.0014381804384084632,0.0005744831053241604,0.0013002257155018539,0.001702735284882177,0.5354377700820585,1.0115799724346919,-0.0014381804384084632,0.0005744831053241604,0.0013002257155018539
51,1.0000000000000004,0.12233808626604298,0.01004385290631156,0.27580522163373494,0.11913053938719145,0.010002371411802463,0.2744630708340245,0.0034772757244113197,0.1529616538010272,5.129815206634258,0.0315278327333282,1.930012681155101,False,0,False,0,0,min_task,none,-0.004309331783647139,-2.0669177411232303e-05,0.0004849869303414717,-0.004309331783647139,-2.0669177411232303e-05,0.0004849869303414717,0.0017802880825003823,0.5321361381168651,1.01503520341073,-0.0015020379038646725,0.0006242325790314096,0.0013563513165430986,0.0017802880825003823,0.5321361381168651,1.01503520341073,-0.0015020379038646725,0.0006242325790314096,0.0013563513165430986
52,1.0200000000000005,0.12562378831925752,0.010047555009944486,0.2771763918978651,0.12233669283594147,0.010002371411802463,0.27579896810433696,0.00356431404073144,0.1533260138221121,5.113711198080543,0.031774556143173566,1.926557450179063,False,0,False,0,0,min_task,none,-0.004550824402529587,-2.0952873086642218e-05,0.0005093270165010119,-0.004550824402529587,-2.0952873086642218e-05,0.0005093270165010119,0.0018594515405063981,0.5286500082527004,1.0184552748052529,-0.0015673851970911111,0.0006774159309550964,0.0014134679188667711,0.0018594515405063981,0.5286500082527004,1.0184552748052529,-0.0015673851970911111,0.0006774159309550964,0.0014134679188667711
53,1.0400000000000005,0.1289922675360526,0.010051509203662542,0.2785821688642478,0.12562661974719147,0.010002371411802463,0.27716977098402446,0.003650324277829874,0.1536856427516325,5.097872046991909,0.03203055804802633,1.92313737878454,False,0,False,0,0,min_task,none,-0.004800783540703565,-2.1190196556184146e-05,0.0005339777506953902,-0.004800783540703565,-2.1190196556184146e-05,0.0005339777506953902,0.0019402048740655988,0.5249731218570136,1.0218303376356328,-0.0016342069850369817,0.0007341921648729272,0.0014715253423622588,0.0019402048740655988,0.5249731218570136,1.0218303376356328,-0.0016342069850369817,0.0007341921648729272,0.0014715253423622588
54,1.0600000000000005,0.1324427898858101,0.0100557246735587,0.2800222487049995,0.12899965805844146,0.010002371411802463,0.27857520361371196,0.0037352299591053542,0.15403953442614363,5.082339087284915,0.03229595203736808,1.9197623159541601,False,0,False,0,0,min_task,none,-0.0050593011999780614,-2.1377172969144987e-05,0.0005589042118531582,-0.0050593011999780614,-2.1377172969144987e-05,0.0005589042118531582,0.002022521351759296,0.5210992678882934,1.0251503838707414,-0.0017024790925953344,0.0007947215806038647,0.0015304632639272348,0.002022521351759296,0.5210992678882934,1.0251503838707414,-0.0017024790925953344,0.0007947215806038647,0.0015304632639272348
55,1.0800000000000005,0.13597455792781604,0.010060210470093863,0.28149630105754114,0.1324550809071915,0.010002371411802463,0.28001496313402446,0.003818956126877737,0.15438667744618054,5.067153368313318,0.032570838036408666,1.9164422697190515,False,0,False,0,0,min_task,none,-0.005326461121379153,-2.1509597873802383e-05,0.000584069166005515,-0.005326461121379153,-2.1509597873802383e-05,0.000584069166005515,0.002106367585075212,0.5170222996981937,1.0284052644465826,-0.001772167558098858,0.0008591651197776322,0.001590210232413071,0.002106367585075212,0.5170222996981937,1.0284052644465826,-0.001772167558098858,0.0008591651197776322,0.001590210232413071
56,1.1000000000000005,0.13958671219117025,0.010064975446361094,0.2830039695806692,0.13599209798094147,0.010002371411802463,0.28148872024808697,0.0039014293695276057,0.15472605698176536,5.052355611479371,0.03285530095725327,1.9131873891432103,False,0,False,0,0,min_task,none,-0.005602338106751251,-2.158303799198545e-05,0.0006094328173078168,-0.005602338106751251,-2.158303799198545e-05,0.0006094328173078168,0.002191702949852622,0.5127361520959272,1.0315847074251734,-0.0018432277285603115,0.0009276836409010707,0.001650682709927166,0.002191702949852622,0.5127361520959272,1.0315847074251734,-0.0018432277285603115,0.0009276836409010707,0.001650682709927166
57,1.1200000000000006,0.14327833255718808,0.010070028185634933,0.28454487251282534,0.1396098568671915,0.010002371411802463,0.2829961197840245,0.003982577851355757,0.15505665645440442,5.037986176638657,0.03314940935128267,1.9100079461646196,False,0,False,0,0,min_task,none,-0.005886997312173492,-2.1592835364794238e-05,0.0006349526245118564,-0.005886997312173492,-2.1592835364794238e-05,0.0006349526245118564,0.002278479143184192,0.5082348586364522,1.0346783362864485,-0.0019156034012922866,0.0010004371301099223,0.0017117841452773525,0.002278479143184192,0.5082348586364522,1.0346783362864485,-0.0019156034012922866,0.0010004371301099223,0.0017117841452773525
58,1.1400000000000006,0.14704843964326347,0.01007537691879853,0.2861186032326858,0.14330744440344148,0.010002371411802463,0.28453678125746196,0.004062331344157389,0.15537745908875342,5.024085038130216,0.033453214071266786,1.9069143173033445,False,0,False,0,0,min_task,none,-0.006180493511649449,-2.1534114861153125e-05,0.0006605831802718841,-0.006180493511649449,-2.1534114861153125e-05,0.0006605831802718841,0.002366639873195095,0.5035125690966414,1.0376756883485376,-0.001989226017907732,0.0010775838554466944,0.001773404084801999,0.002366639873195095,0.5035125690966414,1.0376756883485376,-0.001989226017907732,0.0010775838554466944,0.001773404084801999
59,1.1600000000000006,0.1508959961882821,0.010081029432530439,0.28772473082247474,0.14708388802719152,0.010002371411802463,0.2861102994340245,0.004140621260643325,0.15568744932876347,5.010691770196828,0.033766746951004664,1.9039169652412553,False,0,False,0,0,min_task,none,-0.006482870329739454,-2.1401795005916544e-05,0.0006862761478001755,-0.006482870329739454,-2.1401795005916544e-05,0.0006862761478001755,0.002456120675560959,0.4985635670995572,1.0405662333141932,-0.002064013917249252,0.0011592794739077696,0.0018354173263690602,0.002456120675560959,0.4985635670995572,1.0405662333141932,-0.002064013917249252,0.0011592794739077696,0.0018354173263690602
60,1.1800000000000006,0.15481990844000026,0.010086992969309599,0.28936280063394215,0.1509381571259415,0.010002371411802463,0.287716244891837,0.004217380689960457,0.15598561411453643,4.9978455415147485,0.03409001950954704,1.9010264202755998,False,0,False,0,0,min_task,none,-0.0067941594420946015,-2.119060205783987e-05,0.0007119802475327526,-0.0067941594420946015,-2.119060205783987e-05,0.0007119802475327526,0.0025468488485120076,0.49338228784166366,1.0433393919397194,-0.002139871654855375,0.001245676101574799,0.001897683123392286,0.0025468488485120076,0.49338228784166366,1.0433393919397194,-0.002139871654855375,0.001245676101574799,0.001897683123392286
61,1.2000000000000006,0.1588190275436192,0.010093274120437016,0.29103233485699864,0.1548691643871915,0.010002371411802463,0.28935416458402446,0.004292544434485953,0.15627094401725586,4.985585118529538,0.03442302168610425,1.8982532616500736,False,0,False,0,0,min_task,none,-0.007114379742839149,-2.0895087239525112e-05,0.0007376412844685519,-0.007114379742839149,-2.0895087239525112e-05,0.0007376412844685519,0.0026387434956947234,0.48796333587833746,1.0459845548259348,-0.0022166893974990215,0.0013369213577882452,0.001960044446737548,0.0026387434956947234,0.48796333587833746,1.0459845548259348,-0.0022166893974990215,0.0013369213577882452,0.001960044446737548
62,1.2200000000000006,0.16289215093204246,0.010099878713300366,0.2927328330912221,0.1588757671484415,0.010002371411802463,0.291023582401212,0.004366049048317948,0.15654243423126996,4.973948877257316,0.034765720610640205,1.8956080987638582,False,0,False,0,0,min_task,none,-0.007443536478237312,-2.050964700687531e-05,0.0007632022067935812,-0.007443536478237312,-2.050964700687531e-05,0.0007632022067935812,0.00273171566662188,0.48230150291670437,1.0484911013302873,-0.0022943424034477314,0.0014331573948802166,0.002022327314528241,0.00273171566662188,0.48230150291670437,1.0484911013302873,-0.0022943424034477314,0.0014331573948802166,0.002022327314528241
63,1.2400000000000007,0.16703802371799117,0.010106811694096659,0.2944637729199828,0.1629567687471915,0.010002371411802463,0.29272399973402446,0.004437832877410145,0.1567990854238645,4.962974823194009,0.035118059414141575,1.8931015522595056,False,0,False,0,0,min_task,none,-0.0077816203464822695,-2.00285462293604e-05,0.0007886031868010972,-0.0077816203464822695,-2.00285462293604e-05,0.0007886031868010972,0.0028256685853061065,0.4763917855601917,1.05084841859686,-0.0023726906013134303,0.0015345199252792987,0.002084340202162953,0.0028256685853061065,0.4763917855601917,1.05084841859686,-0.0023726906013134303,0.0015345199252792987,0.002084340202162953
64,1.2600000000000007,0.17125534008724827,0.010114077007137694,0.2962246104873756,0.1671109198709415,0.010002371411802463,0.294454896035587,0.0045078361006397226,0.15703990444460303,4.952700618971945,0.03547995608138177,1.8907442349929329,False,0,False,0,0,min_task,none,-0.008128606563658351,-1.9445944131335755e-05,0.0008137817154697634,-0.008128606563658351,-1.9445944131335755e-05,0.0008137817154697634,0.0029204979583586383,0.4702294029490737,1.053045920703739,-0.002451578282429312,0.0016411372577429702,0.002145873547113788,0.0029204979583586383,0.4702294029490737,1.053045920703739,-0.002451578282429312,0.0016411372577429702,0.002145873547113788
65,1.2800000000000007,0.17554274469388836,0.010121677471743307,0.2980147810780609,0.17133691990719152,0.010002371411802463,0.2962157293840245,0.0045760007725247735,0.1572639048980738,4.943163619380953,0.035851302347866945,1.888546732886054,False,0,False,0,0,min_task,none,-0.008484453896780353,-1.875592283074847e-05,0.000838672704440933,-0.008484453896780353,-1.875592283074847e-05,0.000838672704440933,0.0030160923572177876,0.46380981423188133,1.0550730679224314,-0.0025308339249566414,0.0017531293546058963,0.002206699366438515,0.0030160923572177876,0.46380981423188133,1.0550730679224314,-0.0025308339249566414,0.0017531293546058963,0.002206699366438515
66,1.3000000000000007,0.1798988340573099,0.010129614657563844,0.2998336996998189,0.17563341829344153,0.010002371411802463,0.298005937044962,0.004642270867230614,0.15747010758514365,4.93440091338575,0.03623196264169047,1.8865195856673616,False,0,False,0,0,min_task,none,-0.008849103665293663,-1.7952518284052716e-05,0.0008632085908110603,-0.008849103665293663,-1.7952518284052716e-05,0.0008632085908110603,0.0031123336713552887,0.4571287357997827,1.0569193860815722,-0.0026102701704282523,0.0018706069217058943,0.002266571007718666,0.0031123336713552887,0.4571287357997827,1.0569193860815722,-0.0026102701704282523,0.0018706069217058943,0.002266571007718666
67,1.3200000000000007,0.1843221579614046,0.010137888759018722,0.30168076166844615,0.17999901586719153,0.010002371411802463,0.2998249360340245,0.004706592323914424,0.15765754081938277,4.92644937277838,0.03662177306998006,1.8846732675082207,False,0,False,0,0,min_task,none,-0.009222478713248553,-1.702975341576066e-05,0.0008873194427522989,-0.009222478713248553,-1.702975341576066e-05,0.0008873194427522989,0.003209097632542571,0.45018215820908425,1.0585744860221586,-0.0026896839763743347,0.0019936705425425798,0.002325223057347485,0.003209097632542571,0.45018215820908425,1.0585744860221586,-0.0026896839763743347,0.0019936705425425798,0.002325223057347485
68,1.3400000000000007,0.1888112208563447,0.010146498469364877,0.3035553431952696,0.18443226621594155,0.010002371411802463,0.301672123679337,0.004768913093842167,0.15782524062667133,4.919345707124962,0.03702054044880831,1.8830181675676343,False,0,False,0,0,min_task,none,-0.009604482355049508,-1.5981673168672404e-05,0.0009109330659517318,-0.009604482355049508,-1.5981673168672404e-05,0.0009109330659517318,0.0033062544124287927,0.4429663627138666,1.0600280831307272,-0.0027688569709488856,0.002122409867833316,0.0023823714328145024,0.0033062544124287927,0.4429663627138666,1.0600280831307272,-0.0027688569709488856,0.002122409867833316,0.0023823714328145024
69,1.3600000000000008,0.19336448326206435,0.010155440854795023,0.3054568019769248,0.18893167702719155,0.010002371411802463,0.3035468781840245,0.004829183188179138,0.15797225083780234,4.913126524670834,0.037428041374815764,1.8815645704590658,False,0,False,0,0,min_task,none,-0.009994997298347038,-1.4802381160208866e-05,0.0009339751128542374,-0.009994997298347038,-1.4802381160208866e-05,0.0009339751128542374,0.0034036692975452005,0.4354779373282274,1.0612700169317424,-0.0028475560373691406,0.002256902871277906,0.002437713688042073,0.0034036692975452005,0.4354779373282274,1.0612700169317424,-0.0028475560373691406,0.002256902871277906,0.002437713688042073
70,1.3800000000000008,0.1979803631744759,0.010164711228896613,0.307384477787382,0.19349571143844158,0.010002371411802463,0.305448559188712,0.004887354727294325,0.15809762308524247,4.907828398894142,0.03784402133616429,1.8803226366580506,False,0,False,0,0,min_task,none,-0.010393884548854761,-1.3486077577451601e-05,0.000956369199480911,-0.010393884548854761,-1.3486077577451601e-05,0.000956369199480911,0.0035012034485542077,0.42771379232829837,1.062290270713595,-0.0029255341581685365,0.0023972151821425626,0.002490929563568817,0.0035012034485542077,0.42771379232829837,1.062290270713595,-0.0029255341581685365,0.0023972151821425626,0.002490929563568817
71,1.4000000000000008,0.20265723747529862,0.010174303027766318,0.3093376930717723,0.19812278938719158,0.010002371411802463,0.3073765083340245,0.004943381992106246,0.15820041671638116,4.903487940432926,0.038268193860298415,1.8793023828761979,False,0,False,0,0,min_task,none,-0.010800982302867785,-1.2027097879750734e-05,0.0009780370365185687,-0.010800982302867785,-1.2027097879750734e-05,0.0009780370365185687,0.0035987147517608235,0.4196711750988733,1.0630789911546663,-0.003002531550223559,0.0025433995047789556,0.002541681815084157,0.0035987147517608235,0.4196711750988733,1.0630789911546663,-0.003002531550223559,0.0025433995047789556,0.002541681815084157
72,1.4200000000000008,0.20739344334463447,0.010184207686109881,0.311315753541637,0.20281128896094153,0.010002371411802463,0.309330049823087,0.004997221476432055,0.1582796986365925,4.90014187415264,0.03870023969587692,1.8785136624351266,False,0,False,0,0,min_task,none,-0.011216104833850875,-1.0419951805203868e-05,0.000998898581753037,-0.011216104833850875,-1.0419951805203868e-05,0.000998898581753037,0.0036960587696921506,0.4113476842317315,1.0636265079138676,-0.0030782771209066475,0.002695495134328201,0.0025896173541826942,0.0036960587696921506,0.4113476842317315,1.0636265079138676,-0.0030782771209066475,0.002695495134328201,0.0025896173541826942
73,1.4400000000000008,0.21218727967621526,0.010194414514814286,0.31331794877153685,0.2075595477471916,0.010002371411802463,0.3113084909840245,0.005048831940173229,0.1583345430969558,4.897827121139916,0.039139806026275474,1.8779661456759253,False,0,False,0,0,min_task,none,-0.011639041380552037,-8.659362110819785e-06,0.001018872222041462,-0.011639041380552037,-8.659362110819785e-06,0.001018872222041462,0.00379308979703877,0.40274128277832094,1.063923353143765,-0.00315249027509599,0.002853527577166229,0.0026343687355707404,0.00379308979703877,0.40274128277832094,1.063923353143765,-0.00315249027509599,0.002853527577166229,0.0026343687355707404
74,1.4600000000000009,0.2170370084962413,0.010204910580664741,0.31534355279638776,0.2123658641834416,0.010002371411802463,0.31331112283246204,0.0050981744638828735,0.15836403144244438,4.896580885448594,0.0395865057125002,1.8776693004460279,False,0,False,0,0,min_task,none,-0.012069555045374077,-6.740302414939428e-06,0.0010378749941958273,-0.012069555045374077,-6.740302414939428e-06,0.0010378749941958273,0.0038896620276058815,0.3938503105523772,1.0639602808728648,-0.003224883101252982,0.0030175082837006033,0.0026755560245611256,0.0038896620276058815,0.3938503105523772,1.0639602808728648,-0.003224883101252982,0.0030175082837006033,0.0026755560245611256
75,1.4800000000000009,0.22194085638621197,0.010215680589137629,0.3173918247088583,0.21722849890719154,0.010002371411802463,0.3153372206340245,0.0051452125047989,0.15836725183668304,4.896440745489472,0.0400399165639682,1.8776323727169282,False,0,False,0,0,min_task,none,-0.012507381712608597,-4.658033451338033e-06,0.0010558228537454752,-0.012507381712608597,-4.658033451338033e-06,0.0010558228537454752,0.003985630834813025,0.38467349537817036,1.063728286197381,-0.003295162961164976,0.0031874344996743534,0.0027127890764391707,0.003985630834813025,0.38467349537817036,1.063728286197381,-0.003295162961164976,0.0031874344996743534,0.0027127890764391707
76,1.5000000000000009,0.2268970159081909,0.01022670677151724,0.319462009257393,0.22214567610594166,0.010002371411802463,0.31738604446683705,0.005189911953172626,0.15834329898002097,4.897444750001982,0.04049958063636669,1.877864367392412,False,0,False,0,0,min_task,none,-0.012952228996420187,-2.40813699633565e-06,0.0010726309982067497,-0.012952228996420187,-2.40813699633565e-06,0.0010726309982067497,0.004080854162454816,0.37520996319044775,1.063218624226854,-0.0033630355020014455,0.0033632892399178514,0.00274567025495838,0.004080854162454816,0.37520996319044775,1.063218624226854,-0.0033630355020014455,0.0033632892399178514,0.00274567025495838
77,1.520000000000001,0.23190364703372507,0.01023796877801423,0.32155333744330916,0.22711558486719163,0.010002371411802463,0.3194568397840245,0.005232241189484754,0.15829127383912087,4.899631518553864,0.04096500355672755,1.878374029362939,False,0,False,0,0,min_task,none,-0.013403775230264455,1.3453285000291336e-08,0.0010882142530695296,-0.013403775230264455,1.3453285000291336e-08,0.0010882142530695296,0.004175194021614083,0.36545924687741765,1.0624228287043986,-0.0034282081047407507,0.0035450413870222936,0.002773797613981616,0.004175194021614083,0.36545924687741765,1.0624228287043986,-0.0034282081047407507,0.0035450413870222936,0.002773797613981616
78,1.540000000000001,0.23695887857661896,0.010249443578946324,0.3236650271163084,0.2321363805284416,0.010002371411802463,0.32154883797621203,0.005272171142623636,0.15821028340468538,4.90304034664529,0.04143565387703351,1.8791698248853943,False,0,False,0,0,min_task,none,-0.013861668509830284,2.610424834249449e-06,0.0011024875259556992,-0.013861668509830284,2.610424834249449e-06,0.0011024875259556992,0.00426851808291173,0.3554212937665866,1.0613327302224178,-0.0034903937737749318,0.003732645914429765,0.002796768558892791,0.00426851808291173,0.3554212937665866,1.0613327302224178,-0.0034903937737749318,0.003732645914429765,0.002796768558892791
79,1.560000000000001,0.24206080962831678,0.010261105376488786,0.3257962835686655,0.23720618602719162,0.010002371411802463,0.32366125693402453,0.005309675348240236,0.1580994404944535,4.907711315530745,0.0419109624589276,1.8802599233673751,False,0,False,0,0,min_task,none,-0.014325525801774168,5.386063771008341e-06,0.0011153663312691337,-0.014325525801774168,5.386063771008341e-06,0.0011153663312691337,0.004360701346075051,0.34509647166495094,1.0599404739568248,-0.0035493154615653996,0.0039260442300574905,0.002814183995343264,0.004360701346075051,0.34509647166495094,1.0599404739568248,-0.0035493154615653996,0.0039260442300574905,0.002814183995343264
80,1.580000000000001,0.24720751099583715,0.010272925529933271,0.3279463001269378,0.24232309325094165,0.010002371411802463,0.32579330161058706,0.005344730007109454,0.15795786361901262,4.9136854069065325,0.0423903218934243,1.8816521796329682,False,0,False,0,0,min_task,none,-0.014794932131520413,8.343237707758179e-06,0.0011267673867846625,-0.014794932131520413,8.343237707758179e-06,0.0011267673867846625,0.0044516278646791075,0.3344855733620375,1.058238536827447,-0.0036047108109563456,0.004125164633357444,0.0028256529633262657,0.0044516278646791075,0.3344855733620375,1.058238536827447,-0.0036047108109563456,0.004125164633357444,0.0028256529633262657
81,1.600000000000001,0.2523970266431281,0.010284872497777525,0.3301142587403493,0.2474851643871916,0.010002371411802463,0.32794416458402453,0.005377314044407795,0.15778467692626233,4.9210046227301305,0.042873085960925816,1.883354116762346,False,0,False,0,0,min_task,none,-0.015269439863928766,1.1484384376717672e-05,0.0011366092814119326,-0.015269439863928766,1.1484384376717672e-05,0.0011366092814119326,0.004541192498155992,0.32358981950876853,1.0562197439864307,-0.003656337283601034,0.004329922874775714,0.0028307977421855395,0.004541192498155992,0.32358981950876853,1.0562197439864307,-0.003656337283601034,0.004329922874775714,0.0028307977421855395
82,1.620000000000001,0.25762737513309325,0.01029691180036258,0.33229933056591676,0.2526904332734416,0.010002371411802463,0.330113026619962,0.005407409168000073,0.1575790102392483,4.929712110525302,0.04335856913836278,1.8853729096033622,False,0,False,0,0,min_task,none,-0.01574856808983437,1.4811506501046155e-05,0.0011448132080450477,-0.01574856808983437,1.4811506501046155e-05,0.0011448132080450477,0.004629302653592476,0.3124108598090916,1.053877284546461,-0.003703977625069643,0.004540222801844504,0.002829259396069327,0.004629302653592476,0.3124108598090916,1.053877284546461,-0.003703977625069643,0.004540222801844504,0.002829259396069327
83,1.640000000000001,0.262896551072052,0.010309006007014983,0.3345006765490872,0.2579369067471916,0.010002371411802463,0.33229905723402453,0.0054349999275582535,0.15733999920218383,4.93985229455751,0.043846046161522996,1.887715369043332,False,0,False,0,0,min_task,none,-0.016231802132690328,1.8326173153554585e-05,0.001151303755948824,-0.016231802132690328,1.8326173153554585e-05,0.001151303755948824,0.004715879978532783,0.3009507724514932,1.0512047264394786,-0.0037474456015508615,0.004755957072399327,0.002820703714780713,0.004715879978532783,0.3009507724514932,1.0512047264394786,-0.0037474456015508615,0.004755957072399327,0.002820703714780713
84,1.660000000000001,0.26820252655536975,0.010321114751813342,0.33671744799939585,0.2632225659959416,0.010002371411802463,0.3345014152543371,0.005460073773991853,0.15706678554603537,4.951471013440557,0.044334751652189024,1.8903879271503143,False,0,False,0,0,min_task,none,-0.016718593188515086,2.2029527628128223e-05,0.0011560097519198976,-0.016718593188515086,2.2029527628128223e-05,0.0011560097519198976,0.004800861957773221,0.2892120617316457,1.0481960303058644,-0.003786591922021246,0.00497700791048573,0.0028048274850604646,0.004800861957773221,0.2892120617316457,1.0481960303058644,-0.003786591922021246,0.00497700791048573,0.0028048274850604646
85,1.680000000000001,0.27354325261191903,0.010333194782167123,0.33894878716088256,0.2685453679071917,0.010002371411802463,0.33671924938402453,0.0054826211179110265,0.15675851748428363,4.964615664795251,0.04482387982079721,1.8933966232839285,False,0,False,0,0,min_task,none,-0.01720835811158182,2.592230158475957e-05,0.0011588651360234317,-0.01720835811158182,2.592230158475957e-05,0.0011588651360234317,0.004884203362212543,0.27719765383524414,1.0448455623181672,-0.0038213102396918593,0.005203247876326023,0.002781365007603161,0.004884203362212543,0.27719765383524414,1.0448455623181672,-0.0038213102396918593,0.005203247876326023,0.002781365007603161
86,1.700000000000001,0.27891666064913656,0.010345200044248312,0.34119382777663704,0.27390324641844166,0.010002371411802463,0.33895169876371206,0.005502635389552789,0.1564143502478074,4.979335357676977,0.04531258425638864,1.8967470912716258,False,0,False,0,0,min_task,none,-0.01770047935865261,3.0004834933461347e-05,0.0011598098575587915,-0.01770047935865261,3.0004834933461347e-05,0.0011598098575587915,0.004965877498205154,0.26491089074782764,1.0411481058304504,-0.0038515431081911403,0.005434540618575837,0.002750094756159196,0.004965877498205154,0.26491089074782764,1.0411481058304504,-0.0038515431081911403,0.005434540618575837,0.002750094756159196
87,1.720000000000001,0.284320663894681,0.010357081809028687,0.3434516956477819,0.27929411386719166,0.010002371411802463,0.3411978935340245,0.005520113097820629,0.1560334467640546,4.995681073676152,0.045799977816769574,1.9004445477593426,False,0,False,0,0,min_task,none,-0.018194305102116528,3.427710060606244e-05,0.0011587907705623273,-0.018194305102116528,3.427710060606244e-05,0.0011587907705623273,0.005045877199786322,0.25235552229756425,1.0370988717676848,-0.0038772877469561624,0.005670741573525525,0.0027108460529142353,0.005045877199786322,0.25235552229756425,1.0370988717676848,-0.0038772877469561624,0.005670741573525525,0.0027108460529142353
88,1.740000000000001,0.28975315883546493,0.01036878884220662,0.3457215091857145,0.2847158623409417,0.010002371411802463,0.34345695539808707,0.005535053889900043,0.15561497848525205,5.01370583764142,0.046285132632217216,1.9044937818221082,False,0,False,0,0,min_task,none,-0.018689149522645082,3.8738733034384814e-05,0.001155762509829553,-0.018689149522645082,3.8738733034384814e-05,0.001155762509829553,0.005124215511731495,0.23953569633090752,1.0326935076519241,-0.0038986014565884496,0.005911698575098436,0.002663505617773746,0.005124215511731495,0.23953569633090752,1.0326935076519241,-0.0038986014565884496,0.005911698575098436,0.002663505617773746
89,1.7600000000000011,0.2952120266525909,0.010380267620534992,0.3480023799576374,0.2901663650271917,0.010002371411802463,0.34572799818402455,0.00554746061137372,0.15515812636548676,5.0334648992199105,0.04676708023670077,1.9088991459378688,False,0,False,0,0,min_task,none,-0.019184293289890627,4.338905883343495e-05,0.0011506883246516792,-0.019184293289890627,4.338905883343495e-05,0.0011506883246516792,0.005200926011960116,0.2264559470495109,1.0279281051795148,-0.003915606511057936,0.006157252338737717,0.0026080238316238307,0.005200926011960116,0.2264559470495109,1.0279281051795148,-0.003915606511057936,0.006157252338737717,0.0026080238316238307
90,1.7800000000000011,0.30069513464867337,0.010391462596200166,0.3502934132258835,0.29564347756344167,0.010002371411802463,0.34801012840746204,0.005557339365072232,0.15466208198490872,5.055015926520389,0.04724481184072394,1.913664548410278,False,0,False,0,0,min_task,none,-0.01967898423761804,4.822712788693382e-05,0.0011435408451347748,-0.01967898423761804,4.822712788693382e-05,0.0011435408451347748,0.005276062726015081,0.2131211815629252,1.0227992062790723,-0.003928494346457883,0.00640723678365729,0.0025444205412619245,0.005276062726015081,0.2131211815629252,1.0227992062790723,-0.003928494346457883,0.00640723678365729,0.0025444205412619245
91,1.8000000000000012,0.30620033766864896,0.01040231650976594,0.35259370848075505,0.3011450393871917,0.010002371411802463,0.3503024458340246,0.005564699570703862,0.15412604881733,5.078419213344969,0.0477172787597311,1.9187934473107207,False,0,False,0,0,min_task,none,-0.020172438239205837,5.325174278344113e-05,0.0011343027588230769,-0.020172438239205837,5.325174278344113e-05,0.0011343027588230769,0.005349699598644878,0.1995366647086013,1.0173038075695684,-0.003937528867324402,0.006661479161904305,0.0024727902282246123,0.005349699598644878,0.1995366647086013,1.0173038075695684,-0.003937528867324402,0.006661479161904305,0.0024727902282246123
92,1.8200000000000012,0.3117254795086596,0.010412770750797462,0.35490235996715275,0.3066688750859417,0.010002371411802463,0.3526040440418371,0.00556955402145065,0.1535492436326942,5.10373790171549,0.04818339301181652,1.9242888460202245,False,0,False,0,0,min_task,none,-0.020663840285842675,5.846148436543622e-05,0.0011229673715216447,-0.020663840285842675,5.846148436543622e-05,0.0011229673715216447,0.00542192949349938,0.18570800223424602,1.0114393631708956,-0.0039430486966971785,0.006919799967055755,0.002393306361348907,0.00542192949349938,0.18570800223424602,1.0114393631708956,-0.0039430486966971785,0.006919799967055755,0.002393306361348907
93,1.8400000000000012,0.31726839431278137,0.010422765763869688,0.35721845720504714,0.31221279574719174,0.010002371411802463,0.3549140109840246,0.005571918938142137,0.1529308980255019,5.131038221531314,0.04864202809746763,1.9301532904188974,False,0,False,0,0,min_task,none,-0.021152345769078144,6.385473106214356e-05,0.0011095390310679953,-0.021152345769078144,6.385473106214356e-05,0.0011095390310679953,0.005492862709404544,0.17164112243303603,1.0052037858124072,-0.003945468213998657,0.007182012603292773,0.002306224761755833,0.005492862709404544,0.17164112243303603,1.0052037858124072,-0.003945468213998657,0.007182012603292773,0.002306224761755833
94,1.8600000000000012,0.322826907955283,0.010432241495990594,0.3595410855037302,0.3177746003084417,0.010002371411802463,0.35723142955121207,0.005571814019384875,0.15227026005575806,5.160389749513211,0.049092019973344746,1.9363888677773857,False,0,False,0,0,min_task,none,-0.02163708196678967,6.942966969347306e-05,0.0010940333937249456,-0.02163708196678967,6.942966969347306e-05,0.0010940333937249456,0.005562625015286031,0.1573422563450053,0.9985954462025272,-0.003945277247837058,0.007447922803971444,0.002211885822599718,0.005562625015286031,0.1573422563450053,0.9985954462025272,-0.003945277247837058,0.007447922803971444,0.002211885822599718
95,1.8800000000000012,0.328398839404239,0.010441137879817946,0.36186932647082914,0.3233520769071917,0.010002371411802463,0.35955537813402455,0.0055692624844281115,0.15156659598706232,5.191865689828086,0.049532168230667036,1.9429972073872657,False,0,False,0,0,min_task,none,-0.02211714972881711,7.518429556467601e-05,0.00107647751464311,-0.02211714972881711,7.518429556467601e-05,0.00107647751464311,0.005631355220578434,0.14281791666246943,0.9916131706473236,-0.003943039322678601,0.0077173277985741464,0.0021107154482147734,0.005631355220578434,0.14281791666246943,0.9916131706473236,-0.003943039322678601,0.0077173277985741464,0.0021107154482147734
96,1.9000000000000012,0.3339820020649278,0.010449395345393584,0.36420225851551474,0.32894300423094175,0.010002371411802463,0.36188493118558707,0.005564291106884055,0.15081919210546285,5.225543179026042,0.049961237487245375,1.9499794829424695,False,0,False,0,0,min_task,none,-0.02259162535727134,8.111639993980289e-05,0.0010569097505845298,-0.02259162535727134,8.111639993980289e-05,0.0010569097505845298,0.005699202317842372,0.12807487547496285,0.9842562369026187,-0.003939388397855559,0.007990015238059813,0.0020032246073537854,0.005699202317842372,0.12807487547496285,0.9842562369026187,-0.003939388397855559,0.007990015238059813,0.0020032246073537854
97,1.9200000000000013,0.3395742051009204,0.010456955351550072,0.3665389573461464,0.33454515286719183,0.010002371411802463,0.36421915978402464,0.0055569302368369536,0.15002735659891783,5.261503618328239,0.05037795900035187,1.9573364166871743,False,0,False,0,0,min_task,none,-0.023059562674127104,8.722354337100244e-05,0.001035379467563949,-0.023059562674127104,8.722354337100244e-05,0.001035379467563949,0.005766322250094929,0.11312014100391574,0.9765243682634097,-0.003935024080360082,0.008265761899394755,0.0018900074298125978,0.005766322250094929,0.11312014100391574,0.9765243682634097,-0.003935024080360082,0.008265761899394755,0.0018900074298125978
98,1.9400000000000013,0.3451732547296936,0.010463760926799575,0.3688784964630499,0.3401562866534417,0.010002371411802463,0.3665571321949621,0.005547213807654673,0.14919042147607492,5.299833036650536,0.050781032505596305,1.9650682853263832,False,0,False,0,0,min_task,none,-0.023519995266276194,9.350301386026372e-05,0.0010119465511561315,-0.023519995266276194,9.350301386026372e-05,0.0010119465511561315,0.005832874369773664,0.09796093349132876,0.9684177259143315,-0.00393070533851363,0.008544332200402807,0.0017717378143915546,0.005832874369773664,0.09796093349132876,0.9684177259143315,-0.00393070533851363,0.008544332200402807,0.0017717378143915546
99,1.9600000000000013,0.3507769554897976,0.010469757208406,0.37121994764651206,0.3457741640271918,0.010002371411802463,0.3688979144340246,0.0055351793232995645,0.14830774450237172,5.340622488137605,0.05116912828473937,1.9731749276754615,False,0,False,0,0,min_task,none,-0.023971938896373668,9.995176942494825e-05,0.0009866807243278763,-0.023971938896373668,9.995176942494825e-05,0.0009866807243278763,0.005899017670317151,0.08260466041055586,0.9599368995750557,-0.003927242789785342,0.008825476565605157,0.0016491645571249445,0.005899017670317151,0.08260466041055586,0.9599368995750557,-0.003927242789785342,0.008825476565605157,0.0016491645571249445
100,1.9800000000000013,0.35638311147946405,0.010474891967613859,0.3735623814392679,0.35139653937594184,0.010002371411802463,0.37124057082933715,0.005520867823782532,0.14737871113012327,5.383968488474042,0.05154088946292089,1.9816557540147373,False,0,False,0,0,min_task,none,-0.02441439406690168,0.00010656636530366175,0.0009596606869614395,-0.02441439406690168,0.00010656636530366175,0.0009596606869614395,0.005964906884615599,0.06705889115628921,0.9510828964715874,-0.003925489679854704,0.00910892969206253,0.0015231050492983092,0.005964906884615599,0.06705889115628921,0.9510828964715874,-0.003925489679854704,0.00910892969206253,0.0015231050492983092
101,2.0000000000000013,0.3619895275634938,0.010479116108738803,0.37590486762464526,0.3570211643871918,0.010002371411802463,0.3735841645840246,0.005504323824089259,0.1464027363968732,5.429973494867515,0.05189493453317098,1.9905097571182055,False,0,False,0,0,min_task,none,-0.024846348722082502,0.00011334286671911129,0.0009309730951112785,-0.024846348722082502,0.00011334286671911129,0.0009309730951112785,0.006030688548361294,0.05133133138991285,0.9418571286975935,-0.003926331707713892,0.009394408769951953,0.0013944376319040613,0.006030688548361294,0.05133133138991285,0.9418571286975935,-0.003926331707713892,0.009394408769951953,0.0013944376319040613
102,2.0200000000000014,0.3675940105496808,0.010482384130013782,0.37824647570078385,0.36264578939844183,0.010002371411802463,0.3759277583387121,0.005485595225350344,0.14537926676828858,5.478746435124547,0.05222986010354236,1.9997355248921993,False,0,False,0,0,min_task,none,-0.025266781072206597,0.00012027674880503733,0.000900711408392527,-0.025266781072206597,0.00012027674880503733,0.000900711408392527,0.0060964971341149685,0.03542979719298723,0.9322613990179301,-0.003930675884722093,0.009681611717195433,0.0012640927276025148,0.0060964971341149685,0.03542979719298723,0.9322613990179301,-0.003930675884722093,0.009681611717195433,0.0012640927276025148
103,2.0400000000000014,0.37319437033266045,0.01048465453475606,0.3805862753504795,0.3682681647471918,0.010002371411802463,0.3782704147340246,0.0054647331934720355,0.14430778189944465,5.530403292085361,0.052544243859448385,2.0093312545718627,False,0,False,0,0,min_task,none,-0.02567466252292268,0.00012736278593858454,0.0008689746377429995,-0.02567466252292268,0.00012736278593858454,0.0008689746377429995,0.006162451359385207,0.019362189189246138,0.922297885184125,-0.003939438638951575,0.009970215489101044,0.0011330428984294152,0.006162451359385207,0.019362189189246138,0.922297885184125,-0.003939438638951575,0.009970215489101044,0.0011330428984294152
104,2.0600000000000014,0.37878842100560306,0.010485890182745584,0.38292333690805935,0.37388604212094173,0.010002371411802463,0.3806111969730871,0.005441792003515121,0.1431877962895808,5.585067750495012,0.05283664773080612,2.019294768405668,False,0,False,0,0,min_task,none,-0.026068960691546104,0.00013459493327795444,0.000835866031792212,-0.026068960691546104,0.00013459493327795444,0.000835866031792212,0.006228650769087662,0.003136466781829777,0.9119691228366018,-0.003953533392922654,0.010259874524111407,0.0010022919997734515,0.006228650769087662,0.003136466781829777,0.9119691228366018,-0.003953533392922654,0.010259874524111407,0.0010022919997734515
105,2.0800000000000014,0.38437398194209627,0.01048605857338463,0.3852567318238773,0.3794971759071918,0.010002371411802463,0.38294916938402457,0.005416828849629582,0.14201886080577555,5.642871914393924,0.05310562125105333,2.029623530753191,False,0,False,0,0,min_task,none,-0.02644864249249954,0.00014196620376523688,0.0008014917452617943,-0.02644864249249954,0.00014196620376523688,0.0008014917452617943,0.006295172687045301,-0.013239377369054253,0.901277987058759,-0.0039738578504550795,0.01055021938497313,0.0008728636156046948,0.006295172687045301,-0.013239377369054253,0.901277987058759,-0.0039738578504550795,0.01055021938497313,0.0008728636156046948
106,2.1000000000000014,0.3899488788480426,0.010485132054428461,0.3875855331274687,0.38509932454344176,0.010002371411802463,0.3852833979824621,0.005389903618546031,0.14080056405011507,5.703957104362464,0.05334970509214079,2.040314666531034,False,0,False,0,0,min_task,none,-0.026812677272865803,0.00014946854417018153,0.0007659595326013397,-0.026812677272865803,0.00014946854417018153,0.0007659595326013397,0.0063620696181337045,-0.029757342503418115,0.8902276726619376,-0.004001281228362773,0.010840855650861776,0.0007457889682609647,0.0063620696181337045,-0.029757342503418115,0.8902276726619376,-0.004001281228362773,0.010840855650861776,0.0007457889682609647
107,2.1200000000000014,0.39551094478680016,0.010483087952711655,0.38990881589054494,0.3906902518671918,0.010002371411802463,0.3876129510340246,0.00536107862815599,0.1395325335471217,5.768474745273835,0.05356743475686069,2.0513649809278554,False,0,False,0,0,min_task,none,-0.02716003997998306,0.00015709271393498996,0.0007293775122534622,-0.02716003997998306,0.00015709271393498996,0.0007293775122534622,0.0064293671714157905,-0.04640944446002425,0.8788216732630826,-0.004036631662397185,0.011131363111506382,0.0006220944983725896,0.0064293671714157905,-0.04640944446002425,0.8788216732630826,-0.004036631662397185,0.011131363111506382,0.0006220944983725896
108,2.1400000000000015,0.4010580211793573,0.010479908626117976,0.39222565769098827,0.39626772846594194,0.010002371411802463,0.3899368996168372,0.00533041833191807,0.13821443672726957,5.8365873569389874,0.05375734440707295,2.0627709803267105,False,0,False,0,0,min_task,none,-0.02748971434286942,0.00016482817060681275,0.0006918530435756314,-0.02748971434286942,0.00016482817060681275,0.0006918530435756314,0.00649706255742452,-0.0631877398341406,0.8670637592173416,-0.004080684004333445,0.01142129530832883,0.0005027893072054279,0.00649706255742452,-0.0631877398341406,0.8670637592173416,-0.004080684004333445,0.01142129530832883,0.0005027893072054279
109,2.1600000000000015,0.4065879587817835,0.010475581439091074,0.3945351390797777,0.4018295330271917,0.010002371411802463,0.39225431818402456,0.005297988991154393,0.13684598168376075,5.908469661952237,0.05391797080363194,2.0745288943724516,False,0,False,0,0,min_task,none,-0.027800696049861393,0.0001726629655248823,0.0006534917541724013,-0.027800696049861393,0.0001726629655248823,0.0006534917541724013,0.006565123695056094,-0.08008434953308215,0.8549579544603655,-0.0041341482105961115,0.011710179461004765,0.00038885264636034515,0.006565123695056094,-0.08008434953308215,0.8549579544603655,-0.0041341482105961115,0.011710179461004765,0.00038885264636034515
110,2.1800000000000015,0.4120986186443081,0.010470098667048905,0.396836344052207,0.4073734536884418,0.010002371411802463,0.3945642851262121,0.005263858319582728,0.13542691768047993,5.984309827366039,0.05404785733122889,2.0866346991294273,False,0,False,0,0,min_task,none,-0.02809199590644506,0.00018058365317908252,0.0006143967509590868,-0.02809199590644506,0.00018058365317908252,0.0006143967509590868,0.00663348894667373,-0.09709148170255671,0.8425085122883437,-0.004197658503082278,0.011997516811056085,0.0002812216285301026,0.00663348894667373,-0.09709148170255671,0.8425085122883437,-0.004197658503082278,0.011997516811056085,0.0002812216285301026
111,2.2000000000000015,0.41758787305499256,0.01046345733798232,0.3991283605256242,0.4128972893871919,0.010002371411802463,0.3968658833340246,0.005228095104191202,0.13395703538773726,6.064310859696317,0.054145558078464426,2.099084141301449,False,0,False,0,0,min_task,none,-0.028362642957875845,0.00018857521727755298,0.000574668039022504,-0.028362642957875845,0.00018857521727755298,0.000574668039022504,0.006702067479560174,-0.11420145401351792,0.8297198900966963,-0.004271763460844868,0.012282783406555683,0.00018077931934126502,0.006702067479560174,-0.11420145401351792,0.8297198900966963,-0.004271763460844868,0.012282783406555683,0.00018077931934126502
112,2.2200000000000015,0.42305360646936807,0.010455659022122124,0.4014102808249734,0.4183988512109419,0.010002371411802463,0.39915820076058717,0.005190768805285135,0.13243616682347237,6.1486921760517745,0.054209641940889855,2.1118727634930967,False,0,False,0,0,min_task,none,-0.02861168756220992,0.0001966210160877026,0.0005344021626774895,-0.02861168756220992,0.0001966210160877026,0.0005344021626774895,0.006770740232833659,-0.13140671532084122,0.8165967230803844,-0.004356917178493719,0.012565431344447393,8.834335508324814e-05,0.006770740232833659,-0.13140671532084122,0.8165967230803844,-0.004356917178493719,0.012565431344447393,8.834335508324814e-05
113,2.2400000000000015,0.428493716432253,0.010446709582771167,0.40368120217785897,0.4238759637471918,0.010002371411802463,0.4014403309840246,0.005151949143569495,0.13086418497750896,6.237691378186886,0.05423869671198856,2.1249959305094084,False,0,False,0,0,min_task,none,-0.02883820440249721,0.00020470274909138115,0.0004936920773040402,-0.02883820440249721,0.00020470274909138115,0.0004936920773040402,0.006839361456009712,-0.14869986675835806,0.8031437968474775,-0.004453471604356825,0.012844890480157451,4.6552141855779924e-06,0.006839361456009712,-0.14869986675835806,0.8031437968474775,-0.004453471604356825,0.012844890480157451,4.6552141855779924e-06
114,2.2600000000000016,0.43390611449368655,0.01043661890308329,0.40594022722156947,0.42932646643344174,0.010002371411802463,0.4037113737699621,0.005111705678942191,0.12924100309234834,6.331566261322152,0.05423133312388086,2.1384488567423157,False,0,False,0,0,min_task,none,-0.029041295427326218,0.00021280044640597043,0.0004526272472653734,-0.029041295427326218,0.00021280044640597043,0.0004526272472653734,0.006907760766731869,-0.16607368234458808,0.7893660188901419,-0.004561670148852962,0.013120570606722014,-6.962974652000763e-05,0.006907760766731869,-0.16607368234458808,0.7893660188901419,-0.004561670148852962,0.013120570606722014,-6.962974652000763e-05
115,2.2800000000000016,0.4392887271207418,0.010425400604536793,0.4081864645232598,0.43474821490719184,0.010002371411802463,0.40597043563402463,0.005070107385177023,0.12756657357496495,6.430597095349853,0.05418618879685735,2.152226634699651,False,0,False,0,0,min_task,none,-0.02922009271114824,0.00022089248184689326,0.00041129395734296594,-0.02922009271114824,0.00022089248184689326,0.00041129395734296594,0.006975745664703749,-0.18352112921168978,0.7752683888121548,-0.004681642632897449,0.013391864099080622,-0.0001339513962120218,0.006975745664703749,-0.18352112921168978,0.7752683888121548,-0.004681642632897449,0.013391864099080622,-0.0001339513962120218
116,2.3000000000000016,0.44463949660947794,0.010413071773177206,0.41041902911477485,0.44013908235594174,0.010002371411802463,0.4082166304043371,0.005027222227035825,0.12584088651046976,6.535089223312524,0.05410193205337236,2.1663242647776384,False,0,False,0,0,min_task,none,-0.0293737612288959,0.00022895560996342683,0.00036977581977829503,-0.0293737612288959,0.00022895560996342683,0.00036977581977829503,0.00704310443318747,-0.2010353876222561,0.7608559671511836,-0.004813401627159121,0.013658149013582473,-0.00018785299740011252,0.00704310443318747,-0.2010353876222561,0.7608559671511836,-0.004813401627159121,0.013658149013582473,-0.00018785299740011252
117,2.3200000000000016,0.4499563819987364,0.010399652709231556,0.41263704304386245,0.4454969608671918,0.010002371411802463,0.4104490797840246,0.004983116743981964,0.12406396774266944,6.64537603101848,0.053977265548158584,2.1807366864386095,False,0,False,0,0,min_task,none,-0.029501501541131007,0.00023696502687988268,0.00032815445197477194,-0.029501501541131007,0.00023696502687988268,0.00032815445197477194,0.007109609354280476,-0.218609870970143,0.7461338425911818,-0.004956840216805056,0.013918792627444119,-0.00023098837309618421,0.007109609354280476,-0.218609870970143,0.7461338425911818,-0.004956840216805056,0.013918792627444119,-0.00023098837309618421
118,2.3400000000000016,0.45523735998803283,0.010385166714695485,0.41483963594315726,0.450819762778442,0.010002371411802463,0.4126669139137122,0.004937855644643498,0.12223587648254085,6.761822352507586,0.05381092966207217,2.1954588109986113,False,0,False,0,0,min_task,none,-0.02960255238899585,0.00024489445436011155,0.00028651029805608726,-0.02960255238899585,0.00024489445436011155,0.00028651029805608726,0.007175020166269923,-0.23623824601675852,0.7311070972852787,-0.005111731213461537,0.014173155399164106,-0.00026312802441167906,0.007175020166269923,-0.23623824601675852,0.7311070972852787,-0.005111731213461537,0.014173155399164106,-0.00026312802441167906
119,2.3600000000000017,0.4604804258608969,0.010369639931821509,0.41702594561802286,0.4561054220271918,0.010002371411802463,0.41486927193402456,0.004891501414696928,0.12035670239730878,6.884828389688472,0.0536017056020375,2.2104855563045143,False,0,False,0,0,min_task,none,-0.029676193201095734,0.00025271624619934753,0.00024492356746752146,-0.029676193201095734,0.00025271624619934753,0.00024492356746752146,0.0072390876972494795,-0.25391445367021404,0.7157807699280982,-0.005277727826950009,0.014420595328316535,-0.0002841641607267953,0.0072390876972494795,-0.25391445367021404,0.7157807699280982,-0.005277727826950009,0.014420595328316535,-0.0002841641607267953
120,2.3800000000000017,0.46568359441343565,0.010353101243412287,0.4191951186540299,0.4613518955009417,0.010002371411802463,0.4170553025480871,0.004844113938640871,0.11842656212314093,7.014834241362254,0.05334841814330687,2.2258118836616947,False,0,False,0,0,min_task,none,-0.02972174651738706,0.00026040151583950507,0.0002034752662586404,-0.02972174651738706,0.00026040151583950507,0.0002034752662586404,0.007301557618933713,-0.2716327306772451,0.7001598161214827,-0.005454365804472972,0.014660472692061081,-0.0002941146136845666,0.007301557618933713,-0.2716327306772451,0.7001598161214827,-0.005454365804472972,0.014660472692061081,-0.0002941146136845666
121,2.4000000000000017,0.4708449008888366,0.010335582243600903,0.42134631104542186,0.46655716438719197,0.010002371411802463,0.41922416458402467,0.0047957501362752815,0.11644559513250638,7.1523251579904725,0.05304993794286797,2.2414328374683103,False,0,False,0,0,min_task,none,-0.02973858033923772,0.00026792028401917455,0.0001622483039600881,-0.02973858033923772,0.00026792028401917455,0.0001622483039600881,0.007362174280381254,-0.289387632685934,0.6842490654478578,-0.005641067045007157,0.01489215513676736,-0.0002931256130829453,0.007362174280381254,-0.289387632685934,0.6842490654478578,-0.005641067045007157,0.01489215513676736,-0.0002931256130829453
122,2.4200000000000017,0.47596240191541117,0.010317117285501637,0.4234786888455127,0.47171923552344175,0.010002371411802463,0.4213750275574621,0.004746463610920476,0.11441395887018582,7.297837665353166,0.05270518334335863,2.2573435881419353,False,0,False,0,0,min_task,none,-0.029726110418225156,0.00027524164529235326,0.00012132866624300812,-0.029726110418225156,0.00027524164529235326,0.00012132866624300812,0.0074206845978666645,-0.3071740592235237,0.6680531745266913,-0.005837144701767291,0.015115023105719456,-0.0002814734063191479,0.0074206845978666645,-0.3071740592235237,0.6680531745266913,-0.005837144701767291,0.015115023105719456,-0.0002814734063191479
123,2.4400000000000017,0.4810341764460644,0.010297743610176355,0.42559142883968715,0.47683614274719205,0.010002371411802463,0.42350707223402473,0.0046963043057289796,0.11233182305283168,7.451966734090679,0.05231312157544917,2.2735394790631016,False,0,False,0,0,min_task,none,-0.029683802501496572,0.0002823339523881942,8.080665641858386e-05,-0.029683802501496572,0.0002823339523881942,8.080665641858386e-05,0.007476841999646659,-0.3249872812628227,0.6515765751303522,-0.006041809796983113,0.015328475589257502,-0.00025956470385043263,0.007476841999646659,-0.3249872812628227,0.6515765751303522,-0.006041809796983113,0.015328475589257502,-0.00025956470385043263
124,2.4600000000000017,0.4860583266963912,0.010277501559823519,0.42768371924117543,0.4819059482459417,0.010002371411802463,0.42561949119183706,0.004645318162815434,0.11019936299921204,7.615374215659856,0.05187276925141826,2.2900160784594408,False,0,False,0,0,min_task,none,-0.029611174557479126,0.0002891650176292454,4.077822355878489e-05,-0.029611174557479126,0.0002891650176292454,4.077822355878489e-05,0.007530410449020164,-0.34282297220836194,0.6348234161883767,-0.006254179391180705,0.015531936191595869,-0.0002279359308364138,0.007530410449020164,-0.34282297220836194,0.6348234161883767,-0.006254179391180705,0.015531936191595869,-0.0002279359308364138
125,2.4800000000000018,0.4910329790726069,0.010256434877419908,0.4297547604120025,0.4869267439071919,0.010002371411802463,0.42771148938402465,0.004593546774772868,0.10801675182297554,7.788798821389442,0.05138319202300271,2.3067692374014164,False,0,False,0,0,min_task,none,-0.02950779901059203,0.00029570233091317117,1.3464056020371756e-06,-0.02950779901059203,0.00029570233091317117,1.3464056020371756e-06,0.007581168588704325,-0.36067724329215745,0.6177974982516625,-0.0064732863737686835,0.015724859518188763,-0.00018725125812613013,0.007581168588704325,-0.36067724329215745,0.6177974982516625,-0.0064732863737686835,0.015724859518188763,-0.00018725125812613013
126,2.5000000000000018,0.49595628508164635,0.010234591095234466,0.43180376560950295,0.49189665266844185,0.010002371411802463,0.42978228470121216,0.004541027017569713,0.1057841512817329,7.973067993753011,0.050843503253647046,2.3237951553381304,False,0,False,0,0,min_task,none,-0.029373305023462408,0.0003019132941873803,-3.7377061843766075e-05,-0.029373305023462408,0.0003019132941873803,-3.7377061843766075e-05,0.007628914081691907,-0.37854668464038566,0.6005021985647022,-0.006698090976419496,0.015906737901860816,-0.000138299376224876,0.007628914081691907,-0.37854668464038566,0.6005021985647022,-0.006698090976419496,0.015906737901860816,-0.000138299376224876
127,2.520000000000002,0.5008264222114445,0.010212022015978432,0.43382996175972777,0.49681382986719186,0.010002371411802463,0.4318311085340246,0.00448779064962815,0.10350170101488733,8.169112114882829,0.05025286152167767,2.341090455025091,False,0,False,0,0,min_task,none,-0.02920738087496265,0.0003077654728220092,-7.526990170471528e-05,-0.02920738087496265,0.0003077654728220092,-7.526990170471528e-05,0.007673468251697316,-0.3964284135794803,0.5829403844064847,-0.006927494155390533,0.016077108503187464,-8.198896132921524e-05,0.007673468251697316,-0.3964284135794803,0.5829403844064847,-0.006927494155390533,0.016077108503187464,-8.198896132921524e-05
128,2.540000000000002,0.5056415947633147,0.010188784293093105,0.43583259026147575,0.5016764645909417,0.010002371411802463,0.4338572063355871,0.004433863856822054,0.10116950583044797,8.377981623778272,0.04961046672914495,2.3586522691833083,False,0,False,0,0,min_task,none,-0.029009776494556692,0.00031322686483620455,-0.00011219712646865067,-0.029009776494556692,0.00031322686483620455,-0.00011219712646865067,0.007714681156686993,-0.41432013214465613,0.5651143117364009,-0.007160353047378091,0.016235560842109996,-1.9342761566254075e-05,0.007714681156686993,-0.41432013214465613,0.5651143117364009,-0.007160353047378091,0.016235560842109996,-1.9342761566254075e-05
129,2.560000000000002,0.5103005008792116,0.010152896277333503,0.4378862808081445,0.5064827810271918,0.010002371411802463,0.43585983818402463,0.004324825119296665,0.0987876206080421,8.600867782533545,0.04891555453674998,2.376478341853392,True,1,False,0,0,min_task,none,-0.028705957755107325,0.0003246128073950213,-0.00027789292355574475,-0.028705957755107325,0.0003246128073950213,-0.00027789292355574475,0.007648744162094168,-0.4311286587125921,0.5485988311050388,-0.007389516555127066,0.01635813147615019,9.553690728487363e-05,0.007648744162094168,-0.4311286587125921,0.5485988311050388,-0.007389516555127066,0.01635813147615019,9.553690728487363e-05
130,2.580000000000002,0.5147284484864774,0.010098008953725314,0.4400168546927108,0.5112310398134421,0.010002371411802463,0.4378382793449622,0.004121553652624844,0.09656811197241806,8.817895442110208,0.048250294409795155,2.3929938224847542,True,1,False,0,0,min_task,none,-0.028199158942830944,0.000347058888418209,-0.0006623855004846695,-0.028199158942830944,0.000347058888418209,-0.0006623855004846695,0.0073938501480331304,-0.44582369530411664,0.5348144989599648,-0.007583698792363771,0.01641628626818281,0.00030176548793749044,0.0073938501480331304,-0.44582369530411664,0.5348144989599648,-0.007583698792363771,0.01641628626818281,0.00030176548793749044
131,2.600000000000002,0.518942638054712,0.010024879381843401,0.44216954172483913,0.5159195393871916,0.010002371411802463,0.4397918208340245,0.0038461914664892956,0.09470657296073204,9.007345646340474,0.0476960646377556,2.406778154629828,True,1,False,0,0,min_task,none,-0.027431349311327555,0.00038085628945459837,-0.0012171525593709363,-0.027431349311327555,0.00038085628945459837,-0.0012171525593709363,0.00698827465905863,-0.45822185879788896,0.5239244679622003,-0.007701993331696864,0.016396888338464886,0.0005917572734650975,0.00698827465905863,-0.45822185879788896,0.5239244679622003,-0.007701993331696864,0.016396888338464886,0.0005917572734650975
132,2.620000000000002,0.5229709344575274,0.009926821213022002,0.4443068516422308,0.5205466173359418,0.010002371411802463,0.44171976997933715,0.003546267455935854,0.09323032454749924,9.162691399267954,0.047270267367172145,2.417668185627593,True,1,False,0,0,min_task,none,-0.026357756326839905,0.00042670239375369956,-0.0018623375107562879,-0.026357756326839905,0.00042670239375369956,-0.0018623375107562879,0.0065172552332240395,-0.4682287958439858,0.5160124811395366,-0.007713443051073633,0.016287416184796063,0.0009571237360118726,0.0065172552332240395,-0.4682287958439858,0.5160124811395366,-0.007713443051073633,0.016287416184796063,0.0009571237360118726
133,2.640000000000002,0.5268443839581238,0.009794939389053296,0.4464052691285061,0.5251106517471917,0.010002371411802463,0.4436214509840246,0.003286106949694362,0.09215494169583893,9.27883592243068,0.04698580204469657,2.4255801724502564,True,1,False,0,0,min_task,none,-0.024944445648353047,0.0004853689801446024,-0.0025096937941974508,-0.024944445648353047,0.0004853689801446024,-0.0025096937941974508,0.006080931583879192,-0.4758063769024264,0.5111134751134214,-0.007598498252889528,0.016078747874276256,0.0013915450953744131,0.006080931583879192,-0.4758063769024264,0.5111134751134214,-0.007598498252889528,0.016078747874276256,0.0013915450953744131
134,2.660000000000002,0.530593176995182,0.0096227674126127,0.44845104051808493,0.5296100625584418,0.010002371411802463,0.4454962054887121,0.0031371425282789903,0.09148822216280914,9.352151176031184,0.04685166411353181,2.4304791784763715,True,1,False,0,0,min_task,none,-0.02316614509110563,0.0005573358943165889,-0.003081630187891109,-0.02316614509110563,0.0005573358943165889,-0.003081630187891109,0.005766722370052615,-0.4809568535725506,0.5092223301212142,-0.007347416839836801,0.015766673542615673,0.0018909467578332386,0.005766722370052615,-0.4809568535725506,0.5092223301212142,-0.007347416839836801,0.015766673542615673,0.0018909467578332386
135,2.680000000000002,0.534244250726407,0.009409215842667759,0.45043704223824377,0.5340433129071916,0.010002371411802463,0.4473433931340246,0.003156402115767664,0.09123132721783375,9.38067451960806,0.0468727826157103,2.4323703234685787,True,1,False,0,0,min_task,none,-0.021004322858583998,0.0006425284887742815,-0.0035243523347844785,-0.021004322858583998,0.0006425284887742815,-0.0035243523347844785,0.005630309780135407,-0.4837106716063942,0.5103017465504973,-0.006957220158031719,0.015351988108307743,0.002452477246991885,0.005630309780135407,-0.4837106716063942,0.5103017465504973,-0.006957220158031719,0.015351988108307743,0.002452477246991885
136,2.700000000000002,0.5378200558262645,0.009159495933815282,0.4523605004545725,0.5384089104809421,0.010002371411802463,0.44916239212308723,0.0033593281732577206,0.09137987080409525,9.36416605644125,0.04705012890631126,2.431290907039296,True,1,False,0,0,min_task,none,-0.018445545859901366,0.0007402251659525331,-0.003813141107846698,-0.018445545859901366,0.0007402251659525331,-0.003813141107846698,0.005688082176560785,-0.48411706947516026,0.5142893510686378,-0.006428754729312291,0.01483964357100949,0.0030733470441639973,0.005688082176560785,-0.48411706947516026,0.5142893510686378,-0.006428754729312291,0.01483964357100949,0.0030733470441639973
137,2.720000000000002,0.541338131722148,0.008884244624805134,0.45422135745330805,0.5427054088671919,0.010002371411802463,0.45095259978402463,0.0037154314693800487,0.09192494245888645,9.304020223515677,0.047381000928294344,2.427303302521155,True,1,False,0,0,min_task,none,-0.015480113342743507,0.0008491380892523391,-0.003950155008739296,-0.015480113342743507,0.0008491380892523391,-0.003950155008739296,0.0059204257254167015,-0.4822369302347593,0.5211038862029991,-0.00576479399814294,0.014237467115253784,0.003750193454365174,0.0059204257254167015,-0.4822369302347593,0.5211038862029991,-0.00576479399814294,0.014237467115253784,0.003750193454365174
138,2.740000000000002,0.5448112117744452,0.008597474698336128,0.45602112535842954,0.5469314089034417,0.010002371411802463,0.4527134331324621,0.0041725050632730005,0.09285402299356503,9.203052486000061,0.04785939621429153,2.420488767386794,True,1,False,0,0,min_task,none,-0.012100940316916872,0.0009676177784114405,-0.003957013616080656,-0.012100940316916872,0.0009676177784114405,-0.003957013616080656,0.006282549436995313,-0.4781374298991745,0.5306504474903605,-0.004969398739671369,0.013554848615190726,0.004479163085349623,0.006282549436995313,-0.4781374298991745,0.5306504474903605,-0.004969398739671369,0.013554848615190726,0.004479163085349623
139,2.760000000000002,0.5482476455256575,0.008314118455450272,0.45776209992895434,0.551085560027192,0.010002371411802463,0.4544443294340247,0.0046809782972875805,0.09415177427414825,9.065197977470964,0.048476414904615975,2.4109422060994325,True,1,False,0,0,min_task,none,-0.008302655841186274,0.0010939068637972654,-0.003865243978112901,-0.008302655841186274,0.0010939068637972654,-0.003865243978112901,0.006718349985383066,-0.47188808963162054,0.5428248052707269,-0.0040482206384927,0.012801647267486175,0.005256534810782615,0.006718349985383066,-0.47188808963162054,0.5428248052707269,-0.0040482206384927,0.012801647267486175,0.005256534810782615
140,2.780000000000002,0.5516519849249342,0.008047839039201043,0.4594468347842946,0.555166561625942,0.010002371411802463,0.4561447467668372,0.005203482627803226,0.09580070032357557,8.895166176217165,0.04922065669195041,2.398767848319066,True,1,False,0,0,min_task,none,-0.0040808821330939205,0.0012263717411839506,-0.0037074241287358835,-0.0040808821330939205,0.0012263717411839506,-0.0037074241287358835,0.007173194844967465,-0.4635579133391105,0.5575168784724386,-0.003009197572626272,0.011987421665993436,0.0060795271379684625,0.007173194844967465,-0.4635579133391105,0.5575168784724386,-0.003009197572626272,0.011987421665993436,0.0060795271379684625
141,2.800000000000002,0.5550256339560341,0.007809537412254014,0.4610778015557096,0.559173164387192,0.010002371411802463,0.4578141645840247,0.005715055197450427,0.09778168510080901,8.698094284468356,0.050078591702666896,2.3840757751173545,True,1,False,0,0,min_task,none,0.0005683322160076757,0.0013636645686771495,-0.003510886789442791,0.0005683322160076757,0.0013636645686771495,-0.003510886789442791,0.007602915845217752,-0.4532133745448055,0.574613426678822,-0.0018631266285234866,0.011120983751050192,0.0069469394122560315,0.007602915845217752,-0.4532133745448055,0.574613426678822,-0.0018631266285234866,0.011120983751050192,0.0069469394122560315
142,2.820000000000002,0.5586066981162304,0.007633816186678409,0.46263031162539026,0.5631041716484417,0.010002371411802463,0.4594520842762121,0.005994868731712792,0.10007441457564967,8.479233875340347,0.051034895878241636,2.366979226910971,False,0,False,0,0,min_task,none,0.005297318936995013,0.001500693908478877,-0.003048473983629501,0.005297318936995013,0.001500693908478877,-0.003048473983629501,0.008222842553401707,-0.4439282249125417,0.5900936266755434,-0.0007691319064681418,0.010338470399451169,0.00779119245995604,0.008222842553401707,-0.4439282249125417,0.5900936266755434,-0.0007691319064681418,0.010338470399451169,0.00779119245995604
143,2.840000000000002,0.5625090913904406,0.007536690726037246,0.4641005783350933,0.5669584407471918,0.010002371411802463,0.4610580297340246,0.005927342822247011,0.10213875526978612,8.29010957616269,0.05188494899649912,2.3514990269142495,False,0,False,0,0,min_task,none,0.009857518649331234,0.0016332401637156485,-0.0022635479756312705,0.009857518649331234,0.0016332401637156485,-0.0022635479756312705,0.009080011967161895,-0.43744168956994106,0.6017568863333584,0.00019029086948518586,0.00970507876260359,0.008561170117391678,0.009080011967161895,-0.43744168956994106,0.6017568863333584,0.00019029086948518586,0.00970507876260359,0.008561170117391678
144,2.860000000000002,0.5665933400620515,0.007509838808879191,0.4655133792696849,0.5707348843709416,0.010002371411802463,0.462631547910587,0.005627615838116052,0.10368673850320811,8.152938291167162,0.05253183011237964,2.3398357672564343,False,0,False,0,0,min_task,none,0.014305376393792273,0.0017603374451935906,-0.0013676572345673263,0.014305376393792273,0.0017603374451935906,-0.0013676572345673263,0.009952809903755752,-0.4326369077980934,0.6111173855399664,0.001070955167376281,0.009168858331611575,0.009251126628805548,0.009952809903755752,-0.4326369077980934,0.6111173855399664,0.001070955167376281,0.009168858331611575,0.009251126628805548
145,2.880000000000002,0.5707588181525318,0.0075516054677960045,0.46688428286948025,0.5744324719071916,0.010002371411802463,0.46417220938402454,0.005182405639463168,0.10492440991178924,8.045994762915388,0.05305828026828071,2.3304752680498266,False,0,False,0,0,min_task,none,0.018678674216869192,0.0018810824086185774,-0.0005205599846008176,0.018678674216869192,0.0018810824086185774,-0.0005205599846008176,0.010670444161440348,-0.42875835524182254,0.6191861867566152,0.0019039251674956216,0.008700721949408994,0.009863446203956438,0.010670444161440348,-0.42875835524182254,0.6191861867566152,0.0019039251674956216,0.008700721949408994,0.009863446203956438
146,2.900000000000002,0.5749334580491156,0.007658838958338831,0.4682227149423827,0.5780502307934418,0.010002371411802463,0.4656796089199621,0.00465551339182738,0.10598783502634679,7.95597316604493,0.053516585386465775,2.322406466833178,False,0,False,0,0,min_task,none,0.023002241258389115,0.0019950928292681034,0.00017413910840603672,0.023002241258389115,0.0019950928292681034,0.00017413910840603672,0.011127163635196672,-0.4252940467154573,0.6266407449528868,0.0027060034673711407,0.00828264349623573,0.010403095563668556,0.011127163635196672,-0.4252940467154573,0.6266407449528868,0.0027060034673711407,0.00828264349623573,0.010403095563668556
147,2.920000000000002,0.5790663620216852,0.00782357183025759,0.46953399988869476,0.5815872478671918,0.010002371411802463,0.46715336603402463,0.004095051967022847,0.10696736514380614,7.874531564209207,0.053940214698771784,2.314951908636906,False,0,False,0,0,min_task,none,0.02729166872130196,0.002102644437761314,0.0006654850135755262,0.02729166872130196,0.002102644437761314,0.0006654850135755262,0.011282040899953058,-0.4219023419380696,0.6339280931866554,0.003485179566429934,0.007901480693806738,0.01087572190578876,0.011282040899953058,-0.4219023419380696,0.6339280931866554,0.003485179566429934,0.007901480693806738,0.01087572190578876
148,2.940000000000002,0.5831223414200755,0.008032915507760635,0.4708207587490299,0.5850426707159417,0.010002371411802463,0.4685931255543371,0.003539600374706844,0.1079221242397111,7.796475046501354,0.05435031490868739,2.3076645604031376,False,0,False,0,0,min_task,none,0.03155589379633096,0.002204589610527495,0.0009457448809683806,0.03155589379633096,0.002204589610527495,0.0009457448809683806,0.011148292001355666,-0.4183629435881545,0.6413327177051426,0.004243636495543219,0.007546297168358385,0.011287117188405749,0.011148292001355666,-0.4183629435881545,0.6413327177051426,0.004243636495543219,0.007546297168358385,0.011287117188405749
149,2.960000000000002,0.587077834807654,0.00827074360810308,0.4720838813788628,0.5884157090271918,0.010002371411802463,0.4699985581840246,0.003022749593462701,0.10888937867506668,7.718695236956929,0.05475966315040937,2.3002599358846503,False,0,False,0,0,min_task,none,0.035799068867154414,0.0023021530824452563,0.0010378138504986982,0.035799068867154414,0.0023021530824452563,0.0010378138504986982,0.010776835402879631,-0.4145424560327778,0.6490236522328073,0.004979831667210126,0.007207535749590735,0.011642953081271399,0.010776835402879631,-0.4145424560327778,0.6490236522328073,0.004979831667210126,0.007207535749590735,0.011642953081271399
150,2.980000000000002,0.5909178351821228,0.008520029424134377,0.47332320146662377,0.5917056359384419,0.010002371411802463,0.4713693610637122,0.002575938687179963,0.1098909590171822,7.639495019744772,0.05517525730738508,2.2925690013569855,False,0,False,0,0,min_task,none,0.040021943392335224,0.0023966888881823906,0.0009821695179346526,0.040021943392335224,0.0023966888881823906,0.0009821695179346526,0.01023852591674103,-0.4103694141549288,0.6570883235676424,0.00569022658603682,0.006877004329612541,0.011948432527736915,0.01023852591674103,-0.4103694141549288,0.6570883235676424,0.00569022658603682,0.006877004329612541,0.011948432527736915
151,3.000000000000002,0.594633561215786,0.008765043910967897,0.47453795594044335,0.5949117893871915,0.010002371411802463,0.4727052583340245,0.0022287150504850376,0.11093784064108632,7.55812925816945,0.05560011402100274,2.2845043300221506,False,0,False,0,0,min_task,none,0.04422289554425675,0.002489461987834481,0.0008254723009756955,0.04422289554425675,0.002489461987834481,0.0008254723009756955,0.009608448888239748,-0.4058158416595262,0.6655573882586998,0.0063707368292131,0.00654809371277122,0.012207886792795409,0.009608448888239748,-0.4058158416595262,0.6655573882586998,0.0063707368292131,0.00654809371277122,0.012207886792795409
