LordTarzan10086/HCDR_ML/scripts/results/routeB_full_20260308_180334/routeB_dynamics_full_once.csv
step,time_s,success,dynamics_backend,sim_backend,urdf_path,use_urdf_kinematics,jacobian_backend,jacobian_fallback,jacobian_fallback_reason,routeB_residual,tension_margin_low,tension_margin_high,torque_margin_low,torque_margin_high,target_x,target_y,target_z,tip_x,tip_y,tip_z,err_x,err_y,err_z,q_1,q_2,q_3,q_4,q_5,q_6,q_7,q_8,q_9,qd_1,qd_2,qd_3,qd_4,qd_5,qd_6,qd_7,qd_8,qd_9,qdd_1,qdd_2,qdd_3,qdd_4,qdd_5,qdd_6,qdd_7,qdd_8,qdd_9,qnext_1,qnext_2,qnext_3,qnext_4,qnext_5,qnext_6,qnext_7,qnext_8,qnext_9,qdnext_1,qdnext_2,qdnext_3,qdnext_4,qdnext_5,qdnext_6,qdnext_7,qdnext_8,qdnext_9,M_1_1,M_1_2,M_1_3,M_1_4,M_1_5,M_1_6,M_1_7,M_1_8,M_1_9,M_2_1,M_2_2,M_2_3,M_2_4,M_2_5,M_2_6,M_2_7,M_2_8,M_2_9,M_3_1,M_3_2,M_3_3,M_3_4,M_3_5,M_3_6,M_3_7,M_3_8,M_3_9,M_4_1,M_4_2,M_4_3,M_4_4,M_4_5,M_4_6,M_4_7,M_4_8,M_4_9,M_5_1,M_5_2,M_5_3,M_5_4,M_5_5,M_5_6,M_5_7,M_5_8,M_5_9,M_6_1,M_6_2,M_6_3,M_6_4,M_6_5,M_6_6,M_6_7,M_6_8,M_6_9,M_7_1,M_7_2,M_7_3,M_7_4,M_7_5,M_7_6,M_7_7,M_7_8,M_7_9,M_8_1,M_8_2,M_8_3,M_8_4,M_8_5,M_8_6,M_8_7,M_8_8,M_8_9,M_9_1,M_9_2,M_9_3,M_9_4,M_9_5,M_9_6,M_9_7,M_9_8,M_9_9,h_1,h_2,h_3,h_4,h_5,h_6,h_7,h_8,h_9,ha_1,ha_2,ha_3,ha_4,ha_5,ha_6,ha_7,ha_8,ha_9,ha_10,ha_11,ha_12,ha_13,ha_14,uwo_1,uwo_2,uwo_3,uwo_4,uwo_5,uwo_6,uwo_7,uwo_8,uwo_9,uwo_10,uwo_11,uwo_12,uwo_13,uwo_14,ua_1,ua_2,ua_3,ua_4,ua_5,ua_6,ua_7,ua_8,ua_9,ua_10,ua_11,ua_12,ua_13,ua_14,x_d_1,x_d_2,x_d_3,x_e_1,x_e_2,x_e_3,xd_d_1,xd_d_2,xd_d_3,xdd_d_1,xdd_d_2,xdd_d_3,xdd_ref_1,xdd_ref_2,xdd_ref_3,pd_e_1,pd_e_2,pd_e_3,pd_edot_1,pd_edot_2,pd_edot_3,pd_xdot_1,pd_xdot_2,pd_xdot_3,J_1_1,J_1_2,J_1_3,J_1_4,J_1_5,J_1_6,J_1_7,J_1_8,J_1_9,J_2_1,J_2_2,J_2_3,J_2_4,J_2_5,J_2_6,J_2_7,J_2_8,J_2_9,J_3_1,J_3_2,J_3_3,J_3_4,J_3_5,J_3_6,J_3_7,J_3_8,J_3_9,Jdotqd_1,Jdotqd_2,Jdotqd_3
1,0,1,pinocchio,integrator,C:\Users\A\Documents\MATLAB\HCDR_v6-codex\kortex_description\robots\gen3_lite_gen3_lite_2f_local.urdf,1,pinocchio,0,,7.11727768396873e-15,1.71120007053105e-10,479.695942230254,37.3539777734183,39.18162155733,0.336636642600868,0.00769036104794683,0.285124963237541,0.156636642600868,0.107690361047947,0.285124963237541,-0.18,0.1,0,0.1,0.1,0.2,0,0,0,0,0,0,0,0,0,0,0,0,0,0,0,10.9132470659043,-10.688502312426,-2.28312529899015,-0.453928200973518,-6.76128306092725,4.24145158520838,-0.543288272031902,-2.92842077589259,-1.28581144988001,0.104365298826362,0.0957245990750296,0.199086749880404,-0.000181571280389407,-0.0027045132243709,0.00169658063408335,-0.000217315308812761,-0.00117136831035704,-0.000514324579952002,0.218264941318087,-0.213770046248521,-0.045662505979803,-0.00907856401947037,-0.135225661218545,0.0848290317041677,-0.010865765440638,-0.0585684155178518,-0.0257162289976001,2,0,0,0,0,0,0,0,0,0,2,0,0,0,0,0,0,0,0,0,2,0,0,0,0,0,0,0,0,0,0.0139423901061898,-0.0208727352140723,-0.000747387736985352,0.00264743042537871,0.000440479921033815,0.000138661156173978,0,0,0,-0.0208727352140723,0.434031389595102,-0.153104739742268,0.00548960379203713,0.000290541324384657,0.000279930810761879,0,0,0,-0.000747387736985352,-0.153104739742268,0.0864930198443601,-0.00231246251521412,-0.000290550808793389,-0.00017369375988383,0,0,0,0.00264743042537871,0.00548960379203713,-0.00231246251521412,0.00276090637580964,0.000440479697862786,0.000142455571047161,0,0,0,0.000440479921033815,0.000290541324384657,-0.000290550808793389,0.000440479697862786,0.0100565894138961,-6.2598275288644e-07,0,0,0,0.000138661156173978,0.000279930810761879,-0.00017369375988383,0.000142455571047161,-6.2598275288644e-07,0.000142234109981863,0,0,0,-8.04681299891585e-19,0.932691676586571,-0.586331783410407,2.37976914696766e-16,0.059599046220218,2.18439260729031e-20,0,0,0,0,-0,-0,0,0,-8.04681299891585e-19,0.932691676586571,-0.586331783410407,2.37976914696766e-16,0.059599046220218,2.18439260729031e-20,8.62785657245238,8.62785657245238,5.00000000017112,5.00000000017112,5.00000000091467,5.00000000091467,20.3040577697462,20.3040577697462,0.128721097522643,-3.57871390316827,1.40471022608045,-0.0510997552184804,-0.0330851635141229,-0.00295079487871419,8.62785657245238,8.62785657245238,5.00000000017112,5.00000000017112,5.00000000091467,5.00000000091467,20.3040577697462,20.3040577697462,0.128721097522643,-2.6460222265817,0.818378442670046,-0.0510997552184802,0.0265138827060951,-0.00295079487871419,0.336636642600868,0.00769036104794683,0.2,0.156636642600868,0.107690361047947,0.2,0,0,0,0,0,0,18,-10,2.77555756156289e-15,0.18,-0.1,2.77555756156289e-17,0,0,0,0,0,0,1,0,0,0,1,0,-0.00769036104794714,0.056636642600868,1,0.00769036104794714,-0.056636642600868,-1,-0.734927381332108,-0.148976941801914,3.67320510363811e-06,0.460508899046552,0.0933499890419994,3.67320510305504e-06,-0.00211080872857556,-0.0586234380742934,-1,-0.0446757591100386,0.220392692459032,3.67320510363811e-06,-0.0134350372079418,-0.00275926513904773,-1,0,0,0
2,0.02,1,pinocchio,integrator,C:\Users\A\Documents\MATLAB\HCDR_v6-codex\kortex_description\robots\gen3_lite_gen3_lite_2f_local.urdf,1,pinocchio,0,,6.88147858123673e-15,2.66453525910038e-15,486.41881451519,38.9480632675932,39.8036125228418,0.336636642600868,0.00769036104794683,0.285124963237541,0.163835829498531,0.103688631255295,0.285397820061251,-0.172800813102337,0.0959982702073484,0.000272856823710033,0.104365298826362,0.0957245990750296,0.199086749880404,-0.000181571280389407,-0.0027045132243709,0.00169658063408335,-0.000217315308812761,-0.00117136831035704,-0.000514324579952002,0.218264941318087,-0.213770046248521,-0.045662505979803,-0.00907856401947037,-0.135225661218545,0.0848290317041677,-0.010865765440638,-0.0585684155178518,-0.0257162289976001,6.08261403542176,-5.9632856965978,-1.72986125292009,-0.399624446888766,-3.8139651970097,2.39203853343395,-0.470627600833177,-1.63506491023268,-0.884886909221779,0.111163643266892,0.08906388387142,0.19748155525964,-0.000522992339534321,-0.00693461252754568,0.00434997668154029,-0.000622881657958792,-0.00299676258480714,-0.00138260392359272,0.339917222026522,-0.333035760180477,-0.0802597310382048,-0.0170710529572457,-0.211504965158739,0.132669802372847,-0.0202783174573016,-0.0912697137225054,-0.0434139671820357,2,0,0,0,0,0,0,0,0,0,2,0,0,0,0,0,0,0,0,0,2,0,0,0,0,0,0,0,0,0,0.0141469232870036,-0.0208663692779255,-0.000754214187547637,0.00272056861756683,0.000425856894655215,0.000138776090428348,0,0,0,-0.0208663692779255,0.433967971116546,-0.153071800593524,0.00548639914801128,0.000287555061203856,0.000279761698514092,0,0,0,-0.000754214187547637,-0.153071800593524,0.0864905601389918,-0.00231699151723799,-0.000291404442948821,-0.000173525623423163,0,0,0,0.00272056861756683,0.00548639914801128,-0.00231699151723799,0.0027600679606989,0.00044077824951533,0.00014256116646826,0,0,0,0.000425856894655215,0.000287555061203856,-0.000291404442948821,0.00044077824951533,0.0100565893683213,-6.67506607908014e-07,0,0,0,0.000138776090428348,0.000279761698514092,-0.000173525623423163,0.00014256116646826,-6.67506607908014e-07,0.000142234109981863,0,0,0,-0.000164541299240055,0.964316719692433,-0.596333653898273,0.000443989080046125,0.0593415450402844,1.97011112763655e-05,0,0,0,0,-0,-0,0,0,-0.000164541299240055,0.964316719692433,-0.596333653898273,0.000443989080046125,0.0593415450402844,1.97011112763655e-05,7.54656408061124,7.54656408061124,5,5,5.00000000000012,5.00000000000012,13.5811854848098,13.5811854848098,0.0700265609287882,-2.01625345209927,0.792721131056439,-0.0297002898487335,-0.0186139866129551,-0.00172940258281784,7.54656408061124,7.54656408061124,5,5,5.00000000000012,5.00000000000012,13.5811854848098,13.5811854848098,0.0698620196295482,-1.05193673240684,0.196387477158166,-0.0292563007686874,0.0407275584273293,-0.00170970147154148,0.336636642600868,0.00769036104794683,0.2,0.163835829498531,0.103688631255296,0.199999959775563,0,0,0,0,0,0,10.0812540227279,-5.59592312848071,0.00521370223151504,0.172800813102337,-0.0959982702073487,4.02244374753113e-08,-0.359941364375291,0.200195194612708,0.000260483989388376,0.359941364375291,-0.200195194612708,-0.000260483989388376,1,0,0,0,1,0,-0.00796403218026594,0.0594705306721688,1,0.00796403218026594,-0.0594705306721688,-1,-0.734768731587663,-0.148385148165995,3.67320510363811e-06,0.460310625529759,0.0929592080843959,3.6731782358102e-06,-0.00239759107555483,-0.0586814252424729,-0.999990315202058,-0.0444988703944325,0.220411923349577,0.00440475271608905,-0.0134349073542109,-0.00275923822875403,-0.9999896280366,-0.00184333281499512,-0.0108767631050242,-0.0129253264203535
3,0.04,1,pinocchio,integrator,C:\Users\A\Documents\MATLAB\HCDR_v6-codex\kortex_description\robots\gen3_lite_gen3_lite_2f_local.urdf,1,pinocchio,0,,1.06366061487233e-14,2.51265674933165e-12,490.754024726505,39.7826883193037,39.9502189616774,0.336636642600868,0.00769036104794683,0.285124963237541,0.175066780180992,0.0974451074271135,0.285847645141697,-0.161569862419876,0.0897547463791667,0.000722681904156031,0.111163643266892,0.08906388387142,0.19748155525964,-0.000522992339534321,-0.00693461252754568,0.00434997668154029,-0.000622881657958792,-0.00299676258480714,-0.00138260392359272,0.339917222026522,-0.333035760180477,-0.0802597310382048,-0.0170710529572457,-0.211504965158739,0.132669802372847,-0.0202783174573016,-0.0912697137225054,-0.0434139671820357,2.93828863916346,-2.87447103820454,-1.36759900406318,-0.371958682973203,-1.89663500781485,1.18911412714717,-0.422675873433603,-0.790296554778587,-0.62317828396446,0.119137303163088,0.0812533802525287,0.195329321037251,-0.00101319687186852,-0.0119233658338464,0.00747901837985609,-0.00119751835647826,-0.00513827548116869,-0.00250015458081921,0.398682994809791,-0.390525180944568,-0.107611711119469,-0.0245102266167097,-0.249437665315036,0.15645208491579,-0.0287318349259736,-0.107075644818077,-0.0558775328613249,2,0,0,0,0,0,0,0,0,0,2,0,0,0,0,0,0,0,0,0,2,0,0,0,0,0,0,0,0,0,0.0144857459639528,-0.0208575176687997,-0.000764211720810681,0.00283495825748462,0.00040302258828347,0.000138954344400356,0,0,0,-0.0208575176687997,0.433868080364582,-0.153019945337585,0.00547995896609108,0.000283036831484722,0.000279496555799747,0,0,0,-0.000764211720810681,-0.153019945337585,0.0864867405676155,-0.00232340860801251,-0.000293149397175057,-0.000173262891334249,0,0,0,0.00283495825748462,0.00547995896609108,-0.00232340860801251,0.0027588163777167,0.000441237033679167,0.00014272677275671,0,0,0,0.00040302258828347,0.000283036831484722,-0.000293149397175057,0.000441237033679167,0.0100565892287486,-7.37606498399346e-07,0,0,0,0.000138954344400356,0.000279496555799747,-0.000173262891334249,0.00014272677275671,-7.37606498399346e-07,0.000142234109981863,0,0,0,-0.000473041096001951,1.01370986417408,-0.61198322351519,0.00110529549826608,0.0589500801349878,5.00070216929956e-05,0,0,0,0,-0,-0,0,0,-0.000473041096001951,1.01370986417408,-0.61198322351519,0.00110529549826608,0.0589500801349878,5.00070216929956e-05,6.85656106862053,6.85656106862053,5.00000000000251,5.00000000000251,5.00000000019449,5.00000000019449,9.2459752734949,9.2459752734949,0.0316588950922423,-0.999803539586111,0.394671542818884,-0.015814504810109,-0.00916904181234202,-0.000936199023065853,6.85656106862053,6.85656106862053,5.00000000000251,5.00000000000251,5.00000000019449,5.00000000019449,9.2459752734949,9.2459752734949,0.0311858539962403,0.0139063245879711,-0.217311680696306,-0.014709209311843,0.0497810383226458,-0.000886192001372858,0.336636642600868,0.00769036104794683,0.2,0.175066780180992,0.0974451074271138,0.200010134073797,0,0,0,0,0,0,4.92692610781368,-2.72609700946698,0.00961036445791069,0.161569862419876,-0.089754746379167,-1.01340737971856e-05,-0.561503006708695,0.312468881422486,0.000531188591881462,0.561503006708695,-0.312468881422486,-0.000531188591881462,1,0,0,0,1,0,-0.00838122355569375,0.0639031369141,1,0.00838122355569375,-0.0639031369141,-1,-0.734514635839408,-0.147367945818351,3.67320510363811e-06,0.459992300097873,0.0922900396496303,3.67302846355034e-06,-0.00284716008289144,-0.0587718473721921,-0.999936329698855,-0.0442056897247321,0.22044446568417,0.0112880204923202,-0.0134341552255215,-0.00275922799989564,-0.999931818631479,-0.00462948255985948,-0.0292918648082783,-0.0316700390974806
4,0.06,1,pinocchio,integrator,C:\Users\A\Documents\MATLAB\HCDR_v6-codex\kortex_description\robots\gen3_lite_gen3_lite_2f_local.urdf,1,pinocchio,0,,5.2593374359047e-15,7.31175120449734e-11,493.477553530934,39.5096030433879,39.2783830241909,0.336636642600868,0.00769036104794683,0.285124963237541,0.188268124655977,0.0901080864180643,0.286414299301124,-0.148368517944891,0.0824177253701174,0.0012893360635835,0.119137303163088,0.0812533802525287,0.195329321037251,-0.00101319687186852,-0.0119233658338464,0.00747901837985609,-0.00119751835647826,-0.00513827548116869,-0.00250015458081921,0.398682994809791,-0.390525180944568,-0.107611711119469,-0.0245102266167097,-0.249437665315036,0.15645208491579,-0.0287318349259736,-0.107075644818077,-0.0558775328613249,0.932697215500548,-0.901456032879009,-1.13443367991482,-0.359966136926866,-0.670505061267083,0.420197531081412,-0.383151860245331,-0.251531040116903,-0.448122440982416,0.127484041945484,0.0730822942204857,0.192723313342895,-0.00164738785897346,-0.0171803211646539,0.0107761390906045,-0.00192541579909587,-0.00738040079357699,-0.00379695421443868,0.417336939119802,-0.408554301602148,-0.130300384717765,-0.0317095493552471,-0.262847766540378,0.164856035537418,-0.0363948721308803,-0.112106265620415,-0.0648399816809732,2,0,0,0,0,0,0,0,0,0,2,0,0,0,0,0,0,0,0,0,2,0,0,0,0,0,0,0,0,0,0.0149149358103249,-0.0208486692353477,-0.000774998037181875,0.00296985646144355,0.000376151851899194,0.000139162849680926,0,0,0,-0.0208486692353477,0.433749171634805,-0.152958258670954,0.00547026463302442,0.00027793395589905,0.000279182805329715,0,0,0,-0.000774998037181875,-0.152958258670954,0.0864822762024183,-0.00232999022966668,-0.000295808165692665,-0.000172953425925793,0,0,0,0.00296985646144355,0.00547026463302442,-0.00232999022966668,0.00275743320315645,0.000441765647917874,0.000142922586935141,0,0,0,0.000376151851899194,0.00027793395589905,-0.000295808165692665,0.000441765647917874,0.0100565889333203,-8.27830298656088e-07,0,0,0,0.000139162849680926,0.000279182805329715,-0.000172953425925793,0.000142922586935141,-8.27830298656088e-07,0.000142234109981863,0,0,0,-0.000793959651178746,1.0715068176054,-0.630619504543572,0.00187646383306672,0.0585459727004432,8.31072326047098e-05,0,0,0,0,-0,-0,0,0,-0.000793959651178746,1.0715068176054,-0.630619504543572,0.00187646383306672,0.0585459727004432,8.31072326047098e-05,6.42210739729306,6.42210739729306,5.00000000034129,5.00000000034129,5.00000000007312,5.00000000007312,6.52244646906648,6.52244646906648,0.00698973226470656,-0.349889841796269,0.140222547931444,-0.00694762427524864,-0.0031444925489339,-0.000428253126557365,6.42210739729306,6.42210739729306,5.00000000034129,5.00000000034129,5.00000000007312,5.00000000007312,6.52244646906648,6.52244646906648,0.00619577261352781,0.721616975809133,-0.490396956612128,-0.00507116044218193,0.0554014801515093,-0.000345145893952655,0.336636642600868,0.00769036104794683,0.2,0.188268124655977,0.0901080864180646,0.200040817814561,0,0,0,0,0,0,1.63677598729658,-0.895702859701382,0.00765645705130685,0.148368517944891,-0.0824177253701177,-4.0817814561056e-05,-0.660003790359627,0.36730348386552,0.000586911925370623,0.660003790359627,-0.36730348386552,-0.000586911925370623,1,0,0,0,1,0,-0.00885470616553587,0.0691308214928889,1,0.00885470616553587,-0.0691308214928889,-1,-0.734202786431986,-0.146036393716673,3.67320510363811e-06,0.459602206489707,0.0914174134943692,3.6726829019671e-06,-0.00337824132393178,-0.058877855966225,-0.999811779648195,-0.0438360324658821,0.220486207727482,0.0194048254927114,-0.0134324014858706,-0.00275930147745962,-0.999798461846228,-0.00664093696825247,-0.0452784252907752,-0.0441500702435056
5,0.08,1,pinocchio,integrator,C:\Users\A\Documents\MATLAB\HCDR_v6-codex\kortex_description\robots\gen3_lite_gen3_lite_2f_local.urdf,1,pinocchio,0,,7.43087665518961e-15,3.35758087999238e-11,493.788581316398,39.3239948377358,38.7940398833518,0.336636642600868,0.00769036104794683,0.285124963237541,0.202124157215288,0.0824106224625665,0.287053780644578,-0.13451248538558,0.0747202614146197,0.0019288174070371,0.127484041945484,0.0730822942204857,0.192723313342895,-0.00164738785897346,-0.0171803211646539,0.0107761390906045,-0.00192541579909587,-0.00738040079357699,-0.00379695421443868,0.417336939119802,-0.408554301602148,-0.130300384717765,-0.0317095493552471,-0.262847766540378,0.164856035537418,-0.0363948721308803,-0.112106265620415,-0.0648399816809732,-0.270877477819133,0.320532496457174,-1.00058307801429,-0.364308611415901,0.12911510494383,-0.0808841269042219,-0.354475303968469,0.109571065018776,-0.329293673201808,0.135722429736752,0.0650394211870256,0.189717072417334,-0.00242730229064476,-0.022385630453484,0.0140409061505911,-0.00279510336330086,-0.00957869767997778,-0.00522547131733887,0.41191938956342,-0.402143651673004,-0.150312046278051,-0.0389957215835651,-0.260265464441501,0.163238352999334,-0.0434843782102496,-0.10991484432004,-0.0714258551450094,2,0,0,0,0,0,0,0,0,0,2,0,0,0,0,0,0,0,0,0,2,0,0,0,0,0,0,0,0,0,0.0154018031341859,-0.0208414084697495,-0.000785092841620956,0.00311201024795289,0.000347907068451234,0.000139381993039489,0,0,0,-0.0208414084697495,0.43362258169328,-0.15289263954154,0.00545738539006626,0.000272836033146616,0.000278850751994711,0,0,0,-0.000785092841620956,-0.15289263954154,0.0864776281564397,-0.00233567085069455,-0.00029937262523518,-0.00017262772006448,0,0,0,0.00311201024795289,0.00545738539006626,-0.00233567085069455,0.00275608412320106,0.000442307012015906,0.000143129632764373,0,0,0,0.000347907068451234,0.000272836033146616,-0.00029937262523518,0.000442307012015906,0.0100565884271581,-9.32524197369306e-07,0,0,0,0.000139381993039489,0.000278850751994711,-0.00017262772006448,0.000143129632764373,-9.32524197369306e-07,0.000142234109981863,0,0,0,-0.00108337732082437,1.1320100364666,-0.650407741970898,0.00268654732603638,0.0581665357562452,0.000115789425532246,0,0,0,0,-0,-0,0,0,-0.00108337732082437,1.1320100364666,-0.650407741970898,0.00268654732603638,0.0581665357562452,0.000115789425532246,6.21141868360244,6.21141868360244,5.0946920610196,5.0946920610196,5.00000000003358,5.00000000003358,5.00000000773008,5.00000000773008,-0.00934935644487922,0.0739500801816177,-0.0255974202933444,-0.00121581393677417,0.000878127471658274,-9.8486264093367e-05,6.21141868360244,6.21141868360244,5.0946920610196,5.0946920610196,5.00000000003358,5.00000000003358,5.00000000773008,5.00000000773008,-0.0104327337657036,1.20596011664822,-0.676005162264243,0.00147073338926221,0.0590446632279035,1.73031614388789e-05,0.336636642600868,0.00769036104794683,0.2,0.202124157215288,0.0824106224625668,0.200095149516564,0,0,0,0,0,0,-0.403346628053139,0.23670871536382,0.00112070371855705,0.13451248538558,-0.07472026141462,-9.51495165640859e-05,-0.692729758330557,0.385436742841291,0.000531782768748282,0.692729758330557,-0.385436742841291,-0.000531782768748282,1,0,0,0,1,0,-0.00932832824208109,0.0746401152698039,1,0.00932832824208109,-0.0746401152698039,-1,-0.73386187864072,-0.144464862000131,3.67320510363811e-06,0.459175149454827,0.0903916039547004,3.67212093388576e-06,-0.00393910780001669,-0.0589887188964901,-0.999609243616081,-0.0434163651083146,0.220534411270614,0.0279564387269808,-0.0134295402959269,-0.00275948087935244,-0.999581622009024,-0.00754743062273986,-0.0563920956948366,-0.0491944254465624
6,0.1,1,pinocchio,integrator,C:\Users\A\Documents\MATLAB\HCDR_v6-codex\kortex_description\robots\gen3_lite_gen3_lite_2f_local.urdf,1,pinocchio,0,,8.68091719331417e-15,2.37908359679295e-10,493.72465068696,39.2112034037055,38.4957827491134,0.336636642600868,0.00769036104794683,0.285124963237541,0.215819106025517,0.074806570010436,0.287729775703531,-0.120817536575351,0.0671162089624892,0.00260481246599009,0.135722429736752,0.0650394211870256,0.189717072417334,-0.00242730229064476,-0.022385630453484,0.0140409061505911,-0.00279510336330086,-0.00957869767997778,-0.00522547131733887,0.41191938956342,-0.402143651673004,-0.150312046278051,-0.0389957215835651,-0.260265464441501,0.163238352999334,-0.0434843782102496,-0.10991484432004,-0.0714258551450094,-1.01170817005301,1.04222418012847,-1.00583953608734,-0.395469431552386,0.578807221670365,-0.362399427487912,-0.357015624664324,0.305367660738071,-0.283799634599904,0.14355613426,0.0574134378256169,0.186308495677338,-0.00336540449493701,-0.0273594168536458,0.0171607134395826,-0.00380759717737159,-0.0116548475020834,-0.00676750827407901,0.391685226162359,-0.381299168070435,-0.170428836999798,-0.0469051102146128,-0.248689320008094,0.155990364449576,-0.0506246907035361,-0.103807491105278,-0.0771018478370075,2,0,0,0,0,0,0,0,0,0,2,0,0,0,0,0,0,0,0,0,2,0,0,0,0,0,0,0,0,0,0.0159188254151898,-0.0208368438543699,-0.000793527057552698,0.00325279608040949,0.00032001201568463,0.000139600206986578,0,0,0,-0.0208368438543699,0.433495974025756,-0.152827079332576,0.00544139341171414,0.000268115053908192,0.00027852087898649,0,0,0,-0.000793527057552698,-0.152827079332576,0.0864731156990267,-0.00233974428556228,-0.000303832127274712,-0.000172306226894297,0,0,0,0.00325279608040949,0.00544139341171414,-0.00233974428556228,0.00275486118629488,0.000442823330643807,0.000143335320105826,0,0,0,0.00032001201568463,0.000268115053908192,-0.000303832127274712,0.000442823330643807,0.010056587666472,-1.04785015781921e-06,0,0,0,0.000139600206986578,0.00027852087898649,-0.000172306226894297,0.000143335320105826,-1.04785015781921e-06,0.000142234109981863,0,0,0,-0.00132724134312451,1.19162170263104,-0.670106632387856,0.00348699625564052,0.057822560895718,0.000146600437995157,0,0,0,0,-0,-0,0,0,-0.00132724134312451,1.19162170263104,-0.670106632387856,0.00348699625564052,0.057822560895718,0.000146600437995157,6.27534931304039,6.27534931304039,6.01935531649521,6.01935531649521,5.00000000023791,5.00000000023791,5.00000000056567,5.00000000056567,-0.019171546977951,0.312595548255558,-0.118689963906604,0.0018220753011633,0.00305189973068565,7.65870427841264e-05,6.27534931304039,6.27534931304039,6.01935531649521,6.01935531649521,5.00000000023791,5.00000000023791,5.00000000056567,5.00000000056567,-0.0204987883210755,1.5042172508866,-0.78879659629446,0.00530907155680382,0.0608744606264037,0.000223187480779283,0.336636642600868,0.00769036104794683,0.2,0.215819106025517,0.0748065700104363,0.200169952956708,0,0,0,0,0,0,-1.61178481294945,0.904979787541576,-0.00720849388567479,0.120817536575351,-0.0671162089624895,-0.000169952956707548,-0.684676923524228,0.380830034189526,0.000489340089253998,0.684676923524228,-0.380830034189526,-0.000489340089253998,1,0,0,0,1,0,-0.00976714882341069,0.0800966762887644,1,0.00976714882341069,-0.0800966762887644,-1,-0.733518133126342,-0.142701578331524,3.67320510363811e-06,0.458740000940057,0.0892455190762,3.67136447641656e-06,-0.00449553586376629,-0.0590973736878701,-0.999336627072443,-0.0429647530636021,0.220587390738443,0.0364220099598228,-0.0134256890637888,-0.00275974524256114,-0.999289807099277,-0.00741835055453856,-0.0627736861320156,-0.0483679020482404
7,0.12,1,pinocchio,integrator,C:\Users\A\Documents\MATLAB\HCDR_v6-codex\kortex_description\robots\gen3_lite_gen3_lite_2f_local.urdf,1,pinocchio,0,,8.44213788137353e-15,2.82931011952314e-10,493.523683868317,39.140894628887,38.3072100815166,0.336636642600868,0.00769036104794683,0.285124963237541,0.228869760737387,0.0675637868923399,0.288415541967113,-0.107766881863481,0.059873425844393,0.00329057872957272,0.14355613426,0.0574134378256169,0.186308495677338,-0.00336540449493701,-0.0273594168536458,0.0171607134395826,-0.00380759717737159,-0.0116548475020834,-0.00676750827407901,0.391685226162359,-0.381299168070435,-0.170428836999798,-0.0469051102146128,-0.248689320008094,0.155990364449576,-0.0506246907035361,-0.103807491105278,-0.0771018478370075,-1.41560631802561,1.43483786710355,-0.995871045240794,-0.409964695360442,0.827424634185634,-0.517812560314033,-0.34812972128822,0.410827136671052,-0.249541906857621,0.150823596256037,0.0503613896110497,0.182501570519246,-0.00446749257737345,-0.0320022334001335,0.0200733957044485,-0.0049593428799576,-0.0135666664695205,-0.00840936199356221,0.363373099801847,-0.352602410728364,-0.190346257904614,-0.0551044041218216,-0.232140827324381,0.145634113243295,-0.0575872851293005,-0.0955909483718572,-0.0820926859741599,2,0,0,0,0,0,0,0,0,0,2,0,0,0,0,0,0,0,0,0,2,0,0,0,0,0,0,0,0,0,0.0164453122704814,-0.0208358327822517,-0.000799708718019996,0.003387384825582,0.000293427938728056,0.000139812958951897,0,0,0,-0.0208358327822517,0.43337385602923,-0.152763924968654,0.0054221794800768,0.000263982114006194,0.000278204254864662,0,0,0,-0.000799708718019996,-0.152763924968654,0.0864689252774292,-0.00234175786141519,-0.000309225991238902,-0.00017199993502559,0,0,0,0.003387384825582,0.0054221794800768,-0.00234175786141519,0.0027537990898965,0.000443293845555645,0.000143533101768307,0,0,0,0.000293427938728056,0.000263982114006194,-0.000309225991238902,0.000443293845555645,0.0100565866063609,-1.17233831135677e-06,0,0,0,0.000139812958951897,0.000278204254864662,-0.00017199993502559,0.000143533101768307,-1.17233831135677e-06,0.000142234109981863,0,0,0,-0.00153917588305233,1.24840927367738,-0.68898901140928,0.00424435574077772,0.0575106583531984,0.000175177265599408,0,0,0,0,-0,-0,0,0,-0.00153917588305233,1.24840927367738,-0.68898901140928,0.00424435574077772,0.0575106583531984,0.000175177265599408,6.3075810428966,6.3075810428966,6.47631613168288,6.47631613168288,5.00000000028293,5.00000000028293,5.00000000055613,5.00000000055613,-0.0246615699018236,0.444380644806003,-0.170116359703677,0.00349794862626851,0.0042357387756482,0.000175995265287554,6.3075810428966,6.3075810428966,6.47631613168288,6.47631613168288,5.00000000028293,5.00000000028293,5.00000000055613,5.00000000055613,-0.0262007457848759,1.69278991848338,-0.859105371112957,0.00774230436704623,0.0617463971288466,0.000351172530886962,0.336636642600868,0.00769036104794683,0.2,0.228869760737387,0.0675637868923402,0.200258916088444,0,0,0,0,0,0,-2.27272009916632,1.26868337512324,-0.0148952987675832,0.107766881863481,-0.0598734258443934,-0.000258916088444139,-0.652470414275723,0.362801297978129,0.000549815503841533,0.652470414275723,-0.362801297978129,-0.000549815503841533,1,0,0,0,1,0,-0.0101503490667232,0.0853136264773869,1,0.0101503490667232,-0.0853136264773869,-1,-0.733194969525126,-0.14075969431123,3.67320510363811e-06,0.458319628237185,0.0879891763857792,3.67045574209647e-06,-0.00502983930448646,-0.0592001458640398,-0.999009142675641,-0.0424897220228501,0.220644609191747,0.0445087719025323,-0.0134210716059279,-0.00276005132961726,-0.998939318039867,-0.0065738696356316,-0.0662385523436339,-0.0443642332154274
8,0.14,1,pinocchio,integrator,C:\Users\A\Documents\MATLAB\HCDR_v6-codex\kortex_description\robots\gen3_lite_gen3_lite_2f_local.urdf,1,pinocchio,0,,8.22640519691676e-15,3.77171183174596e-10,493.365323594222,39.0989094103476,38.1920471357548,0.336636642600868,0.00769036104794683,0.285124963237541,0.241011811055695,0.0608281988631259,0.289090890179936,-0.0956248315451733,0.0531378378151791,0.00396592694239528,0.150823596256037,0.0503613896110497,0.182501570519246,-0.00446749257737345,-0.0320022334001335,0.0200733957044485,-0.0049593428799576,-0.0135666664695205,-0.00840936199356221,0.363373099801847,-0.352602410728364,-0.190346257904614,-0.0551044041218216,-0.232140827324381,0.145634113243295,-0.0575872851293005,-0.0955909483718572,-0.0820926859741599,-1.6010737867164,1.61405524347357,-0.975916061865956,-0.412732626655547,0.945147009867687,-0.591210818710543,-0.333857289151439,0.457917617808593,-0.224374151616387,0.157450628737387,0.0439549634938718,0.178304278936407,-0.0057346737104721,-0.036266991142674,0.0227495936418302,-0.00624463149820418,-0.0152953183898342,-0.010140965373692,0.331351624067519,-0.320321305858893,-0.209864579141933,-0.0633590566549326,-0.213237887127027,0.133809896869084,-0.0642644309123293,-0.0864325960156854,-0.0865801690064876,2,0,0,0,0,0,0,0,0,0,2,0,0,0,0,0,0,0,0,0,2,0,0,0,0,0,0,0,0,0,0.01696539655422,-0.0208388282823228,-0.000803362668561006,0.00351311978245047,0.000268677674472971,0.000140018863196694,0,0,0,-0.0208388282823228,0.4332588894584,-0.152704559642841,0.00539977639655024,0.000260537655700706,0.000277906844559442,0,0,0,-0.000803362668561006,-0.152704559642841,0.0864651615197159,-0.00234150653238322,-0.000315549986279534,-0.000171714697695231,0,0,0,0.00351311978245047,0.00539977639655024,-0.00234150653238322,0.00275290330131101,0.000443707975348004,0.00014371946429249,0,0,0,0.000268677674472971,0.000260537655700706,-0.000315549986279534,0.000443707975348004,0.0100565852049214,-1.30488157059042e-06,0,0,0,0.000140018863196694,0.000277906844559442,-0.000171714697695231,0.00014371946429249,-1.30488157059042e-06,0.000142234109981863,0,0,0,-0.00170972765442869,1.30132387335392,-0.706650528230166,0.00494929811420832,0.0572257297909784,0.00020141366202848,0,0,0,0,-0,-0,0,0,-0.00170972765442869,1.30132387335392,-0.706650528230166,0.00494929811420832,0.0572257297909784,0.00020141366202848,6.31984721468532,6.31984721468532,6.63467640577831,6.63467640577831,5.00000000037717,5.00000000037717,5.00000000066164,5.00000000066164,-0.0273042372412817,0.506628990891258,-0.19444006142222,0.00428978528633905,0.00477915608986734,0.00022589908021331,6.31984721468532,6.31984721468532,6.63467640577831,6.63467640577831,5.00000000037717,5.00000000037717,5.00000000066164,5.00000000066164,-0.0290139648957104,1.80795286424517,-0.901090589652386,0.00923908340054738,0.0620048858808457,0.00042731274224179,0.336636642600868,0.00769036104794683,0.2,0.241011811055695,0.0608281988631262,0.200354965226187,0,0,0,0,0,0,-2.57854936003968,1.43527647880487,-0.0207888079963672,0.0956248315451734,-0.0531378378151794,-0.00035496522618686,-0.607051625727851,0.337453013016141,0.000735385731115937,0.607051625727851,-0.337453013016141,-0.000735385731115937,1,0,0,0,1,0,-0.0104668092520766,0.090188214799658,1,0.0104668092520766,-0.090188214799658,-1,-0.73290944269204,-0.13865045624494,3.67320510363811e-06,0.457930277900096,0.0866308099370026,3.66944353702e-06,-0.00553266160323815,-0.0592950954971576,-0.998644370825881,-0.0419970620061455,0.220705646159384,0.0520551233372479,-0.0134159450334318,-0.00276035213501227,-0.998548967737459,-0.00539262204009049,-0.0673772991309613,-0.0389213241600542
9,0.16,1,pinocchio,integrator,C:\Users\A\Documents\MATLAB\HCDR_v6-codex\kortex_description\robots\gen3_lite_gen3_lite_2f_local.urdf,1,pinocchio,0,,7.01231297248732e-15,5.35828270642469e-10,493.392174015154,39.0756215736004,38.1255907139166,0.336636642600868,0.00769036104794683,0.285124963237541,0.252122920451485,0.0546667828868216,0.289741317424722,-0.0845137221493831,0.0469764218388748,0.00461635418718154,0.157450628737387,0.0439549634938718,0.178304278936407,-0.0057346737104721,-0.036266991142674,0.0227495936418302,-0.00624463149820418,-0.0152953183898342,-0.010140965373692,0.331351624067519,-0.320321305858893,-0.209864579141933,-0.0633590566549326,-0.213237887127027,0.133809896869084,-0.0642644309123293,-0.0864325960156854,-0.0865801690064876,-1.64797186302693,1.6579505564524,-0.949474839217646,-0.407424667000713,0.97932895673261,-0.612323945211889,-0.317674460729366,0.468182774269898,-0.206312538824525,0.163418472473527,0.0382117175992749,0.173727197417882,-0.00716482471037104,-0.0401400173025215,0.0251808620011271,-0.00765698990074251,-0.01683669720044,-0.0119550937693515,0.29839218680698,-0.287162294729845,-0.228854075926286,-0.0715075499949469,-0.193651307992375,0.121563417964846,-0.0706179201269166,-0.0770689405302874,-0.0907064197829781,2,0,0,0,0,0,0,0,0,0,2,0,0,0,0,0,0,0,0,0,2,0,0,0,0,0,0,0,0,0,0.0174675253882128,-0.0208460205035332,-0.00080440928690158,0.00362875489660381,0.000246000751363302,0.000140218204693977,0,0,0,-0.0208460205035332,0.433152489597896,-0.152649716119769,0.00537429023209247,0.000257814068724895,0.000277631259764254,0,0,0,-0.00080440928690158,-0.152649716119769,0.0864618746683075,-0.00233893760462493,-0.00032277673934704,-0.000171453033179965,0,0,0,0.00362875489660381,0.00537429023209247,-0.00233893760462493,0.00275216398470182,0.000444061574568553,0.000143892843756996,0,0,0,0.000246000751363302,0.000257814068724895,-0.00032277673934704,0.000444061574568553,0.0100565834221521,-1.44466630684842e-06,0,0,0,0.000140218204693977,0.000277631259764254,-0.000171453033179965,0.000143892843756996,-1.44466630684842e-06,0.000142234109981863,0,0,0,-0.00183406751709062,1.34989010042286,-0.722896474288555,0.00559739569433215,0.0569637229676319,0.000225336208630546,0,0,0,0,-0,-0,0,0,-0.00183406751709062,1.34989010042286,-0.722896474288555,0.00559739569433215,0.0569637229676319,0.000225336208630546,6.31990220384522,6.31990220384522,6.60782598484627,6.60782598484627,5.00000000053583,5.00000000053583,5.0000000008171,5.0000000008171,-0.0281057713727009,0.524519185660509,-0.201481952111074,0.00452086416480313,0.00491745209301087,0.000244016644558087,6.31990220384522,6.31990220384522,6.60782598484627,6.60782598484627,5.00000000053583,5.00000000053583,5.0000000008171,5.0000000008171,-0.0299398388897915,1.87440928608336,-0.924378426399629,0.0101182598591353,0.0618811750606428,0.000469352853188634,0.336636642600868,0.00769036104794683,0.2,0.252122920451485,0.0546667828868219,0.20045167653357,0,0,0,0,0,0,-2.65895874384875,1.47712393891575,-0.0245148038599388,0.0845137221493831,-0.0469764218388751,-0.000451676533569562,-0.555516547939353,0.308738306140163,0.00103264247485087,0.555516547939353,-0.308738306140163,-0.00103264247485087,1,0,0,0,1,0,-0.0107118193929501,0.0946722917140979,1,0.0107118193929501,-0.0946722917140979,-1,-0.732673115714741,-0.136383312789961,3.67320510363811e-06,0.45758277300904,0.0851770800014441,3.66837428557754e-06,-0.00599996887554317,-0.0593813982392288,-0.998259026759507,-0.0414905955009839,0.220770160100786,0.0589848488256703,-0.0134105524203202,-0.00276060708192667,-0.998136625942417,-0.00415570938185031,-0.0667601988208078,-0.0331538208088322
10,0.18,1,pinocchio,integrator,C:\Users\A\Documents\MATLAB\HCDR_v6-codex\kortex_description\robots\gen3_lite_gen3_lite_2f_local.urdf,1,pinocchio,0,,9.74142548674092e-15,7.74686981230843e-10,493.528822879948,39.0645026866178,38.0910601530674,0.336636642600868,0.00769036104794683,0.285124963237541,0.262170880171016,0.0490965257165653,0.2903570828705,-0.0744657624298525,0.0414061646686185,0.005232119632959,0.163418472473527,0.0382117175992749,0.173727197417882,-0.00716482471037104,-0.0401400173025215,0.0251808620011271,-0.00765698990074251,-0.01683669720044,-0.0119550937693515,0.29839218680698,-0.287162294729845,-0.228854075926286,-0.0715075499949469,-0.193651307992375,0.121563417964846,-0.0706179201269166,-0.0770689405302874,-0.0907064197829781,-1.60979547588128,1.61884304674617,-0.918854002944173,-0.396698591935724,0.961760158714303,-0.601093006870866,-0.301397350613928,0.456014045448149,-0.19356538198096,0.168742398019314,0.0331160089233765,0.168782574298178,-0.00875365514704426,-0.0436283393988833,0.0273716931576757,-0.00918990724352642,-0.0181956703928664,-0.0138466483178035,0.266196277289355,-0.254785433794921,-0.247231155985169,-0.0794415218336613,-0.174416104818089,0.109541557827429,-0.0766458671391952,-0.0679486596213244,-0.0945777274225973,2,0,0,0,0,0,0,0,0,0,2,0,0,0,0,0,0,0,0,0,2,0,0,0,0,0,0,0,0,0,0.0179438323346582,-0.0208574312597859,-0.000802885313151981,0.00373394129964901,0.000225457656043966,0.00014041205210662,0,0,0,-0.0208574312597859,0.433055240339028,-0.152599693696782,0.00534585941868172,0.000255803360599349,0.000277377950534558,0,0,0,-0.000802885313151981,-0.152599693696782,0.0864590794251973,-0.00233408878421139,-0.000330867981291641,-0.000171215341288541,0,0,0,0.00373394129964901,0.00534585941868172,-0.00233408878421139,0.00275156446704388,0.000444354451243869,0.000144052897194667,0,0,0,0.000225457656043966,0.000255803360599349,-0.000330867981291641,0.000444354451243869,0.0100565812188949,-1.59110827338273e-06,0,0,0,0.00014041205210662,0.000277377950534558,-0.000171215341288541,0.000144052897194667,-1.59110827338273e-06,0.000142234109981863,0,0,0,-0.00191188733919579,1.39399211661734,-0.737667312294804,0.00618694464031574,0.056721905641025,0.000247031261991924,0,0,0,0,-0,-0,0,0,-0.00191188733919579,1.39399211661734,-0.737667312294804,0.00618694464031574,0.056721905641025,0.000247031261991924,6.31279086984826,6.31279086984826,6.47117712005211,6.47117712005211,5.00000000077469,5.00000000077469,5.00000000089484,5.00000000089484,-0.0277452977425696,0.514947730315257,-0.197830001087404,0.00440862376908058,0.00480778818990046,0.000242311813572371,6.31279086984826,6.31279086984826,6.47117712005211,6.47117712005211,5.00000000077469,5.00000000077469,5.00000000089484,5.00000000089484,-0.0296571850817654,1.90893984693259,-0.935497313382207,0.0105955684093963,0.0615296938309254,0.000489343075564295,0.336636642600868,0.00769036104794683,0.2,0.262170880171016,0.0490965257165656,0.200543936616497,0,0,0,0,0,0,-2.60082073642368,1.44261584302182,-0.026176488541664,0.0744657624298525,-0.0414061646686188,-0.000543936616497209,-0.502369848970447,0.279161615494185,0.00141085865540284,0.502369848970447,-0.279161615494185,-0.00141085865540284,1,0,0,0,1,0,-0.0108848081172907,0.0987524076974889,1,0.0108848081172907,-0.0987524076974889,-1,-0.732492959282404,-0.133966174446107,3.67320510363811e-06,0.457283579870293,0.0836333485012398,3.66728755249968e-06,-0.00643102924906955,-0.0594589277384931,-0.997867349827715,-0.0409727486052578,0.220837860833549,0.0652761890316946,-0.0134050994378129,-0.00276078650753033,-0.997717503662494,-0.00304081931577443,-0.0648804237200143,-0.0276887384294057
11,0.2,1,pinocchio,integrator,C:\Users\A\Documents\MATLAB\HCDR_v6-codex\kortex_description\robots\gen3_lite_gen3_lite_2f_local.urdf,1,pinocchio,0,,7.7699977585269e-15,3.5672176323942e-10,493.698256085144,39.061142068001,38.0770974912559,0.336636642600868,0.00769036104794683,0.285124963237541,0.271178881253795,0.0441037962810602,0.290932271236267,-0.0654577613470734,0.0364134352331134,0.00580730799872631,0.168742398019314,0.0331160089233765,0.168782574298178,-0.00875365514704426,-0.0436283393988833,0.0273716931576757,-0.00918990724352642,-0.0181956703928664,-0.0138466483178035,0.266196277289355,-0.254785433794921,-0.247231155985169,-0.0794415218336613,-0.174416104818089,0.109541557827429,-0.0766458671391952,-0.0679486596213244,-0.0945777274225973,-1.52207770122395,1.53146856132773,-0.885547841681539,-0.382453747052874,0.913624468412347,-0.570792723021661,-0.285840374250347,0.430920701739597,-0.18458913020589,0.173457492484611,0.0286328876720092,0.163483732041802,-0.0104954670825386,-0.0467512117078801,0.0293342072250156,-0.0108371607360105,-0.0193822753045971,-0.0158120385183378,0.235754723264876,-0.224156062568367,-0.2649421128188,-0.0870905967747188,-0.156143615449842,0.0981257033669958,-0.0823626746242021,-0.0593302455865325,-0.0982695100267151,2,0,0,0,0,0,0,0,0,0,2,0,0,0,0,0,0,0,0,0,2,0,0,0,0,0,0,0,0,0,0.0183894529235985,-0.0208729769213842,-0.000798893218605678,0.00382888329526603,0.000206999399709983,0.000140601751968267,0,0,0,-0.0208729769213842,0.43296718284162,-0.152554508994308,0.00531463206603648,0.000254474787079932,0.000277146013050469,0,0,0,-0.000798893218605678,-0.152554508994308,0.0864567678706216,-0.00232704872421434,-0.000339781454155804,-0.000171000719363638,0,0,0,0.00382888329526603,0.00531463206603648,-0.00232704872421434,0.00275108607350932,0.000444588742207059,0.000144200017879037,0,0,0,0.000206999399709983,0.000254474787079932,-0.000339781454155804,0.000444588742207059,0.0100565785560083,-1.74379473275875e-06,0,0,0,0.000140601751968267,0.000277146013050469,-0.000171000719363638,0.000144200017879037,-1.74379473275875e-06,0.000142234109981863,0,0,0,-0.00194639190034195,1.43373378075308,-0.750987356053166,0.00671798348806584,0.0564985196417652,0.000266615686458463,0,0,0,0,-0,-0,0,0,-0.00194639190034195,1.43373378075308,-0.750987356053166,0.00671798348806584,0.0564985196417652,0.000266615686458463,6.30174391485599,6.30174391485599,6.27433863281985,6.27433863281985,5.00000000150656,5.00000000150656,5.00000000035672,5.00000000035672,-0.0266783778478157,0.489168727991064,-0.187870575945787,0.00409806287478887,0.00455409983901234,0.000228815183227482,6.30174391485599,6.30174391485599,6.27433863281985,6.27433863281985,5.00000000150656,5.00000000150656,5.00000000035672,5.00000000035672,-0.0286247697481576,1.92290250874414,-0.938857931998953,0.0108160463628547,0.0610526194807776,0.000495430869685945,0.336636642600868,0.00769036104794683,0.2,0.271178881253795,0.0441037962810605,0.200628112256735,0,0,0,0,0,0,-2.46183598811224,1.36381327355617,-0.0261161148312758,0.0654577613470734,-0.0364134352331137,-0.000628112256734648,-0.450380606140979,0.250257839843377,0.00183475554210945,0.450380606140979,-0.250257839843377,-0.00183475554210945,1,0,0,0,1,0,-0.010987787357684,0.102436483234481,1,0.010987787357684,-0.102436483234481,-1,-0.732372250881852,-0.1314057356473,3.67320510363811e-06,0.457035769087024,0.0820039713212293,3.66621451587144e-06,-0.00682707365531679,-0.0595279771276866,-0.997480556332601,-0.040444978215472,0.220908490040377,0.0709410640105298,-0.0133997466683943,-0.00276087242356973,-0.997303575166747,-0.00214117003428921,-0.0621385329329031,-0.0228252051204208
12,0.22,1,pinocchio,integrator,C:\Users\A\Documents\MATLAB\HCDR_v6-codex\kortex_description\robots\gen3_lite_gen3_lite_2f_local.urdf,1,pinocchio,0,,8.24780074265559e-15,0,493.711206055833,39.0625762982965,38.0760536194395,0.336636642600868,0.00769036104794683,0.285124963237541,0.279202448126242,0.0396571860936976,0.291463917603064,-0.0574341944746256,0.0319668250457508,0.00633895436552367,0.173457492484611,0.0286328876720092,0.163483732041802,-0.0104954670825386,-0.0467512117078801,0.0293342072250156,-0.0108371607360105,-0.0193822753045971,-0.0158120385183378,0.235754723264876,-0.224156062568367,-0.2649421128188,-0.0870905967747188,-0.156143615449842,0.0981257033669958,-0.0823626746242021,-0.0593302455865325,-0.0982695100267151,-1.40814574345641,1.41860421927461,-0.850503429124767,-0.36602053712722,0.848891338791983,-0.530166704622847,-0.27125368841879,0.399098736221156,-0.178114264821787,0.177609328652526,0.0247172081083517,0.157844688413776,-0.0123836872328839,-0.0495345274813602,0.0310846546105064,-0.012592915703862,-0.0204092407218393,-0.0178486744248008,0.207591808395748,-0.195783978182874,-0.281952181401295,-0.0944110075172632,-0.139165788674002,0.0875223692745388,-0.0877877483925779,-0.0513482708621094,-0.101831795323151,2,0,0,0,0,0,0,0,0,0,2,0,0,0,0,0,0,0,0,0,2,0,0,0,0,0,0,0,0,0,0.01880186066484,-0.0208925099598971,-0.000792569508975502,0.00391410974325218,0.00019051349963929,0.000140788657435637,0,0,0,-0.0208925099598971,0.432888015826139,-0.152514000500613,0.00528075452549856,0.000253785873201675,0.000276933733393688,0,0,0,-0.000792569508975502,-0.152514000500613,0.0864549182602393,-0.00231793243567399,-0.000349474510258144,-0.000170807504572369,0,0,0,0.00391410974325218,0.00528075452549856,-0.00231793243567399,0.00275071068630667,0.000444767865468456,0.000144335016628552,0,0,0,0.00019051349963929,0.000253785873201675,-0.000349474510258144,0.000444767865468456,0.0100565753938461,-1.90243459797018e-06,0,0,0,0.000140788657435637,0.000276933733393688,-0.000170807504572369,0.000144335016628552,-1.90243459797018e-06,0.000142234109981863,0,0,0,-0.00194302759666585,1.46934702485689,-0.762930161379317,0.00719177736348494,0.056292374666575,0.000284223475991202,0,0,0,0,-0,-0,0,0,-0.00194302759666585,1.46934702485689,-0.762930161379317,0.00719177736348494,0.056292374666575,0.000284223475991202,6.28879394416659,6.28879394416659,6.04945675761549,6.04945675761549,5,5,5,5,-0.0252079034013732,0.454599355703635,-0.174493540324171,0.0036846905775576,0.00422424498279383,0.000208866970702104,6.28879394416659,6.28879394416659,6.04945675761549,6.04945675761549,5,5,5,5,-0.0271509309980391,1.92394638056053,-0.937423701703489,0.0108764679410425,0.0605166196493689,0.000493090446693306,0.336636642600868,0.00769036104794683,0.2,0.279202448126242,0.0396571860936979,0.200701946499565,0,0,0,0,0,0,-2.27988366770102,1.26169706272037,-0.0247572390954043,0.0574341944746256,-0.0319668250457511,-0.000701946499565231,-0.401165155758179,0.222918978364774,0.00227187054305594,0.401165155758179,-0.222918978364774,-0.00227187054305594,1,0,0,0,1,0,-0.0110242984216887,0.105744955641631,1,0.0110242984216887,-0.105744955641631,-1,-0.732311411899577,-0.128707798029755,3.67320510363811e-06,0.456839852501852,0.0802925724867275,3.66517812975634e-06,-0.00719042185401841,-0.0595890756666203,-0.997106900594209,-0.0399080893747535,0.220981807892307,0.0760112295566165,-0.0133946108438057,-0.00276085725020236,-0.996903648664543,-0.00149011611366947,-0.0588469401184915,-0.0186627545436578
13,0.24,1,pinocchio,integrator,C:\Users\A\Documents\MATLAB\HCDR_v6-codex\kortex_description\robots\gen3_lite_gen3_lite_2f_local.urdf,1,pinocchio,0,,6.51756650141417e-15,7.83831932693602e-09,493.724808221667,39.0668298391273,38.0828126436433,0.336636642600868,0.00769036104794683,0.285124963237541,0.28631429516578,0.0357159155221397,0.29195124302093,-0.050322347435088,0.0280255544741929,0.00682627978338912,0.177609328652526,0.0247172081083517,0.157844688413776,-0.0123836872328839,-0.0495345274813602,0.0310846546105064,-0.012592915703862,-0.0204092407218393,-0.0178486744248008,0.207591808395748,-0.195783978182874,-0.281952181401295,-0.0944110075172632,-0.139165788674002,0.0875223692745388,-0.0877877483925779,-0.0513482708621094,-0.101831795323151,-1.2830621173744,1.29493191259507,-0.814303705673446,-0.348310563766048,0.776636651975267,-0.484888032401507,-0.257596062563837,0.364510295946634,-0.173138733958867,0.181247939973491,0.0213195013097322,0.151879923303481,-0.0144112316087356,-0.0520071885940501,0.0326411467830366,-0.0144517090967391,-0.0212904020207028,-0.0199545658248474,0.18193056604826,-0.169885339930973,-0.298238255514764,-0.101377218792584,-0.123633055634497,0.0778246086265087,-0.0929396696438547,-0.0440580649431767,-0.105294570002328,2,0,0,0,0,0,0,0,0,0,2,0,0,0,0,0,0,0,0,0,2,0,0,0,0,0,0,0,0,0,0.019180274867493,-0.0209158461225503,-0.000784065373999522,0.00399032382405747,0.000175854000871573,0.000140973995609106,0,0,0,-0.0209158461225503,0.432817233557366,-0.152477900527517,0.00524436653157263,0.000253689151043128,0.000276738950138808,0,0,0,-0.000784065373999522,-0.152477900527517,0.0864535009527479,-0.0023068663479892,-0.000359905758325715,-0.000170633630041287,0,0,0,0.00399032382405747,0.00524436653157263,-0.0023068663479892,0.0027504219442826,0.000444895856538761,0.000144458915334762,0,0,0,0.000175854000871573,0.000253689151043128,-0.000359905758325715,0.000444895856538761,0.0100565716920349,-2.06681742467283e-06,0,0,0,0.000140973995609106,0.000276738950138808,-0.000170633630041287,0.000144458915334762,-2.06681742467283e-06,0.000142234109981863,0,0,0,-0.00190832924164664,1.50113207993653,-0.773595658612352,0.0076104807693698,0.0561025448479278,0.000299997994133483,0,0,0,0,-0,-0,0,0,-0.00190832924164664,1.50113207993653,-0.773595658612352,0.0076104807693698,0.0561025448479278,0.000299997994133483,6.27519177833336,6.27519177833336,5.81691866308094,5.81691866308094,5.00000003772785,5.00000003772785,5.00000000783832,5.00000000783832,-0.0235327203123106,0.416055276420167,-0.159574502260362,0.00323032703191473,0.00386176483065981,0.00018596942719995,6.27519177833336,6.27519177833336,5.81691866308094,5.81691866308094,5.00000003772785,5.00000003772785,5.00000000783832,5.00000000783832,-0.0254410495539572,1.9171873563567,-0.933170160872714,0.0108408078012845,0.0599643096785876,0.000485967421333433,0.336636642600868,0.00769036104794683,0.2,0.28631429516578,0.03571591552214,0.200764329784586,0,0,0,0,0,0,-2.07942590845891,1.14976374529215,-0.0225134238377475,0.050322347435088,-0.0280255544741932,-0.000764329784585988,-0.355583032598386,0.197615959635574,0.00269597773104256,0.355583032598386,-0.197615959635574,-0.00269597773104256,1,0,0,0,1,0,-0.0109987074137884,0.108704966513254,1,0.0109987074137884,-0.108704966513254,-1,-0.732308739374183,-0.12587756099114,3.67320510363811e-06,0.456694483027051,0.0785022816829497,3.66419411477106e-06,-0.00752392252127139,-0.0596428699386252,-0.996752033478309,-0.0393624680210317,0.221057584127505,0.0805291562632676,-0.0133897704026891,-0.00276074168787043,-0.996523752918388,-0.00108315399969286,-0.0552423262920652,-0.0151902530527873
14,0.26,1,pinocchio,integrator,C:\Users\A\Documents\MATLAB\HCDR_v6-codex\kortex_description\robots\gen3_lite_gen3_lite_2f_local.urdf,1,pinocchio,0,,8.61587573090281e-15,4.7878145892355e-11,493.738316386547,39.0726000305972,38.0939852459391,0.336636642600868,0.00769036104794683,0.285124963237541,0.292594546127453,0.0322352438627612,0.292395021029283,-0.0440420964734149,0.0245448828148143,0.00727005779174239,0.181247939973491,0.0213195013097322,0.151879923303481,-0.0144112316087356,-0.0520071885940501,0.0326411467830366,-0.0144517090967391,-0.0212904020207028,-0.0199545658248474,0.18193056604826,-0.169885339930973,-0.298238255514764,-0.101377218792584,-0.123633055634497,0.0778246086265087,-0.0929396696438547,-0.0440580649431767,-0.105294570002328,-1.15632115333533,1.16968565357496,-0.777293007060129,-0.329932941112151,0.702630931120399,-0.438558068676747,-0.244696111539634,0.32962282493619,-0.168900356509513,0.184424022833122,0.0183896687725427,0.145604240990362,-0.0165707491610321,-0.0541987973342919,0.0340222157280961,-0.0164083809342321,-0.0220397141895919,-0.0221280173674977,0.158804142981553,-0.146491626859474,-0.313784115655967,-0.107975877614827,-0.109580437012089,0.0690534472529737,-0.0978335918746474,-0.0374656084444529,-0.108672577132518,2,0,0,0,0,0,0,0,0,0,2,0,0,0,0,0,0,0,0,0,2,0,0,0,0,0,0,0,0,0,0.0195251635848261,-0.0209427819636159,-0.000773535262298437,0.00405830584880559,0.000162860750072795,0.000141158813472658,0,0,0,-0.0209427819636159,0.432754219798675,-0.152445884155519,0.00520559996302897,0.000254136157946964,0.000276559293113714,0,0,0,-0.000773535262298437,-0.152445884155519,0.0864524823457499,-0.00229397953577131,-0.000371035616551032,-0.000170476855132922,0,0,0,0.00405830584880559,0.00520559996302897,-0.00229397953577131,0.00275020567062144,0.000444976957685796,0.000144572815807111,0,0,0,0.000162860750072795,0.000254136157946964,-0.000371035616551032,0.000444976957685796,0.010056567409507,-2.2367810433373e-06,0,0,0,0.000141158813472658,0.000276559293113714,-0.000170476855132922,0.000144572815807111,-2.2367810433373e-06,0.000142234109981863,0,0,0,-0.00184904263142091,1.52941889943024,-0.783095376613342,0.00797687687433753,0.0559281846973497,0.00031408640579798,0,0,0,0,-0,-0,0,0,-0.00184904263142091,1.52941889943024,-0.783095376613342,0.00797687687433753,0.0559281846973497,0.00031408640579798,6.26168361345274,6.26168361345274,5.58924436811773,5.58924436811773,5.00000000004788,5.00000000004788,5.00000000066184,5.00000000066184,-0.0217810117219486,0.376595854630629,-0.144304592789496,0.00277398152738328,0.00349391928295972,0.000162373079639622,6.26168361345274,6.26168361345274,5.58924436811773,5.58924436811773,5.00000000004788,5.00000000004788,5.00000000066184,5.00000000066184,-0.0236300543533695,1.90601475406087,-0.927399969402838,0.0107508584017208,0.0594221039803094,0.000476459485437602,0.336636642600868,0.00769036104794683,0.2,0.292594546127453,0.0322352438627615,0.200815036205513,0,0,0,0,0,0,-1.87588937939795,1.0364835656418,-0.0197430506423596,0.0440420964734149,-0.0245448828148146,-0.000815036205512876,-0.314004951336972,0.174548592356163,0.0030880284954464,0.314004951336972,-0.174548592356163,-0.0030880284954464,1,0,0,0,1,0,-0.0109157425530293,0.111346606153962,1,0.0109157425530293,-0.111346606153962,-1,-0.732361014800104,-0.122919865367646,3.67320510363811e-06,0.456597018643405,0.0766359288503103,3.66327224925188e-06,-0.00783060298872596,-0.0596900484794875,-0.996419468402571,-0.0388082490338338,0.221135592299005,0.0845421137898684,-0.0133852725613481,-0.00276053242564216,-0.99616763695415,-0.000894697158231124,-0.0514998305194479,-0.0123423746269025
15,0.28,1,pinocchio,integrator,C:\Users\A\Documents\MATLAB\HCDR_v6-codex\kortex_description\robots\gen3_lite_gen3_lite_2f_local.urdf,1,pinocchio,0,,7.94885059554704e-15,2.24860130515481e-11,493.751305851056,39.0790410584416,38.107355352813,0.336636642600868,0.00769036104794683,0.285124963237541,0.298124565198314,0.0291698665438537,0.292797074005037,-0.0385120774025536,0.0214795054959069,0.00767211076749597,0.184424022833122,0.0183896687725427,0.145604240990362,-0.0165707491610321,-0.0541987973342919,0.0340222157280961,-0.0164083809342321,-0.0220397141895919,-0.0221280173674977,0.158804142981553,-0.146491626859474,-0.313784115655967,-0.107975877614827,-0.109580437012089,0.0690534472529737,-0.0978335918746474,-0.0374656084444529,-0.108672577132518,-1.03369137495268,1.0484605556313,-0.739662565517322,-0.311282411755183,0.630425373462571,-0.393388831374637,-0.232342242480252,0.295912682549464,-0.1648396979388,0.187186629142772,0.0158792204576058,0.139032693651035,-0.0188547796780307,-0.0561382359251486,0.0352459291406057,-0.0184579896687171,-0.0226706612854611,-0.0243674047893236,0.1381303154825,-0.125522415746848,-0.328577366966313,-0.114201525849931,-0.0969719295428376,0.061185670625481,-0.102480436724252,-0.0315473547934636,-0.111969371091294,2,0,0,0,0,0,0,0,0,0,2,0,0,0,0,0,0,0,0,0,2,0,0,0,0,0,0,0,0,0,0.0198378450907811,-0.0209731059354875,-0.000761130463359866,0.00411885179416184,0.000151371473274303,0.000141343966309416,0,0,0,-0.0209731059354875,0.432698310721449,-0.152417601969356,0.0051645794317387,0.000255079704832962,0.000276392338028115,0,0,0,-0.000761130463359866,-0.152417601969356,0.0864518274373809,-0.00227939882374947,-0.000382826296256912,-0.000170334911229217,0,0,0,0.00411885179416184,0.0051645794317387,-0.00227939882374947,0.00275004988884559,0.000445015372124737,0.000144677818767448,0,0,0,0.000151371473274303,0.000255079704832962,-0.000382826296256912,0.000445015372124737,0.0100565625047362,-2.41218694073063e-06,0,0,0,0.000141343966309416,0.000276392338028115,-0.000170334911229217,0.000144677818767448,-2.41218694073063e-06,0.000142234109981863,0,0,0,-0.00177154268697527,1.55454274081299,-0.791543156508324,0.0082941623064071,0.0557684370643857,0.000326635316206694,0,0,0,0,-0,-0,0,0,-0.00177154268697527,1.55454274081299,-0.791543156508324,0.0082941623064071,0.0557684370643857,0.000326635316206694,6.24869414894402,6.24869414894402,5.37373592284854,5.37373592284854,5.00000000193666,5.00000000193666,5.00000000002249,5.00000000002249,-0.0200332198027198,0.338101906374014,-0.129415785050043,0.00233933012288645,0.00313715517288671,0.000139480310593854,6.24869414894402,6.24869414894402,5.37373592284854,5.37373592284854,5.00000000193666,5.00000000193666,5.00000000002249,5.00000000002249,-0.021804762489695,1.892644647187,-0.920958941558366,0.0106334924292936,0.0589055922372724,0.000466115626800548,0.336636642600868,0.00769036104794683,0.2,0.298124565198314,0.029169866543854,0.200854473522775,0,0,0,0,0,0,-1.67865776788821,0.92697625948547,-0.0167328723803759,0.0385120774025536,-0.0214795054959072,-0.00085447352277479,-0.276493275407178,0.15374634045381,0.00343572399485516,0.276493275407178,-0.15374634045381,-0.00343572399485516,1,0,0,0,1,0,-0.0107801977713113,0.113700542365192,1,0.0107801977713113,-0.113700542365192,-1,-0.732463991446001,-0.119839387992282,3.67320510363811e-06,0.456543962746484,0.0746961969796852,3.66241766875259e-06,-0.00811345731317681,-0.0597312953740553,-0.996111049700242,-0.0382454354552889,0.221215606241361,0.0880984194427475,-0.013381140352716,-0.00276024005285483,-0.995837271001587,-0.000889618370288712,-0.0477462302591453,-0.0100330499193736
16,0.3,1,pinocchio,integrator,C:\Users\A\Documents\MATLAB\HCDR_v6-codex\kortex_description\robots\gen3_lite_gen3_lite_2f_local.urdf,1,pinocchio,0,,7.74837241727989e-15,3.58104657038893e-10,493.763554509538,39.0856158485646,38.1215007797049,0.336636642600868,0.00769036104794683,0.285124963237541,0.302983203715825,0.0264759701005845,0.293159886278187,-0.0336534388850434,0.0187856090526376,0.00803492304064668,0.187186629142772,0.0158792204576058,0.139032693651035,-0.0188547796780307,-0.0561382359251486,0.0352459291406057,-0.0184579896687171,-0.0226706612854611,-0.0243674047893236,0.1381303154825,-0.125522415746848,-0.328577366966313,-0.114201525849931,-0.0969719295428376,0.061185670625481,-0.102480436724252,-0.0315473547934636,-0.111969371091294,-0.918471508321686,0.934444953285289,-0.701508189937814,-0.2926047025615,0.562093429128985,-0.350668449308155,-0.220329118699163,0.264206579752321,-0.160561349045819,0.189581846849094,0.0137425501239829,0.132180543035734,-0.021255852076054,-0.0578528371443538,0.036329375173392,-0.0205957300506818,-0.0231959257494295,-0.0266710167507678,0.119760885316066,-0.106833516681142,-0.342607530765069,-0.120053619901161,-0.0857300609602579,0.0541723016393179,-0.106887019098236,-0.0262632231984172,-0.115180598072211,2,0,0,0,0,0,0,0,0,0,2,0,0,0,0,0,0,0,0,0,2,0,0,0,0,0,0,0,0,0,0.0201201798998782,-0.0210066052064334,-0.000746995796408555,0.00417273573996995,0.000141229070439589,0.000141530127460274,0,0,0,-0.0210066052064334,0.432648836040204,-0.15239270143618,0.00512142366047967,0.000256475067840334,0.000276235704370652,0,0,0,-0.000746995796408555,-0.15239270143618,0.0864515014474758,-0.0022632462860321,-0.000395241522814371,-0.000170205591272403,0,0,0,0.00417273573996995,0.00512142366047967,-0.0022632462860321,0.0027499446396108,0.000445015124522271,0.000144774975929191,0,0,0,0.000141229070439589,0.000256475067840334,-0.000395241522814371,0.000445015124522271,0.0100565569361206,-2.59290219226569e-06,0,0,0,0.000141530127460274,0.000276235704370652,-0.000170205591272403,0.000144774975929191,-2.59290219226569e-06,0.000142234109981863,0,0,0,-0.00168150173100354,1.57682919780828,-0.799049537928869,0.00856576987570088,0.0556224003881871,0.000337787380349364,0,0,0,0,-0,-0,0,0,-0.00168150173100354,1.57682919780828,-0.799049537928869,0.00856576987570088,0.0556224003881871,0.000337787380349364,6.23644549046182,6.23644549046182,5.17427501628262,5.17427501628262,5.0000000003581,5.0000000003581,5.0000000009813,5.0000000009813,-0.0183377719590467,0.301670022486782,-0.115334613506583,0.0019398433324298,0.00280081243398911,0.000118123118966196,6.23644549046182,6.23644549046182,5.17427501628262,5.17427501628262,5.0000000003581,5.0000000003581,5.0000000009813,5.0000000009813,-0.0200192736900503,1.87849922029507,-0.914384151435452,0.0105056132081307,0.0584232128221762,0.00045591049931556,0.336636642600868,0.00769036104794683,0.2,0.302983203715825,0.0264759701005848,0.200883469159502,0,0,0,0,0,0,-1.49311068140035,0.824150019057713,-0.013697813294154,0.0336534388850434,-0.0187856090526379,-0.000883469159502326,-0.242922728495234,0.135135546216075,0.00373245513280393,0.242922728495234,-0.135135546216075,-0.00373245513280393,1,0,0,0,1,0,-0.010596749642979,0.115796574573052,1,0.010596749642979,-0.115796574573052,-1,-0.732612772536545,-0.116640791094272,3.67320510363811e-06,0.456531298620888,0.0726857378989865,3.66163203140017e-06,-0.00837532445230573,-0.0597672629816255,-0.995827372224609,-0.0376739814075006,0.221297398075962,0.091245138372401,-0.0133773788899677,-0.00275987733060613,-0.995533294519775,-0.00103052522613161,-0.0440711081212834,-0.00817388046646532
17,0.32,1,pinocchio,integrator,C:\Users\A\Documents\MATLAB\HCDR_v6-codex\kortex_description\robots\gen3_lite_gen3_lite_2f_local.urdf,1,pinocchio,0,,6.36215291093555e-15,0,493.781411717641,39.0939435588766,38.1405440454794,0.336636642600868,0.00769036104794683,0.285124963237541,0.307244647689078,0.0241124008808235,0.293486315880571,-0.0293919949117897,0.0164220398328767,0.00836135264303084,0.189581846849094,0.0137425501239829,0.132180543035734,-0.021255852076054,-0.0578528371443538,0.036329375173392,-0.0205957300506818,-0.0231959257494295,-0.0266710167507678,0.119760885316066,-0.106833516681142,-0.342607530765069,-0.120053619901161,-0.0857300609602579,0.0541723016393179,-0.106887019098236,-0.0262632231984172,-0.115180598072211,-0.82218584286274,0.829102426193292,-0.662883663568567,-0.272716078142497,0.489298687729358,-0.305191589591968,-0.208736224769479,0.22953307859191,-0.157397940105689,0.19164819021827,0.0119375207608374,0.125063238955005,-0.0237660109053342,-0.0593717188884672,0.0372907445703416,-0.0228169649225543,-0.0236293769819611,-0.0290375878882543,0.103317168458811,-0.0902514681572763,-0.355865204036441,-0.125507941464011,-0.0759440872056707,0.0480684698474785,-0.111061743593625,-0.021672561626579,-0.118328556874325,2,0,0,0,0,0,0,0,0,0,2,0,0,0,0,0,0,0,0,0,2,0,0,0,0,0,0,0,0,0,0.0203743402066851,-0.0210430696680622,-0.000731268183517343,0.00422068815774757,0.000132285761143104,0.000141717807456831,0,0,0,-0.0210430696680622,0.432605144995203,-0.152370840388984,0.00507624707833706,0.0002582805222142,0.000276087115412755,0,0,0,-0.000731268183517343,-0.152370840388984,0.086451470801781,-0.00224563818914784,-0.000408246165354892,-0.000170086802265574,0,0,0,0.00422068815774757,0.00507624707833706,-0.00224563818914784,0.00274988171855882,0.000444979989044654,0.000144865263649379,0,0,0,0.000132285761143104,0.0002582805222142,-0.000408246165354892,0.000444979989044654,0.0100565506624687,-2.77878669506143e-06,0,0,0,0.000141717807456831,0.000276087115412755,-0.000170086802265574,0.000144865263649379,-2.77878669506143e-06,0.000142234109981863,0,0,0,-0.00158374275085382,1.59658551062268,-0.805718567018337,0.00879522701839006,0.0554891291781237,0.000347678804408037,0,0,0,0,-0,-0,0,0,-0.00158374275085382,1.59658551062268,-0.805718567018337,0.00879522701839006,0.0554891291781237,0.000347678804408037,6.21858828235859,6.21858828235859,5,5,5,5,5.00000000000011,5.00000000000011,-0.0165025322758794,0.262870443897874,-0.100337874105065,0.00152343760538542,0.00243075812862514,9.50855925481164e-05,6.21858828235859,6.21858828235859,5,5,5,5,5.00000000000011,5.00000000000011,-0.0180862750267332,1.85945595452056,-0.906056441123402,0.0103186646237755,0.0579198873067488,0.000442764396956154,0.336636642600868,0.00769036104794683,0.2,0.307244647689078,0.0241124008808238,0.200903098964594,0,0,0,0,0,0,-1.32200837089063,0.729472695891144,-0.0107888620303728,0.0293919949117897,-0.016422039832877,-0.000903098964594201,-0.21306039310348,0.118583833958942,0.00397605172145236,0.21306039310348,-0.118583833958942,-0.00397605172145236,1,0,0,0,1,0,-0.0103698507568409,0.117662800839985,1,0.0103698507568409,-0.117662800839985,-1,-0.732802097267567,-0.113328833089784,3.67320510363811e-06,0.456554737278722,0.0706072571570381,3.66091449500091e-06,-0.00861882423937163,-0.0597985571380361,-0.995568132890207,-0.0370938484078658,0.221380737277386,0.0940267485835696,-0.0133739805818722,-0.0027594578580718,-0.99525539106302,-0.00128193636742799,-0.0405358532193798,-0.00668331101698642
18,0.34,1,pinocchio,integrator,C:\Users\A\Documents\MATLAB\HCDR_v6-codex\kortex_description\robots\gen3_lite_gen3_lite_2f_local.urdf,1,pinocchio,0,,6.10955935095075e-15,6.21724893790088e-15,493.757549070082,39.1015419204818,38.1579647658552,0.336636642600868,0.00769036104794683,0.285124963237541,0.310977311607676,0.0220412381676924,0.293780122208205,-0.025659330993192,0.0143508771197456,0.00865515897066493,0.19164819021827,0.0119375207608374,0.125063238955005,-0.0237660109053342,-0.0593717188884672,0.0372907445703416,-0.0228169649225543,-0.0236293769819611,-0.0290375878882543,0.103317168458811,-0.0902514681572763,-0.355865204036441,-0.125507941464011,-0.0759440872056707,0.0480684698474785,-0.111061743593625,-0.021672561626579,-0.118328556874325,-0.734033520990863,0.733867401119342,-0.63484704875675,-0.257070111472688,0.423593651583089,-0.264160363884459,-0.200812581743459,0.199316230752767,-0.156837451294579,0.19342092017905,0.0104260383581396,0.117691996054774,-0.0263789977792035,-0.0607211631719474,0.0381464498217374,-0.0251185248271242,-0.0239831017221915,-0.0314668940062586,0.0886364980389938,-0.0755741201348894,-0.368562145011576,-0.130649343693465,-0.0674722141740089,0.0427852625697893,-0.115077995228494,-0.0176862370115237,-0.121465305900216,2,0,0,0,0,0,0,0,0,0,2,0,0,0,0,0,0,0,0,0,2,0,0,0,0,0,0,0,0,0,0.0206032042916371,-0.0210822756348217,-0.000714090674113843,0.00426348580240405,0.000124385671096075,0.000141907577075466,0,0,0,-0.0210822756348217,0.432566518927877,-0.152351640928404,0.00502916141189757,0.000260453200064159,0.000275944099686508,0,0,0,-0.000714090674113843,-0.152351640928404,0.0864516983602675,-0.00222669590931182,-0.000421805506135708,-0.000169976273767155,0,0,0,0.00426348580240405,0.00502916141189757,-0.00222669590931182,0.0027498537913769,0.000444914014547635,0.000144949750476918,0,0,0,0.000124385671096075,0.000260453200064159,-0.000421805506135708,0.000444914014547635,0.0100565436415734,-2.96973617673711e-06,0,0,0,0.000141907577075466,0.000275944099686508,-0.000169976273767155,0.000144949750476918,-2.96973617673711e-06,0.000142234109981863,0,0,0,-0.00148562747434439,1.61413919969231,-0.811659085400851,0.00898547283050369,0.0553673169167073,0.000356460683935429,0,0,0,0,-0,-0,0,0,-0.00148562747434439,1.61413919969231,-0.811659085400851,0.00898547283050369,0.0553673169167073,0.000356460683935429,6.24245092991809,6.24245092991809,5.00000000000059,5.00000000000059,5.00000000000001,5.00000000000001,5.16209323928686,5.16209323928686,-0.0148917776222532,0.227896034452534,-0.0867989941173519,0.00113625067373846,0.00210532858671542,7.33016809562059e-05,6.24245092991809,6.24245092991809,5.00000000000059,5.00000000000059,5.00000000000001,5.00000000000001,5.16209323928686,5.16209323928686,-0.0163774050965976,1.84203523414485,-0.898458079518203,0.0101217235042421,0.0574726455034228,0.000429762364891635,0.336636642600868,0.00769036104794683,0.2,0.310977311607676,0.0220412381676927,0.200914795056388,0,0,0,0,0,0,-1.16642650608656,0.643530518250981,-0.00811686800583439,0.025659330993192,-0.0143508771197459,-0.000914795056387779,-0.186617980270288,0.103930911511279,0.00416813188164718,0.186617980270288,-0.103930911511279,-0.00416813188164718,1,0,0,0,1,0,-0.0101037174068553,0.119329121389406,1,0.0101037174068553,-0.119329121389406,-1,-0.733025883289787,-0.109907944908462,3.67320510363811e-06,0.456609267566558,0.068463228958926,3.66026085442324e-06,-0.00884681724310901,-0.0598258157409903,-0.995331820590329,-0.0365047753745987,0.221465390398186,0.0964905383284553,-0.0133709208723673,-0.00275899670303171,-0.995001937868862,-0.00161501452878316,-0.0372758624900023,-0.0055180226335321
19,0.36,1,pinocchio,integrator,C:\Users\A\Documents\MATLAB\HCDR_v6-codex\kortex_description\robots\gen3_lite_gen3_lite_2f_local.urdf,1,pinocchio,0,,5.5400171399673e-15,0,493.728866639396,39.1066988359459,38.1694263412353,0.336636642600868,0.00769036104794683,0.285124963237541,0.314243408491804,0.0202280474357928,0.294044984368381,-0.0223932341090645,0.012537686387846,0.00892002113084023,0.19342092017905,0.0104260383581396,0.117691996054774,-0.0263789977792035,-0.0607211631719474,0.0381464498217374,-0.0251185248271242,-0.0239831017221915,-0.0314668940062586,0.0886364980389938,-0.0755741201348894,-0.368562145011576,-0.130649343693465,-0.0674722141740089,0.0427852625697893,-0.115077995228494,-0.0176862370115237,-0.121465305900216,-0.645865357749263,0.648259125879239,-0.604328772679498,-0.242296264551947,0.372727925239728,-0.232400948465187,-0.191866581858434,0.176827757543918,-0.153285366162879,0.19493530399673,0.00917385960579354,0.11007902164547,-0.0290889031588935,-0.0619215162853317,0.0389091946937471,-0.0274968313644375,-0.0242660953594044,-0.0339575142707281,0.0757191908840086,-0.0626089376173046,-0.380648720465166,-0.135495268984504,-0.0600176556692144,0.0381372436004856,-0.118915326865663,-0.0141496818606453,-0.124531013223474,2,0,0,0,0,0,0,0,0,0,2,0,0,0,0,0,0,0,0,0,2,0,0,0,0,0,0,0,0,0,0.0208096055704486,-0.0211240397407853,-0.000695579921760431,0.0043018296310295,0.00011738860572367,0.000142099940941688,0,0,0,-0.0211240397407853,0.432532302258944,-0.152334759067447,0.0049802448174017,0.00026295672283571,0.000275804398432466,0,0,0,-0.000695579921760431,-0.152334759067447,0.0864521517284964,-0.00220651668719746,-0.00043589463962517,-0.000169871966215576,0,0,0,0.0043018296310295,0.0049802448174017,-0.00220651668719746,0.00274985507676773,0.000444820647104622,0.000145029382035435,0,0,0,0.00011738860572367,0.00026295672283571,-0.00043589463962517,0.000444820647104622,0.0100565358277749,-3.16573019514888e-06,0,0,0,0.000142099940941688,0.000275804398432466,-0.000169871966215576,0.000145029382035435,-3.16573019514888e-06,0.000142234109981863,0,0,0,-0.00139111192594565,1.62978709401217,-0.816971037152621,0.00914005338580436,0.0552557996851041,0.000364268840942253,0,0,0,0,-0,-0,0,0,-0.00139111192594565,1.62978709401217,-0.816971037152621,0.00914005338580436,0.0552557996851041,0.000364268840942253,6.27113336060366,6.27113336060366,5.00000000000001,5.00000000000001,5,5,5.31393725172142,5.31393725172142,-0.013580357392847,0.200786564752562,-0.0763301269014462,0.000855576099972666,0.00186428454284027,5.76596339811886e-05,6.27113336060366,6.27113336060366,5.00000000000001,5.00000000000001,5,5,5.31393725172142,5.31393725172142,-0.0149714693187927,1.83057365876473,-0.893301164054067,0.00999562948577703,0.0571200842279444,0.000421928474923442,0.336636642600868,0.00769036104794683,0.2,0.314243408491804,0.0202280474357931,0.20091999172336,0,0,0,0,0,0,-1.02639025555857,0.566287864656212,-0.00575963710938654,0.0223932341090645,-0.0125376863878463,-0.000919991723360436,-0.163285683323251,0.091002825172042,0.00431197676133285,0.163285683323251,-0.091002825172042,-0.00431197676133285,1,0,0,0,1,0,-0.00980200907765348,0.120822488312754,1,0.00980200907765348,-0.120822488312754,-1,-0.733278436119141,-0.106380756634946,3.67320510363811e-06,0.456690184275344,0.0662550261470323,3.65966593744991e-06,-0.00906182295682187,-0.0598495937083594,-0.995116577370721,-0.0359063008271263,0.221551172354198,0.098679140891448,-0.0133681706896562,-0.00275850800671224,-0.994770950043875,-0.002002829666142,-0.0343267127542761,-0.00460650705135173
20,0.38,1,pinocchio,integrator,C:\Users\A\Documents\MATLAB\HCDR_v6-codex\kortex_description\robots\gen3_lite_gen3_lite_2f_local.urdf,1,pinocchio,0,,7.52403353829235e-15,2.02645900060361e-10,493.703472465574,39.1112886830054,38.1797213576334,0.336636642600868,0.00769036104794683,0.285124963237541,0.317098939265124,0.0186418906771398,0.294283778655241,-0.0195377033357436,0.010951529629193,0.00915881541770069,0.19493530399673,0.00917385960579354,0.11007902164547,-0.0290889031588935,-0.0619215162853317,0.0389091946937471,-0.0274968313644375,-0.0242660953594044,-0.0339575142707281,0.0757191908840086,-0.0626089376173046,-0.380648720465166,-0.135495268984504,-0.0600176556692144,0.0381372436004856,-0.118915326865663,-0.0141496818606453,-0.124531013223474,-0.566959309211519,0.571562977992452,-0.570987353460295,-0.226957527555863,0.327254803693314,-0.204017312119047,-0.181956244688551,0.15660006702796,-0.148165275234746,0.196222904090726,0.00815030604464443,0.102237652294783,-0.031889591549606,-0.0629909674772386,0.0395903326409092,-0.0299479203996262,-0.0244864489698062,-0.0365074006452915,0.0643800046997782,-0.0511776780574556,-0.392068467534372,-0.140034419535621,-0.0534725595953481,0.0340568973581047,-0.122554451759434,-0.0110176805200861,-0.127494318728169,2,0,0,0,0,0,0,0,0,0,2,0,0,0,0,0,0,0,0,0,2,0,0,0,0,0,0,0,0,0,0.0209957707609698,-0.0211681972157079,-0.000675833987063242,0.00433626044181327,0.000111185846495896,0.000142295105624884,0,0,0,-0.0211681972157079,0.432501987772087,-0.152319928543948,0.00492958078094293,0.000265761296716777,0.000275666234937697,0,0,0,-0.000675833987063242,-0.152319928543948,0.0864528055984488,-0.00218518432172895,-0.00045048747150309,-0.000169772304426404,0,0,0,0.00433626044181327,0.00492958078094293,-0.00218518432172895,0.00274988134747578,0.000444702545015366,0.000145104833916196,0,0,0,0.000111185846495896,0.000265761296716777,-0.00045048747150309,0.000444702545015366,0.0100565271787592,-3.3666515755481e-06,0,0,0,0.000142295105624884,0.000275666234937697,-0.000169772304426404,0.000145104833916196,-3.3666515755481e-06,0.000142234109981863,0,0,0,-0.00129892232895679,1.64375629908818,-0.821731621192835,0.00926331570299786,0.0551536135821576,0.000371208219250561,0,0,0,0,-0,-0,0,0,-0.00129892232895679,1.64375629908818,-0.821731621192835,0.00926331570299786,0.0551536135821576,0.000371208219250561,6.29652753442602,6.29652753442602,5.00000000040948,5.00000000040948,5.00000000020265,5.00000000020265,5.44907116510462,5.44907116510462,-0.012347341760389,0.176522343278435,-0.0669796958017201,0.000622680341230364,0.00164807968527469,4.4550538881083e-05,6.29652753442602,6.29652753442602,5.00000000040948,5.00000000040948,5.00000000020265,5.00000000020265,5.44907116510462,5.44907116510462,-0.0136462640893458,1.82027864236662,-0.888711316994555,0.00988599604422822,0.0568016932674323,0.000415758758131644,0.336636642600868,0.00769036104794683,0.2,0.317098939265124,0.0186418906771401,0.200919844413482,0,0,0,0,0,0,-0.901292084881797,0.497323949559666,-0.00373761158912495,0.0195377033357436,-0.0109515296291933,-0.000919844413481613,-0.142753120922808,0.0796238456239496,0.00441234148795182,0.142753120922808,-0.0796238456239496,-0.00441234148795182,1,0,0,0,1,0,-0.00946803107134657,0.122163635268394,1,0.00946803107134657,-0.122163635268394,-1,-0.733554727584232,-0.102751047459915,3.67320510363811e-06,0.456793458689998,0.0639847866499519,3.65912552718181e-06,-0.00926563089526667,-0.0598703062930312,-0.994920889255765,-0.0352983633304125,0.221637881833782,0.100625546538167,-0.0133657062457834,-0.00275800307468699,-0.994560827975379,-0.00242251609576879,-0.0315980758487311,-0.00387326016736491
21,0.4,1,pinocchio,integrator,C:\Users\A\Documents\MATLAB\HCDR_v6-codex\kortex_description\robots\gen3_lite_gen3_lite_2f_local.urdf,1,pinocchio,0,,5.29170603063915e-15,2.00293115426575e-10,493.681168291305,39.1153151761074,38.1888273477002,0.336636642600868,0.00769036104794683,0.285124963237541,0.319593933612745,0.0172551419477966,0.294499222712247,-0.0170427089881225,0.00956478089984977,0.0093742594747066,0.196222904090726,0.00815030604464443,0.102237652294783,-0.031889591549606,-0.0629909674772386,0.0395903326409092,-0.0299479203996262,-0.0244864489698062,-0.0365074006452915,0.0643800046997782,-0.0511776780574556,-0.392068467534372,-0.140034419535621,-0.0534725595953481,0.0340568973581047,-0.122554451759434,-0.0110176805200861,-0.127494318728169,-0.496733327600345,0.503173528697848,-0.535028739207851,-0.211118190464878,0.286834173071085,-0.178794180307465,-0.171110245954804,0.138463527156025,-0.141552497405588,0.197311810853681,0.00732802189497445,0.0941822714484124,-0.0347747272165043,-0.0639456849999172,0.0401999529159483,-0.0324674535331968,-0.0246514171693455,-0.0391139080188171,0.0544453381477713,-0.0411142074834986,-0.402769042318529,-0.144256783344918,-0.0477358761339264,0.0304810137519554,-0.12597665667853,-0.00824840997696562,-0.13032536867628,2,0,0,0,0,0,0,0,0,0,2,0,0,0,0,0,0,0,0,0,2,0,0,0,0,0,0,0,0,0,0.0211638079796924,-0.0212145828498766,-0.000654947705239863,0.00436726035966884,0.000105680439823645,0.000142493180531868,0,0,0,-0.0212145828498766,0.432475116471576,-0.152306908092849,0.00487726006508469,0.000268839164555543,0.000275527992076246,0,0,0,-0.000654947705239863,-0.152306908092849,0.0864536364356036,-0.00216278129742241,-0.000465555869173413,-0.000169675861549848,0,0,0,0.00436726035966884,0.00487726006508469,-0.00216278129742241,0.00274992910815457,0.000444562153272464,0.000145176694535928,0,0,0,0.000105680439823645,0.000268839164555543,-0.000465555869173413,0.000444562153272464,0.0100565176549641,-3.57233238328896e-06,0,0,0,0.000142493180531868,0.000275527992076246,-0.000169675861549848,0.000145176694535928,-3.57233238328896e-06,0.000142234109981863,0,0,0,-0.00121034130710064,1.65624996318826,-0.826008491743993,0.00935835018322193,0.0550598583553281,0.000377375364836041,0,0,0,0,-0,-0,0,0,-0.00121034130710064,1.65624996318826,-0.826008491743993,0.00935835018322193,0.0550598583553281,0.000377375364836041,6.31883170869524,6.31883170869524,5.00000000024123,5.00000000024123,5.00000000020029,5.00000000020029,5.56874064709642,5.56874064709642,-0.0111888517081198,0.154922689111558,-0.0586763321485861,0.000434113936506719,0.00145493731483981,3.38155467858314e-05,6.31883170869524,6.31883170869524,5.00000000024123,5.00000000024123,5.00000000020029,5.00000000020029,5.56874064709642,5.56874064709642,-0.0123991930152204,1.81117265229982,-0.884684823892579,0.00979246411972865,0.056514795670168,0.000411190911621872,0.336636642600868,0.00769036104794683,0.2,0.319593933612746,0.0172551419477969,0.20091540807292,0,0,0,0,0,0,-0.790166942484985,0.436088289050972,-0.00203740997657076,0.0170427089881225,-0.00956478089985005,-0.000915408072920287,-0.124721892064862,0.0696283189517988,0.0044751698657729,0.124721892064862,-0.0696283189517988,-0.0044751698657729,1,0,0,0,1,0,-0.00910483590315246,0.12337102952202,1,0.00910483590315246,-0.12337102952202,-1,-0.733849833309197,-0.0990233277817899,3.67320510363811e-06,0.456915193943443,0.0616551220464773,3.65863515075319e-06,-0.00945979845220811,-0.0598883194978868,-0.994743150644682,-0.0346810570295061,0.22172530317839,0.102359221931421,-0.0133635028319382,-0.00275749160333999,-0.994369874268748,-0.00285782266691336,-0.0290848980927657,-0.00328142657096414
22,0.42,1,pinocchio,integrator,C:\Users\A\Documents\MATLAB\HCDR_v6-codex\kortex_description\robots\gen3_lite_gen3_lite_2f_local.urdf,1,pinocchio,0,,6.67082407713455e-15,1.97696969905792e-10,493.661722825596,39.1188045014986,38.1967821569205,0.336636642600868,0.00769036104794683,0.285124963237541,0.321772835278306,0.0160432678193223,0.294693842882509,-0.014863807322562,0.00835290677137548,0.00956887964496889,0.197311810853681,0.00732802189497445,0.0941822714484124,-0.0347747272165043,-0.0639456849999172,0.0401999529159483,-0.0324674535331968,-0.0246514171693455,-0.0391139080188171,0.0544453381477713,-0.0411142074834986,-0.402769042318529,-0.144256783344918,-0.0477358761339264,0.0304810137519554,-0.12597665667853,-0.00824840997696562,-0.13032536867628,-0.434499930070575,0.442390624895819,-0.496669904548781,-0.194835346274372,0.251054548582768,-0.156472420834517,-0.159377153183207,0.122228227629083,-0.13354679342857,0.198226917644608,0.00668269399526281,0.0859282226402223,-0.0377377970219124,-0.0647999807031626,0.0407469842226536,-0.0350507375280407,-0.0247674940778332,-0.0417738341097141,0.0457553395463598,-0.0322663949855822,-0.412702440409504,-0.148153490270406,-0.042714785162271,0.027351565335265,-0.129164199742194,-0.00580384542438396,-0.132996304544852,2,0,0,0,0,0,0,0,0,0,2,0,0,0,0,0,0,0,0,0,2,0,0,0,0,0,0,0,0,0,0.0213156796456189,-0.0212630312111911,-0.000633013161454163,0.00439525669975311,0.000100786375281454,0.000142694191372547,0,0,0,-0.0212630312111911,0.432451275914157,-0.152295480581833,0.00482338063457108,0.000272164387030784,0.000275388212516432,0,0,0,-0.000633013161454163,-0.152295480581833,0.0864546224183251,-0.00213938908047018,-0.000481069709611211,-0.000169581354948295,0,0,0,0.00439525669975311,0.00482338063457108,-0.00213938908047018,0.00274999544993365,0.000444401722940955,0.000145245472014943,0,0,0,0.000100786375281454,0.000272164387030784,-0.000481069709611211,0.000444401722940955,0.0100565072204,-3.78255638254055e-06,0,0,0,0.000142694191372547,0.000275388212516432,-0.000169581354948295,0.000145245472014943,-3.78255638254055e-06,0.000142234109981863,0,0,0,-0.00112625606235407,1.66744839835954,-0.829861411138509,0.00942801144702172,0.0549736841520397,0.000382857101827385,0,0,0,0,-0,-0,0,0,-0.00112625606235407,1.66744839835954,-0.829861411138509,0.00942801144702172,0.0549736841520397,0.000382857101827385,6.33827717440363,6.33827717440363,5.0000000001977,5.0000000001977,5.00000000023262,5.00000000023262,5.67430230724436,5.67430230724436,-0.0100994203372551,0.135769444720005,-0.0513340873628891,0.000285970597147411,0.00128283222154124,2.52643420211029e-05,6.33827717440363,6.33827717440363,5.0000000001977,5.0000000001977,5.00000000023262,5.00000000023262,5.67430230724436,5.67430230724436,-0.0112256763996092,1.80321784307955,-0.881195498501398,0.00971398204416913,0.056256516373581,0.000408121443848488,0.336636642600868,0.00769036104794683,0.2,0.321772835278306,0.0160432678193226,0.200907621359896,0,0,0,0,0,0,-0.69187586740359,0.381940088699128,-0.000636281643513481,0.014863807322562,-0.00835290677137578,-0.0009076213598955,-0.108912829982989,0.0608615382918353,0.00450629271730182,0.108912829982989,-0.0608615382918353,-0.00450629271730182,1,0,0,0,1,0,-0.00871524592434816,0.124461024424625,1,0.00871524592434816,-0.124461024424625,-1,-0.734158994262011,-0.0952028056418648,3.67320510363811e-06,0.457051667328117,0.0592690969007841,3.658190298817e-06,-0.00964567058037818,-0.0599039544827517,-0.994581743051641,-0.0340546275077824,0.221813209228553,0.103906339264332,-0.0133615359095003,-0.00275698168771635,-0.994196377213184,-0.00329561190642753,-0.0267790948796085,-0.00280169406011219
23,0.44,1,pinocchio,integrator,C:\Users\A\Documents\MATLAB\HCDR_v6-codex\kortex_description\robots\gen3_lite_gen3_lite_2f_local.urdf,1,pinocchio,0,,7.91867980637229e-15,1.91476168254212e-10,493.64489323003,39.1217954970658,38.203658691482,0.336636642600868,0.00769036104794683,0.285124963237541,0.323674957033216,0.0149845715020796,0.29486995943985,-0.0129616855676525,0.00729421045413279,0.00974499620230951,0.198226917644608,0.00668269399526281,0.0859282226402223,-0.0377377970219124,-0.0647999807031626,0.0407469842226536,-0.0350507375280407,-0.0247674940778332,-0.0417738341097141,0.0457553395463598,-0.0322663949855822,-0.412702440409504,-0.148153490270406,-0.042714785162271,0.027351565335265,-0.129164199742194,-0.00580384542438396,-0.132996304544852,-0.379536465984153,0.388486042388079,-0.456130913066431,-0.178160902942036,0.219477285715222,-0.136776519934493,-0.146818431048924,0.107700567107844,-0.124261334759114,0.198990209849142,0.0061927605125064,0.0774917214668057,-0.0407721311884974,-0.0655664854921219,0.0412393049213851,-0.0376927488953041,-0.0248404907594777,-0.0444834647345148,0.0381646102266767,-0.0244966741378207,-0.421825058670833,-0.151716708329246,-0.0383252394479666,0.0246160349365751,-0.132100568363173,-0.00364983408222708,-0.135481531240034,2,0,0,0,0,0,0,0,0,0,2,0,0,0,0,0,0,0,0,0,2,0,0,0,0,0,0,0,0,0,0.0214531897644436,-0.02131337673785,-0.000610120137089774,0.00442062655442728,9.64276353408755e-05,0.000142898092044581,0,0,0,-0.02131337673785,0.432430097401883,-0.152285451561256,0.00476804740458166,0.000275712626187102,0.000275245596858085,0,0,0,-0.000610120137089774,-0.152285451561256,0.0864557433449044,-0.00211508838221493,-0.00049699697286145,-0.000169487640540339,0,0,0,0.00442062655442728,0.00476804740458166,-0.00211508838221493,0.00275007793153943,0.000444223331407562,0.000145311601677815,0,0,0,9.64276353408755e-05,0.000275712626187102,-0.00049699697286145,0.000444223331407562,0.0100564958434279,-3.99706228945687e-06,0,0,0,0.000142898092044581,0.000275245596858085,-0.000169487640540339,0.000145311601677815,-3.99706228945687e-06,0.000142234109981863,0,0,0,-0.00104723379863066,1.6775109851513,-0.833342957085495,0.00947492324727747,0.0548942980973424,0.000387731130897375,0,0,0,0,-0,-0,0,0,-0.00104723379863066,1.6775109851513,-0.833342957085495,0.00947492324727747,0.0548942980973424,0.000387731130897375,6.35510676996983,6.35510676996983,5.00000000019148,5.00000000019148,5.00000000026601,5.00000000026601,5.76712530162129,5.76712530162129,-0.00907287247779465,0.118830323366737,-0.0448615458487041,0.000174214076253065,0.00112967735381631,1.86941254440853e-05,6.35510676996983,6.35510676996983,5.00000000019148,5.00000000019148,5.00000000026601,5.00000000026601,5.76712530162129,5.76712530162129,-0.0101201062764253,1.79634130851804,-0.878204502934199,0.00964913732353054,0.0560239754511587,0.00040642525634146,0.336636642600868,0.00769036104794683,0.2,0.323674957033216,0.0149845715020799,0.200897301162904,0,0,0,0,0,0,-0.605221243125759,0.334210370359131,0.000494134329599993,0.0129616855676524,-0.00729421045413309,-0.000897301162904041,-0.0950694899945501,0.053181570788622,0.0045112125310002,0.0950694899945501,-0.053181570788622,-0.0045112125310002,1,0,0,0,1,0,-0.00830187750681711,0.125448039388607,1,0.00830187750681711,-0.125448039388607,-1,-0.734477661118052,-0.0912953437448821,3.67320510363811e-06,0.457199357960852,0.0568302014612929,3.65778657346589e-06,-0.00982440059485048,-0.0599174921917877,-0.994435088144628,-0.0334194642158447,0.22190136427123,0.105290050115025,-0.0133597818281617,-0.00275647989615021,-0.994038666971578,-0.00372542036875732,-0.0246706012451314,-0.00241092149657729
24,0.46,1,pinocchio,integrator,C:\Users\A\Documents\MATLAB\HCDR_v6-codex\kortex_description\robots\gen3_lite_gen3_lite_2f_local.urdf,1,pinocchio,0,,5.41840812233329e-15,2.40519604233214e-10,493.630438829707,39.1243331969573,38.2095482352632,0.336636642600868,0.00769036104794683,0.285124963237541,0.325334959211654,0.0140599255426679,0.295029684120855,-0.0113016833892137,0.00636956449472104,0.00990472088331484,0.198990209849142,0.0061927605125064,0.0774917214668057,-0.0407721311884974,-0.0655664854921219,0.0412393049213851,-0.0376927488953041,-0.0248404907594777,-0.0444834647345148,0.0381646102266767,-0.0244966741378207,-0.421825058670833,-0.151716708329246,-0.0383252394479666,0.0246160349365751,-0.132100568363173,-0.00364983408222708,-0.135481531240034,-0.331128614677457,0.34074453788533,-0.413630114154766,-0.161143083271757,0.191664385797359,-0.119431824874041,-0.133503338237821,0.0946932029960087,-0.113815194940971,0.199621050607804,0.00583912484490411,0.0688897682477271,-0.043870922588391,-0.0662563245267623,0.041683852890167,-0.0403881615978627,-0.0248756101599238,-0.0472386214372919,0.0315420379331276,-0.0176817833801141,-0.430097660953928,-0.154939569994682,-0.0344919517320194,0.0222273984390943,-0.134770635127929,-0.00175597002230691,-0.137757835138854,2,0,0,0,0,0,0,0,0,0,2,0,0,0,0,0,0,0,0,0,2,0,0,0,0,0,0,0,0,0,0.0215779811374203,-0.0213654537649851,-0.000586356506349144,0.00444370163633631,9.25372061339699e-05,0.000143104774994132,0,0,0,-0.0213654537649851,0.432411252568501,-0.15227664750345,0.00471137186624877,0.000279460942238566,0.000275099000689828,0,0,0,-0.000586356506349144,-0.15227664750345,0.0864569805257882,-0.00208995937915368,-0.000513303866745218,-0.000169393706536573,0,0,0,0.00444370163633631,0.00471137186624877,-0.00208995937915368,0.00275017448314798,0.00044402890211334,0.00014537545360964,0,0,0,9.25372061339699e-05,0.000279460942238566,-0.000513303866745218,0.00044402890211334,0.0100564834974868,-4.21554746333005e-06,0,0,0,0.000143104774994132,0.000275099000689828,-0.000169393706536573,0.00014537545360964,-4.21554746333005e-06,0.000142234109981863,0,0,0,-0.000973588735568581,1.68657818587565,-0.836499255010059,0.00950148881077777,0.054820967616423,0.000392066737511402,0,0,0,0,-0,-0,0,0,-0.000973588735568581,1.68657818587565,-0.836499255010059,0.00950148881077777,0.054820967616423,0.000392066737511402,6.36956117029269,6.36956117029269,5.00000000024052,5.00000000024052,5.00000000052562,5.00000000052562,5.84853154000727,5.84853154000727,-0.00810288321283537,0.103873578861155,-0.0391675480326157,9.48811838910046e-05,0.000993436882559706,1.39016408198245e-05,6.36956117029269,6.36956117029269,5.00000000024052,5.00000000024052,5.00000000052562,5.00000000052562,5.84853154000727,5.84853154000727,-0.00907647194840395,1.79045176473681,-0.875666803042675,0.00959636999466878,0.0558144044989827,0.000405968378331227,0.336636642600868,0.00769036104794683,0.2,0.325334959211654,0.0140599255426682,0.200885144320903,0,0,0,0,0,0,-0.529018302529897,0.292240282724115,0.00138489727745161,0.0113016833892136,-0.00636956449472133,-0.000885144320902698,-0.0829593320725626,0.0464598366098124,0.00449496646838607,0.0829593320725626,-0.0464598366098124,-0.00449496646838607,1,0,0,0,1,0,-0.00786716503016177,0.126344749362513,1,0.00786716503016177,-0.126344749362513,-1,-0.734801526050801,-0.0873074111142893,3.67320510363811e-06,0.4573549640551,0.0543423205431911,3.65741978273808e-06,-0.00999697070728608,-0.0599291779081,-0.994301681611171,-0.0327760908890697,0.221989526976334,0.106530775513454,-0.0133582182677082,-0.00275599138801609,-0.993895151435102,-0.00413901749590877,-0.0227481420750841,-0.00209092584080831
25,0.48,1,pinocchio,integrator,C:\Users\A\Documents\MATLAB\HCDR_v6-codex\kortex_description\robots\gen3_lite_gen3_lite_2f_local.urdf,1,pinocchio,0,,4.79868025545109e-15,2.59881893782676e-10,493.618129451033,39.1264646583222,38.2145495827122,0.336636642600868,0.00769036104794683,0.285124963237541,0.326783323197535,0.0132525084563504,0.29517492583447,-0.00985331940333284,0.00556214740840357,0.0100499625969297,0.199621050607804,0.00583912484490411,0.0688897682477271,-0.043870922588391,-0.0662563245267623,0.041683852890167,-0.0403881615978627,-0.0248756101599238,-0.0472386214372919,0.0315420379331276,-0.0176817833801141,-0.430097660953928,-0.154939569994682,-0.0344919517320194,0.0222273984390943,-0.134770635127929,-0.00175597002230691,-0.137757835138854,-0.288596046766624,0.298487937899961,-0.369381389813051,-0.14382753062141,0.167195320727372,-0.104174946547483,-0.119505288068172,0.0830306697472658,-0.102328367152954,0.20013645294776,0.00560488435246182,0.0601400624727233,-0.0470272450005332,-0.0668792854331118,0.0420867308803299,-0.0431313764156485,-0.0248775172924711,-0.0500347094869302,0.0257701169977951,-0.0117120246221149,-0.437485288750189,-0.15781612060711,-0.031148045317472,0.0201438995081447,-0.137160740889293,-9.53566273615913e-05,-0.139804402481913,2,0,0,0,0,0,0,0,0,0,2,0,0,0,0,0,0,0,0,0,2,0,0,0,0,0,0,0,0,0,0.0216915391963129,-0.0214190965234081,-0.000561808574930529,0.00446477308594525,8.90561044189802e-05,0.000143314080196936,0,0,0,-0.0214190965234081,0.432394449713384,-0.152268913913919,0.00465347163056327,0.000283387609059307,0.000274947431158992,0,0,0,-0.000561808574930529,-0.152268913913919,0.0864583166720478,-0.00206408188641821,-0.000529954971880883,-0.000169298667112384,0,0,0,0.00446477308594525,0.00465347163056327,-0.00206408188641821,0.00275028332918129,0.000443820222998292,0.000145437339931246,0,0,0,8.90561044189802e-05,0.000283387609059307,-0.000529954971880883,0.000443820222998292,0.0100564701617641,-4.43767179288578e-06,0,0,0,0.000143314080196936,0.000274947431158992,-0.000169298667112384,0.000145437339931246,-4.43767179288578e-06,0.000142234109981863,0,0,0,-0.000905439942992169,1.69477354638479,-0.839370695041595,0.00950990445734753,0.0547530211879431,0.000395925551661672,0,0,0,0,-0,-0,0,0,-0.000905439942992169,1.69477354638479,-0.839370695041595,0.00950990445734753,0.0547530211879431,0.000395925551661672,6.38187054896658,6.38187054896658,5.00000000025988,5.00000000025988,5.00000000029651,5.00000000029651,5.91976154763937,5.91976154763937,-0.00718332155425827,0.0906768709030601,-0.034164646636178,4.42019375412883e-05,0.000872191082400775,1.06905149834802e-05,6.38187054896658,6.38187054896658,5.00000000025988,5.00000000025988,5.00000000029651,5.00000000029651,5.91976154763937,5.91976154763937,-0.00808876149725044,1.78545041728785,-0.873535341677773,0.00955410639488882,0.0556252122703439,0.000406616066645153,0.336636642600868,0.00769036104794683,0.2,0.326783323197535,0.0132525084563507,0.200871734098198,0,0,0,0,0,0,-0.462137507344628,0.255403618101666,0.00206761797049759,0.00985331940333278,-0.00556214740840387,-0.000871734098198379,-0.0723734723838953,0.0405809179471027,0.00446205138951677,0.0723734723838953,-0.0405809179471027,-0.00446205138951677,1,0,0,0,1,0,-0.00741338361144659,0.127162272589731,1,0.00741338361144659,-0.127162272589731,-1,-0.735126545378396,-0.0832460320597864,3.67320510363811e-06,0.457515412922997,0.0518097004713874,3.65708599605688e-06,-0.0101642115034758,-0.0599392255666694,-0.99418011300802,-0.0321251549018629,0.222077453249175,0.107646494387741,-0.0133568244796177,-0.00275552005606157,-0.99376433722083,-0.00453000420745374,-0.0209998050449271,-0.00182745291101734
26,0.5,1,pinocchio,integrator,C:\Users\A\Documents\MATLAB\HCDR_v6-codex\kortex_description\robots\gen3_lite_gen3_lite_2f_local.urdf,1,pinocchio,0,,8.78220101880407e-15,1.87553084174397e-10,493.607750096009,39.1282363278979,38.2187621011505,0.336636642600868,0.00769036104794683,0.285124963237541,0.328046802898238,0.0125475543278119,0.295307401549854,-0.00858983970263039,0.00485719327986511,0.0101824383123135,0.20013645294776,0.00560488435246182,0.0601400624727233,-0.0470272450005332,-0.0668792854331118,0.0420867308803299,-0.0431313764156485,-0.0248775172924711,-0.0500347094869302,0.0257701169977951,-0.0117120246221149,-0.437485288750189,-0.15781612060711,-0.031148045317472,0.0201438995081447,-0.137160740889293,-9.53566273615913e-05,-0.139804402481913,-0.251306341705686,0.261088106708637,-0.323592717072773,-0.126258119145249,0.145676578069598,-0.0907596344363596,-0.10489931873189,0.0725522066541419,-0.0899185744458725,0.200551332751034,0.00547507910270297,0.0512609196108904,-0.0502340706603335,-0.0674439757082334,0.0424533050167182,-0.0459165509609272,-0.0248504035423566,-0.0528667649663468,0.0207439901636814,-0.00649026248794212,-0.443957143091645,-0.160341282990015,-0.02823451375608,0.0183287068194175,-0.13925872726393,0.00135568750572125,-0.14160277397083,2,0,0,0,0,0,0,0,0,0,2,0,0,0,0,0,0,0,0,0,2,0,0,0,0,0,0,0,0,0,0.0217952000611096,-0.0214741391349989,-0.000536561359580539,0.00448409606890439,8.5932453209717e-05,0.000143525802936971,0,0,0,-0.0214741391349989,0.432379430112809,-0.152262113432683,0.00459446992084478,0.000287471950474182,0.000274790043383836,0,0,0,-0.000536561359580539,-0.152262113432683,0.0864597357867893,-0.00203753548589881,-0.000546913399001297,-0.000169201756314761,0,0,0,0.00448409606890439,0.00459446992084478,-0.00203753548589881,0.00275040292661772,0.000443598963273421,0.000145497521606503,0,0,0,8.5932453209717e-05,0.000287471950474182,-0.000546913399001297,0.000443598963273421,0.0100564558218019,-4.66306161633342e-06,0,0,0,0.000143525802936971,0.000274790043383836,-0.000169201756314761,0.000145497521606503,-4.66306161633342e-06,0.000142234109981863,0,0,0,-0.000842760075956362,1.70220561364108,-0.841992610353338,0.00950217498020017,0.0546898471794885,0.000399362317527578,0,0,0,0,-0,-0,0,0,-0.000842760075956362,1.70220561364108,-0.841992610353338,0.00950217498020017,0.0546898471794885,0.000399362317527578,6.39224990399134,6.39224990399134,5.00000000217141,5.00000000217141,5.00000000018755,5.00000000018755,5.98195715885097,5.98195715885097,-0.00630845162868354,0.0790322852083776,-0.0297710617487823,1.86648569240333e-05,0.000764170048086044,8.87547012240475e-06,6.39224990399134,6.39224990399134,5.00000000217141,5.00000000217141,5.00000000018755,5.00000000018755,5.98195715885097,5.98195715885097,-0.0071512117046399,1.78123789884945,-0.87176367210212,0.0095208398371242,0.0554540172275745,0.000408237787649983,0.336636642600868,0.00769036104794683,0.2,0.328046802898238,0.0125475543278122,0.200857549550974,0,0,0,0,0,0,-0.403527750715363,0.223118970382215,0.00257295764743926,0.00858983970263039,-0.00485719327986541,-0.000857549550973752,-0.0631255860489201,0.0354419149184378,0.00441639563724072,0.0631255860489201,-0.0354419149184378,-0.00441639563724072,1,0,0,0,1,0,-0.00694266997535043,0.127910349950478,1,0.00694266997535043,-0.127910349950478,-1,-0.735448955561136,-0.0791187341910318,3.67320510363811e-06,0.457677865955494,0.0492369153080161,3.65678157169505e-06,-0.0103268199597071,-0.0599478217364911,-0.994069075578506,-0.0314674161815099,0.222164898950598,0.108653019679395,-0.0133555813871488,-0.00275506867942733,-0.993644840041119,-0.0048934637145788,-0.0194134718834206,-0.00160933641206493
27,0.52,1,pinocchio,integrator,C:\Users\A\Documents\MATLAB\HCDR_v6-codex\kortex_description\robots\gen3_lite_gen3_lite_2f_local.urdf,1,pinocchio,0,,8.13538247371201e-15,5.10889108795709e-11,493.599103168259,39.1296924402906,38.2222814317382,0.336636642600868,0.00769036104794683,0.285124963237541,0.329148844909728,0.0119321202642962,0.295428650215197,-0.00748779769113994,0.00424175921634941,0.0103036869776568,0.200551332751034,0.00547507910270297,0.0512609196108904,-0.0502340706603335,-0.0674439757082334,0.0424533050167182,-0.0459165509609272,-0.0248504035423566,-0.0528667649663468,0.0207439901636814,-0.00649026248794212,-0.443957143091645,-0.160341282990015,-0.02823451375608,0.0183287068194175,-0.13925872726393,0.00135568750572125,-0.14160277397083,-0.218681284905906,0.227972727783862,-0.276465551181631,-0.108477539712023,0.126746444646369,-0.078959695154778,-0.0897603837625416,0.0631128183140811,-0.0766993315600376,0.200878740040345,0.00543646294405768,0.0422711905285849,-0.0534842873360186,-0.0679579674054964,0.0427882952750447,-0.0487376296597108,-0.0247980446649166,-0.0557295001783874,0.0163703644655633,-0.00193080793226489,-0.449486454115277,-0.162510833784255,-0.0256995848631526,0.0167495129163219,-0.141053934939181,0.00261794387200287,-0.143136760602031,2,0,0,0,0,0,0,0,0,0,2,0,0,0,0,0,0,0,0,0,2,0,0,0,0,0,0,0,0,0,0.0218901610969416,-0.0215304156200975,-0.000510698811110968,0.00450189406579384,8.31206236759031e-05,0.000143739700563092,0,0,0,-0.0215304156200975,0.432365964452778,-0.152256123999749,0.00453449503539401,0.00029169419753136,0.00027462613686666,0,0,0,-0.000510698811110968,-0.152256123999749,0.0864612230633027,-0.00201039961226745,-0.000564140952802598,-0.000169102322340667,0,0,0,0.00450189406579384,0.00453449503539401,-0.00201039961226745,0.00275053191586622,0.000443366688374501,0.000145556214690903,0,0,0,8.31206236759031e-05,0.00029169419753136,-0.000564140952802598,0.000443366688374501,0.0100564404700346,-4.891313571554e-06,0,0,0,0.000143739700563092,0.00027462613686666,-0.000169102322340667,0.000145556214690903,-4.891313571554e-06,0.000142234109981863,0,0,0,-0.000785415587119415,1.70896972784217,-0.844395904601905,0.00948012973388026,0.0546308913273957,0.000402425644638308,0,0,0,0,-0,-0,0,0,-0.000785415587119415,1.70896972784217,-0.844395904601905,0.00948012973388026,0.0546308913273957,0.000402425644638308,6.40089683174101,6.40089683174101,5.00000000005109,5.00000000005109,5.00000000355877,5.00000000355877,6.03615504709036,6.03615504709036,-0.00547304032999563,0.068748840419623,-0.0259116551074854,1.50465287802604e-05,0.000667767576025824,8.2844777651303e-06,6.40089683174101,6.40089683174101,5.00000000005109,5.00000000005109,5.00000000355877,5.00000000355877,6.03615504709036,6.03615504709036,-0.00625845591711504,1.7777185682618,-0.870307559709391,0.00949517626266052,0.0552986589034215,0.000410710122403439,0.336636642600868,0.00769036104794683,0.2,0.329148844909728,0.0119321202642965,0.200842976416716,0,0,0,0,0,0,-0.352227122167277,0.19485520199878,0.00292964260485862,0.00748779769113989,-0.00424175921634971,-0.000842976416715796,-0.0550503445640633,0.0309515561816876,0.00436136421382191,0.0550503445640633,-0.0309515561816876,-0.00436136421382191,1,0,0,0,1,0,-0.00645704116159357,0.128597512158694,1,0.00645704116159357,-0.128597512158694,-1,-0.735765284326818,-0.0749334965716499,3.67320510363811e-06,0.457839720166863,0.046628833143275,3.65650316468538e-06,-0.0104853758313339,-0.0599551292332955,-0.993967369060498,-0.0308037360823327,0.222251622452631,0.109564256120007,-0.0133544715882543,-0.00275463907745373,-0.993535387651636,-0.00522567334895571,-0.0179771413423389,-0.00142782503602692
