LordTarzan10086/HCDR_ML/scripts/results/ik_20260310_145750/ik_coop_mode3.csv
step,mode_id,tip_x,tip_y,tip_z,target_x,target_y,target_z,tip_err,a2d_rank,sigma_min,tension_feasible,residual_x,residual_y,residual_z,q_1,q_2,q_3,q_4,q_5,q_6,q_7,q_8,q_9,qm_1,qm_2,qm_3,qm_4,qm_5,qm_6,L_1,Tfeas_1,L_2,Tfeas_2,L_3,Tfeas_3,L_4,Tfeas_4,L_5,Tfeas_5,L_6,Tfeas_6,L_7,Tfeas_7,L_8,Tfeas_8
1,3,0.0570355193772182,-0.00371489804936866,0.285124963237541,0.2,0.15,0.69,0.456060202161373,2,0,1,0,8.88178419700125e-16,0,0,0,0,0,0,0,0,0,0,0,0,0,0,0,0,1.20208152801713,5.00000000040405,1.20208152801713,5.00000000040405,1.20208152801713,5.00000000040405,1.20208152801713,5.00000000040405,1.20208152801713,5.00000000040405,1.20208152801713,5.00000000040405,1.20208152801713,5.00000000040405,1.20208152801713,5.00000000040405
2,3,0.0965235556582657,0.00138506670491156,0.293271778237645,0.2,0.15,0.69,0.436104408226553,3,0.000821454791247375,0,0,0,-0.0117206368553696,-0.015,0.015,0.00116391733549471,-0.00116391733549471,-0.045,0.045,0.00100860600944008,-0.045,0.00297833802093474,-0.00116391733549471,-0.045,0.045,0.00100860600944008,-0.045,0.00297833802093474,1.20227321423405,5,1.20227321423405,5,1.18086849408173,5.17644373954685,1.18086849408173,5.17644373954685,1.20226450132962,5.00003692590101,1.20226450132962,5.00003692590101,1.2232949000577,5,1.2232949000577,5
3,3,0.135184290368372,0.00922645226450107,0.305846232062601,0.2,0.15,0.69,0.414237112506341,3,0.00166431574056194,0,-1.77635683940025e-15,-8.88178419700125e-16,-0.0239605037963701,-0.03,0.03,0.00235931653708338,-0.00237153766910607,-0.09,0.09,-0.00130998943584739,-0.0799441626906485,0.00247735330775987,-0.00237153766910607,-0.09,0.09,-0.00130998943584739,-0.0799441626906485,0.00247735330775987,1.20284834354537,5,1.20284834354537,5,1.15965581954916,5.35272671175648,1.15965581954916,5.35272671175648,1.20281303711479,5.00015278063145,1.20281303711479,5.00015278063145,1.24450862592789,5.00000000000006,1.24450862592789,5.00000000000006
4,3,0.172658569034471,0.0209143493314956,0.322354003750774,0.2,0.15,0.69,0.390607523754779,3,0.00288504610277766,0,2.66453525910038e-15,-8.88178419700125e-16,-0.0419126508746249,-0.045,0.045,0.0040931329412374,-0.00413012689689947,-0.135,0.135,-0.00449422592697643,-0.100156294408582,0.00161169990734356,-0.00413012689689947,-0.135,0.135,-0.00449422592697643,-0.100156294408582,0.00161169990734356,1.2038129175229,5.00000000000063,1.2038129175229,5.00000000000063,1.13844402582605,5.52869184810382,1.13844402582605,5.52869184810382,1.20372111048753,5.000406458938,1.20372111048753,5.000406458938,1.2657232131431,5.00000000001617,1.2657232131431,5.00000000001617
5,3,0.208598614924057,0.0350023223169498,0.342730019338924,0.2,0.15,0.69,0.365916440624702,3,0.00444706672454507,0,2.39808173319034e-14,2.04281036531029e-14,-0.0651983270091388,-0.06,0.06,0.00631638563197017,-0.00639635748351523,-0.18,0.18,-0.0076962757402531,-0.11239543813645,0.00076932825497915,-0.00639635748351523,-0.18,0.18,-0.0076962757402531,-0.11239543813645,0.00076932825497915,1.20517192024589,5.0000000003161,1.20517192024589,5.0000000003161,1.11723374941851,5.70418727683993,1.11723374941851,5.70418727683993,1.20498322835121,5.00085637570831,1.20498322835121,5.00085637570831,1.28693927095149,5.00000000000118,1.28693927095149,5.00000000000118
6,3,0.239634534873544,0.0490228562991698,0.365246298636155,0.2,0.15,0.69,0.342391948582524,3,0.00619218971025302,0,8.88178419700125e-16,-2.66453525910038e-15,-0.0916296510880358,-0.075,0.0734109986942594,0.00880708048788283,-0.00895337438856358,-0.222487433242688,0.221619582815062,-0.0106296983819462,-0.120198197129316,2.07964295245399e-05,-0.00895337438856358,-0.222487433242688,0.221619582815062,-0.0106296983819462,-0.120198197129316,2.07964295245399e-05,1.2079448993643,5.00000000000003,1.2079448993643,5.00000000000003,1.09715141059783,5.87071714004353,1.09715141059783,5.87071714004353,1.20538127082578,5.01193304782469,1.20538127082578,5.01193304782469,1.30703239063957,5.0000000000011,1.30703239063957,5.0000000000011
7,3,0.260374641021265,0.0613133196275303,0.385773601483392,0.2,0.15,0.69,0.322589717920955,3,0.00797251117517438,0,-8.88178419700125e-16,0,-0.119098238761956,-0.09,0.084286269327806,0.011356133498382,-0.0115949017441855,-0.256782233329009,0.255068335159458,-0.0132381366206195,-0.125551910198756,-0.00063130072024129,-0.0115949017441855,-0.256782233329009,0.255068335159458,-0.0132381366206195,-0.125551910198756,-0.00063130072024129,1.21266238857385,5,1.21266238857385,5,1.07887547909806,6.02398448100294,1.07887547909806,6.02398448100294,1.20413274100576,5.04069433260198,1.20413274100576,5.04069433260198,1.32533521315348,5,1.32533521315348,5
8,3,0.274543392458018,0.0720903317825454,0.404741383554965,0.2,0.15,0.69,0.304957557730645,3,0.0096853912732176,0,8.88178419700125e-16,-2.66453525910038e-15,-0.14609923871219,-0.105,0.0932511999253589,0.0138180602694283,-0.0141760679169649,-0.285776111105557,0.283391703382846,-0.0155779544941608,-0.129635101274475,-0.00120895285584733,-0.0141760679169649,-0.285776111105557,0.283391703382846,-0.0155779544941608,-0.129635101274475,-0.00120895285584733,1.218840913157,5,1.218840913157,5,1.06197648339874,6.16809766269422,1.06197648339874,6.16809766269422,1.20165842169917,5.08398797798794,1.20165842169917,5.08398797798794,1.34229731532697,5,1.34229731532697,5
9,3,0.28402192379005,0.0815441131385772,0.422374132978085,0.2,0.15,0.69,0.288737764801552,3,0.0112889736914745,0,3.5527136788005e-14,-1.59872115546023e-14,-0.171996661380138,-0.12,0.100702464411262,0.0161332880218864,-0.0166363853022519,-0.310927696580418,0.308066015812456,-0.0176943881187583,-0.132943613283837,-0.00172716771275931,-0.0166363853022519,-0.310927696580418,0.308066015812456,-0.0176943881187583,-0.132943613283837,-0.00172716771275931,1.2261703731686,5.00000000000333,1.2261703731686,5.00000000000333,1.04618815670089,6.30578100089228,1.04618815670089,6.30578100089228,1.198225502584,5.13990938445483,1.198225502584,5.13990938445483,1.35820781909761,5.00000000010035,1.35820781909761,5.00000000010035
10,3,0.289938704748584,0.0898403654927583,0.438819717921128,0.2,0.15,0.69,0.273495313197721,3,0.0127680573065635,0,0,0,-0.196540094899863,-0.135,0.106923695426899,0.018279999709304,-0.0189524965138993,-0.333110165917982,0.329947657793544,-0.0196219277084795,-0.135729762956762,-0.0021963970476643,-0.0189524965138993,-0.333110165917982,0.329947657793544,-0.0196219277084795,-0.135729762956762,-0.0021963970476643,1.23442929405915,5.00000000000008,1.23442929405915,5.00000000000008,1.03132413684205,6.43907628824348,1.03132413684205,6.43907628824348,1.19402686766534,5.20715842537877,1.19402686766534,5.20715842537877,1.37327577984361,5.00000000000003,1.37327577984361,5.00000000000003
11,3,0.29304204621673,0.0971233254858134,0.454188882227118,0.2,0.15,0.69,0.258958777293165,3,0.0141202629441196,0,-8.88178419700125e-16,-2.66453525910038e-15,-0.219668523640235,-0.15,0.112129738490252,0.0202546296030218,-0.0211190664045648,-0.352902072707504,0.349588918422155,-0.0213871640882348,-0.138137307347134,-0.00262423837403761,-0.0211190664045648,-0.352902072707504,0.349588918422155,-0.0213871640882348,-0.138137307347134,-0.00262423837403761,1.24345109164107,5.00000000000006,1.24345109164107,5.00000000000006,1.01724606760758,6.56961751959004,1.01724606760758,6.56961751959004,1.1892105283765,5.28480719466222,1.1892105283765,5.28480719466222,1.38766088654317,5.00000000000003,1.38766088654317,5.00000000000003
12,3,0.293861917629736,0.103518656148563,0.468571136550671,0.2,0.15,0.69,0.24495166150861,3,0.0153495101941375,0,-1.77635683940025e-15,1.77635683940025e-15,-0.241417331628591,-0.165,0.11648892189168,0.0220626588578691,-0.0231397692702438,-0.370713794321509,0.36737213598246,-0.0230109919756285,-0.140254671541219,-0.00301642932602283,-0.0231397692702438,-0.370713794321509,0.36737213598246,-0.0230109919756285,-0.140254671541219,-0.00301642932602283,1.25310655292419,5,1.25310655292419,5,1.00384761352713,6.69877171040031,1.00384761352713,6.69877171040031,1.1838941462683,5.37218935275116,1.1838941462683,5.37218935275116,1.40148897654094,5.00000000000001,1.40148897654094,5.00000000000001
13,3,0.292791462453939,0.109135970767755,0.482042320668214,0.2,0.15,0.69,0.231357992692054,3,0.0164626866880275,0,-8.88178419700125e-16,-8.88178419700125e-16,-0.261870398684142,-0.18,0.120136116703848,0.0237139040920904,-0.0250226724224728,-0.386851098753806,0.383575864305485,-0.0245101374577295,-0.142139393654624,-0.00337744163719979,-0.0250226724224728,-0.386851098753806,0.383575864305485,-0.0245101374577295,-0.142139393654624,-0.00337744163719979,1.26329333649855,5,1.26329333649855,5,0.991045160927885,6.8277230929772,0.991045160927885,6.8277230929772,1.17817346463437,5.46883841621741,1.17817346463437,5.46883841621741,1.41486121432868,5,1.41486121432868,5
14,3,0.290132486267155,0.114070994812212,0.494668657941491,0.2,0.15,0.69,0.218103396775156,3,0.0174678734164278,0,0,8.88178419700125e-16,-0.281134244282826,-0.195,0.123181146980876,0.0252199957808903,-0.0267777601042396,-0.401550460201254,0.398411046633566,-0.0258982132604948,-0.143830587614001,-0.00371085166707512,-0.0267777601042396,-0.401550460201254,0.398411046633566,-0.0258982132604948,-0.143830587614001,-0.00371085166707512,1.27392912051069,5,1.27392912051069,5,0.978771892743296,6.95752876201535,0.978771892743296,6.95752876201535,1.17212772108794,5.5744499783394,1.17212772108794,5.5744499783394,1.42786007038632,5,1.42786007038632,5
15,3,0.286122832602015,0.11840741253301,0.50650913732821,0.2,0.15,0.69,0.205144170188411,3,0.0183733830512815,0,8.88178419700125e-16,-1.77635683940025e-15,-0.299323756411262,-0.21,0.125714550090725,0.0265930021851069,-0.0284155764641555,-0.415000178843394,0.412042348983627,-0.0271864604820796,-0.145355804248976,-0.00401958147046162,-0.0284155764641555,-0.415000178843394,0.412042348983627,-0.0271864604820796,-0.145355804248976,-0.00401958147046162,1.28494687779694,5,1.28494687779694,5,0.966973778644903,7.08915824481683,0.966973778644903,7.08915824481683,1.16582335930573,5.68885734000773,1.16582335930573,5.68885734000773,1.44055346838506,5,1.44055346838506,5
16,3,0.280953846696513,0.122218447177794,0.517617020109622,0.2,0.15,0.69,0.192460987548287,3,0.0191872429951258,0,4.88498130835069e-14,-5.50670620214078e-14,-0.316554312473564,-0.225,0.127811696987626,0.0278446815371428,-0.0299464823391351,-0.427353749432369,0.424601497737037,-0.0283842810616177,-0.146735038726402,-0.0043060615691368,-0.0299464823391351,-0.427353749432369,0.424601497737037,-0.0283842810616177,-0.146735038726402,-0.0043060615691368,1.29629149037339,5.00000000005086,1.29629149037339,5.00000000005086,0.955606742959612,7.22352336400405,0.955606742959612,7.22352336400405,1.15931669421148,5.81201547934867,1.15931669421148,5.81201547934867,1.45299779019172,5.00000000004597,1.45299779019172,5.00000000004597
17,3,0.274782044181252,0.125568217524743,0.528040853540784,0.2,0.15,0.69,0.180055633759799,3,0.0199169290866663,0,0,1.77635683940025e-15,-0.332937548259477,-0.24,0.12953583584282,0.0289860897588103,-0.0313802597169426,-0.438738715702948,0.436196015102937,-0.0294996279574148,-0.147983184263817,-0.00457234443537177,-0.0313802597169426,-0.438738715702948,0.436196015102937,-0.0294996279574148,-0.147983184263817,-0.00457234443537177,1.30791725373973,5,1.30791725373973,5,0.944634599185954,7.36150199347704,0.944634599185954,7.36150199347704,1.15265589125696,5.94399067514989,1.15265589125696,5.94399067514989,1.46524012376819,5,1.46524012376819,5
18,3,0.267737207018401,0.128512906224649,0.537825189439671,0.2,0.15,0.69,0.167949984765217,3,0.0205692430476193,0,-8.88178419700125e-16,-1.77635683940025e-15,-0.348579257466748,-0.255,0.130940397170194,0.0300273931990823,-0.0327259170996821,-0.449262756436185,0.446915161851582,-0.0305392964974921,-0.149111593635016,-0.00482018583018437,-0.0327259170996821,-0.449262756436185,0.446915161851582,-0.0305392964974921,-0.149111593635016,-0.00482018583018437,1.31978599612924,5,1.31978599612924,5,0.934027505048262,7.50395791993104,0.934027505048262,7.50395791993104,1.1458824746028,6.0849542765709,1.1458824746028,6.0849542765709,1.47731998598611,5,1.47731998598611,5
19,3,0.259928178563271,0.131101769091212,0.547011116954583,0.2,0.15,0.69,0.156186908516588,3,0.0211502728194338,0,0,0,-0.36357855376308,-0.27,0.132070774829489,0.0309778004515539,-0.033991611980744,-0.459018000307368,0.456834110157585,-0.03150914565755,-0.150129105444234,-0.00505110451694681,-0.033991611980744,-0.459018000307368,0.456834110157585,-0.03150914565755,-0.150129105444234,-0.00505110451694681,1.33186563582515,5,1.33186563582515,5,0.923760782820703,7.65175826715163,0.923760782820703,7.65175826715163,1.1390324998288,6.23517974591063,1.1390324998288,6.23517974591063,1.48927066837451,5,1.48927066837451,5
20,3,0.252662962998578,0.1333780092875,0.555636673006164,0.2,0.15,0.69,0.145269342560254,3,0.021671781416804,0,0,-8.88178419700125e-16,-0.377670478901794,-0.283784158753369,0.132965724746551,0.0318455629301109,-0.0351846413640424,-0.468084166581724,0.466016953321517,-0.0324142686967649,-0.151042737342087,-0.00526642702815767,-0.0351846413640424,-0.468084166581724,0.466016953321517,-0.0324142686967649,-0.151042737342087,-0.00526642702815767,1.34309815164487,5.00000000000185,1.34309815164487,5.00000000000185,0.914559993563334,7.79327729660628,0.914559993563334,7.79327729660628,1.13274995166028,6.38127285291618,1.13274995166028,6.38127285291618,1.50020502469218,5.0000000000008,1.50020502469218,5.0000000000008
21,3,0.246279090721992,0.135379538096838,0.56373714708476,0.2,0.15,0.69,0.135269435463492,3,0.0221422056908265,0,0,0,-0.390793700551875,-0.296091805694589,0.133659295349524,0.032638506567223,-0.0363119634119207,-0.476521992376827,0.474530027165414,-0.0332598288731092,-0.151863898125499,-0.00546736633688952,-0.0363119634119207,-0.476521992376827,0.474530027165414,-0.0332598288731092,-0.151863898125499,-0.00546736633688952,1.35322692907897,5,1.35322692907897,5,0.906531503004861,7.9247919546562,0.906531503004861,7.9247919546562,1.1271585133465,6.51862939817912,1.1271585133465,6.51862939817912,1.50993710791335,5,1.50993710791335,5
22,3,0.2406695016168,0.137139635778463,0.571345370286288,0.2,0.15,0.69,0.126088534300973,3,0.0225675150782897,0,9.76996261670138e-15,-1.77635683940025e-14,-0.403007598203048,-0.307095438847224,0.134180659915983,0.0333640278826137,-0.0373801890462672,-0.484381998563576,0.482435012981824,-0.034050704574559,-0.152603979983769,-0.00565502855745384,-0.0373801890462672,-0.484381998563576,0.482435012981824,-0.034050704574559,-0.152603979983769,-0.00565502855745384,1.3623677819693,5.00000000000253,1.3623677819693,5.00000000000253,0.899518399460854,8.04683795469731,0.899518399460854,8.04683795469731,1.12216129670592,6.64743494105397,1.12216129670592,6.64743494105397,1.51860416113089,5.0000000002542,1.51860416113089,5.0000000002542
23,3,0.235740176605845,0.138687524226685,0.578491946575308,0.2,0.15,0.69,0.117640887069517,3,0.0229530863524473,0,1.77635683940025e-15,-8.88178419700125e-16,-0.414372279435044,-0.31694564349345,0.134554578255159,0.0340289570308363,-0.0383954404872572,-0.491709042079392,0.489786246946577,-0.0347913119703719,-0.153272587007261,-0.00583041588612276,-0.0383954404872572,-0.491709042079392,0.489786246946577,-0.0347913119703719,-0.153272587007261,-0.00583041588612276,1.37062454970492,5.00000000000013,1.37062454970492,5.00000000000013,0.893386620642082,8.15993443154877,0.893386620642082,8.15993443154877,1.11767705960704,6.76793971043417,1.11767705960704,6.76793971043417,1.52632696755425,5.00000000000003,1.52632696755425,5.00000000000003
24,3,0.231408540039706,0.140048867297224,0.585205442166666,0.2,0.15,0.69,0.109851812825178,3,0.0233037263297868,0,1.77635683940025e-15,-1.77635683940025e-15,-0.424947400173167,-0.325774161219941,0.134802113784106,0.0346395515754458,-0.0393633390806905,-0.498543241919763,0.496631867577781,-0.0354856557490327,-0.153877879558336,-0.00599443931444579,-0.0393633390806905,-0.498543241919763,0.496631867577781,-0.0354856557490327,-0.153877879558336,-0.00599443931444579,1.37809015902864,5,1.37809015902864,5,0.888021368324643,8.26458994335117,0.888021368324643,8.26458994335117,1.11363737757042,6.88044639558703,1.11363737757042,6.88044639558703,1.53321190464082,5.00000000000003,1.53321190464082,5.00000000000003
25,3,0.227602060198756,0.141246208360919,0.591512550007008,0.2,0.15,0.69,0.102656126954987,3,0.0236237070115494,0,8.88178419700125e-16,-8.88178419700125e-16,-0.434791264261263,-0.333696467124967,0.13494122425779,0.0352015085772386,-0.0402890113740255,-0.504920707083485,0.503014736288253,-0.0361373734945437,-0.154426840518422,-0.00614792931065467,-0.0402890113740255,-0.504920707083485,0.503014736288253,-0.0361373734945437,-0.154426840518422,-0.00614792931065467,1.3848476550925,5.00000000000003,1.3848476550925,5.00000000000003,0.883324125427832,8.36130436943997,0.883324125427832,8.36130436943997,1.10998437623654,6.98529788789946,1.10998437623654,6.98529788789946,1.5393527317485,5.00000000000046,1.5393527317485,5.00000000000046
26,3,0.224257022665274,0.142299353173379,0.597438234516902,0.2,0.15,0.69,0.0959967892144316,3,0.0239168073872177,0,7.105427357601e-14,-5.95079541199084e-14,-0.443960151191764,-0.340813949486294,0.134987250336537,0.0357199884649417,-0.0411771071017896,-0.510874116314425,0.5089731850575,-0.0367497745991857,-0.154925483631657,-0.00629164487383511,-0.0411771071017896,-0.510874116314425,0.5089731850575,-0.0367497745991857,-0.154925483631657,-0.00629164487383511,1.39097117776568,5.00000000003007,1.39097117776568,5.00000000003007,0.879210166683515,8.45056836485178,0.879210166683515,8.4505683648518,1.10666890423994,7.08286572951951,1.10666890423994,7.08286572951951,1.54483214744736,5.00000000032885,1.54483214744736,5.00000000032885
27,3,0.221317454743815,0.143225705068215,0.60300586034683,0.2,0.15,0.69,0.0898237456498705,3,0.0241863579352129,0,6.03961325396085e-14,-9.68114477473137e-14,-0.452507830862926,-0.347215764113218,0.134953321148034,0.03619964606936,-0.0420318245850898,-0.516433185419738,0.514541630402274,-0.0373258744700519,-0.155379018328831,-0.00642628127051846,-0.0420318245850898,-0.516433185419738,0.514541630402274,-0.0373258744700519,-0.155379018328831,-0.00642628127051846,1.39652687045177,5.00000000005773,1.39652687045177,5.00000000005773,0.875606475826017,8.53286150530536,0.875606475826017,8.53286150530536,1.10364905398011,7.1735397079521,1.10364905398011,7.1735397079521,1.54972314744813,5.00000000004201,1.54972314744813,5.00000000004201
28,3,0.218734181999806,0.144040558550753,0.608237307936488,0.2,0.15,0.69,0.0840929386515989,3,0.0244352851792102,0,8.17124146124115e-14,-9.59232693276135e-14,-0.460485232179564,-0.352980419713888,0.134850692113962,0.036644665570641,-0.0428569403700991,-0.521625048242213,0.519751082543785,-0.0378684246694509,-0.155791981427647,-0.00655247669351635,-0.0428569403700991,-0.521625048242213,0.519751082543785,-0.0378684246694509,-0.155791981427647,-0.00655247669351635,1.40157371592815,5.0000000000027,1.40157371592815,5.0000000000027,0.872449998859725,8.60864989870259,0.872449998859725,8.60864989870259,1.10088895866134,7.25771881947801,1.10088895866134,7.25771881947801,1.55409020972811,5.00000000036644,1.55409020972811,5.00000000036644
29,3,0.216464000452074,0.144757356567553,0.613153077993086,0.2,0.15,0.69,0.0787654622469927,3,0.0246661546141787,0,4.08562073062058e-14,-4.44089209850063e-14,-0.467940236657578,-0.358177138912388,0.134689027278213,0.037058797093081,-0.0436558408810307,-0.526474570554486,0.524629571416954,-0.0383799395319836,-0.15616834333152,-0.00667081803087314,-0.0436558408810307,-0.526474570554486,0.524629571416954,-0.0383799395319836,-0.15616834333152,-0.00667081803087314,1.40616429833115,5.00000000000034,1.40616429833115,5.00000000000034,0.869686175979096,8.67838374056678,0.869686175979096,8.67838374056678,1.09835780976897,7.33580366472583,1.09835780976897,7.33580366472583,1.55799032971725,5.00000000005871,1.55799032971725,5.00000000005871
30,3,0.214468950071339,0.145387916035945,0.617772386524265,0.2,0.15,0.69,0.073806842386452,3,0.0248812109951333,0,8.88178419700125e-16,-4.44089209850063e-15,-0.474917573562222,-0.362867030767452,0.134476635989542,0.037445393392491,-0.0444315545499182,-0.53100461128844,0.529202505963413,-0.03886271972021,-0.15651159438827,-0.0067818458937018,-0.0444315545499182,-0.53100461128844,0.529202505963413,-0.03886271972021,-0.15651159438827,-0.0067818458937018,1.4103454932674,5,1.4103454932674,5,0.86726770508123,8.74249512744324,0.86726770508123,8.74249512744324,1.09602905121376,7.40819024582301,1.09602905121376,7.40819024582301,1.56147392524094,5.00000000000015,1.56147392524094,5.00000000000015
31,3,0.212715677062156,0.145942625621341,0.622113251712976,0.2,0.15,0.69,0.0691864244124773,3,0.0250824154541463,0,8.88178419700125e-16,4.44089209850063e-15,-0.481458795178326,-0.36710410393086,0.134220671906248,0.0378074455941228,-0.0451867833821711,-0.535236242003757,0.533492979358254,-0.0393188731133823,-0.156824815663497,-0.00688605902188897,-0.0451867833821711,-0.535236242003757,0.533492979358254,-0.0393188731133823,-0.156824815663497,-0.00688605902188897,1.4141590897245,5,1.4141590897245,5,0.865153498163427,8.80139626811367,0.865153498163427,8.80139626811367,1.09387971566343,7.47526506278413,1.09387971566343,7.47526506278413,1.56458562821148,5.00000000000025,1.56458562821148,5.00000000000025
32,3,0.211174873986035,0.146430619234648,0.62619257366477,0.2,0.15,0.69,0.0648768521367805,3,0.0252714792319546,0,2.66453525910038e-15,8.88178419700125e-16,-0.487602314958043,-0.370936144368111,0.133927300791833,0.0381476173087099,-0.0459239332754965,-0.539188932930404,0.537522030018188,-0.0397503333672594,-0.157110737361118,-0.00698391816373211,-0.0459239332754965,-0.539188932930404,0.537522030018188,-0.0397503333672594,-0.157110737361118,-0.00698391816373211,1.41764234837776,5,1.41764234837776,5,0.863307798682356,8.85547817024774,0.863307798682356,8.85547817024775,1.09188987577538,7.53740137735993,1.09188987577538,7.53740137735994,1.56736497774737,5.00000000000023,1.56736497774737,5.00000000000023
33,3,0.209820788155501,0.146859928276075,0.630026207865423,0.2,0.15,0.69,0.0608536249818203,3,0.025449894021336,0,-8.88178419700125e-16,0,-0.49338349325085,-0.37440547745423,0.133601842373862,0.0384682767191467,-0.0466451426676748,-0.542880712016836,0.541308866140467,-0.0401588764355502,-0.15737178737148,-0.00707584950774493,-0.0466451426676748,-0.542880712016836,0.541308866140467,-0.0401588764355502,-0.15737178737148,-0.00707584950774493,1.4208285013095,5,1.4208285013095,5,0.861699433491358,8.90510980048267,0.861699433491358,8.90510980048267,1.09004218864935,7.59495649235745,1.09004218864935,7.59495649235745,1.56984702741685,5,1.56984702741685,5
34,3,0.208630789922469,0.147237615265184,0.6336290330403,0.2,0.15,0.69,0.0570947214730098,3,0.0256189590518518,0,-8.88178419700125e-16,0,-0.498834758009492,-0.377549630977816,0.133248890578528,0.0387715264187985,-0.0473523092728776,-0.546328301991402,0.544871059931604,-0.0405461353034683,-0.157610131868019,-0.00716224773086845,-0.0473523092728776,-0.546328301991402,0.544871059931604,-0.0405461353034683,-0.157610131868019,-0.00716224773086845,1.4237471982507,5,1.4237471982507,5,0.86030117751233,8.95063768648837,0.86030117751233,8.95063768648837,1.08832151620467,7.64826989378247,1.08832151620467,7.64826989378247,1.57206287760116,5.00000000000021,1.57206287760116,5.00000000000021
35,3,0.207584993524739,0.14756989116177,0.63701501399376,0.2,0.15,0.69,0.0535802790009291,3,0.0257798051231461,0,-1.77635683940025e-15,-1.77635683940025e-15,-0.503985749971081,-0.380401912939492,0.132872415680844,0.0390592309148836,-0.04804711479636,-0.549547239367882,0.548224716466163,-0.0409136131499213,-0.157827709453085,-0.0072434787162321,-0.04804711479636,-0.549547239367882,0.548224716466163,-0.0409136131499213,-0.157827709453085,-0.0072434787162321,1.42642490434325,5,1.42642490434325,5,0.859089213027892,8.99238590794402,0.859089213027892,8.99238590794402,1.0867146076337,7.69766210934282,1.0867146076337,7.69766210934282,1.57404014251043,5,1.57404014251043,5
36,3,0.206665924062279,0.147862218390957,0.640197259918439,0.2,0.15,0.69,0.0502923212174938,3,0.0259334158339727,0,-2.66453525910038e-15,-8.88178419700125e-16,-0.508863483723479,-0.382991915873451,0.132475851286107,0.0393330418018282,-0.048731047607911,-0.552551978505145,0.551384621172053,-0.0412626951259732,-0.15802626003468,-0.00731988198474165,-0.048731047607911,-0.552551978505145,0.551384621172053,-0.0412626951259732,-0.15802626003468,-0.00731988198474165,1.42888525418415,5,1.42888525418415,5,0.858042668548164,9.03065641435801,0.858042668548164,9.03065641435801,1.08520983280212,7.74343414871321,1.08520983280212,7.74343414871321,1.57580336012653,5.00000000000019,1.57580336012653,5.00000000000019
37,3,0.205858224968265,0.148119401332675,0.643188078593964,0.2,0.15,0.69,0.0472145256976205,3,0.0260806462690267,0,1.06581410364015e-14,-3.46389583683049e-14,-0.513492517766227,-0.385345957646921,0.13206216855209,0.0395944206710093,-0.0494054234160112,-0.55535598319973,0.554364369200774,-0.0415946589125615,-0.158207349371779,-0.00739177287762637,-0.0494054234160112,-0.55535598319973,0.554364369200774,-0.0415946589125615,-0.158207349371779,-0.00739177287762637,1.43114936660645,5.00000000000523,1.43114936660645,5.00000000000523,0.85714322473489,9.06572960669955,0.85714322473489,9.06572960669955,1.08379695761952,7.78586740582728,1.08379695761952,7.78586740582728,1.57737435226216,5.00000000035632,1.57737435226216,5.00000000035632
38,3,0.205148401033449,0.148345665815242,0.645999026838338,0.2,0.15,0.69,0.0443320256019205,3,0.0262222394043526,0,6.21724893790088e-15,-3.10862446895044e-14,-0.517895128005115,-0.387487467222553,0.131633939649521,0.0398446598630468,-0.0500714040250943,-0.557971807801039,0.557176479358783,-0.0419106841993466,-0.158372390037662,-0.00745944452127607,-0.0500714040250943,-0.557971807801039,0.557176479358783,-0.0419106841993466,-0.158372390037662,-0.00745944452127607,1.43323612431105,5.00000000000762,1.43323612431105,5.00000000000762,0.856374776951455,9.09786512015979,0.856374776951455,9.09786512015979,1.0824669541143,7.82522391821525,1.0824669541143,7.82522391821525,1.57877254098904,5.00000000034857,1.57877254098904,5.00000000034857
39,3,0.204524592649435,0.148544728960732,0.648640957529327,0.2,0.15,0.69,0.0416312400311586,3,0.0263588404808424,0,7.99360577730113e-15,-3.5527136788005e-14,-0.522091480728621,-0.389437322642742,0.131193392122161,0.0400849011928352,-0.0507300142834448,-0.560411169457231,0.559832494812877,-0.0422118612084392,-0.158522659404185,-0.0075231696009548,-0.0507300142834448,-0.560411169457231,0.559832494812877,-0.0422118612084392,-0.158522659404185,-0.0075231696009548,1.4351624221121,5.00000000000999,1.4351624221121,5.00000000000999,0.85572314573,9.12730275986775,0.85572314573,9.12730275986775,1.08121183930975,7.86174689692497,1.08121183930975,7.86174689692497,1.58001522687858,5.00000000034211,1.58001522687858,5.00000000034211
40,3,0.2039763774679,0.148719860562271,0.651124063475469,0.2,0.15,0.69,0.0390997285848205,3,0.0264910095784021,0,1.24344978758018e-14,-3.64153152077051e-14,-0.526099801534921,-0.391214147466026,0.130742455532322,0.0403161527902693,-0.0513821573434036,-0.562685012800028,0.562343072410951,-0.0424991983711565,-0.158659315135274,-0.0075832019660727,-0.0513821573434036,-0.562685012800028,0.562343072410951,-0.0424991983711565,-0.158659315135274,-0.0075832019660727,1.43694338721299,5.00000000001213,1.43694338721299,5.00000000001213,0.855175827871391,9.15426353395367,0.855175827871391,9.15426353395367,1.08002453808926,7.89566145026703,1.08002453808926,7.89566145026703,1.58111783379814,5.00000000033619,1.58111783379814,5.00000000033619
41,3,0.203494596138421,0.148873937027211,0.653457918384966,0.2,0.15,0.69,0.0367260663391706,3,0.0266192326036468,0,7.99360577730113e-15,-3.46389583683049e-14,-0.529936538160561,-0.392834571017881,0.130282801551356,0.040539304204444,-0.0520286283618761,-0.564803568139606,0.564718062159391,-0.0427736292524848,-0.158783408587379,-0.00763977808646181,-0.0520286283618761,-0.564803568139606,0.564718062159391,-0.0427736292524848,-0.158783408587379,-0.00763977808646181,1.43859257459799,5.00000000001406,1.43859257459799,5.00000000001406,0.854721782073393,9.17895075032156,0.854721782073393,9.17895075032156,1.0788987661129,7.92717544283763,1.0788987661129,7.92717544283763,1.58209412439895,5.00000000033075,1.58209412439895,5.00000000033075
42,3,0.203071199195602,0.14900948879241,0.655651515154324,0.2,0.15,0.69,0.0344997360590639,3,0.0267439308833827,0,1.15463194561016e-14,-3.46389583683049e-14,-0.533616515491151,-0.394313457082748,0.129815878467997,0.0407551399184266,-0.0526701267700053,-0.566776404052219,0.566966578154174,-0.0430360188062887,-0.158895896442844,-0.00769311837640573,-0.0526701267700053,-0.566776404052219,0.566966578154174,-0.0430360188062887,-0.158895896442844,-0.00769311837640573,1.44012214031316,5.00000000001581,1.44012214031316,5.00000000001581,0.854351243960551,9.20155114188449,0.854351243960551,9.20155114188449,1.07782892955252,7.95648044004746,1.07782892955252,7.95648044004746,1.58295638990577,5.00000000032573,1.58295638990577,5.00000000032573
43,3,0.202699112523937,0.149128742006193,0.657713301676206,0.2,0.15,0.69,0.0324110349658932,3,0.0268654695358387,0,7.99360577730113e-15,-4.08562073062058e-14,-0.537153081724127,-0.395664105038363,0.129342940933126,0.0409643514172981,-0.0533072672380204,-0.568612475092347,0.56909706206292,-0.0432871690342085,-0.15899765084467,-0.00774342840091361,-0.0533072672380204,-0.568612475092347,0.56909706206292,-0.0432871690342085,-0.15899765084467,-0.00774342840091361,1.44154299512094,5.00000000001738,1.44154299512094,5.00000000001738,0.854055566201823,9.22223599453661,0.854055566201823,9.22223599453661,1.07681003898117,7.9837526995155,1.07681003898117,7.9837526995155,1.58371561736082,5.00000000032108,1.58371561736082,5.00000000032108
44,3,0.202372119142629,0.149233655173941,0.659651214346793,0.2,0.15,0.69,0.0304509938137253,3,0.0269841647723452,0,9.76996261670138e-15,-3.81916720471054e-14,-0.540558245082086,-0.39689842689904,0.128865075631515,0.041167547945366,-0.0539405894559699,-0.570320165239877,0.571117340090499,-0.0435278241124287,-0.159089468255053,-0.0077908999768259,-0.0539405894559699,-0.570320165239877,0.571117340090499,-0.0435278241124287,-0.159089468255053,-0.0077908999768259,1.44286494074828,5.0000000000188,1.44286494074828,5.0000000000188,0.853827080077994,9.24116225754567,0.853827080077994,9.24116225754567,1.07583763521408,8.00915417915107,1.07583763521408,8.00915417915107,1.58438163707771,5.00000000031677,1.58438163707771,5.00000000031677
45,3,0.202084755327766,0.149325951378761,0.661472709436348,0.2,0.15,0.69,0.0286113063879209,3,0.027100290264318,0,7.99360577730113e-15,-3.90798504668055e-14,-0.543842800822062,-0.398027103276775,0.128383223464546,0.0413652660801949,-0.0545705668442251,-0.571907327594678,0.573034674224402,-0.0437586750428739,-0.159172077222723,-0.00783571217972852,-0.0545705668442251,-0.571907327594678,0.573034674224402,-0.0437586750428739,-0.159172077222723,-0.00783571217972852,1.44409679070657,5.00000000002007,1.44409679070657,5.00000000002007,0.853658975424483,9.25847362107782,0.853658975424483,9.25847362107782,1.07490772527297,8.03283353893822,1.07490772527297,8.03283353893822,1.58496325271527,5.00000000031274,1.58496325271527,5.00000000031274
46,3,0.201832219330766,0.14940714661392,0.663184792472204,0.2,0.15,0.69,0.0268842678451949,3,0.0272140826941601,0,1.4210854715202e-14,-4.08562073062058e-14,-0.547016448549793,-0.399059720875741,0.12789819873903,0.0415579782420891,-0.0551976142999614,-0.573381320751241,0.574855808442548,-0.0439803638787484,-0.159246145213812,-0.00787803226628189,-0.0551976142999614,-0.573381320751241,0.574855808442548,-0.0439803638787484,-0.159246145213812,-0.00787803226628189,1.44524647744377,5.00000000002122,1.44524647744377,5.00000000002122,0.853545196345814,9.27430154979862,0.853545196345814,9.27430154979862,1.07401672695203,8.05492711935628,1.07401672695203,8.05492711935628,1.58546835608011,5.00000000030898,1.58546835608011,5.00000000030898
47,3,0.201610291163949,0.149478574698092,0.664794045770751,0.2,0.15,0.69,0.0252627205697479,3,0.0273257465940946,0,9.76996261670138e-15,-3.99680288865056e-14,-0.55008790004384,-0.400004893797044,0.127410705782822,0.0417461002483588,-0.055822095077773,-0.574749042220823,0.576587010471131,-0.0441934875685363,-0.15931228463616,-0.0079180165204016,-0.055822095077773,-0.574749042220823,0.576587010471131,-0.0441934875685363,-0.15931228463616,-0.0079180165204016,1.44632114739261,5.00000000002225,1.44632114739261,5.00000000002225,0.853480350492001,9.28876626498451,0.853480350492001,9.28876626498451,1.0731614207136,8.07555988417823,1.0731614207136,8.07555988417823,1.58590402850462,5.00000000030545,1.58590402850462,5.00000000030545
48,3,0.201415262110091,0.149541409187092,0.666306654243717,0.2,0.15,0.69,0.0237400064343027,3,0.0274354585639357,0,7.105427357601e-15,-4.17443857259059e-14,-0.553064977934941,-0.400870370638247,0.126921353345496,0.0419299980124554,-0.0564443268944774,-0.576016959215099,0.578234109600179,-0.044398601457512,-0.159371058166623,-0.00795581103072372,-0.0564443268944774,-0.576016959215099,0.578234109600179,-0.044398601457512,-0.159371058166623,-0.00795581103072372,1.44732724530272,5.00000000002318,1.44732724530272,5.00000000002318,0.853459630017466,9.30197767040185,0.853459630017466,9.30197767040185,1.07233890784805,8.09484631924135,1.07233890784805,8.09484631924135,1.58627663041815,5.00000000030213,1.58627663041815,5.00000000030213
49,3,0.20124387277614,0.14959668264536,0.667728429594109,0.2,0.15,0.69,0.0223099245340797,3,0.0275433709472932,0,7.105427357601e-15,-4.2632564145606e-14,-0.555954705682324,-0.401663129119301,0.126430667089782,0.0421099934791011,-0.0570645873402539,-0.577191137061112,0.579802530996977,-0.0445962224813737,-0.159422983474149,-0.00799155240592412,-0.0570645873402539,-0.577191137061112,0.579802530996977,-0.0445962224813737,-0.159422983474149,-0.00799155240592412,1.44827058908679,5.000000000024,1.44827058908679,5.000000000024,0.853478742620868,9.31403621945153,0.853478742620868,9.31403621945153,1.07154657400147,8.11289128182997,1.07154657400147,8.11289128182997,1.58659188052958,5.00000000029878,1.58659188052958,5.00000000029878
50,3,0.201093258654665,0.149645303596284,0.669064833008226,0.2,0.15,0.69,0.0209666936114943,3,0.0276496150355784,0,7.105427357601e-15,-3.99680288865056e-14,-0.558763389350588,-0.402389459747494,0.125939100435152,0.0422863698779973,-0.0576831186706806,-0.578277265480718,0.581297326900252,-0.0447868320827232,-0.159468537417442,-0.00802536843371435,-0.0576831186706806,-0.578277265480718,0.581297326900252,-0.0447868320827232,-0.159468537417442,-0.00802536843371435,1.44915643627072,5.00000000002471,1.44915643627072,5.00000000002471,0.853533851298098,9.32503372282014,0.853533851298098,9.32503372282014,1.07078205731513,8.12979079768227,1.07078205731513,8.12979079768227,1.58685492586472,5.0000000002951,1.58685492586472,5.0000000002951
51,3,0.200960902282494,0.149688071431718,0.670320996442122,0.2,0.15,0.69,0.0197049185144011,3,0.0277543038602907,0,9.76996261670138e-15,-3.99680288865056e-14,-0.561496691725236,-0.403055039843871,0.125447043977414,0.0424593763706869,-0.0583001320470892,-0.579280682937184,0.582723205029238,-0.0449708788776996,-0.159508159784451,-0.00805737868868954,-0.0583001320470892,-0.579280682937184,0.582723205029238,-0.0449708788776996,-0.159508159784451,-0.00805737868868954,1.44998954301255,5.00000000002533,1.44998954301255,5.00000000002533,0.853621521638229,9.33505409720309,0.853621521638229,9.33505409720309,1.07004322053708,8.14563280445028,1.07004322053708,8.14563280445028,1.58707040374999,5.00000000029163,1.58707040374999,5.00000000029163
52,3,0.200844591196594,0.149725689527014,0.671501742593671,0.2,0.15,0.69,0.0185195601350505,3,0.0278575346262966,0,7.99360577730113e-15,-3.64153152077051e-14,-0.564159699318921,-0.403664999088405,0.12495483367641,0.0426292321576878,-0.0589158112859823,-0.580206399226031,0.584084554500057,-0.0451487810970743,-0.159542256631204,-0.00808769509364038,-0.0589158112859823,-0.580206399226031,0.584084554500057,-0.0451487810970743,-0.159542256631204,-0.00808769509364038,1.45077421654364,5.00000000002589,1.45077421654364,5.00000000002589,0.853738675659246,9.34417405664112,0.853738675659246,9.34417405664112,1.0693281265631,8.16049784180569,1.0693281265631,8.16049784180569,1.58724249669997,5.00000000028835,1.58724249669997,5.00000000028835
53,3,0.200742380984341,0.149758776778046,0.672611603644772,0.2,0.15,0.69,0.017405908363979,3,0.0279593908320254,0,1.77635683940025e-15,-8.88178419700125e-16,-0.56675698280235,-0.404223977597436,0.1244627579769,0.0427961301061516,-0.0595303161721018,-0.581059116465656,0.585385469506115,-0.0453209288234686,-0.159571203269398,-0.00811642243844968,-0.0595303161721018,-0.581059116465656,0.585385469506115,-0.0453209288234686,-0.159571203269398,-0.00811642243844968,1.45151436178735,5,1.45151436178735,5,0.853882551322053,9.35246374836591,0.853882551322053,9.35246374836591,1.06863501694504,8.1744596892343,1.06863501694504,8.1744596892343,1.5873749810501,5,1.5873749810501,5
54,3,0.200652562810637,0.149787877750496,0.673654838852261,0.2,0.15,0.69,0.0163595576656619,3,0.0280599441165969,0,9.76996261670138e-15,-3.99680288865056e-14,-0.56929265151681,-0.404736177421649,0.123971064004677,0.0429602399520082,-0.060143785384073,-0.581843248625096,0.586629770988425,-0.0454876860440307,-0.159595346945249,-0.0081436588602638,-0.060143785384073,-0.581843248625096,0.586629770988425,-0.0454876860440307,-0.159595346945249,-0.0081436588602638,1.45221352282283,5.0000000000268,1.45221352282283,5.0000000000268,0.854050666981601,9.35998733834396,0.854050666981601,9.35998733834396,1.06796229297246,8.18758595450351,1.06796229297246,8.18758595450351,1.58747127007351,5.00000000028229,1.58747127007351,5.00000000028229
55,3,0.200573634879242,0.149813471608638,0.674635451060623,0.2,0.15,0.69,0.0153763849433467,3,0.0281592558687446,0,7.99360577730113e-15,-4.2632564145606e-14,-0.571770402228705,-0.405205408243661,0.123479962960406,0.0431217111248329,-0.0607563390763938,-0.582562939710753,0.587821026495208,-0.0456493925358481,-0.159615009246347,-0.00816949628825137,-0.0607563390763938,-0.582562939710753,0.587821026495208,-0.0456493925358481,-0.159615009246347,-0.00816949628825137,1.45287491978401,5.00000000002717,1.45287491978401,5.00000000002717,0.854240790136454,9.36680354211505,0.854240790136454,9.36680354211505,1.06730849899037,8.19993861195164,1.06730849899037,8.19993861195164,1.58753445223136,5.00000000027948,1.58753445223136,5.00000000027948
56,3,0.200504277351543,0.14983597997065,0.675557202204557,0.2,0.15,0.69,0.0144525294110537,3,0.0282573786279165,0,1.06581410364015e-14,-4.61852778244065e-14,-0.574193563212568,-0.405635127958925,0.122989634816813,0.0432806752384758,-0.0613680811568475,-0.583222080720686,0.588962568407134,-0.045806365599559,-0.159630488268318,-0.00819402085592909,-0.0613680811568475,-0.583222080720686,0.588962568407134,-0.045806365599559,-0.159630488268318,-0.00819402085592909,1.45350148171568,5.00000000002749,1.45350148171568,5.00000000002749,0.85445090992551,9.37296611646693,0.85445090992551,9.37296611646693,1.06667230766385,8.21157449868904,1.06667230766385,8.21157449868904,1.587567325128,5.0000000002768,1.587567325128,5.0000000002768
57,3,0.200443330303764,0.149855773819724,0.676423627864862,0.2,0.15,0.69,0.0135843742329582,3,0.0283543573040384,0,1.06581410364015e-14,-4.70734562441066e-14,-0.576565133530212,-0.406028478740385,0.122500232410565,0.0434372482858053,-0.061979101294181,-0.583824325463687,0.590057510684563,-0.0459589016550173,-0.159642060568899,-0.00821731328374091,-0.061979101294181,-0.583824325463687,0.590057510684563,-0.0459589016550173,-0.159642060568899,-0.00821731328374091,1.45409587584764,5.00000000003129,1.45409587584764,5.00000000003129,0.854679212895335,9.37852430282015,0.854679212895335,9.37852430282015,1.06605250694107,8.22254576617824,1.06605250694107,8.22254576617824,1.58757242567294,5.00000000028271,1.58757242567294,5.00000000028271
58,3,0.200389774354461,0.14987317958462,0.677238050936856,0.2,0.15,0.69,0.0127685297256746,3,0.0284502302390251,0,1.24344978758018e-14,-4.52970994047064e-14,-0.578887818289926,-0.406388319114459,0.122011885007802,0.0435915325716922,-0.0625894766870688,-0.584373105330536,0.591108764275787,-0.0461072777114409,-0.15964998293348,-0.00823944923431708,-0.0625894766870688,-0.584373105330536,0.591108764275787,-0.0461072777114409,-0.15964998293348,-0.00823944923431708,1.45466053369456,5.00000000003165,1.45466053369456,5.00000000003165,0.854924061625537,9.38352323287191,0.854924061625537,9.38352323287191,1.06544798850043,8.23290029330572,1.06544798850043,8.23290029330572,1.58755205689194,5.00000000028055,1.58755205689194,5.00000000028055
59,3,0.200342713638749,0.149888484489622,0.678003594466597,0.2,0.15,0.69,0.0120018179485071,3,0.0285450301301813,0,1.24344978758018e-14,-4.2632564145606e-14,-0.581164060175913,-0.406717252512183,0.121524701411721,0.0437436184145686,-0.063199273621948,-0.584871643096295,0.592119051310038,-0.0462517527232138,-0.159654493973062,-0.00826049964260907,-0.063199273621948,-0.584871643096295,0.592119051310038,-0.0462517527232138,-0.159654493973062,-0.00826049964260907,1.45519767434168,5.00000000003197,1.45519767434168,5.00000000003197,0.855183975854506,9.38800429732973,0.855183975854506,9.38800429732973,1.06485773749692,8.24268206289026,1.06485773749692,8.24268206289026,1.58750831177609,5.00000000027848,1.58750831177609,5.00000000027848
60,3,0.20030136084497,0.149901941261771,0.678723193706596,0.2,0.15,0.69,0.0112812585314753,3,0.0286387848330568,0,1.06581410364015e-14,-4.2632564145606e-14,-0.583396067619303,-0.407017652703559,0.121038772671476,0.0438935856434986,-0.0638085488442309,-0.585322965825088,0.593090918185786,-0.0463925688413869,-0.159655815572992,-0.00828053102289154,-0.0638085488442309,-0.585322965825088,0.593090918185786,-0.0463925688413869,-0.159655815572992,-0.00828053102289154,1.45570932523479,5.00000000003224,1.45570932523479,5.00000000003224,0.855457615795026,9.39200548084059,0.855457615795026,9.39200548084059,1.06428082344776,8.25193150446291,1.06428082344776,8.25193150446291,1.58744309451156,5.00000000027649,1.58744309451156,5.00000000027649
61,3,0.200265024063916,0.149913772272689,0.679399607439301,0.2,0.15,0.69,0.0106040556117141,3,0.028731518059087,0,1.24344978758018e-14,-4.9737991503207e-14,-0.585585839957633,-0.407291686474207,0.120554174443841,0.0440415049146547,-0.0644173507646438,-0.585729916942269,0.594026747653145,-0.0465299525699292,-0.159654154208531,-0.00829960575443986,-0.0644173507646438,-0.585729916942269,0.594026747653145,-0.0465299525699292,-0.159654154208531,-0.00829960575443986,1.45619734075588,5.00000000003248,1.45619734075588,5.00000000003248,0.855743767369884,9.39556166614296,0.855743767369884,9.39556166614296,1.06371639211847,8.26068580616291,1.06371639211847,8.26068580616291,1.58735813939187,5.00000000027458,1.58735813939187,5.00000000027458
62,3,0.20023309523105,0.14992417318296,0.680035428613554,0.2,0.15,0.69,0.00996758576629764,3,0.0288232499814013,0,1.06581410364015e-14,-4.2632564145606e-14,-0.587735189886394,-0.407541333860565,0.12007096905226,0.0441874388683874,-0.0650257205199804,-0.58609516753317,0.594928769978972,-0.0466641158348902,-0.15964970214139,-0.00831778234752868,-0.0650257205199804,-0.58609516753317,0.594928769978972,-0.0466641158348902,-0.15964970214139,-0.00831778234752868,1.4566634188334,5.00000000003268,1.4566634188334,5.00000000003268,0.856041329132583,9.39870491004783,0.856041329132583,9.39870491004783,1.06316365828909,8.26897919829621,1.06316365828909,8.26897919829621,1.58725502767859,5.00000000027274,1.58725502767859,5.00000000027274
63,3,0.200205039968741,0.149933316148882,0.680633094336298,0.2,0.15,0.69,0.00936938684426438,3,0.0289139977604841,0,1.4210854715202e-14,-4.61852778244065e-14,-0.589845763483124,-0.407768406222247,0.119589207282113,0.044331443145651,-0.065633692905362,-0.586421226922523,0.595799073274204,-0.0467952569738477,-0.159642638509641,-0.00833511569125105,-0.065633692905362,-0.586421226922523,0.595799073274204,-0.0467952569738477,-0.159642638509641,-0.00833511569125105,1.45710911580706,5.00000000003284,1.45710911580706,5.00000000003284,0.85634930066854,9.40146469376256,0.85634930066854,9.40146469376256,1.06262189929559,8.27684321100608,1.06262189929559,8.27684321100608,1.58713520264504,5.00000000027097,1.58713520264504,5.00000000027097
64,3,0.200180388658939,0.149941352644162,0.681194895259146,0.2,0.15,0.69,0.00880714761304867,3,0.0290037759998929,0,1.15463194561016e-14,-4.61852778244065e-14,-0.591919058057664,-0.40797456239715,0.119108929945899,0.0444735672803995,-0.0662412971931398,-0.586710452584165,0.59663961305498,-0.0469235616523038,-0.159633130321973,-0.0083516572845267,-0.0662412971931398,-0.586710452584165,0.59663961305498,-0.0469235616523038,-0.159633130321973,-0.0083516572845267,1.45753585974193,5.00000000003298,1.45753585974193,5.00000000003298,0.856666772298269,9.40386814988078,0.856666772298269,9.40386814988078,1.06209044925523,8.2843069083377,1.06209044925523,8.2843069083377,1.58699998300973,5.00000000026925,1.58699998300973,5.00000000026925
65,3,0.200158728597231,0.149948415942851,0.681722984396891,0.2,0.15,0.69,0.00827869814503744,3,0.0290925971409491,0,1.50990331349021e-14,-4.79616346638068e-14,-0.593956438057968,-0.408161323155918,0.118630169247722,0.0446138554826513,-0.0668485578518358,-0.586965059426588,0.597452221102034,-0.0470492037130661,-0.159621333365965,-0.00836745545155049,-0.0668485578518358,-0.586965059426588,0.597452221102034,-0.0470492037130661,-0.159621333365965,-0.00836745545155049,1.45794496236381,5.00000000003309,1.45794496236381,5.00000000003309,0.856992915926684,9.40594026818409,0.856992915926684,9.40594026818409,1.06156869389605,8.29139710081674,1.06156869389605,8.29139710081674,1.58685057494197,5.0000000002676,1.58685057494197,5.0000000002676
66,3,0.200139697097311,0.149954623304185,0.682219385412707,0.2,0.15,0.69,0.00778200087892062,3,0.0291804718041917,0,-1.77635683940025e-15,8.88178419700125e-16,-0.595959149221209,-0.408330084146851,0.118152949972622,0.044752347325219,-0.0674554951769714,-0.587187128496309,0.598238613676593,-0.0471723459640853,-0.159607393038959,-0.00838255554282626,-0.0674554951769714,-0.587187128496309,0.598238613676593,-0.0471723459640853,-0.159607393038959,-0.00838255554282626,1.45833762976849,5,1.45833762976849,5,0.857326976902298,9.40770408189156,0.857326976902298,9.40770408189156,1.06105606592092,8.29813853834112,1.06105606592092,8.29813853834112,1.58668808280076,5,1.58668808280076,5
67,3,0.200122975430731,0.149960077895171,0.682686000402626,0.2,0.15,0.69,0.00731514229809655,3,0.029267409084399,0,8.88178419700125e-16,0,-0.597928331259908,-0.408482127500008,0.11767729052301,0.044889078345594,-0.0680621258442612,-0.587378615137786,0.599000399145416,-0.0472931409097147,-0.159591445109111,-0.00839700012283558,-0.0680621258442612,-0.587378615137786,0.599000399145416,-0.0472931409097147,-0.159591445109111,-0.00839700012283558,1.45871497203956,5,1.45871497203956,5,0.857668266767122,9.40918083819373,0.857668266767122,9.40918083819373,1.06055204084499,8.30455408614267,1.06055204084499,8.30455408614267,1.58651351874906,5,1.58651351874906,5
68,3,0.200108283500768,0.149964870482382,0.683124617209812,0.2,0.15,0.69,0.00687632517491469,3,0.029353416805131,0,1.50990331349021e-14,-5.06261699229071e-14,-0.599865029009036,-0.408618632239505,0.117203203821632,0.0450240805731326,-0.0686684633944285,-0.58754135664567,0.599739085062669,-0.0474117314299039,-0.159573616413389,-0.00841082914530485,-0.0686684633944285,-0.58754135664567,0.599739085062669,-0.0474117314299039,-0.159573616413389,-0.00841082914530485,1.45907801189428,5.00000000003326,1.45907801189428,5.00000000003326,0.858016156792879,9.41039014998294,0.858016156792879,9.41039014998294,1.06005613325315,8.31066488324192,1.06005613325315,8.31066488324192,1.58632781136918,5.00000000026295,1.58632781136918,5.00000000026295
69,3,0.200095375161488,0.149969080920705,0.683536916297272,0.2,0.15,0.69,0.0064638613350966,3,0.0294385017379913,0,1.33226762955019e-14,-4.79616346638068e-14,-0.601770202426157,-0.408740683635697,0.116730698097957,0.0451573829905087,-0.0692745186578225,-0.587677079442555,0.600456084751917,-0.0475282514114351,-0.159554025498526,-0.00842408011695602,-0.0692745186578225,-0.587677079442555,0.600456084751917,-0.0475282514114351,-0.159554025498526,-0.00842408011695602,1.45942769246332,5.00000000003327,1.45942769246332,5.00000000003327,0.85837007221202,9.41135013504915,0.85837007221202,9.41135013504914,1.05956789343045,8.31649048713918,1.05956789343045,8.31649048713918,1.58613181339011,5.0000000002615,1.58613181339011,5.0000000002615
70,3,0.200084034103853,0.149972779463404,0.683924477205874,0.2,0.15,0.69,0.00607616490149569,3,0.0295226697911553,0,1.50990331349021e-14,-4.79616346638068e-14,-0.603644735578361,-0.408849281613694,0.116259777572768,0.0452890119373416,-0.0698803001260557,-0.587787405812951,0.601152723427525,-0.0476428263349407,-0.159532783210266,-0.00843678825055541,-0.0698803001260557,-0.587787405812951,0.601152723427525,-0.0476428263349407,-0.159532783210266,-0.00843678825055541,1.45976488429805,5.00000000003327,1.45976488429805,5.00000000003327,0.85872948706328,9.41207754405031,0.85872948706328,9.41207754405031,1.05908690432428,8.32204900610517,1.05908690432428,8.32204900610517,1.585926308625,5.00000000026009,1.585926308625,5.00000000026009
71,3,0.200074070240208,0.149976027914945,0.684288784622841,0.2,0.15,0.69,0.0057117459804898,3,0.0296059261711394,0,1.50990331349021e-14,-4.88498130835069e-14,-0.605489444495888,-0.408945348321205,0.115790443053838,0.0454189914629819,-0.0704858142770381,-0.587873860222034,0.601830243891274,-0.0477555738211154,-0.15950999323571,-0.00844898660801078,-0.0704858142770381,-0.587873860222034,0.601830243891274,-0.0477555738211154,-0.15950999323571,-0.00844898660801078,1.46009039168849,5.00000000003324,1.46009039168849,5.00000000003324,0.859093919581243,9.41258787382933,0.859093919581243,9.41258787382933,1.05861277880182,8.3273572181095,1.05861277880182,8.3273572181095,1.58571201820574,5.00000000025873,1.58571201820574,5.00000000025873
72,3,0.200065316526753,0.149978880645486,0.684631234084396,0.2,0.15,0.69,0.00536920475790916,3,0.0296882755212845,0,1.24344978758018e-14,-5.24025267623074e-14,-0.607305084240978,-0.40902973494688,0.115322692453926,0.0455473436346119,-0.0710910658590294,-0.587937875245691,0.602489811836771,-0.0478666041392374,-0.159485752603022,-0.00846070623420838,-0.0710910658590294,-0.587937875245691,0.602489811836771,-0.0478666041392374,-0.159485752603022,-0.00846070623420838,1.4604049583656,5.0000000000332,1.4604049583656,5.0000000000332,0.859462928067992,9.41289547189489,0.859462928067992,9.41289547189489,1.05814515717096,8.33243067974108,1.05814515717096,8.33243067974108,1.58548960619109,5.0000000002574,1.58548960619109,5.0000000002574
73,3,0.200057626170978,0.149981385483599,0.684953137334712,0.2,0.15,0.69,0.00504722597454131,3,0.029769722039992,0,8.88178419700125e-16,4.44089209850063e-15,-0.609092355167687,-0.409103227869896,0.114856521240925,0.0456740888060894,-0.0716960581386704,-0.587980797136576,0.60313252079143,-0.0479760206808477,-0.159460152142337,-0.00847197628222856,-0.0716960581386704,-0.587980797136576,0.60313252079143,-0.0479760206808477,-0.159460152142337,-0.00847197628222856,1.4607092726534,5.00000000000002,1.4607092726534,5.00000000000002,0.859836107192304,9.41301363074197,0.859836107192304,9.41301363074197,1.05768370493613,8.33728382504277,1.05768370493613,8.33728382504277,1.58525968461682,5.00000000000013,1.58525968461682,5.00000000000013
74,3,0.200050870177417,0.149983584501869,0.685255727362013,0.2,0.15,0.69,0.00474457375399361,3,0.029850269581366,0,-8.88178419700125e-16,-8.88178419700125e-16,-0.610851908577996,-0.409166554212327,0.114391922828737,0.0457992458523225,-0.0723007931173674,-0.588003891049164,0.603759396723196,-0.048083920401192,-0.159433276911296,-0.0084828241305297,-0.0723007931173674,-0.588003891049164,0.603759396723196,-0.048083920401192,-0.159433276911296,-0.0084828241305297,1.46100397212876,5,1.46100397212876,5,0.860213084668434,9.41295467522696,0.860213084668434,9.41295467522696,1.05722811076439,8.34193005628742,1.05722811076439,8.34193005628742,1.58502281804764,5,1.58502281804764,5
75,3,0.200044935190744,0.149985514708213,0.68554016313136,0.2,0.15,0.69,0.0044600867581162,3,0.0299299217405808,0,8.88178419700125e-16,2.66453525910038e-15,-0.612584351594756,-0.409220386857739,0.113928888916385,0.04592283237339,-0.0729052717198843,-0.588008345945264,0.60437140233691,-0.0481903942308163,-0.159405206588322,-0.00849327549264612,-0.0729052717198843,-0.588008345945264,0.60437140233691,-0.0481903942308163,-0.159405206588322,-0.00849327549264612,1.46128964784069,5.00000000000002,1.46128964784069,5.00000000000002,0.860593518272197,9.41273003892349,0.860593518272197,9.41273003892349,1.05677808463948,8.34638182519528,1.05677808463948,8.34638182519528,1.5847795276847,5.00000000000013,1.5847795276847,5.00000000000013
76,3,0.200039721600201,0.149987208654229,0.685807534032477,0.2,0.15,0.69,0.00419267364731497,3,0.0300086819260019,0,-3.5527136788005e-15,8.88178419700125e-16,-0.614290251660711,-0.409265348992281,0.113467409781889,0.0460448648721239,-0.0735094939585388,-0.587995279200006,0.604969441083092,-0.0482955274595028,-0.159376015836388,-0.00850335451990488,-0.0735094939585388,-0.587995279200006,0.604969441083092,-0.0482955274595028,-0.159376015836388,-0.00850335451990488,1.46156684813462,5.00000000000002,1.46156684813462,5.00000000000002,0.860977093157063,9.41235033674742,0.860977093157063,9.41235033674742,1.05633335618434,8.35065070847816,1.05633335618434,8.35065070847816,1.58453029507569,5.00000000000013,1.58453029507569,5.00000000000013
77,3,0.200035141873687,0.149988694970547,0.686058864059837,0.2,0.15,0.69,0.00394130882497435,3,0.0300865534198289,0,-8.88178419700125e-16,5.32907051820075e-15,-0.61597014046841,-0.409302018218239,0.113007474536671,0.0461653589084238,-0.074113459075996,-0.587965740926988,0.605554360900068,-0.0483994000945596,-0.159345774639815,-0.00851308389762928,-0.074113459075996,-0.587965740926988,0.605554360900068,-0.0483994000945596,-0.159345774639815,-0.00851308389762928,1.46183608212274,5,1.46183608212274,5,0.86136351943738,9.4118254296188,0.86136351943738,9.4118254296188,1.05589367313483,8.35474747605455,1.05589367313483,8.35474747605455,1.58427556546977,5,1.58427556546977,5
78,3,0.200031119093711,0.14998999883792,0.686295115741203,0.2,0.15,0.69,0.00370502844689685,3,0.0301635394288095,0,0,3.5527136788005e-15,-0.617624517477157,-0.409330930284414,0.112549071345464,0.0462843292331832,-0.0747171656692938,-0.587920718040052,0.606126957708632,-0.0485020871953108,-0.159314548616331,-0.00852248493526281,-0.0747171656692938,-0.587920718040052,0.606126957708632,-0.0485020871953108,-0.159314548616331,-0.00852248493526281,1.46209782283633,5,1.46209782283633,5,0.86175253000965,9.41116448372944,0.86175253000965,9.41116448372944,1.05545879994921,8.35868215349206,1.05545879994921,8.35868215349206,1.58401575085443,5,1.58401575085443,5
79,3,0.200027585670736,0.149991142401785,0.686517193829798,0.2,0.15,0.69,0.0034829266781651,3,0.030239643126371,0,-8.88178419700125e-16,1.77635683940025e-15,-0.619253853047914,-0.409352582472799,0.11209218761613,0.0464017899043605,-0.0753206117974196,-0.587861138068013,0.606687978676902,-0.0486036591854885,-0.159282399306469,-0.00853157765081589,-0.0753206117974196,-0.587861138068013,0.606687978676902,-0.0486036591854885,-0.159282399306469,-0.00853157765081589,1.46235251009264,5,1.46235251009264,5,0.862143878586172,9.4103760246361,0.862143878586172,9.4103760246361,1.05502851653973,8.36246407908013,1.05502851653973,8.36246407908013,1.58375123270754,5,1.58375123270754,5
80,3,0.200024482212438,0.149992145137063,0.686725948774377,0.2,0.15,0.69,0.00327415218119158,3,0.0303148676873494,0,0,-8.88178419700125e-16,-0.620858591238869,-0.40936743667661,0.111636810163208,0.0465177543874248,-0.0759237950744796,-0.587787872737619,0.607238125271618,-0.0487041821450909,-0.15924938444213,-0.00854038085000931,-0.0759237950744796,-0.587787872737619,0.607238125271618,-0.0487041821450909,-0.15924938444213,-0.00854038085000931,1.46260055310479,5,1.46260055310479,5,0.862537337918334,9.40946798667352,0.862537337918334,9.40946798667352,1.0546026171142,8.3661019560381,1.0546026171142,8.3661019560381,1.58348236449393,5,1.58348236449393,5
81,3,0.200021756529983,0.149993024169172,0.686922179980608,0.2,0.15,0.69,0.00307790481993532,3,0.0303892163163423,0,1.77635683940025e-15,-8.88178419700125e-16,-0.622439152299435,-0.40937592220093,0.111182925348542,0.0466322356421347,-0.0765267127502575,-0.587701741339025,0.607778056110859,-0.0488037180831503,-0.159215558196011,-0.00854891220046123,-0.0765267127502575,-0.587701741339025,0.607778056110859,-0.0488037180831503,-0.159215558196011,-0.00854891220046123,1.46284233286048,5,1.46284233286048,5,0.862932698189425,9.40844775812828,0.862932698189425,9.40844775812828,1.05418090911671,8.3696039003119,1.05418090911671,8.3696039003119,1.58320947393273,5,1.58320947393273,5
82,3,0.200019362764728,0.149993794556516,0.687106638876341,0.2,0.15,0.69,0.00289343256636223,3,0.030462692270582,0,-8.88178419700125e-16,4.44089209850063e-15,-0.623995934896377,-0.409378438313768,0.110730519201933,0.0467452461973749,-0.0771293617797401,-0.587603513887171,0.608308389631984,-0.0489023251927428,-0.159180971413404,-0.0085571883012409,-0.0771293617797401,-0.587603513887171,0.608308389631984,-0.0489023251927428,-0.159180971413404,-0.0085571883012409,1.46307820429238,5,1.46307820429238,5,0.863329765559137,9.40732222257338,0.863329765559137,9.40732222257338,1.05376321225789,8.37297748436933,1.05376321225789,8.37297748436933,1.58293286505874,5,1.58293286505874,5
83,3,0.200017260620763,0.149994469539051,0.687280031792586,0.2,0.15,0.69,0.00272002859624145,3,0.0305352988781092,0,1.77635683940025e-15,1.77635683940025e-15,-0.625529318101919,-0.409375356572347,0.110279577524363,0.0468567982155625,-0.0777317388830001,-0.587493914091592,0.608829706587538,-0.0490000580894681,-0.159145671827771,-0.00856522474808935,-0.0777317388830001,-0.587493914091592,0.608829706587538,-0.0490000580894681,-0.159145671827771,-0.00856522474808935,1.46330849826043,5,1.46330849826043,5,0.863728360843947,9.40609779672257,0.863728360843947,9.40609779672257,1.05334935762601,8.37622977736312,1.05334935762601,8.37622977736312,1.58265282009864,5,1.58265282009864,5
84,3,0.200015414690451,0.149995060757019,0.68744302267131,0.2,0.15,0.69,0.00255702856226448,3,0.0306070395519252,0,-1.77635683940025e-15,8.88178419700125e-16,-0.62703966317032,-0.409367022946741,0.109830085976051,0.0469669035479536,-0.0783338405966547,-0.587373622146392,0.609342552380921,-0.0490969680345359,-0.159109704261343,-0.00857303619458653,-0.0783338405966547,-0.587373622146392,0.609342552380921,-0.0490969680345359,-0.159109704261343,-0.00857303619458653,1.46353352336455,5,1.46353352336455,5,0.864128318319338,9.40478046512763,0.864128318319338,9.40478046512763,1.0529391868714,8.37936738199454,1.0529391868714,8.37936738199454,1.58236960118041,5,1.58236960118041,5
85,3,0.200013793861727,0.149995578443417,0.687596235610493,0.2,0.15,0.69,0.00240380803331855,3,0.0306779178007155,0,0,4.44089209850063e-15,-0.628527315126508,-0.409353759760608,0.109382030151293,0.0470755737820182,-0.0789356633179728,-0.5872432773514,0.609847439252697,-0.0491931031435102,-0.159073110811903,-0.00858063640952561,-0.0789356633179728,-0.5872432773514,0.609847439252697,-0.0491931031435102,-0.159073110811903,-0.00858063640952561,1.46375356760373,5,1.46375356760373,5,0.864529484631388,9.40337581200997,0.864529484631388,9.40337581200997,1.05253255145714,8.38239646837769,1.05253255145714,8.38239646837769,1.58208345189263,5,1.58208345189263,5
86,3,0.200012370797221,0.149996031593358,0.687740257256225,0.2,0.15,0.69,0.00225978008950354,3,0.0307479372366585,0,-8.88178419700125e-16,0,-0.629992604187626,-0.409335867466688,0.108935395641811,0.0471828202819062,-0.079537203342572,-0.587103480574802,0.610344848327639,-0.0492885085816826,-0.159035931026792,-0.00858803833073685,-0.079537203342572,-0.587103480574802,0.610344848327639,-0.0492885085816826,-0.159035931026792,-0.00858803833073685,1.46396889989645,5.00000000000001,1.46396889989645,5.00000000000001,0.864931717806643,9.40188905048894,0.864931717806643,9.40188905048894,1.05212931197,8.38532280517531,1.05212931197,8.38532280517531,1.58179459870823,5.00000000000011,1.58179459870823,5.00000000000011
87,3,0.200011121476527,0.149996428113089,0.687875639051079,0.2,0.15,0.69,0.00212439306318692,3,0.0308171015807633,0,-3.5527136788005e-15,-1.77635683940025e-15,-0.631435847035972,-0.409313626272845,0.108490168090112,0.0472886542229044,-0.0801384568965302,-0.586954796566937,0.610835231531845,-0.0493832267469776,-0.158998202065115,-0.00859525411558765,-0.0801384568965302,-0.586954796566937,0.610835231531845,-0.0493832267469776,-0.158998202065115,-0.00859525411558765,1.46417977147519,5.00000000000001,1.46417977147519,5.00000000000001,0.865334886350394,9.40032504944242,0.865334886350394,9.40032504944242,1.05172933748605,8.38815178825001,1.05172933748605,8.38815178825001,1.58150325228591,5.00000000000011,1.58150325228591,5.00000000000011
88,3,0.200010024793947,0.149996774951113,0.688002899347385,0.2,0.15,0.69,0.00199712841702984,3,0.0308854146661283,0,8.88178419700125e-16,-5.32907051820075e-15,-0.632857347959945,-0.409287297632779,0.108046333234163,0.0473930866206722,-0.0807394201636385,-0.586797756134308,0.611319013388599,-0.0494772974412234,-0.158959958849009,-0.00860229518836966,-0.0807394201636385,-0.586797756134308,0.611319013388599,-0.0494772974412234,-0.158959958849009,-0.00860229518836966,1.46438641716687,5.00000000000001,1.46438641716687,5.00000000000001,0.865738868424588,9.39868835821503,0.865738868424588,9.39868835821503,1.05133250498603,8.39088846705244,1.05133250498603,8.39088846705244,1.58120960866102,5.00000000000011,1.58120960866102,5.00000000000011
89,3,0.200009062205008,0.149997078213566,0.688122525393561,0.2,0.15,0.69,0.00187749875052408,3,0.03095288043945,0,0,-1.77635683940025e-15,-0.634257399877326,-0.409257125614087,0.107603876944549,0.0474961283559464,-0.0813400893084298,-0.586632858182327,0.611796592700996,-0.0495707580305641,-0.158921234204782,-0.00860917228477004,-0.0813400893084298,-0.586632858182327,0.611796592700996,-0.0495707580305641,-0.158921234204782,-0.00860917228477004,1.4645890565698,5,1.4645890565698,5,0.866143551097508,9.39698322936313,0.866143551097508,9.39698322936313,1.05093869881595,8.39353756894418,1.05093869881595,8.39353756894418,1.58091385033631,5,1.58091385033631,5
90,3,0.200008217415816,0.149997343265726,0.688234975201115,0.2,0.15,0.69,0.001765045927119,3,0.0310195029610785,0,-1.77635683940025e-15,2.66453525910038e-15,-0.635636285254102,-0.409223338155007,0.107162785255098,0.0475977901953188,-0.0819404604955396,-0.586460571634765,0.612268344128812,-0.0496636435957323,-0.15888205899467,-0.00861589549361094,-0.0819404604955396,-0.586460571634765,0.612268344128812,-0.0496636435957323,-0.15888205899467,-0.00861589549361094,1.46478789513643,5,1.46478789513643,5,0.866548829658247,9.39521363961327,0.866548829658247,9.39521363961327,1.05054781018906,8.39610352163691,1.05054781018906,8.39610352163691,1.58061614728218,5,1.58061614728218,5
91,3,0.200007476110088,0.149997574821328,0.688340679299517,0.2,0.15,0.69,0.00165933931453576,3,0.0310852864038663,0,1.77635683940025e-15,3.5527136788005e-15,-0.636994276930087,-0.409186148220055,0.106723044387867,0.0476980828086174,-0.082540529905889,-0.586281337237402,0.612734619666541,-0.0497559870728491,-0.158842462239872,-0.00862247429602881,-0.082540529905889,-0.586281337237402,0.612734619666541,-0.0497559870728491,-0.158842462239872,-0.00862247429602881,1.46498312517042,5,1.46498312517042,5,0.866954606989726,9.39338330918776,0.866954606989726,9.39338330918776,1.05015973672545,8.39859047390908,1.05015973672545,8.39859047390907,1.58031665785457,5,1.58031665785457,5
92,3,0.200006825709259,0.149997777021145,0.688440042385671,0.2,0.15,0.69,0.0015599741313384,3,0.0311502350510286,0,0,8.88178419700125e-16,-0.638331638861699,-0.409145754863699,0.106284640773254,0.0477970167833527,-0.0831402937501148,-0.586095569252894,0.613195750029045,-0.0498478193853755,-0.158802471235509,-0.0086289176022543,-0.0831402937501148,-0.586095569252894,0.613195750029045,-0.0498478193853755,-0.158802471235509,-0.0086289176022543,1.4651749267458,5.00000000000001,1.4651749267458,5.00000000000001,0.867360792994655,9.39149571964212,0.867360792994655,9.39149571964212,1.04977438202615,8.40100231474898,1.04977438202615,8.40100231474898,1.58001552963844,5.00000000000011,1.58001552963844,5.00000000000011
93,3,0.200006255161691,0.14999795350212,0.688533444874326,0.2,0.15,0.69,0.00146656989326894,3,0.0312143532932016,0,1.77635683940025e-15,-8.88178419700125e-16,-0.639648626790787,-0.409102344210321,0.1058475610659,0.0478946026366349,-0.0837397482796222,-0.585903657053462,0.613652045950818,-0.0499391695677882,-0.158762111658054,-0.00863523378614261,-0.0837397482796222,-0.585903657053462,0.613652045950818,-0.0499391695677882,-0.158762111658054,-0.00863523378614261,1.46536346855491,5,1.46536346855491,5,0.867767304069454,9.38955413033933,0.867767304069454,9.38955413033933,1.04939165527871,8.40334269105616,1.04939165527871,8.40334269105616,1.57971290022329,5,1.57971290022329,5
94,3,0.200005754757433,0.149998107458197,0.688621244355393,0.2,0.15,0.69,0.0013787689532639,3,0.0312776456248579,0,0,-3.5527136788005e-15,-0.640945488847717,-0.409056090357859,0.105411792156974,0.0479908508249143,-0.0843388897955862,-0.58570596661759,0.614103799404442,-0.0500300648815221,-0.158721407665782,-0.00864143071759482,-0.0843388897955862,-0.58570596661759,0.614103799404442,-0.0500300648815221,-0.158721407665782,-0.00864143071759482,1.46554890869139,5.00000000000001,1.46554890869139,5.00000000000001,0.868174062621646,9.38756159368096,0.868174062621646,9.38756159368096,1.04901147089166,8.4056150240239,1.04901147089166,8.4056150240239,1.57940889791714,5.00000000000011,1.57940889791714,5.00000000000011
95,3,0.200005315965443,0.149998241693821,0.68870377696375,0.2,0.15,0.69,0.00129623512945554,3,0.0313401166402185,0,0,8.88178419700125e-16,-0.642222466095527,-0.409007156211836,0.104977321183348,0.0480857717518538,-0.0849377146561874,-0.585502841936536,0.614551284743436,-0.0501205309236758,-0.158680381992718,-0.00864751579300124,-0.0849377146561874,-0.585502841936536,0.614551284743436,-0.0501205309236758,-0.158680381992718,-0.00864751579300124,1.46573139537388,5,1.46573139537388,5,0.868580996626698,9.38552096919371,0.868580996626698,9.38552096919371,1.04863374815546,8.40782252430948,1.04863374815546,8.40782252430948,1.57910364240419,5,1.57910364240419,5
96,3,0.20000493129055,0.149998358671014,0.688781358666806,0.2,0.15,0.69,0.00121865241580844,3,0.0314017710287754,0,8.88178419700125e-16,0,-0.643479793021872,-0.408955694255785,0.104544135534116,0.0481793757746034,-0.0855362192823314,-0.585294606336129,0.614994759774341,-0.050210591728949,-0.158639056036529,-0.00865349596382977,-0.0855362192823314,-0.585294606336129,0.614994759774341,-0.050210591728949,-0.158639056036529,-0.00865349596382977,1.46591106761533,5.00000000000001,1.46591106761533,5.00000000000001,0.86898803922072,9.38343493657505,0.86898803922072,9.38343493657505,1.04825841092774,8.40996820609573,1.04825841092774,8.40996820609573,1.57879724535141,5.00000000000011,1.57879724535141,5.00000000000011
97,3,0.200004594147767,0.149998460550787,0.688854286474759,0.2,0.15,0.69,0.00114572377038202,3,0.0314626135705289,0,-8.88178419700125e-16,-8.88178419700125e-16,-0.644717697983916,-0.408901847263524,0.104112222854838,0.0482716732087084,-0.0861344001620698,-0.585081563718955,0.615434466762551,-0.0503002698652439,-0.158597449940788,-0.00865937776347397,-0.0861344001620698,-0.585081563718955,0.615434466762551,-0.0503002698652439,-0.158597449940788,-0.00865937776347397,1.46608805584274,5,1.46608805584274,5,0.869395128325766,9.381306007775,0.869395128325766,9.381306007775,1.04788538734089,8.41205490012987,1.04788538734089,8.41205490012987,1.5784898109683,5,1.5784898109683,5
98,3,0.200004298751835,0.149998549229559,0.688922839578196,0.2,0.15,0.69,0.00107716997651406,3,0.0315226491310214,0,0,8.88178419700125e-16,-0.645936403611616,-0.408845748958199,0.103681571049845,0.0483626743318588,-0.0867322538539116,-0.584863999731763,0.615870633376118,-0.0503895865233384,-0.15855558267197,-0.00866516733246872,-0.0867322538539116,-0.584863999731763,0.615870633376118,-0.0503895865233384,-0.15855558267197,-0.00866516733246872,1.46626248247113,5,1.46626248247113,5,0.869802206304823,9.37913653820164,0.869802206304823,9.37913653820163,1.0475146095302,8.41408526582622,1.0475146095302,8.41408526582622,1.57818143652397,5,1.57818143652397,5
99,3,0.200004040020179,0.1499986263712,0.688987280417405,0.2,0.15,0.69,0.00101272857251652,3,0.0315818826562415,0,1.77635683940025e-15,-1.77635683940025e-15,-0.647136127173382,-0.408787524622549,0.103252168282918,0.0484523893866539,-0.0873297769891912,-0.584642182862592,0.616303473571438,-0.0504785616010055,-0.158513472091568,-0.00867087044217385,-0.0873297769891912,-0.584642182862592,0.616303473571438,-0.0504785616010055,-0.158513472091568,-0.00867087044217385,1.46643446243582,5,1.46643446243582,5,0.870209219643874,9.37692873711331,0.870209219643874,9.37692873711331,1.04714601338091,8.41606180250371,1.04714601338091,8.41606180250371,1.57787221282516,5,1.57787221282516,5
100,3,0.200003813487622,0.149998693435213,0.689047855687491,0.2,0.15,0.69,0.000952152845735499,3,0.031640319167458,0,-2.66453525910038e-15,1.77635683940025e-15,-0.648317080908376,-0.408727291664426,0.102824002976576,0.0485408285825375,-0.0879269662736347,-0.584416365471877,0.616733188424514,-0.0505672137819347,-0.158471135023623,-0.00867649251702045,-0.0879269662736347,-0.584416365471877,0.616733188424514,-0.0505672137819347,-0.158471135023623,-0.00867649251702045,1.4666041036862,5.00000000000001,1.4666041036862,5.00000000000001,0.870616118658646,9.37468467726868,0.870616118658646,9.37468467726868,1.04677953829278,8.41798685982924,1.04677953829278,8.41798685982924,1.57756222465848,5.00000000000011,1.57756222465848,5.00000000000011
101,3,0.20000361523145,0.149998751701516,0.689104797283168,0.2,0.15,0.69,0.000895210887094027,3,0.0316979637560358,0,3.5527136788005e-15,-3.5527136788005e-15,-0.649479472328748,-0.408665160141238,0.102397063810218,0.0486280020970376,-0.0885238184882514,-0.584186784761501,0.617159966911199,-0.0506555606097822,-0.158428587318005,-0.00868203865540795,-0.0885238184882514,-0.584186784761501,0.617159966911199,-0.0506555606097822,-0.158428587318005,-0.00868203865540795,1.46677150764425,5.00000000000001,1.46677150764425,5.00000000000001,0.871022857223934,9.37240630388942,0.871022857223934,9.37240630388942,1.04641512696065,8.41986264752713,1.04641512696065,8.41986264752713,1.57725155119991,5.00000000000011,1.57725155119991,5.00000000000011
102,3,0.20000344180557,0.149998802292247,0.689158323186829,0.2,0.15,0.69,0.000841684702462616,3,0.0317548215782744,0,-8.88178419700125e-16,-8.88178419700125e-16,-0.650623504495032,-0.408601233246626,0.10197133971729,0.0487139200764245,-0.0891203304896572,-0.583953663685563,0.61758398663964,-0.0507436185576588,-0.158385843909697,-0.00868751364933503,-0.0891203304896572,-0.583953663685563,0.61758398663964,-0.0507436185576588,-0.158385843909697,-0.00868751364933503,1.46693676963038,5.00000000000001,1.46693676963038,5.00000000000001,0.871429392523545,9.3700954429927,0.871429392523545,9.3700954429927,1.04605272517001,8.4216912444129,1.04605272517001,8.4216912444129,1.57694026639416,5.00000000000011,1.57694026639416,5.00000000000011
103,3,0.200003290182647,0.149998846190928,0.689208638303325,0.2,0.15,0.69,0.000791369377434406,3,0.0318108978503046,0,8.88178419700125e-16,-2.66453525910038e-15,-0.651749376267351,-0.408535607762406,0.101546819881667,0.0487985926358886,-0.0897164992099238,-0.583717211806344,0.618005414537898,-0.0508314030933419,-0.158342918874374,-0.00869292200284174,-0.0897164992099238,-0.583717211806344,0.618005414537898,-0.0508314030933419,-0.158342918874374,-0.00869292200284174,1.46709997925952,5,1.46709997925952,5,0.87183568481913,9.36775380913919,0.87183568481913,9.36775380913919,1.04569228160622,8.42347460680171,1.04569228160622,8.42347460680171,1.5766284393065,5,1.5766284393065,5
104,3,0.200003157703265,0.149998884259327,0.689255935244636,0.2,0.15,0.69,0.000744072292282547,3,0.0318661978430729,0,1.77635683940025e-15,8.88178419700125e-16,-0.652857282535009,-0.408468374478521,0.101123493733382,0.0488820298593236,-0.0903123216560357,-0.58347762609881,0.618424407499562,-0.0509189287404801,-0.158299825480498,-0.00869826794933585,-0.0903123216560357,-0.58347762609881,0.618424407499562,-0.0509189287404801,-0.158299825480498,-0.00869826794933585,1.46726122080934,5,1.46726122080934,5,0.872241697236321,9.3653830126446,0.872241697236321,9.3653830126446,1.0453337476765,8.42521457634016,1.0453337476765,8.42521457634016,1.57631613444913,5,1.57631613444913,5
105,3,0.200003042031265,0.149998917252278,0.689300395067443,0.2,0.15,0.69,0.0006996123840779,3,0.031920726877435,0,-1.77635683940025e-15,-2.66453525910038e-15,-0.653947414426541,-0.408399618583507,0.100701350943835,0.0489642417987886,-0.0909077949090236,-0.583235091706729,0.618841112989953,-0.0510062091360419,-0.15825657623817,-0.00870355546787143,-0.0909077949090236,-0.583235091706729,0.618841112989953,-0.0510062091360419,-0.15825657623817,-0.00870355546787143,1.46742057356321,5,1.46742057356321,5,0.872647395566742,9.36298456629259,0.872647395566742,9.36298456629259,1.04497707734375,8.4269128873035,1.04497707734375,8.4269128873035,1.5760034120842,5,1.5760034120842,5
106,3,0.200002941114486,0.149998945830718,0.689342187966449,0.2,0.15,0.69,0.000657819453127032,3,0.0319744903193773,0,-1.77635683940025e-15,0,-0.655019959502258,-0.408329420027755,0.100280381420587,0.0490452384737137,-0.0915029161228359,-0.582989782653323,0.619255669615378,-0.0510932570842423,-0.158213182944937,-0.0087087882984437,-0.0915029161228359,-0.582989782653323,0.619255669615378,-0.0510932570842423,-0.158213182944937,-0.0087087882984437,1.46757811212938,5,1.46757811212938,5,0.873052748084583,9.3605598915895,0.873052748084583,9.3605598915895,1.0446222269712,8.42857117339933,1.0446222269712,8.42857117339933,1.5756903285054,5,1.5756903285054,5
107,3,0.20000285315028,0.149998970573144,0.689381473926075,0.2,0.15,0.69,0.000618533511065784,3,0.0320274935753819,0,-8.88178419700125e-16,-1.77635683940025e-15,-0.656075101931005,-0.408257853861657,0.0998605753018291,0.0491250298699035,-0.0920976825229997,-0.582741862509204,0.619668207657725,-0.0511800846071677,-0.158169656728765,-0.0087139699563602,-0.0920976825229997,-0.582741862509204,0.619668207657725,-0.0511800846071677,-0.158169656728765,-0.0087139699563602,1.46773390673852,5.00000000000001,1.46773390673852,5.00000000000001,0.87345772537657,9.35811032459331,0.87345772537657,9.35811032459331,1.04426915517732,8.43019097411331,1.04426915517732,8.43019097411331,1.57537693629958,5.00000000000011,1.57537693629958,5.00000000000011
108,3,0.200002776555214,0.149998991985686,0.689418403333062,0.2,0.15,0.69,0.000581604168094922,3,0.0320797420879444,0,0,-8.88178419700125e-16,-0.657113022652614,-0.408184990550539,0.099441922950624,0.0492036259383847,-0.092692091405115,-0.582491485020155,0.62007884957654,-0.0512667029923039,-0.15812600808835,-0.00871910374574438,-0.092692091405115,-0.582491485020155,0.62007884957654,-0.0512667029923039,-0.15812600808835,-0.00871910374574438,1.46788802352106,5,1.46788802352106,5,0.873862300184248,9.3556371213482,0.873862300184248,9.3556371213482,1.04391782270005,8.43177374063018,1.04391782270005,8.43177374063018,1.5750632845902,5,1.5750632845902,5
109,3,0.200002709938439,0.149999010510964,0.689453117552298,0.2,0.15,0.69,0.000546890057013168,3,0.0321312413312537,0,-8.88178419700125e-16,2.66453525910038e-15,-0.658133899527598,-0.408110896268129,0.0990244149489653,0.0492810365941382,-0.0932861401332214,-0.582238794697179,0.620487710480588,-0.0513531228371597,-0.158082246930943,-0.00872419277222462,-0.0932861401332214,-0.582238794697179,0.620487710480588,-0.0513531228371597,-0.158082246930943,-0.00872419277222462,1.46804052476587,5,1.46804052476587,5,0.874266447257605,9.35314146295612,0.874266447257605,9.35314146295612,1.04356819226983,8.43332084136223,1.04356819226983,8.43332084136223,1.57474941926382,5,1.57474941926382,5
110,3,0.200002652078304,0.149999026535867,0.689485749468099,0.2,0.15,0.69,0.000514258291826087,3,0.0321819968070378,0,8.88178419700125e-16,8.88178419700125e-16,-0.659137907475078,-0.408035633170149,0.0986080420917318,0.0493572717147483,-0.09387982613807,-0.581983927371088,0.620894898570797,-0.0514393540911659,-0.158038382607838,-0.00872923995485794,-0.09387982613807,-0.581983927371088,0.620894898570797,-0.0514393540911659,-0.158038382607838,-0.00872923995485794,1.46819146916162,5.00000000000001,1.46819146916162,5.00000000000001,0.874670143219134,9.3506244603075,0.874670143219134,9.3506244603075,1.04322022849075,8.43483356711115,1.04322022849075,8.43483356711115,1.57443538318099,5.0000000000001,1.57443538318099,5.0000000000001
111,3,0.200002601901796,0.149999040398398,0.689516423993009,0.2,0.15,0.69,0.000483583958858361,3,0.0322320140405812,0,8.88178419700125e-16,-1.77635683940025e-15,-0.660125218600248,-0.407959259649499,0.0981927953805794,0.0494323411389993,-0.0944731469153259,-0.581727010713765,0.62130051555632,-0.0515254060950189,-0.157994423947685,-0.00873424803733512,-0.0944731469153259,-0.581727010713765,0.62130051555632,-0.0515254060950189,-0.157994423947685,-0.00873424803733512,1.46834091202214,5,1.46834091202214,5,0.875073366437535,9.34808715849918,0.875073366437535,9.34808715849918,1.04287389772927,8.4363131358912,1.04287389772927,8.4363131358912,1.57412121637272,5,1.57412121637272,5
112,3,0.200002558466485,0.149999052393683,0.689545258546063,0.2,0.15,0.69,0.000454749638413386,3,0.0322812985769134,0,0,2.66453525910038e-15,-0.661096002312359,-0.407881830574381,0.0977786660178144,0.0495062546654416,-0.0950661000237276,-0.581468164728102,0.621704657045389,-0.0516112876176252,-0.15795037928776,-0.00873921959851067,-0.0950661000237276,-0.581468164728102,0.621704657045389,-0.0516112876176252,-0.15795037928776,-0.00873921959851067,1.46848890549687,5,1.46848890549687,5,0.875476096910304,9.34553054096187,0.875476096910304,9.34553054096187,1.04252916800999,8.43776069743746,1.04252916800999,8.43776069743746,1.57380695622357,5,1.57380695622357,5
113,3,0.200002520944657,0.149999062779252,0.689572363502358,0.2,0.15,0.69,0.000427644955144215,3,0.0323298559771699,0,0,8.88178419700125e-16,-0.662050425433906,-0.407803397510588,0.097365645400284,0.0495790220509483,-0.0956586830832215,-0.581207502208504,0.622107412912491,-0.0516970068907968,-0.157906256503312,-0.00874415706229863,-0.0956586830832215,-0.581207502208504,0.622107412912491,-0.0516970068907968,-0.157906256503312,-0.00874415706229863,1.46863549876747,5,1.46863549876747,5,0.875878316154535,9.34295553331421,0.875878316154535,9.34295553331421,1.04218600891797,8.43917733741967,1.04218600891797,8.43917733741967,1.57349263764233,5,1.57349263764233,5
114,3,0.200002488609372,0.14999907177968,0.689597842615646,0.2,0.15,0.69,0.000402166155413217,3,0.032377691815124,0,-8.88178419700125e-16,0,-0.662988652302069,-0.4077240089291,0.0969537251133153,0.0496506530092789,-0.096250893773087,-0.580945129173726,0.62250886764333,-0.0517825716418343,-0.157862063035126,-0.00874906270697263,-0.096250893773087,-0.580945129173726,0.62250886764333,-0.0517825716418343,-0.157862063035126,-0.00874906270697263,1.46878073823161,5,1.46878073823161,5,0.87628000710531,9.34036300696698,0.87628000710531,9.34036300696698,1.04184439150721,8.44056408138407,1.04184439150721,8.44056408138407,1.57317829322132,5,1.57317829322132,5
115,3,0.20000246082222,0.149999079590662,0.689621793415574,0.2,0.15,0.69,0.000378215710015497,3,0.0324248116738872,0,0,-2.66453525910038e-15,-0.663910844862928,-0.407643710400028,0.0965428969247261,0.0497211572096636,-0.0968427298300691,-0.580681145273709,0.622909100658919,-0.0518679891241278,-0.157817805915396,-0.00875393867390626,-0.0968427298300691,-0.580681145273709,0.622909100658919,-0.0518679891241278,-0.157817805915396,-0.00875393867390626,1.46892466767479,5.00000000000001,1.46892466767479,5.00000000000001,0.876681154021108,9.33775378249221,0.876681154021108,9.33775378249221,1.04150428821483,8.44192189844089,1.04150428821483,8.44192189844089,1.5728639533849,5.0000000000001,1.5728639533849,5.0000000000001
116,3,0.200002437022556,0.149999086382595,0.689644307581081,0.2,0.15,0.69,0.00035570194074811,3,0.0324712211427767,0,0,2.66453525910038e-15,-0.664817162759166,-0.407562544773875,0.0961331527789305,0.0497905442754189,-0.0974341890465259,-0.580415644171976,0.623308186620085,-0.051953266145899,-0.157773491792023,-0.00875878697578761,-0.0974341890465259,-0.580415644171976,0.623308186620085,-0.051953266145899,-0.157773491792023,-0.00875878697578761,1.46906732843106,5,1.46906732843106,5,0.877081742395721,9.33512863277367,0.877081742395721,9.33512863277367,1.04116567278051,8.44325170471476,1.04116567278051,8.44325170471476,1.57254964652826,5,1.57254964652826,5
117,3,0.200002416718051,0.149999092303722,0.689665471291402,0.2,0.15,0.69,0.000334538669386497,3,0.0325169258143432,0,1.77635683940025e-15,2.66453525910038e-15,-0.66570776341189,-0.407480552350984,0.0957244847911533,0.049858823782605,-0.0980252692686039,-0.580148713905062,0.623706195713583,-0.0520384090971954,-0.157729126951439,-0.00876360950433979,-0.0980252692686039,-0.580148713905062,0.623706195713583,-0.0520384090971954,-0.157729126951439,-0.00876360950433979,1.46920875953339,5.00000000000001,1.46920875953339,5.00000000000001,0.877481758876175,9.33248828595631,0.877481758876175,9.33248828595631,1.04082852017104,8.44455436657563,1.04082852017104,8.44455436657563,1.57223539914691,5.0000000000001,1.57223539914691,5.0000000000001
118,3,0.200002399476384,0.149999097482889,0.689685365556001,0.2,0.15,0.69,0.000314644887730246,3,0.0325619312815591,0,1.77635683940025e-15,0,-0.66658280209688,-0.407397771040021,0.0953168852417702,0.0499260052587299,-0.0986159683944462,-0.579880437220352,0.624103193920933,-0.0521234239752471,-0.157684717340035,-0.00876840803757718,-0.0986159683944462,-0.579880437220352,0.624103193920933,-0.0521234239752471,-0.157684717340035,-0.00876840803757718,1.46934899785436,5.00000000000001,1.46934899785436,5.00000000000001,0.877881191186246,9.32983342820313,0.877881191186246,9.32983342820313,1.04049280650938,8.44583070366245,1.04049280650938,8.44583070366245,1.5719212359577,5.0000000000001,1.5719212359577,5.0000000000001
119,3,0.200002384917947,0.149999102031973,0.689704066524718,0.2,0.15,0.69,0.000295944447443116,3,0.0326062431351587,0,-8.88178419700125e-16,-8.88178419700125e-16,-0.667442432016008,-0.407314236506222,0.0949103465707822,0.0499920981815079,-0.0992062843724408,-0.579610891893632,0.624499243271039,-0.0522083164082833,-0.157640268584301,-0.00877318424662567,-0.0992062843724408,-0.579610891893632,0.624499243271039,-0.0522083164082833,-0.157640268584301,-0.00877318424662567,1.46948807823794,5,1.46948807823794,5,0.87828002805514,9.32716470627892,0.87828002805514,9.32716470627892,1.04015850900817,8.44708149171644,1.04015850900817,8.44708149171644,1.57160718001191,5,1.57160718001191,5
120,3,0.200002372709429,0.149999106048006,0.689721645779304,0.2,0.15,0.69,0.000278365768512251,3,0.0326498669611277,0,0,-1.77635683940025e-15,-0.668286804364051,-0.407229982310115,0.0945048613724331,0.0500571119776746,-0.0997962151995133,-0.57934015102757,0.62489440207757,-0.0522930916779054,-0.15759578600973,-0.00877793970213288,-0.0997962151995133,-0.57934015102757,0.62489440207757,-0.0522930916779054,-0.15759578600973,-0.00877793970213288,1.46962603362281,5.00000000000001,1.46962603362281,5.00000000000001,0.87867825915098,9.32448272996801,0.87867825915098,9.32448272996801,1.03982560590727,8.44830746523475,1.03982560590727,8.44830746523475,1.57129325280093,5.0000000000001,1.57129325280093,5.0000000000001
121,3,0.200002362558193,0.149999109615043,0.689738170607461,0.2,0.15,0.69,0.000261841565195248,3,0.0326928083383367,0,8.88178419700125e-16,8.88178419700125e-16,-0.669116068391245,-0.407145040037373,0.0941004223899773,0.0501210560218638,-0.100385758919468,-0.579068283332272,0.625288725162032,-0.0523777547401026,-0.157551274658593,-0.0087826758802934,-0.100385758919468,-0.579068283332272,0.625288725162032,-0.0523777547401026,-0.157551274658593,-0.0087826758802934,1.46976289515795,5,1.46976289515795,5,0.879075875018749,9.32178807433739,0.879075875018749,9.32178807433739,1.03949407641506,8.44950931995633,1.03949407641506,8.44950931995633,1.57097947435512,5,1.57097947435512,5
